mathias31415/primitives_from_planned_trajectory_python/data/saved_trajectories/planned_trajectory_20250616_102206_ompl_with_obstacle.csv
time_from_start,shoulder_pan_joint_pos,shoulder_lift_joint_pos,elbow_joint_pos,wrist_1_joint_pos,wrist_2_joint_pos,wrist_3_joint_pos,shoulder_pan_joint_vel,shoulder_lift_joint_vel,elbow_joint_vel,wrist_1_joint_vel,wrist_2_joint_vel,wrist_3_joint_vel,shoulder_pan_joint_acc,shoulder_lift_joint_acc,elbow_joint_acc,wrist_1_joint_acc,wrist_2_joint_acc,wrist_3_joint_acc,fk_x,fk_y,fk_z,fk_qx,fk_qy,fk_qz,fk_qw
0.0,-1.6006999999999998,-1.7271,-2.2029999999999994,-0.8079999999999998,1.5951,-0.030999999999999694,2.147560487386695e-05,0.00012987700539899037,0.0001531607927966443,7.193274513379405e-05,0.0005000000000000002,-0.00011616459676432023,0.02147560487386695,0.12987700539899036,0.1531607927966443,0.07193274513379405,0.5000000000000002,-0.11616459676432023,0.18963153692348164,0.6096838816511918,0.2609711486943511,0.9998434779226772,0.00039186782709176965,-0.012536274005463676,0.012478298327523958
0.1,-1.6005926219756306,-1.7264506149730052,-2.2022341960360166,-0.807640336274331,1.5976000000000001,-0.0315808229838213,0.0021475604873866963,0.012987700539899043,0.01531607927966444,0.007193274513379409,0.050000000000000044,-0.01161645967643203,0.02147560487386709,0.1298770053989889,0.15316079279664357,0.07193274513379339,0.49999999999999306,-0.11616459676431862,0.1892866108122518,0.6101052044075136,0.2618184872820175,0.9998383316079577,0.0007317342600920842,-0.013761349903244374,0.011549911741159973
0.2,-1.6002704879025225,-1.7245024598920202,-2.1999367841440667,-0.8065613450973239,1.6051,-0.033323291935286097,0.004295120974773394,0.0259754010797981,0.030632158559328895,0.014386549026758825,0.10000000000000014,-0.02323291935286407,0.02147560487386362,0.12987700539896982,0.15316079279661582,0.07193274513378124,0.49999999999991673,-0.11616459676429954,0.1882512095179513,0.6113613856208391,0.26437045616154914,0.9998080740778521,0.0017645967184753589,-0.017433894995764254,0.008761307689726005
0.30000000000000004,-1.5997335977806757,-1.7212555347570455,-2.1961077643241502,-0.804763026468979,1.6176,-0.036227406854394094,0.006442681462159998,0.03896310161969658,0.04594823783899268,0.021579823540137922,0.14999999999999802,-0.0348493790292956,0.02147560487380464,0.12987700539860553,0.15316079279619602,0.07193274513358348,0.49999999999852895,-0.11616459676398035,0.18652358814914646,0.6134287287415507,0.26865680031446193,0.9997081147055359,0.003530094448924608,-0.02354556464995562,0.004102463942490451
0.4,-1.5989819516100905,-1.716709839568081,-2.190747136576268,-0.8022453803892964,1.6350999999999998,-0.040293167741145275,0.00859024194954675,0.051950802159595966,0.06126431711865752,0.02877309805351752,0.1999999999999994,-0.04646583870572793,0.021475604873907855,0.12987700539923697,0.15316079279693848,0.0719327451339339,0.5000000000009714,-0.1161645967645424,0.18410125379501696,0.6162666250306308,0.274726695848952,0.999463696498013,0.006093782107418576,-0.032081465847719495,-0.002442284016374873
0.5,-1.5980155493907664,-1.7108653743251265,-2.1838549009004193,-0.7990084068582757,1.6575999999999995,-0.045520574595539626,0.010737802436933447,0.06493850269949501,0.07658039639832197,0.035966372566896936,0.24999999999999947,-0.05808229838215997,0.02147560487390265,0.1298770053992092,0.15316079279691072,0.07193274513391655,0.5000000000008604,-0.11616459676451464,0.18098159501183256,0.6198158952129635,0.28264809010379843,0.9989692734351866,0.009546328979079375,-0.043018694090862244,-0.01089267157841895
0.6000000000000001,-1.5968343911227036,-1.7037221390281818,-2.1754310572966036,-0.7950521058759169,1.6850999999999994,-0.05190962741757722,0.012885362924320626,0.07792620323939697,0.09189647567798985,0.04315964708027796,0.30000000000001076,-0.0696987580585946,0.021475604874325923,0.12987700540176272,0.1531607927999222,0.07193274513533209,0.5000000000107137,-0.11616459676680448,0.17716277573399908,0.6239964992491105,0.29250665511638674,0.9980877122373822,0.014002329675600687,-0.0563243160612305,-0.0212702812543478
0.7000000000000001,-1.595493652469842,-1.6956138169446338,-2.1658691103241456,-0.7905612888594113,1.7163153874299715,-0.05916187320486666,0.01349352050062798,0.08160412920634483,0.0962337642935886,0.045196676732976435,0.3141592653589903,-0.07298836876040435,4.732029460019601e-13,2.8565511172572537e-12,3.3696209781238477e-12,1.5877432180871629e-12,1.0982468373144393e-11,-2.5653493043329705e-12,0.17282352379435528,0.6285234770829726,0.3039289601283657,0.9967144441082949,0.01937074132851387,-0.07133719078361127,-0.033107348087385385
0.8,-1.5941443004197795,-1.6874534040239995,-2.156245733894787,-0.7860416211861138,1.74773131396587,-0.06646071008090697,0.01349352050062798,0.08160412920634483,0.0962337642935886,0.045196676732976435,0.3141592653589903,-0.07298836876040435,4.732029460019601e-13,2.8565511172572537e-12,3.3696209781238477e-12,1.5877432180871629e-12,1.0982468373144393e-11,-2.5653493043329705e-12,0.16845563870007352,0.6328348668330666,0.3156683471111018,0.9949290231828515,0.02510126186569031,-0.08634049861821556,-0.045071984419647826
0.9,-1.5927949483697166,-1.6792929911033652,-2.1466223574654286,-0.7815219535128162,1.7791472405017683,-0.07375954695694728,0.01349352050062798,0.08160412920634483,0.0962337642935886,0.045196676732976435,0.3141592653589903,-0.07298836876040435,4.732029460019601e-13,2.8565511172572537e-12,3.3696209781238477e-12,1.5877432180871629e-12,1.0982468373144393e-11,-2.5653493043329705e-12,0.16409129355447655,0.6368903552674037,0.32764633837078405,0.9927358137477463,0.031154335146329103,-0.10122821214190487,-0.05707767138508337
1.0,-1.5914455963196539,-1.6711325781827309,-2.13699898103607,-0.7770022858395187,1.810563167037667,-0.08105838383298757,0.013493520500624984,0.08160412920632672,0.09623376429356723,0.045196676732966394,0.3141592653589206,-0.07298836876038814,-2.520282357094409e-12,-1.5239561543035793e-11,-1.7985178636321587e-11,-8.444852574803274e-12,-5.868409868073475e-11,1.3631018195454218e-11,0.15973483667484872,0.6406796919398356,0.33985654428244716,0.9901319697413097,0.037523564633353934,-0.11599122621059382,-0.0691136747363617
1.1,-1.5900962442695912,-1.6629721652620966,-2.127375604606711,-0.7724826181662211,1.8419790935735652,-0.08835722070902781,0.013493520500628834,0.08160412920634999,0.09623376429359468,0.045196676732979287,0.3141592653590102,-0.07298836876040896,1.326008255280365e-12,8.014983231916873e-12,9.443258790545658e-12,4.437360958846712e-12,3.083965866398465e-11,-7.1691112991367186e-12,0.15539065261143056,0.6441928711033365,0.3522920830425982,0.9871149773913954,0.04420229359606309,-0.13062059704933943,-0.08116919536934271
1.2,-1.5887468922195283,-1.654811752341462,-2.117752228177352,-0.7679629504929234,1.8733950201094645,-0.09565605758506834,0.013493520500628834,0.08160412920634999,0.09623376429359468,0.045196676732979287,0.3141592653590102,-0.07298836876040896,1.326008255280365e-12,8.014983231916873e-12,9.443258790545658e-12,4.437360958846712e-12,3.083965866398465e-11,-7.1691112991367186e-12,0.15106315754374083,0.6474201569195378,0.3649455908149393,0.9836826593321031,0.05118361256719117,-0.14510754890229924,-0.09323337806526143
1.3,-1.5873975401694655,-1.6466513394208275,-2.1081288517479932,-0.7634432828196257,1.904810946645364,-0.10295489446110888,0.013493520500628834,0.08160412920634999,0.09623376429359468,0.045196676732979287,0.3141592653590102,-0.07298836876040896,1.326008255280365e-12,8.014983231916873e-12,9.443258790545658e-12,4.437360958846712e-12,3.083965866398465e-11,-7.1691112991367186e-12,0.1467567944910858,0.6503521081059368,0.37780923319148463,0.9798331784196846,0.05846036701305073,-0.15944348051021984,-0.10529532031132664
1.4,-1.5860481881194026,-1.6384909265001928,-2.098505475318634,-0.758923615146328,1.9362268731812633,-0.11025373133714943,0.013493520500628634,0.08160412920634985,0.09623376429359434,0.045196676732979224,0.3141592653590105,-0.07298836876040903,1.3381416641522114e-12,8.084316996898853e-12,9.554192814516826e-12,4.485894594334098e-12,3.117246073589815e-11,-7.238445064118698e-12,0.14247602834475265,0.6529796019503881,0.3908747179396525,0.9755650412431328,0.0660251652087557,-0.17361997141040628,-0.11734408119240959
1.5,-1.58469883606934,-1.6303305135795583,-2.0888820988892753,-0.7544039474730303,1.9676427997171628,-0.11755256821318993,0.013493520500628634,0.08160412920634985,0.09623376429359434,0.045196676732979224,0.3141592653590105,-0.07298836876040903,1.3381416641522114e-12,8.084316996898853e-12,9.554192814516826e-12,4.485894594334098e-12,3.117246073589815e-11,-7.238445064118698e-12,0.13822534073013798,0.6552938576241957,0.404133309002206,0.970877101325239,0.07387038631033677,-0.18762878805428396,-0.12936869034640375
1.6,-1.5833494840192772,-1.6221701006589238,-2.079258722459916,-0.7498842797997327,1.9990587262530626,-0.1248514050892305,0.013493520500628634,0.08160412920634985,0.09623376429359434,0.045196676732979224,0.3141592653590105,-0.07298836876040903,1.3381416641522114e-12,8.084316996898853e-12,9.554192814516826e-12,4.485894594334098e-12,3.117246073589815e-11,-7.238445064118698e-12,0.13400922470777987,0.6572864587270411,0.4175758417133441,0.9657685620101922,0.08198818861539654,-0.20146188973784052,-0.14135815697578152
1.7000000000000002,-1.582000131969214,-1.6140096877382892,-2.0696353460305574,-0.7453646121264349,2.030474652788962,-0.13215024196527106,0.013493520500628634,0.08160412920634985,0.09623376429359434,0.045196676732979224,0.3141592653590105,-0.07298836876040903,1.3381416641522114e-12,8.084316996898853e-12,9.554192814516826e-12,4.485894594334098e-12,3.117246073589815e-11,-7.238445064118698e-12,0.12983217932297247,0.6589493749990873,0.4311927391907339,0.9602389790340853,0.09037051800377724,-0.2151114343404179,-0.15330147890778653
1.8,-1.5806507799191516,-1.605849274817655,-2.0600119696011987,-0.7408449444531374,2.06189057932486,-0.1394490788413113,0.013493520500626925,0.08160412920633953,0.09623376429358216,0.0451966767329735,0.3141592653589707,-0.07298836876039978,-3.692022985289609e-13,-2.2325472324192566e-12,-2.6208163163182577e-12,-1.2341410166789678e-12,-8.597386857763596e-12,1.9968124314805772e-12,0.12569870401431088,0.6602749831379032,0.4449740298599192,0.954288262774992,0.09900911654956317,-0.22856978386750293,-0.1651876516956573
1.9,-1.579301427869089,-1.5976888618970206,-2.0503885931718404,-0.73632527677984,2.093306505860758,-0.1467479157173514,0.013493520500626925,0.08160412920633953,0.09623376429358216,0.0451966767329735,0.3141592653589707,-0.07298836876039978,-3.692022985289609e-13,-2.2325472324192566e-12,-2.6208163163182577e-12,-1.2341410166789678e-12,-8.597386857763596e-12,1.9968124314805772e-12,0.12161329289216138,0.6612560866603244,0.45890936606427657,0.9479166801795806,0.1078955312955928,-0.24182950979334888,-0.17700567775320916
2.0,-1.5779520758190262,-1.5895284489763866,-2.040765216742482,-0.7318056091065426,2.1247224323966556,-0.1540467525933915,0.013493520500626925,0.08160412920633953,0.09623376429358216,0.0451966767329735,0.3141592653589707,-0.07298836876039978,-3.692022985289609e-13,-2.2325472324192566e-12,-2.6208163163182577e-12,-1.2341410166789678e-12,-8.597386857763596e-12,1.9968124314805772e-12,0.11758042889867384,0.6618859347520301,0.47298804371057945,0.9411248563635313,0.1170211231815071,-0.2548833981994513,-0.18874457551506232
2.1,-1.5766027237689633,-1.5813680360557507,-2.0311418403131216,-0.7272859414332442,2.1561383589325596,-0.16134558946943317,0.013493520500632915,0.08160412920637575,0.09623376429362487,0.04519667673299357,0.31415926535911015,-0.07298836876043219,5.616034963540369e-12,3.395967808817374e-11,4.006104940658797e-11,1.8817183816109335e-11,1.3073574725002125e-10,-3.038205581510358e-11,0.11360457786152182,0.6621582400504253,0.4871990228972613,0.9339137758833318,0.12637707611624488,-0.26772445470509426,-0.20039338861476122
2.2,-1.5752533717189001,-1.5732076231351149,-2.021518463883761,-0.7227662737599457,2.1875542854684644,-0.16864442634547488,0.013493520500632915,0.08160412920637575,0.09623376429362487,0.04519667673299357,0.31415926535911015,-0.07298836876043219,5.616034963540369e-12,3.395967808817374e-11,4.006104940658797e-11,1.8817183816109335e-11,1.3073574725002125e-10,-3.038205581510358e-11,0.10969018245411373,0.6620671953094113,0.5015309494696212,0.9262847836773453,0.13595440618575425,-0.2803459091863642,-0.21194119507298068
2.3,-1.573904019668837,-1.565047210214479,-2.0118950874544006,-0.7182466060866474,2.2189702120043684,-0.17594326322151657,0.013493520500632915,0.08160412920637575,0.09623376429362487,0.04519667673299357,0.31415926535911015,-0.07298836876043219,5.616034963540369e-12,3.395967808817374e-11,4.006104940658797e-11,1.8817183816109335e-11,1.3073574725002125e-10,-3.038205581510358e-11,0.10584165607551113,0.6616074888977459,0.515972177443603,0.9182395856743347,0.14574397098660868,-0.29274122028025934,-0.2233771164880266
2.4,-1.5725546676187743,-1.5568867972938432,-2.00227171102504,-0.7137269384133489,2.2503861385402733,-0.18324210009755829,0.013493520500632915,0.08160412920637575,0.09623376429362487,0.04519667673299357,0.31415926535911015,-0.07298836876043219,5.616034963540369e-12,3.395967808817374e-11,4.006104940658797e-11,1.8817183816109335e-11,1.3073574725002125e-10,-3.038205581510358e-11,0.1020633766637703,0.6607743190859798,0.530510792237224,0.9097802490679673,0.15573647907607752,-0.30490407967067923,-0.2346903272207655
2.5,-1.5712053155687111,-1.548726384373207,-1.9926483345956796,-0.7092072707400505,2.281802065076177,-0.19054093697359994,0.01349352050063314,0.08160412920637584,0.096233764293625,0.045196676732993726,0.31415926535911,-0.07298836876043192,5.607368242917622e-12,3.390421107618816e-11,3.9991715641605987e-11,1.8782516933618346e-11,1.3056934621406449e-10,-3.034045555611439e-11,0.09835968045683759,0.6595634070803446,0.5451346346464395,0.9009092022561291,0.165922499529131,-0.316828416153308,-0.24587006356613822
2.6,-1.5698559635186482,-1.5405659714525715,-1.983024958166319,-0.7046876030667522,2.313217991612082,-0.1978397738496416,0.01349352050063314,0.08160412920637584,0.096233764293625,0.045196676732993726,0.31415926535911,-0.07298836876043192,5.607368242917622e-12,3.390421107618816e-11,3.9991715641605987e-11,1.8782516933618346e-11,1.3056934621406449e-10,-3.034045555611439e-11,0.0947348557155172,0.6579710087655105,0.5598313255000876,0.8916292344441913,0.17629247159276826,-0.328508399476609,-0.25690563290339713
2.7,-1.568506611468585,-1.5324055585319356,-1.9734015817369586,-0.7001679353934536,2.3446339181479865,-0.2051386107256833,0.01349352050063314,0.08160412920637584,0.096233764293625,0.045196676732993726,0.31415926535911,-0.07298836876043192,5.607368242917622e-12,3.390421107618816e-11,3.9991715641605987e-11,1.8782516933618346e-11,1.3056934621406449e-10,-3.034045555611439e-11,0.09119313642335718,0.6559939251217561,0.5745882909265939,0.8819434949117018,0.18683671442798425,-0.33993844395633777,-0.26778642281720094
2.8,-1.5671572594185221,-1.5242451456112995,-1.963778205307598,-0.6956482677201552,2.376049844683891,-0.21243744760172498,0.01349352050063314,0.08160412920637584,0.096233764293625,0.045196676732993726,0.31415926535911,-0.07298836876043192,5.607368242917622e-12,3.390421107618816e-11,3.9991715641605987e-11,1.8782516933618346e-11,1.3056934621406449e-10,-3.034045555611439e-11,0.08773869597859828,0.6536295112858423,0.5893927881633599,0.8718554919422863,0.1975454369296229,-0.351113211861213,-0.27850191018170983
2.9,-1.565807907368459,-1.5160847326906637,-1.9541548288782375,-0.6911286000468567,2.4074657712197958,-0.21973628447776664,0.01349352050063314,0.08160412920637584,0.096233764293625,0.045196676732993726,0.31415926535911,-0.07298836876043192,5.607368242917622e-12,3.390421107618816e-11,3.9991715641605987e-11,1.8782516933618346e-11,1.3056934621406449e-10,-3.034045555611439e-11,0.08437564089356211,0.6508756842287076,0.6042319318381951,0.86136909141687,0.20840874761431472,-0.3620276165675703,-0.2890416701998396
3.0,-1.5644585553183958,-1.5079243197700278,-1.944531452448877,-0.6866089323735584,2.4388816977556997,-0.2270351213538083,0.01349352050063314,0.08160412920637584,0.096233764293625,0.045196676732993726,0.31415926535911,-0.07298836876043192,5.607368242917622e-12,3.390421107618816e-11,3.9991715641605987e-11,1.8782516933618346e-11,1.3056934621406449e-10,-3.034045555611439e-11,0.08110800451705603,0.6477309290270098,0.6190927206507886,0.8504885150706508,0.21941666456664344,-0.37267682548104963,-0.299395385389848
3.1,-1.562510329514555,-1.499816779483517,-1.9348960722594988,-0.6820331171286995,2.4702976281201705,-0.23373322967883942,0.03529689219154958,0.07967914303598911,0.09667074611345834,0.04724083828024982,0.3141592653588761,-0.051117430535532006,0.39280726825731765,-0.03468034991606436,0.007872618817933021,0.03682740102473604,-1.0311323767889323e-10,0.39402453990729813,0.0775537245944998,0.6442663173519843,0.6339441377778121,0.8392161641548601,0.2305612555809648,-0.38324015748719414,-0.30932946664571487
3.2,-1.5570206393399526,-1.4920219088336624,-1.9251897133240832,-0.6771252736660949,2.5017135615530974,-0.2368788998236443,0.07479652083643515,0.07619178154204713,0.09746239521512408,0.050944101388057765,0.314159265359114,-0.011495396373048966,0.4016894931847436,-0.03546454783847701,0.008050635890304206,0.0376601485297176,1.345811288027908e-10,0.40293428992276054,0.07183672759979207,0.6408168257485715,0.6486858366434467,0.8275457327792286,0.24184351267870102,-0.39465979684250624,-0.317684466555021
3.3,-1.547484398986739,-1.484584301556317,-1.9154022533079114,-0.6718380482381154,2.533129496209265,-0.23596548026025133,0.11687845138834124,0.07247643258214717,0.09830579865093286,0.05488946660444357,0.3141592653589108,0.030716941999699765,0.4461579887381985,-0.039390603007168574,0.008941870651519442,0.04182926463458113,-6.848489604265948e-11,0.4475405890863438,0.0636775501320871,0.6373828296661225,0.6632916827432916,0.8154793294593724,0.2532566271384964,-0.40717870086812813,-0.3241296802118999
3.4,-1.5334633748577047,-1.4775551620452159,-1.9055394127316767,-0.6661369941992275,2.5644979511251678,-0.2305403024494667,0.1641141619894319,0.0674012188256148,0.09820374076075641,0.05883790660598744,0.3107259174389488,0.07904462187023617,0.45710397262129815,-0.08020182650862234,-0.037020532467198136,0.02171367681759701,-0.15118728130688042,0.5001595125352499,0.05285113297695811,0.6339255658025696,0.6777153628761464,0.8030385280258077,0.26477624435689556,-0.420991716609126,-0.32831179917405207
3.5,-1.5154654041357172,-1.4714579068339682,-1.8962699978476114,-0.6603712406796703,2.593662746859848,-0.22051893637528014,0.19175961485453527,0.05340117127160625,0.08536013712216427,0.055296392000315685,0.2668653833362438,0.11885552873653871,0.19160668173342388,-0.14866797408891436,-0.14886501464377286,-0.05194381321032299,-0.49991751407912854,0.3298844869720293,0.039846769803671744,0.6306488744735623,0.6909455940388508,0.7911199105892393,0.2755938172095114,-0.4353495175840441,-0.3296181617030598
3.6,-1.49551143420399,-1.4668340496635086,-1.8884689524717848,-0.6551122634506181,2.6178921409992015,-0.2071762333880341,0.20588584774780064,0.03897696395589931,0.07037054238151645,0.0496290061856909,0.21686645117824616,0.14679591860262495,0.09069025122527719,-0.13979669891139315,-0.15093217692639935,-0.06142558872006248,-0.5000635277810912,0.2286955403801557,0.02607122814415383,0.6278540837609882,0.7017588377886511,0.7809574427964024,0.28466016319685994,-0.4488327098064185,-0.32805984612181394
3.7,-1.4746622446091597,-1.4636065180231186,-1.8821767559991363,-0.6504683137594894,2.6371232144396193,-0.19155893151643288,0.20943951023925295,0.025562953293468416,0.055258021604608895,0.04301112512906059,0.1671587798761378,0.16405075752361054,-6.651075909764824e-11,-0.12515435359723776,-0.14505903504829223,-0.06640740431110308,-0.4748859885996123,0.13079001448568298,0.012128544597569915,0.6255695794783431,0.7101711745157958,0.7727168040508423,0.29191255646489056,-0.46108710758256566,-0.32418278692232844
3.8,-1.4537182894198408,-1.4615955103254312,-1.877282964085221,-0.6464565324754065,2.651770053085536,-0.17458401020887862,0.20943951023924973,0.016862385402557654,0.045173706147087184,0.03839456874904034,0.13414532356956746,0.17314310923416307,-6.972204810879122e-11,-5.613803078342037e-12,-1.503944775308916e-11,-1.2786995900667974e-11,-4.466092226769887e-11,-5.763504493764491e-11,-0.0015689319727600487,0.6237659408538142,0.716414811601473,0.7663284464715232,0.2974776578011347,-0.4719626476351645,-0.31858909974275396
3.9,-1.4327743383959124,-1.459909271785175,-1.8727655934705116,-0.6426170756005019,2.665184585442495,-0.15726969928545942,0.20943951023924973,0.016862385402557654,0.045173706147087184,0.03839456874904034,0.13414532356956746,0.17314310923416307,-6.972204810879122e-11,-5.613803078342037e-12,-1.503944775308916e-11,-1.2786995900667974e-11,-4.466092226769887e-11,-5.763504493764491e-11,-0.015121610492874832,0.6218439692294294,0.7220688610978084,0.7604016150733971,0.3025966176785106,-0.48237276700705467,-0.31231584079782515
4.0,-1.411830387371984,-1.458223033244919,-1.8682482228558022,-0.6387776187255971,2.678599117799454,-0.1399553883620402,0.20943951023943547,0.01686238540257261,0.04517370614712725,0.0383945687490744,0.13414532356968645,0.1731431092343166,1.1579681707775352e-10,9.325150669027853e-12,2.4977958388090956e-11,2.1228492381443563e-11,7.418536808716027e-11,9.572573841740075e-11,-0.028566185946472103,0.6195713364163828,0.7277095875229681,0.7544098968463656,0.3077286372646056,-0.49265867223020693,-0.30570611054392516
4.1,-1.3908864363480553,-1.456536794704663,-1.8637308522410927,-0.6349381618506924,2.6920136501564134,-0.12264107743862088,0.20943951023924973,0.016862385402557654,0.045173706147087184,0.03839456874904034,0.13414532356956746,0.17314310923416307,-6.972204810879122e-11,-5.613803078342037e-12,-1.503944775308916e-11,-1.2786995900667974e-11,-4.466092226769887e-11,-5.763504493764491e-11,-0.04189267043276673,0.6169526397574518,0.7333360424801479,0.7483538966190216,0.3128728711726566,-0.5028097792021471,-0.29876301283457585
4.2,-1.3699424853241269,-1.454850556164407,-1.8592134816263832,-0.6310987049757878,2.705428182513372,-0.10532676651520179,0.20943951023924973,0.016862385402557654,0.045173706147087184,0.03839456874904034,0.13414532356956746,0.17314310923416307,-6.972204810879122e-11,-5.613803078342037e-12,-1.503944775308916e-11,-1.2786995900667974e-11,-4.466092226769887e-11,-5.763504493764491e-11,-0.05509125409804367,0.6139927857977964,0.7389472831894064,0.7422342306620543,0.3180284740672903,-0.5128155893329838,-0.291489978992424
4.3,-1.3489985343001984,-1.4531643176241509,-1.8546961110116738,-0.6272592481008832,2.7188427148703314,-0.08801245559178257,0.20943951023925014,0.01686238540255767,0.04517370614708722,0.038394568749040375,0.1341453235695671,0.17314310923416334,-6.927848835939136e-11,-5.579149972920173e-12,-1.494241905790794e-11,-1.2703828447655499e-11,-4.438369742432396e-11,-5.7274652641257524e-11,-0.06815231537966852,0.6106969835683717,0.7445423728976546,0.7360515266068707,0.32319460081851353,-0.5226656995983112,-0.2838907653391789
4.4,-1.32805458327627,-1.4514780790838948,-1.8501787403969643,-0.6234197912259785,2.7322572472272904,-0.07069814466836336,0.20943951023925014,0.01686238540255767,0.04517370614708722,0.038394568749040375,0.1341453235695671,0.17314310923416334,-6.927848835939136e-11,-5.579149972920173e-12,-1.494241905790794e-11,-1.2703828447655499e-11,-4.438369742432396e-11,-5.7274652641257524e-11,-0.08106643099568388,0.6070707375095891,0.7501203812856245,0.7298064233621421,0.32837040665538164,-0.5323498125184362,-0.2759694504178368
4.5,-1.3071106322523414,-1.4497918405436385,-1.8456613697822548,-0.6195803343510737,2.745671779584249,-0.05338383374494414,0.20943951023925014,0.01686238540255767,0.04517370614708722,0.038394568749040375,0.1341453235695671,0.17314310923416334,-6.927848835939136e-11,-5.579149972920173e-12,-1.494241905790794e-11,-1.2703828447655499e-11,-4.438369742432396e-11,-5.7274652641257524e-11,-0.09382438566670312,0.6031198400450376,0.7556803848716066,0.7234995710282763,0.3335550473193225,-0.5418577460545234,-0.26773043190944196
4.6,-1.286166681228413,-1.4481056020033827,-1.8411439991675451,-0.615740877476169,2.759086311941208,-0.03606952282152491,0.20943951023925014,0.01686238540255767,0.04517370614708722,0.038394568749040375,0.1341453235695671,0.17314310923416334,-6.927848835939136e-11,-5.579149972920173e-12,-1.494241905790794e-11,-1.2703828447655499e-11,-4.438369742432396e-11,-5.7274652641257524e-11,-0.10641718155719776,0.5988503638155993,0.7612214674117312,0.7171316308098388,0.33874767921707877,-0.5511794434123058,-0.25917842324692997
4.7,-1.2652227302044845,-1.4464193634631268,-1.8366266285528359,-0.6119014206012645,2.772500844298167,-0.018755211898105695,0.20943951023925014,0.01686238540255767,0.04517370614708722,0.038394568749040375,0.1341453235695671,0.17314310923416334,-6.927848835939136e-11,-5.579149972920173e-12,-1.494241905790794e-11,-1.2703828447655499e-11,-4.438369742432396e-11,-5.7274652641257524e-11,-0.1188360474236872,0.5942686535847853,0.7667427202965892,0.7107032749259289,0.343947459573251,-0.5603049827441036,-0.2503184499288781
4.8,-1.2442787791805558,-1.4447331249228705,-1.8321092579381264,-0.6080619637263598,2.785915376655126,-0.0014409009746864654,0.20943951023925014,0.01686238540255767,0.04517370614708722,0.038394568749040375,0.1341453235695671,0.17314310923416334,-6.927848835939136e-11,-5.579149972920173e-12,-1.494241905790794e-11,-1.2703828447655499e-11,-4.438369742432396e-11,-5.7274652641257524e-11,-0.13107244745776475,0.589381317826599,0.7722432429439782,0.7042151865185292,0.3491535465824039,-0.5692245867399673,-0.24115584553627442
4.9,-1.2233348281566274,-1.4430468863826145,-1.827591887323417,-0.6042225068514551,2.799329909012085,0.015873409948732757,0.20943951023925014,0.01686238540255767,0.04517370614708722,0.038394568749040375,0.1341453235695671,0.17314310923416334,-6.927848835939136e-11,-5.579149972920173e-12,-1.494241905790794e-11,-1.2703828447655499e-11,-4.438369742432396e-11,-5.7274652641257524e-11,-0.14311808981234295,0.5841952200077027,0.7777221431875551,0.6976680595588387,0.3543650995607152,-0.5779286320988761,-0.23169624745569561
5.0,-1.202390877132699,-1.4413606478423584,-1.8230745167087075,-0.6003830499765503,2.812744441369044,0.033187720872151855,0.20943951023925014,0.01686238540255767,0.04517370614708722,0.038394568749040375,0.1341453235695671,0.17314310923416334,-6.927848835939136e-11,-5.579149972920173e-12,-1.494241905790794e-11,-1.2703828447655499e-11,-4.438369742432396e-11,-5.7274652641257524e-11,-0.15496493479996865,0.5787174695760892,0.783178537661205,0.6910625987516058,0.35958127909713655,-0.5864076588710015,-0.22194559231256497
5.1,-1.1814469261087703,-1.4396744093021026,-1.818557146093998,-0.5965435931016457,2.8261589737260024,0.05050203179557119,0.20943951023925014,0.01686238540255767,0.04517370614708722,0.038394568749040375,0.1341453235695671,0.17314310923416334,-6.927848835939136e-11,-5.579149972920173e-12,-1.494241905790794e-11,-1.2703828447655499e-11,-4.438369742432396e-11,-5.7274652641257524e-11,-0.16660520275254057,0.5729554126689136,0.7886115521789061,0.6843995194374758,0.3648012472040372,-0.5946523796621893,-0.21191011111843247
5.2,-1.160502975084842,-1.4379881707618463,-1.8140397754792885,-0.592704136226741,2.8395735060829614,0.06781634271899031,0.20943951023925045,0.016862385402557578,0.04517370614708713,0.03839456874904045,0.1341453235695669,0.1731431092341635,-6.900126351601644e-11,-5.554892799124867e-12,-1.4880043468148584e-11,-1.2655314100064888e-11,-4.421736251829901e-11,-5.705287276655759e-11,-0.17803138153225997,0.5669166225525214,0.7940203221098946,0.6776795474933656,0.3700241674673092,-0.6026536886919107,-0.2015963241364922
5.3,-1.1395590240609135,-1.4363019322215902,-1.809522404864579,-0.5888646793518364,2.8529880384399204,0.08513065364240954,0.20943951023925045,0.016862385402557578,0.04517370614708713,0.03839456874904045,0.1341453235695669,0.1731431092341635,-6.900126351601644e-11,-5.554892799124867e-12,-1.4880043468148584e-11,-1.2655314100064888e-11,-4.421736251829901e-11,-5.705287276655759e-11,-0.18923623368417092,0.5606088898081092,0.7994039927489296,0.6709034192308868,0.3752492051958969,-0.6104026706960757,-0.19101103546981438
5.4,-1.118615073036985,-1.4346156936813346,-1.8050050342498696,-0.5850252224769317,2.8664025707968794,0.10244496456582877,0.20943951023925045,0.016862385402557578,0.04517370614708713,0.03839456874904045,0.1341453235695669,0.1731431092341635,-6.900126351601644e-11,-5.554892799124867e-12,-1.4880043468148584e-11,-1.2655314100064888e-11,-4.421736251829901e-11,-5.705287276655759e-11,-0.20021280322116508,0.5540402122768121,0.8047617196814583,0.664071881292824,0.38047552757073505,-0.6178906096662433,-0.18016132737704316
5.5,-1.0976711220130566,-1.4329294551410783,-1.80048766363516,-0.581185765602027,2.8798171031538384,0.11975927548924788,0.20943951023925045,0.016862385402557578,0.04517370614708713,0.03839456874904045,0.1341453235695669,0.1731431092341635,-6.900126351601644e-11,-5.554892799124867e-12,-1.4880043468148584e-11,-1.2655314100064888e-11,-4.421736251829901e-11,-5.705287276655759e-11,-0.21095442203288362,0.5472187847783585,0.8100926691434905,0.6571856905476927,0.3857023037930599,-0.6251089974168955,-0.1690545543205566
5.6,-1.076727170989128,-1.4312432166008222,-1.7959702930204506,-0.5773463087271223,2.8932316355107974,0.13707358641266726,0.20943951023925045,0.016862385402557578,0.04517370614708713,0.03839456874904045,0.1341453235695669,0.1731431092341635,-6.900126351601644e-11,-5.554892799124867e-12,-1.4880043468148584e-11,-1.2655314100064888e-11,-4.421736251829901e-11,-5.705287276655759e-11,-0.22145471591050278,0.5401529886177524,0.8153960183759839,0.6502456139823902,0.39092870523206846,-0.6320495419726102,-0.1576983367523462
5.7,-1.0561030601144514,-1.4296054766259665,-1.791548267591251,-0.5735775488392318,2.906355015711592,0.15414725727351689,0.19945173712697578,0.013486683381330043,0.04003959436212686,0.03519982869280964,0.11799266248190682,0.16757349868424765,0.07114776529893296,-0.13806634422562708,-0.15127959567664218,-0.06321555974327762,-0.4999308685935673,0.20908127165462875,-0.23156277300513722,0.5329867900708337,0.8205528840694035,0.6434040932770159,0.39604121084239097,-0.6385825283364458,-0.1462699100030699
5.8,-1.0359094117643735,-1.4289369045366538,-1.788301973972545,-0.5703832993888754,2.9156575164736154,0.17184161795746378,0.20339688580889495,-4.048341771885602e-05,0.024847532812882153,0.028580760643320265,0.06799773370209572,0.18530258880061176,0.009318638456043079,-0.13261444771637887,-0.1525295620421624,-0.06901884424903358,-0.4999653097417923,0.14706819182622816,-0.24165673207309107,0.5266680537336734,0.8240304848324442,-0.6384960310413121,-0.3996930279473015,0.6438011017054407,0.13449328309499345
5.9,-1.01562192472614,-1.4295945331974615,-1.7865809613441905,-0.5678791764954493,2.9199603692250333,0.19100731350286837,0.20138726017477437,-0.013042482326048682,0.009535196581760188,0.021402827473360916,0.017999847365213553,0.1970590890345913,-0.04853321235478905,-0.12751162154328544,-0.15369722936505617,-0.07444795528893965,-0.49999133943284074,0.08904251441518235,-0.2522628554520867,0.5214008147407201,0.8253176416358565,-0.6361620539679802,-0.40143881419172295,0.6475027196651192,0.12200388345400309
6.0,-0.9958215878790545,-1.4315271119751736,-1.7863969510584623,-0.5661197007297566,2.919263329523352,0.21106160466830406,0.19366217912020747,-0.025540059818031133,-0.005892163732935714,0.013688680412807372,-0.03199951304403724,0.20308265838025588,-0.10544154115849373,-0.1224835318633154,-0.15483601845123549,-0.07978402057850097,-0.4999847485023796,0.031954325264195116,-0.26315229182595495,0.5172869960535379,0.8244401247127539,-0.6364240373003911,-0.40127604049660104,0.6496177156895752,0.10926485039526118
6.1,-0.9770796108335588,-1.4346841757492637,-1.7877613777805648,-0.5651584340548624,2.913566449693462,0.23143148032935246,0.18018530620867773,-0.03752903178086596,-0.021434147033697604,0.005435428687291145,-0.0819966497202483,0.2033358281208695,-0.16404334071190646,-0.11730033249799067,-0.15600234025632537,-0.08527596725954875,-0.4999571556156819,-0.0268384180681002,-0.27408525058451266,0.5144329239432525,0.8214102999570814,-0.6392825544616071,-0.39920065142091227,0.6500773402581891,0.09672697218976889
6.2,-0.9599847818915893,-1.4390136472744073,-1.7906859596047437,-0.5650505554416752,2.902870007819191,0.25152623348543357,0.16063043977733082,-0.04898032362887755,-0.0370969874049886,-0.003387379990021297,-0.13199056396296027,0.19749110092901978,-0.22754157726691382,-0.1116818811220105,-0.15726359533725337,-0.09122563773165367,-0.4999190136913129,-0.09054582335332206,-0.28478815335311397,0.512959345924084,0.8162282686404836,-0.6447169374202956,-0.39520703895482473,0.6488094255460122,0.08483982724291625
6.3,-0.9451759051740347,-1.4444590019828758,-1.795183382794066,-0.5658559186802723,2.887174394813377,0.2707049537564133,0.13430546423114603,-0.0598323925671659,-0.05289408109596918,-0.012844434905260878,-0.18197969050043947,0.18485376467004463,-0.3002218663615273,-0.10524671718950139,-0.1587022885531619,-0.09803338755098055,-0.4998591723017471,-0.16346998570841054,-0.294927933889336,0.5130125958740388,0.8088838030006714,0.6526848001212159,0.3892885928040444,-0.6457331071951884,-0.07406549449927817
6.4,-0.9333859138017166,-1.4509553420015213,-1.801268151619338,-0.5676431736351417,2.8664802272591836,0.28823224510477197,0.09997684787535514,-0.06997546466077408,-0.06884920116810572,-0.023050982406222147,-0.23196090380721918,0.16418556743433288,-0.38893217752402676,-0.09738434349390114,-0.16044913847140987,-0.1063384328172197,-0.49975616179287435,-0.25248621341800065,-0.30407891841212453,0.5147779120263346,0.7993594277067833,0.6631209245411488,0.38143891846207073,-0.6407521548022618,-0.06489735768454752
6.5,-0.9248770080670203,-1.4584793265323261,-1.8089453109782758,-0.5704368133367168,2.8407881967570225,0.3038448964035937,0.0840277680509601,-0.08180932728601244,-0.08451402978625422,-0.0315696237312806,-0.28219796759397064,0.1620248859542582,0.14888088799282798,-0.14495024174688442,-0.14974244936267195,-0.0559352428813977,-0.4999999997581934,0.2870766349902117,-0.3120201148614646,0.5183234979768727,0.7876158682845655,0.6759327580368887,0.3716566458091596,-0.6337828800172024,-0.05749352342334163
6.6,-0.9158321161436419,-1.4672854217171647,-1.818042544942199,-0.5738350213497868,2.8104119273750188,0.3212855308075112,0.09354462084095222,-0.09107492296572976,-0.09408595581524268,-0.035145149639618775,-0.3141592653592288,0.180375569587873,7.422872878974058e-11,-7.227351661724789e-11,-7.464473137963265e-11,-2.7886040275764676e-11,-2.4926875186332465e-10,1.4310489092286995e-10,-0.3206884984888375,0.5224850617456523,0.773627213564961,0.6908286221116803,0.3600850243684243,-0.6250166121232685,-0.049485600600780354
6.7,-0.9064776540595504,-1.476392914013734,-1.8274511405237195,-0.5773495363137473,2.778996000839108,0.3393230877662913,0.09354462084095222,-0.09107492296572976,-0.09408595581524268,-0.035145149639618775,-0.3141592653592288,0.180375569587873,7.422872878974058e-11,-7.227351661724789e-11,-7.464473137963265e-11,-2.7886040275764676e-11,-2.4926875186332465e-10,1.4310489092286995e-10,-0.32945111611587996,0.5264480790365906,0.7590177681058816,0.7059335864768915,0.34812576961438346,-0.615432487091255,-0.04134094637207282
6.8,-0.8971231919754589,-1.4855004063103032,-1.8368597361052401,-0.5808640512777078,2.7475800743031975,0.35736064472507145,0.09354462084095222,-0.09107492296572976,-0.09408595581524268,-0.035145149639618775,-0.3141592653592288,0.180375569587873,7.422872878974058e-11,-7.227351661724789e-11,-7.464473137963265e-11,-2.7886040275764676e-11,-2.4926875186332465e-10,1.4310489092286995e-10,-0.33799798770982226,0.530066766709937,0.7442760207888458,0.7207244274944871,0.3361851082033364,-0.6053290352566755,-0.03335613452241733
6.9,-0.8877687298913673,-1.4946078986068727,-1.8462683316867605,-0.5843785662416682,2.7161641477672873,0.3753982016838516,0.09354462084095207,-0.09107492296572976,-0.09408595581524268,-0.035145149639618935,-0.3141592653592288,0.180375569587873,7.422872878974058e-11,-7.227351661724789e-11,-7.464473137963265e-11,-2.7886040275764676e-11,-2.4926875186332465e-10,1.4310489092286995e-10,-0.3463194795489877,0.5333440804014544,0.7294144360838726,0.7351930093866244,0.3242732276713207,-0.5947144213898641,-0.02555131612230584
7.0,-0.8784142678072759,-1.503715390903442,-1.8556769272682812,-0.5878930812056287,2.684748221231377,0.3934357586426316,0.09354462084095207,-0.09107492296572976,-0.09408595581524268,-0.035145149639618935,-0.3141592653592288,0.180375569587873,7.422872878974058e-11,-7.227351661724789e-11,-7.464473137963265e-11,-2.7886040275764676e-11,-2.4926875186332465e-10,1.4310489092286995e-10,-0.35440635273069576,0.536283514210077,0.714445682287886,0.7493315004310355,0.3124003468089267,-0.5835976819912571,-0.01794634642112088
7.1,-0.8690598057231844,-1.5128228832000115,-1.8650855228498018,-0.5914075961695893,2.6533322946954665,0.41147331560141187,0.09354462084095207,-0.09107492296572976,-0.09408595581524268,-0.035145149639618935,-0.3141592653592288,0.180375569587873,7.422872878974058e-11,-7.227351661724789e-11,-7.464473137963265e-11,-2.7886040275764676e-11,-2.4926875186332465e-10,1.4310489092286995e-10,-0.36224978764442944,0.5388890912608383,0.6993826063635641,0.7631323784727239,0.30057670597074854,-0.5719887125849039,-0.010560749490536198
7.2,-0.8597053436390929,-1.5219303754965807,-1.874494118431322,-0.5949221111335498,2.621916368159556,0.42951087256019205,0.09354462084095207,-0.09107492296572976,-0.09408595581524268,-0.035145149639618935,-0.3141592653592288,0.180375569587873,7.422872878974058e-11,-7.227351661724789e-11,-7.464473137963265e-11,-2.7886040275764676e-11,-2.4926875186332465e-10,1.4310489092286995e-10,-0.369841407483601,0.5411653525575327,0.684238208292411,0.7765884361367406,0.28881255732474864,-0.559898253574599,-0.0034136833983966306
7.3,-0.8503508815550014,-1.5310378677931502,-1.8839027140128426,-0.5984366260975102,2.5905004416236457,0.44754842951897217,0.09354462084095207,-0.09107492296572976,-0.09408595581524268,-0.035145149639618935,-0.3141592653592288,0.180375569587873,7.422872878974058e-11,-7.227351661724789e-11,-7.464473137963265e-11,-2.7886040275764676e-11,-2.4926875186332465e-10,1.4310489092286995e-10,-0.3771733007011766,0.5431173441628706,0.669025615011183,0.7896927857379521,0.2771181550509191,-0.5473378746851973,0.003476094029069199
7.4,-0.84099641947091,-1.5401453600897195,-1.8933113095943632,-0.6019511410614707,2.5590845150877355,0.4655859864777523,0.09354462084095207,-0.09107492296572976,-0.09408595581524268,-0.035145149639618935,-0.3141592653592288,0.180375569587873,7.422872878974058e-11,-7.227351661724789e-11,-7.464473137963265e-11,-2.7886040275764676e-11,-2.4926875186332465e-10,1.4310489092286995e-10,-0.3842380423176575,0.5447506027503334,0.6537580540019944,0.802438863883996,0.2655037454986981,-0.5343199580139951,0.010090258799794964
7.5,-0.8316419573868185,-1.549252852386289,-1.9027199051758836,-0.6054656560254312,2.527668588551825,0.48362354343653247,0.09354462084095207,-0.09107492296572976,-0.09408595581524268,-0.035145149639618935,-0.3141592653592288,0.180375569587873,7.422872878974058e-11,-7.227351661724789e-11,-7.464473137963265e-11,-2.7886040275764676e-11,-2.4926875186332465e-10,1.4310489092286995e-10,-0.39102871399355776,0.5460711395782547,0.6384488266073886,0.8148204357679231,0.2539795573126554,-0.5208576797193496,0.01641095364733485
7.6,-0.8222874953027269,-1.5583603446828582,-1.912128500757404,-0.6089801709893916,2.4962526620159142,0.5016611003953126,0.09354462084095183,-0.0910749229657297,-0.09408595581524291,-0.0351451496396189,-0.3141592653592292,0.18037556958787304,7.43396628137118e-11,-7.23844506412191e-11,-7.476953215660026e-11,-2.7927640534753883e-11,-2.497124879592095e-10,1.433544924768052e-10,-0.39753892278250186,0.5470854229427305,0.6231112811424561,0.8268315991473202,0.24255579153601262,-0.5069649903759472,0.022420820166516146
7.7,-0.8129330332186354,-1.5674678369794275,-1.9215370963389247,-0.6124946859533522,2.4648367354800036,0.5196986573540927,0.09354462084095183,-0.0910749229657297,-0.09408595581524291,-0.0351451496396189,-0.3141592653592292,0.18037556958787304,7.43396628137118e-11,-7.23844506412191e-11,-7.476953215660026e-11,-2.7927640534753883e-11,-2.497124879592095e-10,1.433544924768052e-10,-0.4037628184854288,0.5478003591718557,0.6077587858766408,0.8384667880070085,0.23124261170161026,-0.49265659402832496,0.028103030139805567
7.8,-0.8035785711345441,-1.5765753292759972,-1.9309456919204453,-0.6160092009173128,2.433420808944094,0.5377362143128729,0.09354462084095183,-0.0910749229657297,-0.09408595581524291,-0.0351451496396189,-0.3141592653592292,0.18037556958787304,7.43396628137118e-11,-7.23844506412191e-11,-7.476953215660026e-11,-2.7927640534753883e-11,-2.497124879592095e-10,1.433544924768052e-10,-0.4096951095310697,0.5482232722294048,0.5924047019582562,0.8497207759027173,0.22005013391995767,-0.4779479259763892,0.033441316002225434
7.9,-0.7942241090504525,-1.5856828215725662,-1.940354287501966,-0.6195237158812732,2.4020048824081828,0.5557737712716531,0.09354462084095183,-0.0910749229657297,-0.09408595581524291,-0.0351451496396189,-0.3141592653592292,0.18037556958787304,7.43396628137118e-11,-7.23844506412191e-11,-7.476953215660026e-11,-2.7927640534753883e-11,-2.497124879592095e-10,1.433544924768052e-10,-0.41533107731287755,0.5483618820014473,0.5770623563548802,0.8605886789834394,0.20898841697403472,-0.4628551293287636,0.03842000039405555
8.0,-0.7848696469663611,-1.5947903138691357,-1.9497628830834866,-0.6230382308452337,2.3705889558722726,0.5738113282304331,0.09354462084095183,-0.0910749229657297,-0.09408595581524291,-0.0351451496396189,-0.3141592653592292,0.18037556958787304,7.43396628137118e-11,-7.23844506412191e-11,-7.476953215660026e-11,-2.7927640534753883e-11,-2.497124879592095e-10,1.433544924768052e-10,-0.4206665889179004,0.5482242813444632,0.5617450148827569,0.8710659586904755,0.19806745243051926,-0.44739503036182804,0.04302402475205738
8.1,-0.7755151848822697,-1.6038978061657048,-1.959171478665007,-0.6265527458091942,2.3391730293363624,0.5918488851892131,0.09354462084095183,-0.0910749229657297,-0.09408595581524291,-0.0351451496396189,-0.3141592653592292,0.18037556958787304,7.43396628137118e-11,-7.23844506412191e-11,-7.476953215660026e-11,-2.7927640534753883e-11,-2.497124879592095e-10,1.433544924768052e-10,-0.42569810818867815,0.5478189119782901,0.5464658553980908,0.8811484241314959,0.18729715477712636,-0.4315851127242683,0.047238976891495754
8.2,-0.766160722798178,-1.6130052984622745,-1.9685800742465276,-0.6300672607731547,2.3077571028004518,0.6098864421479936,0.09354462084095183,-0.0910749229657297,-0.09408595581524291,-0.0351451496396189,-0.3141592653592292,0.18037556958787304,7.43396628137118e-11,-7.23844506412191e-11,-7.476953215660026e-11,-2.7927640534753883e-11,-2.497124879592095e-10,1.433544924768052e-10,-0.4304227050650998,0.5471545393116831,0.5312379412226321,0.8908322341282433,0.17668735159573254,-0.4154434905288671,0.051051117532918244
8.3,-0.7568062607140867,-1.6221127907588437,-1.9779886698280482,-0.6335817757371152,2.2763411762645416,0.6279239991067735,0.0935446208409521,-0.09107492296572949,-0.0940859558152427,-0.03514514963961879,-0.31415926535922956,0.18037556958787293,7.445059683768302e-11,-7.248151791219391e-11,-7.488046618057149e-11,-2.796924079374309e-11,-2.500452900311232e-10,1.4357636052474761e-10,-0.43483806315924395,0.5462402262923566,0.5160741948753151,0.9001138989368217,0.16624777378095323,-0.39898888037509916,0.0544474057293362
8.4,-0.7474517986299952,-1.631220283055413,-1.9873972654095686,-0.6370962907010757,2.244925249728631,0.6459615560655537,0.0935446208409521,-0.09107492296572949,-0.0940859558152427,-0.03514514963961879,-0.31415926535922956,0.18037556958787293,7.445059683768302e-11,-7.248151791219391e-11,-7.488046618057149e-11,-2.796924079374309e-11,-2.500452900311232e-10,1.4357636052474761e-10,-0.43894248552254567,0.5450853063771227,0.5009873721808191,0.908990281639825,0.15598804581380532,-0.38224057234784375,0.05741552315127511
8.5,-0.7380973365459038,-1.6403277753519825,-1.9968058609910893,-0.6406108056650361,2.2135093231927208,0.6639991130243339,0.0935446208409521,-0.09107492296572949,-0.0940859558152427,-0.03514514963961879,-0.31415926535922956,0.18037556958787293,7.445059683768302e-11,-7.248151791219391e-11,-7.488046618057149e-11,-2.796924079374309e-11,-2.500452900311232e-10,1.4357636052474761e-10,-0.4427348985711118,0.5436993557210941,0.4859900368248679,0.9174585992098679,0.14591767610006715,-0.36521840003923245,0.059943897189005266
8.6,-0.7287428744618123,-1.6494352676485518,-2.00621445657261,-0.6441253206289965,2.1820933966568106,0.6820366699831137,0.0935446208409521,-0.09107492296572949,-0.0940859558152427,-0.03514514963961879,-0.31415926535922956,0.18037556958787293,7.445059683768302e-11,-7.248151791219391e-11,-7.488046618057149e-11,-2.796924079374309e-11,-2.500452900311232e-10,1.4357636052474761e-10,-0.4462148541416908,0.5420921646878959,0.4710945354248083,0.9255164232443962,0.1360460473828961,-0.3479427096422503,0.06202172283320656
8.7,-0.7193884123777206,-1.6585427599451212,-2.0156230521541305,-0.6476398355929571,2.150677470120899,0.7000742269418943,0.0935446208409521,-0.09107492296572949,-0.0940859558152427,-0.03514514963961879,-0.31415926535922956,0.18037556958787293,7.445059683768302e-11,-7.248151791219391e-11,-7.488046618057149e-11,-2.796924079374309e-11,-2.500452900311232e-10,1.4357636052474761e-10,-0.4493825296575997,0.5402737087854047,0.4563129731825444,0.9331616803719649,0.12638240723921268,-0.33043432816624413,0.06363898329731255
8.8,-0.7100339502936291,-1.6676502522416903,-2.025031647735651,-0.6511543505569176,2.1192615435849884,0.7181117839006743,0.0935446208409521,-0.09107492296572949,-0.0940859558152427,-0.03514514963961879,-0.31415926535922956,0.18037556958787293,7.445059683768302e-11,-7.248151791219391e-11,-7.488046618057149e-11,-2.796924079374309e-11,-2.500452900311232e-10,1.4357636052474761e-10,-0.45223872639083,0.5382541191336847,0.4416571901852632,0.9403926523304788,0.11693585866930707,-0.3127145308259453,0.06478646934683116
8.9,-0.7006794882095377,-1.6767577445382598,-2.0344402433171713,-0.6546688655208781,2.0878456170490787,0.7361493408594542,0.0935446208409521,-0.09107492296572949,-0.0940859558152427,-0.03514514963961879,-0.31415926535922956,0.18037556958787293,7.445059683768302e-11,-7.248151791219391e-11,-7.488046618057149e-11,-2.796924079374309e-11,-2.500452900311232e-10,1.4357636052474761e-10,-0.45478486581357186,0.5360436525735468,0.4271387384175339,0.9472079757182107,0.10771535078903875,-0.29480500765696865,0.06545579730305397
9.0,-0.6913250261254463,-1.685865236834829,-2.043848838898692,-0.6581833804848386,2.0564296905131685,0.7541868978182343,0.09354462084095201,-0.09107492296572971,-0.09408595581524264,-0.03514514963961876,-0.314159265359229,0.18037556958787307,7.42841958017262e-11,-7.231511687623709e-11,-7.471406514461466e-11,-2.790684040525928e-11,-2.4949061991126705e-10,1.4321582494684117e-10,-0.4570229840394519,0.5336526615254576,0.4127688595463637,0.9536066414187044,0.09872966963393524,-0.27672782941204793,0.06563942569073102
9.1,-0.6819705640413548,-1.6949727291313983,-2.053257434480212,-0.661697895448799,2.025013763977258,0.7722244547770145,0.09354462084095201,-0.09107492296572971,-0.09408595581524264,-0.03514514963961876,-0.314159265359229,0.18037556958787307,7.42841958017262e-11,-7.231511687623709e-11,-7.471406514461466e-11,-2.790684040525928e-11,-2.4949061991126705e-10,1.4321582494684117e-10,-0.4589557243619006,0.5310915637094213,0.39855846353859037,0.9595879937009926,0.08998742908439948,-0.2585054127934424,0.0653306705015038
9.2,-0.6726161019572632,-1.7040802214279678,-2.0626660300617328,-0.6652124104127595,1.9935978374413472,0.7902620117357948,0.09354462084095201,-0.09107492296572971,-0.09408595581524264,-0.03514514963961876,-0.314159265359229,0.18037556958787307,7.42841958017262e-11,-7.231511687623709e-11,-7.471406514461466e-11,-2.790684040525928e-11,-2.4949061991126705e-10,1.4321582494684117e-10,-0.46058632790415166,0.5283708118369022,0.38451810816763043,0.9651517289968561,0.08149706192113278,-0.24016048507805537,0.06452371904715064
9.3,-0.6632616398731718,-1.7131877137245373,-2.0720746256432534,-0.6687269253767201,1.962181910905437,0.808299568694575,0.09354462084095201,-0.09107492296572971,-0.09408595581524264,-0.03514514963961876,-0.314159265359229,0.18037556958787307,7.42841958017262e-11,-7.231511687623709e-11,-7.471406514461466e-11,-2.790684040525928e-11,-2.4949061991126705e-10,1.4321582494684117e-10,-0.4619186224024844,0.5255008633858714,0.37065797946409706,0.970297894357156,0.0732668110197871,-0.2217160481928187,0.06321364237899982
9.4,-0.6539071777890804,-1.7222952060211063,-2.081483221224774,-0.6722414403406805,1.9307659843695266,0.8263371256533549,0.09354462084095201,-0.09107492296572971,-0.09408595581524264,-0.03514514963961876,-0.314159265359229,0.18037556958787307,7.42841958017262e-11,-7.231511687623709e-11,-7.471406514461466e-11,-2.790684040525928e-11,-2.4949061991126705e-10,1.4321582494684117e-10,-0.4629570091513361,0.5224921505696352,0.35698787316210645,0.9750268855895717,0.06530472069372865,-0.20319534229880157,0.061396406252216804
9.5,-0.6445527157049888,-1.7314026983176756,-2.0908918168062947,-0.6757559553046409,1.8993500578336162,0.844374682612135,0.09354462084095201,-0.09107492296572971,-0.09408595581524264,-0.03514514963961876,-0.314159265359229,0.18037556958787307,7.42841958017262e-11,-7.231511687623709e-11,-7.471406514461466e-11,-2.790684040525928e-11,-2.4949061991126705e-10,1.4321582494684117e-10,-0.46370644814588846,0.5193550506092546,0.34351717719028246,0.9793394450803753,0.05761862819368215,-0.18462180894333188,0.05906888061604601
9.6,-0.6351982536208973,-1.740510190614245,-2.100300412387815,-0.6792704702686014,1.8679341312977056,0.8624122395709153,0.09354462084095201,-0.09107492296572971,-0.09408595581524264,-0.03514514963961876,-0.314159265359229,0.18037556958787307,7.42841958017262e-11,-7.231511687623709e-11,-7.471406514461466e-11,-2.790684040525928e-11,-2.4949061991126705e-10,1.4321582494684117e-10,-0.4641724414645684,0.5160998564180664,0.3302548552535156,0.983236659303167,0.050216155372886484,-0.16601905384013144,0.056228847613493387
9.7,-0.6258437915368058,-1.7496176829108145,-2.1097090079693355,-0.6827849852325619,1.836518204761795,0.8804497965296955,0.09354462084095201,-0.09107492296572971,-0.09408595581524264,-0.03514514963961876,-0.314159265359229,0.18037556958787307,7.42841958017262e-11,-7.231511687623709e-11,-7.471406514461466e-11,-2.790684040525928e-11,-2.4949061991126705e-10,1.4321582494684117e-10,-0.46436101494064036,0.51273674780511,0.3172094315484223,0.9867199560177914,0.043104700526251316,-0.14741080933809525,0.05287500807638396
9.8,-0.6164893294527143,-1.7587251752073836,-2.1191176035508557,-0.6862995001965223,1.8051022782258848,0.8984873534884755,0.09354462084095204,-0.09107492296572973,-0.09408595581524266,-0.03514514963961893,-0.31415926535922906,0.18037556958787299,7.429806255472259e-11,-7.23428503822299e-11,-7.472793189761106e-11,-2.792070715825568e-11,-2.495460869232527e-10,1.4327129195882678e-10,-0.4642786981786228,0.5092757633021328,0.3043889766522634,0.9897911011629377,0.03629143041185295,-0.12882089663987037,0.04900698650417735
9.9,-0.6071348673686228,-1.767832667503953,-2.1285261991323763,-0.6898140151604829,1.7736863516899741,0.9165249104472556,0.09354462084095204,-0.09107492296572973,-0.09408595581524266,-0.03514514963961893,-0.31415926535922906,0.18037556958787299,7.429806255472259e-11,-7.23428503822299e-11,-7.472793189761106e-11,-2.792070715825568e-11,-2.495460869232527e-10,1.4327129195882678e-10,-0.4639325029776392,0.505726772716293,0.2918010946217408,0.9924521954462175,0.0297832724629525,-0.1102731878318074,0.04462533451741409
10.0,-0.5977804052845315,-1.7769401598005223,-2.137934794713897,-0.6933285301244433,1.742270425154064,0.9345624674060355,0.09354462084095204,-0.09107492296572973,-0.09408595581524266,-0.03514514963961893,-0.31415926535922906,0.18037556958787299,7.429806255472259e-11,-7.23428503822299e-11,-7.472793189761106e-11,-2.792070715825568e-11,-2.495460869232527e-10,1.4327129195882678e-10,-0.4633299002299914,0.5020994505077514,0.2794529113346779,0.9947056706357886,0.023586907198549535,-0.09179156778720018,0.03973153277915245
10.1,-0.58842594320044,-1.7860476520970918,-2.1473433902954175,-0.6968430450884039,1.7108544986181533,0.9526000243648158,0.09354462084095204,-0.09107492296572973,-0.09408595581524266,-0.03514514963961893,-0.31415926535922906,0.18037556958787299,7.429806255472259e-11,-7.23428503822299e-11,-7.472793189761106e-11,-2.792070715825568e-11,-2.495460869232527e-10,1.4327129195882678e-10,-0.462478795369166,0.4984032500879956,0.2673510641040614,0.9965542855578731,0.01770876084031094,-0.0733998960049265,0.03432799138026812
10.2,-0.5795273049250873,-1.794711354917648,-2.1562935242535652,-0.7001863049248818,1.6809694059409865,0.9697586480573768,0.0818844884356805,-0.07972263299936307,-0.0823583471893281,-0.030764383599658274,-0.275000000000084,0.15789214932101647,-0.14888088804042224,0.1449502417932123,0.14974244941054454,0.05593524289928034,0.49999999991806554,-0.287076635081949,-0.4614461160637173,0.4948316421520041,0.2560731497137111,0.9979398823610065,0.012418013514824725,-0.056009620580146725,0.028717704227775698
10.3,-0.5720822661896323,-1.801959835089066,-2.163781646811652,-0.7029834406455472,1.6559660665861962,0.9841143971153019,0.0669963996291098,-0.06522760881757957,-0.06738410224573009,-0.02517085930878001,-0.22499999999978892,0.1291844858079437,-0.14888088812792089,0.1449502418783865,0.1497424494985413,0.05593524293215113,0.5000000002118583,-0.28707663525066485,-0.4604205535028389,0.49180757511799994,0.2468165749769573,0.998821910957484,0.008220745576237845,-0.041553966001763254,0.023674404806353168
10.4,-0.5661260363348264,-1.8077588128423132,-2.1697723448753865,-0.7052212239371277,1.6359627272314081,0.9955993798219352,0.05210831082262152,-0.050732584635876286,-0.05240985730221495,-0.0195773350179327,-0.17499999999977053,0.10047682229502984,-0.14888088813327077,0.1449502418836115,0.1497424495039328,0.05593524293416341,0.5000000002298439,-0.2870766352609899,-0.45949733687372996,0.4893678599633725,0.23953044512371802,0.9993470158370622,0.005015254405811878,-0.030059208056299736,0.01941219131967291
10.5,-0.5616586153606692,-1.8121082881773902,-2.1742656184447697,-0.7068996547996236,1.6209593878766215,1.0042135961772776,0.037220222016265715,-0.036237560454301994,-0.037435612358833074,-0.013983810727135169,-0.12500000000019706,0.07176915878237143,-0.14888088800640084,0.1449502417600999,0.14974244937632886,0.05593524288650237,0.49999999980379584,-0.2870766350163765,-0.4587465094280398,0.4875275216713156,0.23413601259089198,0.9996361947997692,0.002700860922181533,-0.02148256305724769,0.016083621514078276
10.6,-0.5586800032671598,-1.815008261094298,-2.177261467519803,-0.708018733233035,1.6109560485218335,1.0099570461813303,0.022332133209724523,-0.021742536272547214,-0.02246136741526474,-0.008390286436267989,-0.07500000000000102,0.04306149526935556,-0.1488808880646598,0.14495024181681496,0.14974244943492435,0.05593524290838764,0.49999999999941713,-0.2870766351287033,-0.4582186667563917,0.48629601940740963,0.23057316434786285,0.9997793934574355,0.001200880551298862,-0.015786964426652686,0.013801958483320708
10.7,-0.5571902000542986,-1.8164587315930358,-2.178759892100485,-0.7085784592373621,1.6059527091670454,1.0128297298340927,0.007444044403236673,-0.007247512090844364,-0.00748712247175005,-0.0027967621454208463,-0.0249999999999841,0.014353831756442528,-0.148880888070183,0.14495024182219235,0.14974244944048096,0.05593524291046376,0.5000000000179822,-0.2870766351393579,-0.45794659769875373,0.48567881919065,0.22880135584924988,0.9998361767762252,0.00046364587332728185,-0.012945340353645664,0.012642104458254864
10.750066787,-0.5570036014460685,-1.8166404037588675,-2.1789475705394086,-0.7086485652033688,1.6053260383745225,1.013189534918995,-1.2187383153646046e-16,1.186562061926948e-16,1.2257910530707804e-16,4.5788566012632505e-17,4.0929978696591395e-16,-2.3500081120240933e-16,-0.14888088815230616,0.14495024190214797,0.14974244952308047,0.055935242941318394,0.5000000002937853,-0.2870766352977109,-0.4579121450312024,0.4856014585215285,0.2285799169765628,0.9998425928445617,0.0003719195249753985,-0.012589767231993614,0.012495958177549256
