mathias31415/primitives_from_planned_trajectory_python/data/saved_trajectories/planned_trajectory_20250616_085458.csv
time_from_start,shoulder_pan_joint_pos,shoulder_lift_joint_pos,elbow_joint_pos,wrist_1_joint_pos,wrist_2_joint_pos,wrist_3_joint_pos,shoulder_pan_joint_vel,shoulder_lift_joint_vel,elbow_joint_vel,wrist_1_joint_vel,wrist_2_joint_vel,wrist_3_joint_vel,shoulder_pan_joint_acc,shoulder_lift_joint_acc,elbow_joint_acc,wrist_1_joint_acc,wrist_2_joint_acc,wrist_3_joint_acc,fk_x,fk_y,fk_z,fk_qx,fk_qy,fk_qz,fk_qw
0.0,-1.6006999999999998,-1.7271,-2.2029999999999994,-0.8079999999999998,1.5951,-0.030999999999999694,-0.0005,-0.00028942768032200336,0.0003983655908365901,-0.00011699388822425318,-1.5552888769112433e-05,-0.0004997819617635971,-0.5,-0.28942768032200333,0.39836559083659007,-0.11699388822425318,-0.015552888769112433,-0.49978196176359707,0.18963153692348164,0.6096838816511918,0.2609711486943511,0.9998434779226772,0.00039186782709176965,-0.012536274005463676,0.012478298327523958
0.1,-1.6031999999999997,-1.7285471384016102,-2.2010081720458166,-0.8085849694411211,1.5950222355561545,-0.03349890980881767,-0.049999999999999975,-0.028942768032200323,0.03983655908365899,-0.011699388822425312,-0.0015552888769112426,-0.04997819617635968,-0.5000000000000971,-0.2894276803220641,0.3983655908366756,-0.11699388822427628,-0.015552888769115421,-0.49978196176369377,0.1911995770143037,0.6102987206486022,0.26104707432280605,0.9998436905940228,0.00039157880536231103,-0.012529229190756299,0.01246833835155113
0.2,-1.6106999999999998,-1.7328885536064402,-2.195032688183268,-0.8103398777644849,1.5947889422246178,-0.040995639235271594,-0.09999999999999906,-0.057885536064400125,0.07967311816731726,-0.023398777644850415,-0.0031105777538224574,-0.09995639235271847,-0.4999999999993755,-0.28942768032164085,0.3983655908360858,-0.11699388822410801,-0.01555288876909287,-0.49978196176297907,0.19592913317158053,0.6121170147075949,0.26126797565023646,0.9998443170984869,0.00039072112985553823,-0.012508269412235519,0.012439135788718483
0.30000000000000004,-1.6231999999999998,-1.74012424561449,-2.185073548412353,-0.8132647249700912,1.5944001200053899,-0.05349018827936147,-0.14999999999999702,-0.08682830409659928,0.11950967725097464,-0.03509816646727525,-0.0046658666307336375,-0.14993458852907612,-0.49999999999733546,-0.28942768032046123,0.3983655908344621,-0.11699388822362923,-0.015552888769029986,-0.49978196176092515,0.20389573083356144,0.6150589441114521,0.26161323998968905,0.9998453229075068,0.0003893229697943328,-0.012473949810051675,0.012392710104933263
0.4,-1.6406999999999998,-1.7502542144257602,-2.1711307527330725,-0.8173595110579401,1.5938557688984711,-0.07098255694108738,-0.19999999999999352,-0.11577107212879759,0.15934623633463085,-0.046797555289699755,-0.006221155507644772,-0.19991278470543233,-0.49999999999242273,-0.28942768031763016,0.39836559083056244,-0.11699388822248431,-0.01555288876887733,-0.49978196175604017,0.21522257230665423,0.6189876743029536,0.2620485616823813,0.9998466504739977,0.0003874312744704268,-0.012427298689402582,0.012332383395730803
0.5,-1.6615548200527361,-1.762326138808553,-2.154515067308874,-0.8222392840303137,1.5932070635053108,-0.09182828269745437,-0.20943951023934015,-0.12123518323269737,0.1668669884820416,-0.04900628530136738,-0.006514778813219684,-0.20934817859644878,-2.0597805862764208e-11,-1.1920668265125988e-11,1.6411710727801363e-11,-4.816781653641025e-12,-6.410824503047407e-13,-2.0570083378426706e-11,0.22897932597452272,0.6233719777012164,0.26249424272280597,0.9998481097919685,0.0003852770782886947,-0.012374053163906414,0.012267506482460454
0.6000000000000001,-1.6824987710766681,-1.7744496571318216,-2.1378283684606716,-0.8271399125604498,1.5925555856239888,-0.1127631005570971,-0.20943951023931692,-0.12123518323268392,0.16686698848202308,-0.04900628530136194,-0.006514778813218961,-0.20934817859642554,2.6059135277250716e-12,1.5108753963937915e-12,-2.079186325312557e-12,6.16825276509392e-13,8.143479774140849e-14,2.6336360120625723e-12,0.2430698508236879,0.6274391189640259,0.26286198501680225,0.9998494410065188,0.00038322328024320795,-0.012323429468760808,0.012209895372113234
0.7000000000000001,-1.7034427221005999,-1.78657317545509,-2.121141669612469,-0.832040541090586,1.5919041077426672,-0.13369791841673975,-0.20943951023931692,-0.12123518323268392,0.16686698848202308,-0.04900628530136194,-0.006514778813218961,-0.20934817859642554,2.6059135277250716e-12,1.5108753963937915e-12,-2.079186325312557e-12,6.16825276509392e-13,8.143479774140849e-14,2.6336360120625723e-12,0.2574271501084543,0.6311590355162059,0.26314988873556666,0.9998506375958347,0.0003812793224773142,-0.012275952130532508,0.012159692618232331
0.8,-1.7243866731245316,-1.7986966937783584,-2.104454970764267,-0.8369411696207223,1.5912526298613452,-0.15463273627638247,-0.20943951023931692,-0.12123518323268392,0.16686698848202308,-0.04900628530136194,-0.006514778813218961,-0.20934817859642554,2.6059135277250716e-12,1.5108753963937915e-12,-2.079186325312557e-12,6.16825276509392e-13,8.143479774140849e-14,2.6336360120625723e-12,0.27204205595737774,0.6345213474351554,0.26335814211886627,0.9998516995615487,0.0003794452066140577,-0.012231907320043305,0.012116738361933835
0.9,-1.7453306241484636,-1.810820212101627,-2.0877682719160644,-0.8418417981508585,1.5906011519800232,-0.17556755413602512,-0.20943951023930235,-0.1212351832326755,0.16686698848201148,-0.04900628530135853,-0.006514778813218509,-0.209348178596411,1.716021780491107e-11,9.924649392824173e-12,-1.366718477838636e-11,4.019760228937165e-12,5.327914958612837e-13,1.716021780491107e-11,0.2869050401932026,0.6375159307575754,0.26348694616351065,0.9998526269053231,0.0003777209342467869,-0.012191575832830533,0.012080864047449597
1.0,-1.7662745751723945,-1.822943730424895,-2.0710815730678624,-0.8467424266809945,1.5899496740987014,-0.19650237199566706,-0.20943951023934881,-0.12123518323270238,0.16686698848204848,-0.049006285301369405,-0.006514778813219953,-0.20934817859645743,-2.9247220976063307e-11,-1.6924576688044216e-11,2.328688684350064e-11,-6.840523010278313e-12,-9.096440173242438e-13,-2.9219498491725804e-11,0.3020062218077527,0.6401329295027882,0.2635365145888626,0.9998534196288504,0.0003761065069397245,-0.012155232851227443,0.0120518925784234
1.1,-1.7872185261963258,-1.8350672487481632,-2.0543948742196605,-0.8516430552111307,1.5892981962173796,-0.21743718985530905,-0.20943951023930243,-0.12123518323267582,0.16686698848201106,-0.04900628530135869,-0.006514778813218762,-0.2093481785964111,1.7077050351898576e-11,9.896926908486675e-12,-1.3611739809711365e-11,3.998968365684041e-12,5.319251682257369e-13,1.7077050351898576e-11,0.31733537483178564,0.642362767469805,0.26350707380045646,0.9998540777338535,0.0003746019262268266,-0.012123147710660016,0.012029638480340112
1.2,-1.808162477220257,-1.8471907670714312,-2.037708175371459,-0.8565436837412667,1.5886467183360575,-0.23837200771495104,-0.20943951023930243,-0.12123518323267582,0.16686698848201106,-0.04900628530135869,-0.006514778813218762,-0.2093481785964111,1.7077050351898576e-11,9.896926908486675e-12,-1.3611739809711365e-11,3.998968365684041e-12,5.319251682257369e-13,1.7077050351898576e-11,0.33288193659275966,0.6441961597952516,0.2633988628517323,0.9998546012220854,0.00037320719361317076,-0.012095583670311794,0.012013908068979342
1.3,-1.829106428244188,-1.8593142853946991,-2.0210214765232575,-0.8614443122714028,1.5879952404547357,-0.25930682557459295,-0.20943951023930243,-0.12123518323267582,0.16686698848201106,-0.04900628530135869,-0.006514778813218762,-0.2093481785964111,1.7077050351898576e-11,9.896926908486675e-12,-1.3611739809711365e-11,3.998968365684041e-12,5.319251682257369e-13,1.7077050351898576e-11,0.34863501635305955,0.6456241242594791,0.26321213340388805,0.999854990095329,0.0003719223105737146,-0.012072797688306493,0.012004499624781824
1.4,-1.850050379268119,-1.871437803717967,-2.004334777675055,-0.8663449408015389,1.587343762573414,-0.28024164343423497,-0.20943951023930243,-0.12123518323267582,0.16686698848201106,-0.04900628530135869,-0.006514778813218762,-0.2093481785964111,1.7077050351898576e-11,9.896926908486675e-12,-1.3611739809711365e-11,3.998968365684041e-12,5.319251682257369e-13,1.7077050351898576e-11,0.36458340432079983,0.6466379923284356,0.262947149683859,0.9998552443553984,0.00037074727855422547,-0.012055040201553418,0.01200120357301179
1.5,-1.8709943302920502,-1.8835613220412353,-1.9876480788268536,-0.871245569331675,1.586692284692092,-0.30117646129387693,-0.20943951023930243,-0.12123518323267582,0.16686698848201106,-0.04900628530135869,-0.006514778813218762,-0.2093481785964111,1.7077050351898576e-11,9.896926908486675e-12,-1.3611739809711365e-11,3.998968365684041e-12,5.319251682257369e-13,1.7077050351898576e-11,0.380715581024924,0.6472294199191118,0.26260418844042616,0.9998553640041368,0.00036968209897047675,-0.012042554910402504,0.01200380266959921
1.6,-1.8919382813159813,-1.8956848403645035,-1.9709613799786516,-0.876146197861811,1.5860408068107699,-0.3221112791535189,-0.20943951023930243,-0.12123518323267582,0.16686698848201106,-0.04900628530135869,-0.006514778813218762,-0.2093481785964111,1.7077050351898576e-11,9.896926908486675e-12,-1.3611739809711365e-11,3.998968365684041e-12,5.319251682257369e-13,1.7077050351898576e-11,0.39701972704592425,0.6473903978766569,0.26218353889846857,0.9998553490434182,0.00036872677320896836,-0.012035578568246373,0.012012072192530717
1.7000000000000002,-1.9128822323399124,-1.9078083586877714,-1.9542746811304499,-0.8810468263919471,1.5853893289294483,-0.3430460970131609,-0.20943951023930243,-0.12123518323267582,0.16686698848201106,-0.04900628530135869,-0.006514778813218762,-0.2093481785964111,1.7077050351898576e-11,9.896926908486675e-12,-1.3611739809711365e-11,3.998968365684041e-12,5.319251682257369e-13,1.7077050351898576e-11,0.41348373309311426,0.6471132621515139,0.2616855027113544,0.9998551994751468,0.0003678813026265737,-0.012034340776210246,0.012025780138674646
1.8,-1.9338261833638435,-1.9199318770110396,-1.9375879822822482,-0.8859474549220832,1.5847378510481263,-0.3639809148728028,-0.20943951023930243,-0.12123518323267582,0.16686698848201106,-0.04900628530135869,-0.006514778813218762,-0.2093481785964111,1.7077050351898576e-11,9.896926908486675e-12,-1.3611739809711365e-11,3.998968365684041e-12,5.319251682257369e-13,1.7077050351898576e-11,0.4300952104190106,0.6463907036652382,0.2611103939114893,0.9998549153012566,0.00036714568855025504,-0.012039063783061195,0.012044687425900959
1.9,-1.9547701343877746,-1.9320553953343076,-1.9209012834340462,-0.8908480834522192,1.5840863731668042,-0.38491573273244484,-0.20943951023930243,-0.12123518323267582,0.16686698848201106,-0.04900628530135869,-0.006514778813218762,-0.2093481785964111,1.7077050351898576e-11,9.896926908486675e-12,-1.3611739809711365e-11,3.998968365684041e-12,5.319251682257369e-13,1.7077050351898576e-11,0.44684150156100455,0.6452157778539488,0.2604585388590232,0.9998544965237125,0.00036651993227789496,-0.012049962290472158,0.012068548100366328
2.0,-1.9757140854117057,-1.9441789136575758,-1.9042145845858445,-0.8957487119823552,1.5834348952854824,-0.40585055059208675,-0.2094395102393023,-0.12123518323267546,0.16686698848201142,-0.049006285301358525,-0.006514778813218506,-0.20934817859641103,1.7215662773586065e-11,9.96623311933042e-12,-1.3722629747061355e-11,4.0336214711059136e-12,5.353904787679241e-13,1.7187940289248566e-11,0.46370969140015394,0.643581913878679,0.25973027618872313,0.999853943144509,0.0003660040350773953,-0.012067243263764797,0.01209710954883109
2.1,-1.9966580364356414,-1.9563024319808462,-1.887527885737639,-0.9006493405124923,1.5827834174041604,-0.4267853684517333,-0.20943951023939517,-0.12123518323272922,0.16686698848208542,-0.049006285301380265,-0.006514778813221395,-0.20934817859650384,-7.554376981969795e-11,-4.3732219042412305e-11,6.018551349672084e-11,-1.768001438624307e-11,-2.3503468752389972e-12,-7.551604733536045e-11,0.48068661852656935,0.6414829234922287,0.2589259567550238,0.9998532551656711,0.00036559799818717566,-0.01209110574825799,0.012130112715863955
2.2,-2.017601987459577,-1.968425950304117,-1.8708411868894335,-0.9055499690426296,1.5821319395228384,-0.44772018631138,-0.20943951023939517,-0.12123518323272922,0.16686698848208542,-0.049006285301380265,-0.006514778813221395,-0.20934817859650384,-7.554376981969795e-11,-4.3732219042412305e-11,6.018551349672084e-11,-1.768001438624307e-11,-2.3503468752389972e-12,-7.551604733536045e-11,0.497758886900513,0.6389130095524463,0.2580459435752597,0.9998524325892539,0.00036530182281625584,-0.0121217406913444,0.012167292325797056
2.3,-2.038545938483513,-1.980549468627388,-1.8541544880412282,-0.9104505975727668,1.5814804616415163,-0.4686550041710266,-0.20943951023939517,-0.12123518323272922,0.16686698848208542,-0.049006285301380265,-0.006514778813221395,-0.20934817859650384,-7.554376981969795e-11,-4.3732219042412305e-11,6.018551349672084e-11,-1.768001438624307e-11,-2.3503468752389972e-12,-7.551604733536045e-11,0.5149128777980548,0.6358667741722177,0.2570906117710906,0.9998514754173429,0.00036511551014357566,-0.012159330770409624,0.01220837710928153
2.4,-2.0594898895074487,-1.9926729869506585,-1.8374677891930222,-0.9153512261029038,1.580828983760194,-0.48958982203067314,-0.20943951023939517,-0.12123518323272922,0.16686698848208542,-0.049006285301380265,-0.006514778813221395,-0.20934817859650384,-7.554376981969795e-11,-4.3732219042412305e-11,6.018551349672084e-11,-1.768001438624307e-11,-2.3503468752389972e-12,-7.551604733536045e-11,0.532134762029738,0.6323392264968117,0.2560603485081285,0.9998503836520537,0.0003650390613191875,-0.012204050226711598,0.012253090034300368
2.5,-2.0804338405313842,-2.004796505273929,-1.8207810903448167,-0.9202518546330409,1.580177505878872,-0.5105246398903198,-0.20943951023939517,-0.12123518323272922,0.16686698848208542,-0.049006285301380265,-0.006514778813221395,-0.20934817859650384,-7.554376981969795e-11,-4.3732219042412305e-11,6.018551349672084e-11,-1.768001438624307e-11,-2.3503468752389972e-12,-7.551604733536045e-11,0.5494105124204579,0.6283257900995821,0.254955552933769,0.9998491572955318,0.0003650724774629368,-0.012256064705330342,0.01230114854148624
2.6,-2.1013777915553202,-2.0169200235972,-1.8040943914966112,-0.9251524831631781,1.57952602799755,-0.5314594577499664,-0.20943951023939517,-0.12123518323272922,0.16686698848208542,-0.049006285301380265,-0.006514778813221395,-0.20934817859650384,-7.554376981969795e-11,-4.3732219042412305e-11,6.018551349672084e-11,-1.768001438624307e-11,-2.3503468752389972e-12,-7.551604733536045e-11,0.5667259165384408,0.6238223099874199,0.25377663611324985,0.9998477963499536,0.0003652157596650859,-0.012315531101290989,0.012352264783587393
2.7,-2.1216633360817636,-2.0286624197899146,-1.787932265635174,-0.9298990526209678,1.5788950303622689,-0.5517361562277041,-0.18349999999993075,-0.10621995867813515,0.1462001718369734,-0.04293675697828472,-0.005707910178262109,-0.18341997996717097,0.500000000069833,0.28942768036241456,-0.39836559089221363,0.11699388824059055,0.015552888771284284,0.499781961833395,0.5835212181525542,0.618989707023516,0.252564516601885,0.999846349880922,0.00036545927818866503,-0.012380371961497787,0.01240441290056821
2.8,-2.1375413438686657,-2.03785348971371,-1.7752817617284995,-0.9336143123574572,1.5784011325842995,-0.5676072399889751,-0.1335000000000302,-0.07727719064599238,0.10636361275339362,-0.031237368155882673,-0.00415262130135396,-0.13344178379091065,0.4999999999695244,0.2894276803043535,-0.39836559081230183,0.11699388821711618,0.015552888768163483,0.4997819617331418,0.5966753180067761,0.6148819708800471,0.2515677784755709,0.9998451296052436,0.0003657217966139008,-0.01243618091018564,0.01244686533269172
2.9,-2.1484193516555674,-2.0441502828342855,-1.7666149137301912,-0.9361596332117037,1.578062763694021,-0.57848050413261,-0.08349999999996512,-0.04833442261375437,0.06652705366968276,-0.01953797933344212,-0.0025973324244406913,-0.08346358761448587,0.5000000000348194,0.2894276803421566,-0.3983655908643158,0.11699388823239909,0.015552888770195278,0.4997819617983952,0.6056875911469337,0.6119022228297056,0.2508607034390906,0.9998442489462946,0.00036593809777087257,-0.0124770113761645,0.012476703308477173
3.0,-2.1542973594424693,-2.0475527991516405,-1.7619317216402488,-0.937535015183708,1.5778799236914336,-0.584355948658609,-0.03349999999999778,-0.01939165458157294,0.02669049458604977,-0.007838590511024444,-0.001042043547530464,-0.0334853914381588,0.5000000000021163,0.28942768032322713,-0.39836559083827067,0.11699388822474906,0.01555288876917833,0.49978196176571305,0.6105567160301384,0.6102359188276085,0.2504704638662236,0.9998437579668874,0.0003660673123610897,-0.012499960196321368,0.012493063854210881
3.067560155,-2.155438453103306,-2.048213327334213,-1.7610225767394505,-0.9378020171521266,1.5778444290858693,-0.5854965447153471,-7.518244209852708e-17,-4.3519759635040044e-17,5.990019593423493e-17,-1.759177245460293e-17,-2.338608318697255e-18,-7.514965680435985e-17,0.5000000000348409,0.2894276803421712,-0.3983655908643489,0.11699388823240553,0.015552888770196187,0.4997819617984229,0.6115018589063056,0.6099078655337972,0.25039404399080506,0.9998436614247039,0.0003660933997761321,-0.012504487587459869,0.012496258425605094
