mathias31415/primitives_from_planned_trajectory_python/data/saved_trajectories/trajectory_20250625_075446_executed.csv
timestamp,shoulder_lift_joint_pos,elbow_joint_pos,wrist_1_joint_pos,wrist_2_joint_pos,wrist_3_joint_pos,shoulder_pan_joint_pos,shoulder_lift_joint_vel,elbow_joint_vel,wrist_1_joint_vel,wrist_2_joint_vel,wrist_3_joint_vel,shoulder_pan_joint_vel,shoulder_lift_joint_eff,elbow_joint_eff,wrist_1_joint_eff,wrist_2_joint_eff,wrist_3_joint_eff,shoulder_pan_joint_eff
1750830928.669473,-1.7271,-2.2029999999999994,-0.8079999999999998,1.5951,-0.030999999999999694,-1.6006999999999998,0.0,0.0,0.0,0.0,0.0,0.0,3.621137313700035,3.121199266827123,0.30055339469883446,0.0020055341419326616,0.0,1.208170004274665e-16
1750830928.6722004,-1.7271,-2.2029999999999994,-0.8079999999999998,1.5951,-0.030999999999999694,-1.6006999999999998,0.0,0.0,0.0,0.0,0.0,0.0,3.621137313700035,3.121199266827123,0.30055339469883446,0.0020055341419326616,0.0,1.208170004274665e-16
1750830928.6729312,-1.7271,-2.2029999999999994,-0.8079999999999998,1.5951,-0.030999999999999694,-1.6006999999999998,0.0,0.0,0.0,0.0,0.0,0.0,3.621137313700035,3.121199266827123,0.30055339469883446,0.0020055341419326616,0.0,1.208170004274665e-16
1750830928.6735253,-1.7271,-2.2029999999999994,-0.8079999999999998,1.5951,-0.030999999999999694,-1.6006999999999998,0.0,0.0,0.0,0.0,0.0,0.0,3.621137313700035,3.121199266827123,0.30055339469883446,0.0020055341419326616,0.0,1.208170004274665e-16
1750830928.6740105,-1.7271,-2.2029999999999994,-0.8079999999999998,1.5951,-0.030999999999999694,-1.6006999999999998,0.0,0.0,0.0,0.0,0.0,0.0,3.621137313700035,3.121199266827123,0.30055339469883446,0.0020055341419326616,0.0,1.208170004274665e-16
1750830928.6757288,-1.7271,-2.2029999999999994,-0.8079999999999998,1.5951,-0.030999999999999694,-1.6006999999999998,0.0,0.0,0.0,0.0,0.0,0.0,3.621137313700035,3.121199266827123,0.30055339469883446,0.0020055341419326616,0.0,1.208170004274665e-16
1750830928.6770153,-1.7271,-2.2029999999999994,-0.8079999999999998,1.5951,-0.030999999999999694,-1.6006999999999998,0.0,0.0,0.0,0.0,0.0,0.0,3.621137313700035,3.121199266827123,0.30055339469883446,0.0020055341419326616,0.0,1.208170004274665e-16
1750830928.6795294,-1.7271000980332785,-2.2029994723257804,-0.8080004396194411,1.5950999672567592,-0.03100099950509083,-1.600701,-9.803327830723675e-05,0.0005276742194597017,-0.0004396194408176424,-3.2743240852589624e-05,-0.00099950509072794,-0.001,3.6302612572366018,3.210986250240263,0.2909337768932344,-0.0014775398856869207,-0.028156380038578743,-0.35003744449082375
1750830928.6810186,-1.7271003921331136,-2.2029978893031217,-0.8080017584777632,1.5950998690270366,-0.031003998020362467,-1.6007039999999995,-0.0001960665566144735,0.0010553484389194034,-0.0008792388816352848,-6.548648170517925e-05,-0.00199901018145588,-0.002,3.6302666130983434,3.210989395702942,0.290933763581929,-0.0014775583306337757,-0.02815638003854854,-0.35003815823805773
1750830928.684391,-1.7271008822995046,-2.202995250932024,-0.808003956574967,1.5950997053108322,-0.031008995545816376,-1.6007090000000002,-0.00029409983492171025,0.0015830226583791053,-0.0013188583224529272,-9.822972255776888e-05,-0.0029985152721838204,-0.003,3.630275539530166,3.210994638130269,0.2909337413962608,-0.0014775890721555867,-0.02815638003849822,-0.35003934781785245
1750830928.685278,-1.7271008822995046,-2.202995250932024,-0.808003956574967,1.5950997053108322,-0.031008995545816376,-1.6007090000000002,-0.00029409983492171025,0.0015830226583791053,-0.0013188583224529272,-9.822972255776888e-05,-0.0029985152721838204,-0.003,3.630275539530166,3.210994638130269,0.2909337413962608,-0.0014775890721555867,-0.02815638003849822,-0.35003934781785245
1750830928.6878643,-1.7271015685324524,-2.2029915572124885,-0.8080070339110526,1.5950994761081463,-0.03101599208145167,-1.6007160000000002,-0.000392133113228947,0.002110696877838807,-0.0017584777632705696,-0.0001309729634103585,-0.00399802036291176,-0.004,3.6302880365254633,3.2110019775065237,0.2909337103359907,-0.0014776321101679097,-0.028156380038427756,-0.3500410132318153
1750830928.689234,-1.727102450831958,-2.2029868081445123,-0.8080109904860207,1.5950991814189786,-0.031024987627267464,-1.6007249999999997,-0.0004901663915361838,0.0026383710972985087,-0.002198097204088212,-0.0001637162042629481,-0.0049975254536397005,-0.005,3.63030410407498,3.2110114138097106,0.29093367040078366,-0.0014776874445525735,-0.02815638003833719,-0.3500431544821962
1750830928.6913939,-1.7271035291980192,-2.202981003728099,-0.8080158262998696,1.5950988212433292,-0.03103598218326553,-1.6007359999999995,-0.0005881996698434205,0.0031660453167582105,-0.0026377166449058544,-0.00019645944511553776,-0.005997030544367641,-0.006,3.630323742166798,3.2110229470115392,0.2909336215902095,-0.0014777550751575855,-0.02815638003822649,-0.35004577157188793
1750830928.6932654,-1.7271048036306373,-2.202974143963246,-0.8080215413526002,1.5950983955811981,-0.031048975749444985,-1.6007489999999995,-0.0006862329481506573,0.003693719536217912,-0.003077336085723497,-0.00022920268596812737,-0.006996535635095581,-0.007,3.630346950786383,3.2110365770774476,0.29093356390374253,-0.0014778350017972245,-0.02815638003809568,-0.3500488645044255
1750830928.6947012,-1.7271062741298113,-2.202966228849954,-0.8080281356442125,1.5950979044325855,-0.031063968325806712,-1.6007639999999999,-0.000784266226457894,0.004221393755677614,-0.0035169555265411392,-0.000261945926820717,-0.00799604072582352,-0.008,3.6303737299165335,3.211052303966579,0.2909334973407609,-0.0014779272242519592,-0.028156380037944743,-0.3500524332839866
1750830928.6968951,-1.727107940695543,-2.2029572583882233,-0.8080356091747056,1.5950973477974908,-0.031080959912348938,-1.6007809999999996,-0.0008822995047651309,0.004749067975137316,-0.003956574967358782,-0.00029468916767330666,-0.008995545816551462,-0.009000000000000001,3.6304040795374175,3.2110701276317886,0.29093342190054766,-0.0014780317422685384,-0.028156380037773807,-0.3500564779153909
1750830928.6991427,-1.7271098033278305,-2.202947232578053,-0.8080439619440813,1.5950967256759148,-0.03109995050907255,-1.6007999999999996,-0.0009803327830723678,0.005276742194597018,-0.004396194408176425,-0.0003274324085258963,-0.009995050907279403,-0.010000000000000002,3.630437999626546,3.2110900480196567,0.2909333375822896,-0.0014781485555598341,-0.028156380037582657,-0.35006099840409954
1750830928.7009356,-1.7271118620266748,-2.202936151419445,-0.8080531939523388,1.5950960380678567,-0.031120940115977547,-1.6008209999999998,-0.0010783660613796046,0.00580441641405672,-0.004835813848994067,-0.00036017564937848595,-0.010994555998007345,-0.011000000000000003,3.6304754901587835,3.2111120650704628,0.2909332443850782,-0.0014782776638050568,-0.028156380037371535,-0.350065994756215
1750830928.7039828,-1.7271141167920767,-2.202924014912398,-0.8080633051994779,1.595095284973317,-0.03114392873306482,-1.6008439999999995,-0.0011763993396868414,0.006332090633516423,-0.00527543328981171,-0.0003929188902310756,-0.011994061088735285,-0.012000000000000004,3.630516551106368,3.211136178718217,0.2909331423079096,-0.001478419066649544,-0.02815638003714024,-0.3500714669784822
1750830928.70478,-1.7271165676240336,-2.2029108230569108,-0.8080742956854978,1.595094466392296,-0.031168916360332588,-1.6008689999999994,-0.0012744326179940783,0.006859764852976125,-0.005715052730629353,-0.00042566213108366524,-0.012993566179463227,-0.013000000000000005,3.6305611824388677,3.2111623888906458,0.29093303134968435,-0.0014785727637048832,-0.028156380036889,-0.35007741507828544
1750830928.7074668,-1.7271165676240336,-2.2029108230569108,-0.8080742956854978,1.595094466392296,-0.031168916360332588,-1.6008689999999994,-0.0012744326179940783,0.006859764852976125,-0.005715052730629353,-0.00042566213108366524,-0.012993566179463227,-0.013000000000000005,3.6305611824388677,3.2111623888906458,0.29093303134968435,-0.0014785727637048832,-0.028156380036889,-0.35007741507828544
1750830928.708988,-1.7271192145225482,-2.2028965758529857,-0.8080861654104003,1.595093582324793,-0.031195902997782632,-1.6008959999999997,-0.001372465896301315,0.007387439072435827,-0.006154672171446995,-0.0004584053719362549,-0.013993071270191167,-0.014000000000000005,3.6306093841232188,3.2111906955091696,0.2909329115092063,-0.0014787387545488982,-0.028156380036617617,-0.3500838390636507
1750830928.7107832,-1.7271220574876196,-2.202881273300621,-0.8080989143741837,1.5950926327708081,-0.031224888645413174,-1.6009250000000002,-0.001470499174608552,0.00791511329189553,-0.006594291612264639,-0.0004911486127888446,-0.014992576360919108,-0.015000000000000006,3.6306611561237156,3.2112210984889513,0.2909327827851854,-0.0014789170387256008,-0.02815638003632626,-0.350090738943243
1750830928.7129169,-1.7271250965192468,-2.202864915399818,-0.8081125425768487,1.5950916177303418,-0.03125587330322599,-1.600956,-0.0015685324529157887,0.008442787511355231,-0.007033911053082281,-0.0005238918536414342,-0.015992081451647048,-0.016000000000000007,3.6307164984019913,3.2112535977388506,0.2909326451762345,-0.0014791076157451895,-0.028156380036014894,-0.35009811472636704
1750830928.7149856,-1.7271283316174308,-2.2028475021505756,-0.8081270500183964,1.5950905372033937,-0.03128885697122019,-1.6009890000000002,-0.0016665657312230255,0.008970461730814934,-0.0074735304938999235,-0.0005566350944940239,-0.01699158654237499,-0.017000000000000008,3.630775410917044,3.211288193161451,0.29093249868087123,-0.0014793104850841208,-0.02815638003568364,-0.35010596642296715
1750830928.716618,-1.7271317627821716,-2.202829033552895,-0.8081424366988248,1.5950893911899637,-0.03132383964939578,-1.6010239999999998,-0.0017645990095302624,0.009498135950274636,-0.007913149934717567,-0.0005893783353466135,-0.017991091633102932,-0.01800000000000001,3.6308378936252264,3.211324884653048,0.2909323432975182,-0.0014795256461850065,-0.028156380035332215,-0.35011429404362554
1750830928.7191007,-1.7271353900134692,-2.202809509606775,-0.8081587026181349,1.5950881796900522,-0.03136082133775275,-1.6010609999999996,-0.0018626322878374992,0.010025810169734337,-0.00835276937553521,-0.0006221215761992032,-0.018990596723830872,-0.01900000000000001,3.6309039464802444,3.2113636721036585,0.29093217902450164,-0.0014797530984566659,-0.02815638003496094,-0.35012309759956267
1750830928.7207057,-1.7271392133113235,-2.2027889303122157,-0.8081758477763268,1.595086902703659,-0.03139980203629111,-1.6010999999999997,-0.001960665566144736,0.01055348438919404,-0.008792388816352852,-0.0006548648170517929,-0.019990101814558812,-0.02000000000000001,3.6309735694331553,3.2114045553970123,0.29093200586005274,-0.0014799928412741344,-0.028156380034569724,-0.35013237710263584
1750830928.7226186,-1.7271432326757337,-2.2027672956692177,-0.8081938721734003,1.595085560230784,-0.03144078174501086,-1.6011410000000001,-0.002058698844451973,0.011081158608653743,-0.009232008257170495,-0.0006876080579043825,-0.020989606905286756,-0.02100000000000001,3.6310467624323675,3.2114475344105586,0.29093182380230664,-0.0014802448739785904,-0.028156380034158695,-0.3501421325653399
1750830928.724668,-1.7271474481067006,-2.202744605677781,-0.8082127758093556,1.5950841522714274,-0.03148376046391199,-1.601184,-0.0021567321227592097,0.011608832828113445,-0.009671627697988138,-0.0007203512987569721,-0.021989111996014696,-0.022000000000000013,3.6311235254236482,3.2114926090154565,0.29093163284930285,-0.0014805091958774552,-0.02815638003372759,-0.35015236400080463
1750830928.7298608,-1.7271518596042243,-2.202720860337905,-0.8082325586841925,1.595082678825589,-0.03152873819299451,-1.601229,-0.0022547654010664467,0.012136507047573146,-0.01011124713880578,-0.0007530945396095618,-0.022988617086742637,-0.023000000000000013,3.6312038583501187,3.2115397790765896,0.29093143299898583,-0.0014807858062442995,-0.02815638003327671,-0.3501630714227958
1750830928.7304387,-1.7271564671683048,-2.2026960596495906,-0.8082532207979112,1.595081139893269,-0.0315757149322593,-1.6012759999999995,-0.0023527986793736833,0.012664181267032849,-0.010550866579623423,-0.0007858377804621515,-0.023988122177470577,-0.024000000000000014,3.631287761152251,3.211589044452555,0.2909312242492037,-0.0014810747043188452,-0.028156380032805992,-0.3501742548457133
1750830928.7323213,-1.7271564671683048,-2.2026960596495906,-0.8082532207979112,1.595081139893269,-0.0315757149322593,-1.6012759999999995,-0.0023527986793736833,0.012664181267032849,-0.010550866579623423,-0.0007858377804621515,-0.023988122177470577,-0.024000000000000014,3.631287761152251,3.211589044452555,0.2909312242492037,-0.0014810747043188452,-0.028156380032805992,-0.3501742548457133
1750830928.7328954,-1.7271564671683048,-2.2026960596495906,-0.8082532207979112,1.595081139893269,-0.0315757149322593,-1.6012759999999995,-0.0023527986793736833,0.012664181267032849,-0.010550866579623423,-0.0007858377804621515,-0.023988122177470577,-0.024000000000000014,3.631287761152251,3.211589044452555,0.2909312242492037,-0.0014810747043188452,-0.028156380032805992,-0.3501742548457133
1750830928.7370098,-1.7271662704961361,-2.202643292227645,-0.8082971827419927,1.5950778655691835,-0.03167566544133216,-1.6013760000000001,-0.002548865235988157,0.013719529705952253,-0.01143010546125871,-0.0008513242621673308,-0.02598713235892646,-0.026000000000000016,3.631466276132155,3.2116938605519683,0.2909307800421601,-0.0014816893603809603,-0.028156380031805244,-0.35019804975509655
1750830928.7376099,-1.727171466259886,-2.2026153254940137,-0.8083204825723556,1.5950761301774183,-0.03172863921114022,-1.6014289999999995,-0.002646898514295394,0.014247203925411955,-0.011869724902076351,-0.0008840675030199204,-0.0269866374496544,-0.027000000000000017,3.6315608881776336,3.2117494109612026,0.2909305445801178,-0.0014820151166788265,-0.02815638003127507,-0.35021066127352746
1750830928.739194,-1.7271768580901927,-2.202586303411943,-0.808344661641601,1.5950743292991716,-0.031783611991130556,-1.6014839999999992,-0.0027449317926026306,0.014774878144871658,-0.012309344342893994,-0.00091681074387251,-0.02798614254038234,-0.028000000000000018,3.6316590698341957,3.2118070560568444,0.29093030020904787,-0.0014823531573050438,-0.028156380030725264,-0.35022374885681506
1750830928.741518,-1.7271824459870562,-2.202556225981434,-0.8083697199497273,1.5950724629344428,-0.03184058378130228,-1.601541,-0.0028429650709098676,0.015302552364331359,-0.012748963783711638,-0.0009495539847250998,-0.028985647631110282,-0.02900000000000002,3.6317608210290766,3.2118667956660794,0.2909300469263213,-0.0014827034813301892,-0.02815638003015576,-0.3502373125225184
1750830928.742781,-1.7271882299504764,-2.2025250932024854,-0.8083956574967353,1.5950705310832327,-0.0318995545816545,-1.6015999999999995,-0.0029409983492171047,0.015830226583791063,-0.013188583224529279,-0.0009822972255776894,-0.029985152721838222,-0.03000000000000002,3.63186614168687,3.211928629609822,0.2909297847292129,-0.0014830660877908856,-0.028156380029566594,-0.35025135228882776
1750830928.7448964,-1.7271942099804534,-2.2024929050750988,-0.8084224742826258,1.5950685337455406,-0.031960524392188994,-1.601661,-0.0030390316275243413,0.016357900803250763,-0.013628202665346922,-0.001015040466430279,-0.030984657812566166,-0.03100000000000002,3.631975031729511,3.2119925577026924,0.29092951361490127,-0.0014834409756900153,-0.028156380028957886,-0.3502658681745609
1750830928.7466846,-1.7272003860769871,-2.2024596615992724,-0.8084501703073972,1.5950664709213669,-0.032023493212904874,-1.601724,-0.0031370649058315783,0.016885575022710465,-0.014067822106164566,-0.0010477837072828686,-0.0319841629032941,-0.03200000000000002,3.6320874910763017,3.212058579753045,0.29092923358047057,-0.0014838281439964898,-0.02815638002832928,-0.35028086019916366
1750830928.749024,-1.7272067582400767,-2.202425362775008,-0.8084787455710503,1.5950643426107114,-0.03208846104380214,-1.6017890000000001,-0.003235098184138815,0.017413249242170168,-0.014507441546982209,-0.0010805269481354582,-0.032983667994022046,-0.03300000000000002,3.6322035196438778,3.212126695562947,0.2909289446229088,-0.0014842275916453918,-0.028156380027681508,-0.3502963283827068
1750830928.7509832,-1.7272133264697231,-2.202390008602304,-0.808508200073585,1.5950621488135743,-0.032155427884880794,-1.6018559999999997,-0.003333131462446052,0.01794092346162987,-0.01494706098779985,-0.001113270188988048,-0.03398317308474999,-0.03400000000000002,3.632323117346245,3.2121969049281898,0.2909286467391084,-0.0014846393175378982,-0.028156380027014004,-0.35031227274588755
1750830928.7536385,-1.7272200907659263,-2.202353599081161,-0.8085385338150015,1.5950598895299555,-0.03222439373614172,-1.6019249999999996,-0.0034311647407532886,0.018468597681089573,-0.015386680428617494,-0.0011460134298406377,-0.03498267817547793,-0.035000000000000024,3.6324462840947502,3.2122692076382764,0.29092833992586575,-0.0014850633205412977,-0.028156380026326814,-0.3503286933100259
1750830928.754919,-1.7272200907659263,-2.202353599081161,-0.8085385338150015,1.5950598895299555,-0.03222439373614172,-1.6019249999999996,-0.0034311647407532886,0.018468597681089573,-0.015386680428617494,-0.0011460134298406377,-0.03498267817547793,-0.035000000000000024,3.6324462840947502,3.2122692076382764,0.29092833992586575,-0.0014850633205412977,-0.028156380026326814,-0.3503286933100259
1750830928.756846,-1.7272270511286862,-2.2023161342115802,-0.8085697467952997,1.595057564759855,-0.032295358597583146,-1.6019959999999998,-0.0035291980190605256,0.018996271900549276,-0.015826299869435137,-0.0011787566706932273,-0.03598218326620587,-0.036000000000000025,3.6325730197980923,3.21234360347644,0.2909280241798825,-0.0014854995994889784,-0.028156380025620556,-0.3503455900970663
1750830928.7605026,-1.727234207558003,-2.2022776139935587,-0.8086018390144787,1.5950551745032728,-0.03236832246920596,-1.6020690000000002,-0.003627231297367762,0.01952394612000898,-0.01626591931025278,-0.001211499911545817,-0.03698168835693381,-0.037000000000000026,3.632703324362333,3.2124200922196424,0.29092769949776454,-0.0014859481531804383,-0.028156380024894498,-0.350362963129573
1750830928.761149,-1.7272415600538755,-2.202238038427099,-0.8086348104725403,1.5950527187602088,-0.03244328535101104,-1.602144,-0.0037252645756749993,0.020051620339468678,-0.016705538751070424,-0.0012442431523984065,-0.03798119344766175,-0.03800000000000003,3.6328371976908578,3.212498673638546,0.29092736587602114,-0.0014864089803812396,-0.02815638002414945,-0.3503808124307327
1750830928.7628686,-1.7272491086163058,-2.2021974075122017,-0.8086686611694835,1.5950501975306632,-0.032520247242996625,-1.6022210000000001,-0.003823297853982236,0.02057929455892838,-0.017145158191888065,-0.0012769863932509961,-0.038980698538389695,-0.03900000000000003,3.632974639684435,3.212579347497555,0.2909270233110677,-0.0014868820798229993,-0.028156380023384876,-0.35039913802434886
1750830928.76499,-1.7272568532452919,-2.2021557212488645,-0.8087033911053076,1.5950476108146359,-0.03259920814516448,-1.6022999999999996,-0.003921331132289473,0.021106968778388083,-0.017584777632705707,-0.001309729634103586,-0.03998020362911763,-0.04000000000000003,3.6331156502411615,3.212662113554793,0.29092667179922255,-0.0014873674502034588,-0.028156380022600815,-0.3504179399348454
1750830928.7668006,-1.7272647939408348,-2.2021129796370875,-0.8087390002800143,1.5950449586121267,-0.032680168057513725,-1.6023809999999994,-0.0040193644105967095,0.021634642997847786,-0.01802439707352335,-0.0013424728749561756,-0.040979708719845576,-0.04100000000000003,3.6332602292564946,3.212746971562101,0.2909263113367089,-0.00148786509018636,-0.028156380021797895,-0.35043721818726076
1750830928.7693844,-1.7272729307029344,-2.2020691826768726,-0.8087754886936018,1.595042240923136,-0.03276312698004347,-1.6024639999999994,-0.004117397688903946,0.02216231721730749,-0.018464016514340993,-0.0013752161158087652,-0.04197921381057352,-0.04200000000000003,3.6334083766232363,3.2128339212650476,0.2909259419196551,-0.0014883749984015166,-0.028156380020975577,-0.35045697280724925
1750830928.7709208,-1.72728126353159,-2.202024330368218,-0.8088128563460719,1.5950394577476634,-0.03284808491275548,-1.6025489999999998,-0.004215430967211184,0.02268999143676719,-0.018903635955158635,-0.0014079593566613548,-0.042978718901301456,-0.04300000000000003,3.63356009223154,3.2129229624029287,0.290925563544093,-0.0014888971734447964,-0.028156380020133907,-0.35047720382107955
1750830928.773153,-1.7272897924268031,-2.201978422711125,-0.8088511032374228,1.5950366090857093,-0.03293504185564888,-1.6026359999999995,-0.00431346424551842,0.023217665656226894,-0.01934325539597628,-0.0014407025975139444,-0.0439782239920294,-0.04400000000000003,3.6337153759689143,3.2130140947087584,0.2909251762059591,-0.001489431613878064,-0.02815638001927352,-0.3504979112556311
1750830928.774927,-1.7272985173885722,-2.2019314597055937,-0.8088902293676554,1.5950336949372734,-0.03302399780872367,-1.6027249999999995,-0.004411497523825657,0.023745339875686593,-0.01978287483679392,-0.001473445838366534,-0.04497772908275734,-0.04500000000000003,3.6338742277202027,3.2131073179092824,0.2909247799010945,-0.0014899783182292443,-0.028156380018393677,-0.3505190951383954
1750830928.776874,-1.727307438416898,-2.2018834413516224,-0.8089302347367697,1.595030715302356,-0.033114952771979844,-1.6028159999999998,-0.004509530802132894,0.024273014095146296,-0.020222494277611563,-0.0015061890792191239,-0.04597723417348528,-0.046000000000000034,3.634036647367617,3.213202631724973,0.2909243746252449,-0.0014905372849922448,-0.028156380017495212,-0.3505407554974731
1750830928.7786877,-1.7273165555117806,-2.201834367649213,-0.8089711193447657,1.5950276701809567,-0.033207906745417404,-1.6029089999999995,-0.004607564080440131,0.024800688314606,-0.020662113718429208,-0.0015389323200717135,-0.046976739264213224,-0.047000000000000035,3.6342026347907033,3.213300035870024,0.29092396037406,-0.0014911085126269794,-0.028156380016577595,-0.35056289236157256
1750830928.781163,-1.72732586867322,-2.201784238598364,-0.8090128831916434,1.5950245595730757,-0.03330285972903724,-1.6030040000000003,-0.0047055973587473675,0.0253283625340657,-0.02110173315924685,-0.0015716755609243031,-0.04797624435494116,-0.048000000000000036,3.6343721898663595,3.2133995300523615,0.29092353714309466,-0.0014916919995593798,-0.02815638001564087,-0.35058550576000785
1750830928.7829044,-1.7273353779012162,-2.2017330541990763,-0.8090555262774028,1.5950213834787128,-0.03339981172283757,-1.6031009999999997,-0.004803630637054604,0.025856036753525404,-0.02154135260006449,-0.0016044188017768927,-0.048975749445669105,-0.04900000000000004,3.634545312468836,3.2135011139736327,0.2909231049278069,-0.0014922877441813271,-0.02815638001468567,-0.3506085957226979
1750830928.7847736,-1.7273450831957682,-2.2016808144513504,-0.809099048602044,1.5950181418978684,-0.03349876272681929,-1.6031999999999993,-0.0049016639153618416,0.026383710972985107,-0.021980972040882136,-0.0016371620426294824,-0.04997525453639704,-0.05000000000000004,3.6347220024697187,3.2136047873292184,0.29092266372356046,-0.0014928957448506603,-0.028156380013711284,-0.3506321622801648
1750830928.7870245,-1.727354984556877,-2.201627519355185,-0.8091434501655668,1.5950148348305424,-0.03359971274098328,-1.603301,-0.004999697193669078,0.02691138519244481,-0.022420591481699777,-0.001669905283482072,-0.050974759627124985,-0.05100000000000004,3.634902259737961,3.2137105498082312,0.2909222135256231,-0.0014935159998911995,-0.02815638001271853,-0.35065620546353177
1750830928.7888172,-1.7273650819845425,-2.2015731689105804,-0.8091887309679704,1.5950114622767346,-0.03370266176532777,-1.6034039999999994,-0.005097730471976315,0.02743905941190451,-0.02286021092251742,-0.0017026485243346618,-0.05197426471785293,-0.05200000000000004,3.6350860841398474,3.2138184010935054,0.29092175432916695,-0.0014941485075927353,-0.028156380011706894,-0.3506807253045212
1750830928.7908685,-1.7273753754787649,-2.201517763117537,-0.8092348910092566,1.595008024236445,-0.03380760979985453,-1.6035089999999999,-0.005195763750283551,0.02796673363136421,-0.023299830363335064,-0.0017353917651872514,-0.052973769808580866,-0.05300000000000004,3.6352734755390186,3.2139283408616106,0.29092128612926865,-0.0014947932662109475,-0.02815638001067642,-0.3507057218354537
1750830928.7927456,-1.727385865039544,-2.201461301976055,-0.8092819302894245,1.595004520709674,-0.03391455684456268,-1.6036159999999997,-0.005293797028590789,0.028494407850823914,-0.023739449804152706,-0.001768135006039841,-0.05397327489930881,-0.05400000000000004,3.6354644337964555,3.214040368782842,0.2909208089209093,-0.001495450273967463,-0.028156380009627762,-0.3507311950892455
1750830928.794659,-1.7273965506668798,-2.201403785486134,-0.8093298488084733,1.595000951696421,-0.03402350289945133,-1.6037249999999998,-0.0053918303068980255,0.029022082070283617,-0.02417906924497035,-0.0018008782468924307,-0.054972779990036746,-0.05500000000000004,3.635658958770489,3.214154484521233,0.2909203226989744,-0.001496119529049835,-0.028156380008560192,-0.350757145099407
1750830928.7966588,-1.7274074323607715,-2.201345213647773,-0.8093786465664037,1.5949973171966862,-0.03413444796452225,-1.6038359999999994,-0.005489863585205262,0.02954975628974332,-0.024618688685787992,-0.0018336214877450203,-0.05597228508076469,-0.05600000000000004,3.6358570503167926,3.2142706877345493,0.29091982745825423,-0.0014968010296115002,-0.028156380007474554,-0.3507835719000413
1750830928.7991824,-1.72741851012122,-2.2012855864609744,-0.8094283235632167,1.59499361721047,-0.03424739203977456,-1.603949,-0.0055878968635124995,0.030077430509203022,-0.025058308126605634,-0.00186636472859761,-0.056971790171492634,-0.057000000000000044,3.6360587082883873,3.2143889780742776,0.2909193231934431,-0.001497494773771767,-0.028156380006370316,-0.350810475525841
1750830928.801433,-1.72741851012122,-2.2012855864609744,-0.8094283235632167,1.59499361721047,-0.03424739203977456,-1.603949,-0.0055878968635124995,0.030077430509203022,-0.025058308126605634,-0.00186636472859761,-0.056971790171492634,-0.057000000000000044,3.6360587082883873,3.2143889780742776,0.2909193231934431,-0.001497494773771767,-0.028156380006370316,-0.350810475525841
1750830928.8029184,-1.7274297839482253,-2.2012249039257368,-0.8094788797989105,1.5949898517377719,-0.034362335125208254,-1.6040639999999993,-0.005685930141819736,0.030605104728662725,-0.02549792756742328,-0.0018991079694501997,-0.05797129526222057,-0.058000000000000045,3.6362639325356434,3.2145093551856476,0.2909188098991399,-0.0014982007596158616,-0.028156380005247554,-0.3508378560120885
1750830928.8049593,-1.7274412538417874,-2.2011631660420603,-0.8095303152734861,1.5949860207785922,-0.034479277220823334,-1.6041809999999996,-0.005783963420126973,0.031132778948122424,-0.02593754700824092,-0.0019318512103027893,-0.058970800352948514,-0.059000000000000045,3.636472722906272,3.214631818707622,0.29091828756984844,-0.0014989189851948165,-0.028156380004106907,-0.3508657133946513
1750830928.8068657,-1.7274529198019062,-2.201100372809945,-0.8095826299869433,1.5949821243329307,-0.03459821832662069,-1.6043000000000003,-0.005881996698434209,0.03166045316758213,-0.02637716644905856,-0.0019645944511553787,-0.05997030544367645,-0.060000000000000046,3.6366850792453302,3.2147563682728983,0.2909177561999766,-0.0014996494485255757,-0.02815638000294766,-0.35089404770998206
1750830928.8087697,-1.7274647818285818,-2.20103652422939,-0.8096358239392822,1.5949781624007875,-0.03471915844259854,-1.6044210000000003,-0.005980029976741447,0.03218812738704183,-0.026816785889876207,-0.001997337692007969,-0.060969810534404395,-0.06100000000000005,3.63690100139522,3.214883003507911,0.2909172157838368,-0.0015003921475909197,-0.02815638000177067,-0.350922858995116
1750830928.8137543,-1.7274768399218132,-2.200971620300397,-0.8096898971305029,1.5949741349821627,-0.03484209756875778,-1.6045439999999997,-0.006078063255048683,0.03271580160650153,-0.027256405330693848,-0.0020300809328605584,-0.06196931562513234,-0.06200000000000005,3.637120489195682,3.215011724032821,0.2909166663156461,-0.001501147080339347,-0.0281563800005754,-0.35095214728766916
1750830928.8141773,-1.7274768399218132,-2.200971620300397,-0.8096898971305029,1.5949741349821627,-0.03484209756875778,-1.6045439999999997,-0.006078063255048683,0.03271580160650153,-0.027256405330693848,-0.0020300809328605584,-0.06196931562513234,-0.06200000000000005,3.637120489195682,3.215011724032821,0.2909166663156461,-0.001501147080339347,-0.0281563800005754,-0.35095214728766916
1750830928.8188052,-1.7274890940816015,-2.200905661022964,-0.8097448495606052,1.594970042077056,-0.03496703570509929,-1.6046689999999995,-0.006176096533355919,0.03324347582596123,-0.027696024771511486,-0.0020628241737131476,-0.06296882071586027,-0.06300000000000004,3.637343542483809,3.21514252946154,0.29091610778952603,-0.0015019142446852788,-0.028156379999361738,-0.35098191262583206
1750830928.8192663,-1.7275015443079464,-2.2008386463970924,-0.8098006812295893,1.5949658836854677,-0.0350939728516213,-1.6047960000000003,-0.006274129811663157,0.03377115004542093,-0.02813564421232913,-0.002095567414565737,-0.0639683258065882,-0.06400000000000004,3.6375701610940325,3.2152754194017086,0.2909155401995021,-0.0015026936385089738,-0.028156379998130726,-0.3510121550483821
1750830928.8196,-1.7275141906008482,-2.200770576422782,-0.8098573921374541,1.5949616598073977,-0.03522290900832559,-1.6049249999999997,-0.006372163089970393,0.03429882426488064,-0.028575263653146773,-0.002128310655418327,-0.06496783089731616,-0.06500000000000004,3.63780034485813,3.2154103934547074,0.29091496353950563,-0.0015034852596562858,-0.02815637999688204,-0.3510428745946559
1750830928.820865,-1.7275270329603067,-2.2007014511000325,-0.8099149822842016,1.5949573704428461,-0.03535384417521037,-1.6050559999999994,-0.00647019636827763,0.034826498484340336,-0.029014883093964418,-0.0021610538962709164,-0.06596733598804409,-0.06600000000000004,3.6380340936052127,3.2155474512156488,0.29091437780337076,-0.001504289105938977,-0.028156379995614773,-0.35107407130457224
1750830928.822803,-1.7275400713863212,-2.200631270428845,-0.8099734516698298,1.5949530155918128,-0.035486778352277426,-1.6051889999999993,-0.0065682296465848665,0.03535417270380004,-0.02945450253478206,-0.0021937971371235065,-0.06696684107877203,-0.06700000000000005,3.6382714071617377,3.2156865922734026,0.2909137829848378,-0.0015051051751345584,-0.028156379994330172,-0.3511057452186152
1750830928.8248503,-1.7275533058788923,-2.200560034409218,-0.8100328002943407,1.5949485952542977,-0.03562171153952587,-1.6053239999999995,-0.006666262924892104,0.03588184692325974,-0.0298941219755997,-0.002226540377976096,-0.06796634616949998,-0.06800000000000005,3.6385122853515153,3.215827816210565,0.2909131790775501,-0.001505933464986221,-0.02815637999302832,-0.35113789637783765
1750830928.826974,-1.7275533058788923,-2.200560034409218,-0.8100328002943407,1.5949485952542977,-0.03562171153952587,-1.6053239999999995,-0.006666262924892104,0.03588184692325974,-0.0298941219755997,-0.002226540377976096,-0.06796634616949998,-0.06800000000000005,3.6385122853515153,3.215827816210565,0.2909131790775501,-0.001505933464986221,-0.02815637999302832,-0.35113789637783765
1750830928.8284528,-1.7275667364380212,-2.200487743041151,-0.8100930281577323,1.5949441094303007,-0.0357586437369557,-1.605461,-0.0067642962031993405,0.03640952114271944,-0.030333741416417346,-0.0022592836188286857,-0.06896585126022792,-0.06900000000000005,3.6387567279956907,3.215971122603478,0.2909125660750568,-0.0015067739732029474,-0.028156379991708103,-0.35117052482385774
1750830928.8307176,-1.727580363063705,-2.2004143963246463,-0.8101541352600066,1.5949395581198222,-0.03589757494456691,-1.6056,-0.006862329481506577,0.03693719536217915,-0.030773360857234987,-0.0022920268596812753,-0.06996535635095585,-0.07000000000000005,3.6390047349127292,3.2161165110222267,0.29091194397081055,-0.001507626697459357,-0.02815637999037078,-0.3512036305988545
1750830928.834039,-1.7276082045147447,-2.200264536846321,-0.8102789871811984,1.59493025903942,-0.0361814343903335,-1.6058839999999996,-0.007058396038121051,0.03799254380109855,-0.031652599738870274,-0.0023575133413864546,-0.07196436653241174,-0.07200000000000005,3.639511440826072,3.2164135321862677,0.290910672430395,-0.0015093687846183272,-0.028156379987643945,-0.3512712743072977
1750830928.8348184,-1.7276082045147447,-2.200264536846321,-0.8102789871811984,1.59493025903942,-0.0361814343903335,-1.6058839999999996,-0.007058396038121051,0.03799254380109855,-0.031652599738870274,-0.0023575133413864546,-0.07196436653241174,-0.07200000000000005,3.639511440826072,3.2164135321862677,0.290910672430395,-0.0015093687846183272,-0.028156379987643945,-0.3512712743072977
1750830928.8369524,-1.7276224193400989,-2.2001880240844987,-0.8103427320001169,1.5949255112694964,-0.03632636262848887,-1.6060289999999995,-0.007156429316428288,0.03852021802055825,-0.032092219179687916,-0.002390256582239044,-0.07296387162313968,-0.07300000000000005,3.639770139446041,3.216565164040458,0.290910022980655,-0.0015102581426985988,-0.028156379986254587,-0.3513058123278956
1750830928.8391356,-1.7276368302320106,-2.2001104559742384,-0.810407356057917,1.5949206980130912,-0.03647328987682563,-1.6061759999999996,-0.007254462594735524,0.03904789224001796,-0.03253183862050556,-0.002422999823091634,-0.07396337671386762,-0.07400000000000005,3.6400324015862213,3.2167188761382537,0.2909093644020198,-0.001511159707173937,-0.028156379984848046,-0.35134082785176846
1750830928.8409398,-1.7276514371904783,-2.2000318325155384,-0.8104728593545989,1.5949158192702042,-0.036622216135344665,-1.606325,-0.007352495873042762,0.03957556645947766,-0.0329714580613232,-0.0024557430639442234,-0.07496288180459557,-0.07500000000000005,3.640298227051787,3.2168746680184666,0.2909086966874658,-0.0015120734755473225,-0.028156379983424788,-0.35137632092387283
1750830928.8428268,-1.7276662402155027,-2.1999521537084004,-0.8105392418901625,1.5949108750408354,-0.036773141404044196,-1.6064759999999998,-0.0074505291513499985,0.040103240678937356,-0.03341107750214085,-0.002488486304796813,-0.0759623868953235,-0.07600000000000005,3.640567615645265,3.2170325392136534,0.290908019829873,-0.001512999445287319,-0.02815637998198373,-0.35141229158971254
1750830928.8443942,-1.727681239307084,-2.1998714195528226,-0.8106065036646077,1.594905865324985,-0.036926065682926,-1.6066289999999999,-0.007548562429657235,0.04063091489839706,-0.03385069694295849,-0.0025212295456494027,-0.07696189198605144,-0.07700000000000005,3.6408405671665087,3.2171924892501162,0.290907333822027,-0.001513937613828078,-0.02815637998052612,-0.3514487398953379
1750830928.8466253,-1.727696434465221,-2.199789630048807,-0.8106746446779347,1.5949007901226528,-0.037080988971988305,-1.6067839999999993,-0.007646595707964472,0.04115858911785676,-0.03429031638377613,-0.0025539727865019923,-0.07796139707677939,-0.07800000000000006,3.641117081412713,3.2173545176479093,0.29090663865661687,-0.0015148879785693615,-0.02815637997905205,-0.35148566588734037
1750830928.8486152,-1.7277118256899158,-2.1997067851963514,-0.8107436649301425,1.5948956494338389,-0.03723791127123288,-1.606941,-0.007744628986271709,0.04168626333731647,-0.03472993582459377,-0.0025867160273545823,-0.07896090216750733,-0.07900000000000006,3.641397158178417,3.217518623920834,0.290905934326237,-0.0015158505368764869,-0.02815637997756043,-0.3515230696128523
1750830928.8505523,-1.7277274129811664,-2.199622884995457,-0.8108135644212329,1.5948904432585433,-0.037396832580658845,-1.6071,-0.007842662264578946,0.04221393755677617,-0.03516955526541141,-0.002619459268207172,-0.07996040725823526,-0.08000000000000006,3.6416807972554808,3.2176848075764455,0.2909052208233858,-0.0015168252860802492,-0.02815637997605252,-0.35156095111954294
1750830928.8524232,-1.7277431963389738,-2.199537929446125,-0.8108843431512041,1.594885171596766,-0.03755775290026531,-1.6072609999999994,-0.007940695542886183,0.04274161177623587,-0.035609174706229055,-0.0026522025090597616,-0.08095991234896321,-0.08100000000000006,3.641967998433112,3.2178530681160487,0.29090449814046715,-0.0015178122234770753,-0.028156379974528408,-0.3515993104556158
1750830928.8546371,-1.727759175763338,-2.199451918548352,-0.8109560011200578,1.5948798344485071,-0.03772067223005404,-1.607424,-0.008038728821193419,0.04326928599569557,-0.0360487941470467,-0.002684945749912351,-0.08195941743969115,-0.08200000000000006,3.6422587614978594,3.218023405034709,0.2909037662697882,-0.001518811346328822,-0.028156379972987006,-0.35163814766980656
1750830928.8566067,-1.7277753512542589,-2.199364852302141,-0.8110285383277924,1.5948744318137664,-0.037885590570024164,-1.607589,-0.008136762099500656,0.04379696021515527,-0.036488413587864345,-0.002717688990764941,-0.08295892253041909,-0.08300000000000006,3.6425530862335846,3.21819581782123,0.2909030252035625,-0.0015198226518628784,-0.02815637997142958,-0.35167746281137935
1750830928.858928,-1.7277917228117357,-2.199276730707492,-0.8111019547744096,1.5948689636925442,-0.03805250792017567,-1.6077560000000002,-0.008234795377807892,0.04432463443461498,-0.036928033028681986,-0.0027504322316175304,-0.08395842762114704,-0.08400000000000006,3.6428509724215026,3.218370305958188,0.2909022749339066,-0.0015208461372720685,-0.028156379969856232,-0.35171725593012415
1750830928.8603756,-1.7278082904357701,-2.1991875537644034,-0.8111762504599076,1.59486343008484,-0.03822142428050945,-1.6079249999999998,-0.00833282865611513,0.04485230865407468,-0.03736765246949963,-0.00278317547247012,-0.08495793271187498,-0.08500000000000006,3.643152419840164,3.2185468689219023,0.29090151545284226,-0.0015218817997147164,-0.028156379968265866,-0.3517575270763553
1750830928.8624146,-1.7278250541263604,-2.199097321472875,-0.8112514253842873,1.5948578309906543,-0.03839233965102373,-1.6080959999999997,-0.008430861934422367,0.04537998287353438,-0.03780727191031727,-0.0028159187133227096,-0.08595743780260291,-0.08600000000000006,3.643457428265441,3.218725506182464,0.2909007467522962,-0.0015229296363145533,-0.028156379966659748,-0.3517982763009061
1750830928.8645337,-1.7278420138835076,-2.1990060338329087,-0.8113274795475487,1.5948521664099866,-0.0385652540317194,-1.608269,-0.008528895212729603,0.04590765709299408,-0.03824689135113491,-0.0028486619541752993,-0.08695694289333085,-0.08700000000000006,3.643765997470544,3.2189062172036977,0.2908999688240987,-0.0015239896441607249,-0.028156379965037594,-0.3518395036551285
1750830928.8664467,-1.7278591697072114,-2.1989136908445035,-0.8114044129496918,1.5948464363428374,-0.03874016742259645,-1.6084439999999995,-0.00862692849103684,0.04643533131245379,-0.03868651079195256,-0.002881405195027889,-0.0879564479840588,-0.08800000000000006,3.6440781272260163,3.2190890014432134,0.29089918165998613,-0.00152506182030776,-0.028156379963399883,-0.35188120919088756
1750830928.871667,-1.7278765215974712,-2.1988202925076585,-0.8114822255907166,1.5948406407892066,-0.038917079823655776,-1.6086209999999994,-0.008724961769344078,0.04696300553191349,-0.0391261302327702,-0.0029141484358804785,-0.08895595307478674,-0.08900000000000007,3.6443938172997346,3.2192738583523686,0.29089838525159895,-0.0015261461617755814,-0.02815637996174554,-0.35192339296056063
1750830928.8721654,-1.7278765215974712,-2.1988202925076585,-0.8114822255907166,1.5948406407892066,-0.038917079823655776,-1.6086209999999994,-0.008724961769344078,0.04696300553191349,-0.0391261302327702,-0.0029141484358804785,-0.08895595307478674,-0.08900000000000007,3.6443938172997346,3.2192738583523686,0.29089838525159895,-0.0015261461617755814,-0.02815637996174554,-0.35192339296056063
1750830928.8747272,-1.7278940695542886,-2.1987258388223756,-0.8115609174706231,1.594834779749094,-0.0390959912348956,-1.6087999999999996,-0.008822995047651314,0.04749067975137319,-0.03956574967358784,-0.002946891676733068,-0.08995545816551467,-0.09000000000000007,3.64471306745691,3.219460787376278,0.29089757959048135,-0.0015272426655494856,-0.028156379960075834,-0.3519660550170327
1750830928.8759925,-1.7279118135776628,-2.198630329788654,-0.8116404885894104,1.5948288532224997,-0.0392769016563177,-1.608981,-0.008921028325958551,0.04801835397083289,-0.040005369114405484,-0.002979634917585658,-0.09095496325624262,-0.09100000000000007,3.645035877460074,3.2196497879538244,0.29089676466808334,-0.0015283513285801035,-0.028156379958390872,-0.35200919541369485
1750830928.8771791,-1.7279297536675928,-2.198533765406493,-0.8117209389470803,1.5948228612094237,-0.03945981108792118,-1.6091639999999998,-0.009019061604265789,0.04854602819029259,-0.040444988555223126,-0.0030123781584382478,-0.09195446834697056,-0.09200000000000007,3.645362247069096,3.219840859517656,0.2908959404757591,-0.0015294721477833125,-0.028156379956689567,-0.35205281420443996
1750830928.8785574,-1.7279478898240797,-2.198436145675892,-0.8118022685436319,1.594816803709866,-0.03964471952970605,-1.609349,-0.009117094882573024,0.0490737024097523,-0.040884607996040774,-0.0030451213992908374,-0.0929539734376985,-0.09300000000000007,3.645692176041184,3.2200340014941933,0.2908951070047679,-0.0015306051200404051,-0.0281563799549732,-0.3520969114436594
1750830928.8806245,-1.7279662220471224,-2.1983374705968535,-0.8118844773790643,1.5948106807238265,-0.03983162698167142,-1.6095360000000003,-0.009215128160880262,0.049601376629212,-0.041324227436858416,-0.003077864640143427,-0.09395347852842645,-0.09400000000000007,3.646025664130846,3.220229213303595,0.29089426424627324,-0.001531750242197868,-0.028156379953241887,-0.3521414871862404
1750830928.8825617,-1.7279847503367227,-2.1982377401693753,-0.8119675654533793,1.5948044922513054,-0.04002053344381906,-1.609725,-0.009313161439187497,0.050129050848671704,-0.04176384687767606,-0.0031106078809960166,-0.09495298361915439,-0.09500000000000007,3.6463627110899615,3.220426494359813,0.29089341219134307,-0.0015329075110674549,-0.02815637995149453,-0.3521865414875641
1750830928.884557,-1.7280034746928798,-2.1981369543934584,-0.8120515327665752,1.5947982382923025,-0.04021143891614809,-1.6099160000000001,-0.009411194717494735,0.0506567250681314,-0.0422034663184937,-0.0031433511218486062,-0.09595248870988232,-0.09600000000000007,3.6467033166677063,3.2206258440705553,0.2908925508309508,-0.001534076923426179,-0.02815637994973243,-0.35223207440349946
1750830928.8864193,-1.7280223951155929,-2.1980351132691034,-0.8121363793186527,1.594791918846818,-0.040404343398658504,-1.6101089999999996,-0.009509227995801972,0.0511843992875911,-0.04264308575931134,-0.003176094362701196,-0.09695199380061026,-0.09700000000000007,3.6470474806105857,3.2208272618373,0.2908916801559736,-0.0015352584760162352,-0.028156379947955296,-0.3522780859904017
1750830928.8886063,-1.7280415116048626,-2.1979322167963087,-0.8122221051096128,1.5947855339148518,-0.04059924689135119,-1.6103039999999993,-0.009607261274109208,0.05171207350705081,-0.04308270520012898,-0.0032088376035537855,-0.09795149889133821,-0.09800000000000007,3.647395202662449,3.221030747055303,0.2908908001571943,-0.0015364521655450475,-0.028156379946163625,-0.35232457630510955
1750830928.891954,-1.7280415116048626,-2.1979322167963087,-0.8122221051096128,1.5947855339148518,-0.04059924689135119,-1.6103039999999993,-0.009607261274109208,0.05171207350705081,-0.04308270520012898,-0.0032088376035537855,-0.09795149889133821,-0.09800000000000007,3.647395202662449,3.221030747055303,0.2908908001571943,-0.0015364521655450475,-0.028156379946163625,-0.35232457630510955
1750830928.8923843,-1.7280608241606892,-2.197828264975074,-0.8123087101394537,1.5947790834964037,-0.04079614939422438,-1.6105009999999993,-0.009705294552416446,0.05223974772651051,-0.04352232464094663,-0.003241580844406375,-0.09895100398206615,-0.09900000000000007,3.647746482564462,3.221236299113579,0.2908899108252996,-0.0015376579886851958,-0.028156379944356345,-0.3523715454049408
1750830928.894424,-1.7280803327830725,-2.197723257805402,-0.8123961944081763,1.5947725675914741,-0.04099505090727895,-1.6106999999999996,-0.009803327830723683,0.052767421945970214,-0.04396194408176427,-0.0032743240852589647,-0.09995050907279408,-0.10000000000000007,3.648101320055114,3.2214439173949265,0.2908890121508822,-0.001538875942074378,-0.02815637994253475,-0.3524189933476883
1750830928.8965752,-1.7281000374720126,-2.1976171952872914,-0.8124845579157807,1.5947659862000627,-0.0411959514305158,-1.6109010000000001,-0.009901361109030919,0.05329509616542991,-0.04440156352258191,-0.0033070673261115543,-0.10095001416352203,-0.10100000000000008,3.648459714870225,3.2216536012759045,0.29088810412443766,-0.001540106022315469,-0.02815637994069894,-0.35246692019161874
1750830928.8985434,-1.7281199382275085,-2.1975100774207412,-0.8125738006622667,1.5947593393221695,-0.04139885096393314,-1.611104,-0.009999394387338156,0.05382277038488962,-0.044841182963399555,-0.003339810566964144,-0.10194951925424997,-0.10200000000000008,3.648821666742933,3.2218653501268704,0.29088718673636776,-0.0015413482259764234,-0.028156379938847856,-0.3525153259954669
1750830928.9005256,-1.7281400350495613,-2.1974019042057513,-0.8126639226476344,1.5947526269577947,-0.04160374950753276,-1.6113090000000003,-0.010097427665645394,0.05435044460434932,-0.045280802404217196,-0.003372553807816734,-0.10294902434497791,-0.10300000000000008,3.649187175403713,3.2220791633119332,0.29088625997697853,-0.0015426025495902777,-0.028156379936982785,-0.3525642108184342
1750830928.9026697,-1.7281603279381716,-2.1972926756423234,-0.8127549238718839,1.5947458491069384,-0.04181064706131288,-1.611516,-0.01019546094395263,0.05487811882380902,-0.04572042184503484,-0.0034052970486693236,-0.10394852943570586,-0.10400000000000008,3.649556240580354,3.2222950401889876,0.2908853238364804,-0.0015438689896550865,-0.028156379935103844,-0.352613574720183
1750830928.9043994,-1.728180816893337,-2.197182391730456,-0.8128468043350141,1.5947390057696003,-0.04201954362527527,-1.6117249999999999,-0.010293494222259867,0.055405793043268724,-0.046160041285852486,-0.0034380402895219132,-0.1049480345264338,-0.10500000000000008,3.6499288619979615,3.2225129801097214,0.2908843783049894,-0.0015451475426340431,-0.028156379933209966,-0.35266341776083443
1750830928.9066784,-1.72820150191506,-2.19707105247015,-0.8129395640370269,1.5947320969457803,-0.042230439199419045,-1.611936,-0.010391527500567103,0.05593346726272842,-0.04659966072667013,-0.003470783530374503,-0.10594753961716173,-0.10600000000000008,3.6503050393789818,3.2227329824195743,0.2908834233725256,-0.0015464382049552804,-0.028156379931302444,-0.35271374000096506
1750830928.9084134,-1.7282223830033399,-2.196958657861405,-0.8130332029779215,1.5947251226354786,-0.04244333378374421,-1.6121489999999996,-0.01048956077887434,0.05646114148218813,-0.04703928016748777,-0.0035035267712270925,-0.10694704470788968,-0.10700000000000008,3.6506847724431677,3.2229550464577925,0.29088245902901394,-0.0015477409730119364,-0.028156379929381397,-0.352764541501602
1750830928.910498,-1.7282434601581755,-2.1968452079042216,-0.8131277211576968,1.5947180828386953,-0.04265822737825076,-1.6123639999999995,-0.010587594057181578,0.05698881570164783,-0.04747889960830541,-0.003536270012079682,-0.10794654979861762,-0.10800000000000008,3.6510680609075923,3.2231791715573888,0.2908814852642844,-0.0015490558431620956,-0.028156379927445758,-0.35281582232422026
1750830928.9123697,-1.728264733379568,-2.1967307025985985,-0.8132231185763539,1.5947109775554305,-0.04287511998293869,-1.6125809999999996,-0.010685627335488813,0.057516489921107534,-0.04791851904912305,-0.0035690132529322717,-0.10894605488934556,-0.10900000000000008,3.6514549044866693,3.2234053570451784,0.2908805020680719,-0.001550382811728806,-0.028156379925496838,-0.3528675825307384
1750830928.9145577,-1.7282862026675172,-2.1966151419445374,-0.8133193952338935,1.5947038067856836,-0.04309401159780801,-1.6128,-0.010783660613796051,0.058044164140567234,-0.0483581384899407,-0.0036017564937848613,-0.10994555998007349,-0.11000000000000008,3.651845302892104,3.2236336022417342,0.29087950943001506,-0.0015517218750000653,-0.028156379923534355,-0.3529198221835154
1750830928.9165714,-1.7283078680220232,-2.1964985259420367,-0.813416551130314,1.5946965705294551,-0.04331490222285872,-1.6130209999999998,-0.010881693892103288,0.05857183836002693,-0.04879775793075834,-0.003634499734637451,-0.11094506507080144,-0.11100000000000008,3.652239255832943,3.223863906461441,0.2908785073396592,-0.0015530730292287011,-0.02815637992155882,-0.352972541345347
1750830928.9205196,-1.728329729443086,-2.196380854591097,-0.8135145862656161,1.594689268786745,-0.04353779185809081,-1.613244,-0.010979727170410524,0.05909951257948664,-0.049237377371575984,-0.0036672429754900406,-0.11194457016152938,-0.11200000000000009,3.6526367630155447,3.224096269012464,0.29087749578645306,-0.001554436270632437,-0.028156379919569183,-0.35302574007945986
1750830928.921053,-1.7283517869307055,-2.1962621278917185,-0.8136135006398,1.5946819015575533,-0.04376268050350518,-1.6134690000000003,-0.011077760448717762,0.05962718679894634,-0.049676996812393626,-0.00369998621634263,-0.11294407525225732,-0.11300000000000009,3.6530378241435795,3.2243306891967487,0.29087647475975,-0.0015558115953938699,-0.028156379917566744,-0.35307941844951174
1750830928.9227161,-1.7283740404848809,-2.196142345843901,-0.8137132942528655,1.5946744688418797,-0.043989568159100045,-1.613696,-0.011175793727024999,0.060154861018406044,-0.05011661625321127,-0.00373272945719522,-0.11394358034298527,-0.11400000000000009,3.6534424389180384,3.2245671663100453,0.2908754442488093,-0.0015571989996603912,-0.02815637991555163,-0.35313357651958244
1750830928.9249973,-1.7283740404848809,-2.196142345843901,-0.8137132942528655,1.5946744688418797,-0.043989568159100045,-1.613696,-0.011175793727024999,0.060154861018406044,-0.05011661625321127,-0.00373272945719522,-0.11394358034298527,-0.11400000000000009,3.6534424389180384,3.2245671663100453,0.2908754442488093,-0.0015571989996603912,-0.02815637991555163,-0.35313357651958244
1750830928.9267588,-1.728396490105613,-2.196021508447645,-0.8138139671048128,1.5946669706397245,-0.044218454824876297,-1.613925,-0.011273827005332235,0.060682535237865744,-0.05055623569402891,-0.00376547269804781,-0.1149430854337132,-0.11500000000000009,3.6538506070372323,3.224805699641882,0.2908744042427943,-0.001558598479544185,-0.028156379913522784,-0.35318821435417475
1750830928.9285126,-1.728419135792902,-2.19589961570295,-0.8139155191956418,1.5946594069510875,-0.04444934050083482,-1.6141559999999995,-0.011371860283639472,0.06121020945732545,-0.05099585513484656,-0.0037982159389003995,-0.11594259052444114,-0.11600000000000009,3.654262328196786,3.225046288475594,0.2908733547307733,-0.0015600100311221909,-0.028156379911481514,-0.35324333201820685
1750830928.9304404,-1.7284419775467477,-2.195776667609815,-0.8140179505253524,1.5946517777759688,-0.04468222518697473,-1.614389,-0.011469893561946708,0.06173788367678515,-0.0514354745756642,-0.003830959179752989,-0.11694209561516909,-0.11700000000000009,3.6546776020896456,3.2252889320883034,0.2908722957017204,-0.0015614336504361547,-0.028156379909427945,-0.35329892957701164
1750830928.9324849,-1.7284650153671501,-2.195652664168243,-0.8141212610939448,1.5946440831143684,-0.04491710888329514,-1.614624,-0.011567926840253945,0.06226555789624485,-0.05187509401648184,-0.0038637024206055787,-0.11794160070589703,-0.11800000000000009,3.655096428406052,3.225533629750922,0.2908712271445128,-0.0015628693334924612,-0.02815637990736103,-0.35335500709632894
1750830928.9344456,-1.7284882492541094,-2.1955276053782304,-0.8142254509014188,1.5946363229662865,-0.045153991589797826,-1.6148609999999994,-0.011665960118561183,0.06279323211570455,-0.05231471345729948,-0.0038964456614581683,-0.11894110579662497,-0.11900000000000009,3.6555188068335864,3.2257803807281795,0.2908701490479338,-0.0015643170762622302,-0.02815637990528207,-0.3534115646423046
1750830928.9363968,-1.7285116792076245,-2.19540149123978,-0.8143305199477737,1.5946284973317226,-0.045392873306481896,-1.6151,-0.011763993396868419,0.06332090633516425,-0.05275433289811712,-0.0039291889023107575,-0.1199406108873529,-0.12000000000000009,3.6559447370571223,3.226029184278593,0.2908690614006718,-0.001565776874681265,-0.02815637990319082,-0.3534686022814849
1750830928.9395127,-1.7285116792076245,-2.19540149123978,-0.8143305199477737,1.5946284973317226,-0.045392873306481896,-1.6151,-0.011763993396868419,0.06332090633516425,-0.05275433289811712,-0.0039291889023107575,-0.1199406108873529,-0.12000000000000009,3.6559447370571223,3.226029184278593,0.2908690614006718,-0.001565776874681265,-0.02815637990319082,-0.3534686022814849
1750830928.9408107,-1.7285353052276964,-2.1952743217528905,-0.8144364682330112,1.5946206062106771,-0.04563375403334735,-1.615341,-0.011862026675175656,0.06384858055462396,-0.053193952338934765,-0.003961932143163348,-0.12094011597808085,-0.1210000000000001,3.656374218758854,3.226280039654471,0.29086796419131894,-0.0015672487246500145,-0.02815637990108779,-0.35352612008081263
1750830928.9426458,-1.728559127314325,-2.1951460969175614,-0.8145432957571295,1.59461264960315,-0.04587663377039419,-1.6155840000000001,-0.011960059953482894,0.06437625477408367,-0.05363357177975241,-0.003994675384015938,-0.12193962106880879,-0.1220000000000001,3.656807251618293,3.226532946101941,0.29086685740837304,-0.0015687326220334037,-0.028156379898971934,-0.3535841181076233
1750830928.9445693,-1.7285831454675105,-2.1950168167337933,-0.8146510025201295,1.5946046275091412,-0.04612151251762242,-1.6158289999999997,-0.01205809323179013,0.06490392899354336,-0.054073191220570055,-0.004027418624868527,-0.12293912615953673,-0.1230000000000001,3.6572438353122525,3.226787902860921,0.2908657410402373,-0.0015702285626611572,-0.028156379896844577,-0.35364259642964085
1750830928.9465473,-1.7286073596872527,-2.1948864812015874,-0.814759588522012,1.5945965399286506,-0.04636839027503292,-1.6160759999999996,-0.012156126510097367,0.06543160321300306,-0.054512810661387696,-0.004060161865721117,-0.12393863125026468,-0.1240000000000001,3.657683969514858,3.227044909165149,0.29086461507521894,-0.0015717365423274286,-0.028156379894705846,-0.3537015551149711
1750830928.9485424,-1.7286317699735507,-2.1947550903209416,-0.8148690537627754,1.5945883868616781,-0.04661726704262392,-1.6163249999999998,-0.012254159788404603,0.06595927743246276,-0.05495243010220533,-0.004092905106573706,-0.1249381363409926,-0.12500000000000008,3.658127653897549,3.2273039642421537,0.2908634795015307,-0.0015732565567908765,-0.028156379892554314,-0.3537609942320987
1750830928.9506843,-1.7286563763264056,-2.194622644091857,-0.8149793982424205,1.5945801683082244,-0.04686814282039631,-1.6165760000000002,-0.012352193066711838,0.06648695165192246,-0.05539204954302297,-0.004125648347426295,-0.12593764143172054,-0.12600000000000008,3.6585748881290683,3.227565067313285,0.29086233430728936,-0.0015747886017748614,-0.02815637989039246,-0.3538209138498995
1750830928.9525883,-1.7286811787458172,-2.1944891425143336,-0.8150906219609473,1.5945718842682886,-0.04712101760835097,-1.616829,-0.012450226345019076,0.06701462587138217,-0.05583166898384062,-0.004158391588278885,-0.12693714652244847,-0.12700000000000009,3.659025671875471,3.2278282175936917,0.2908611794805179,-0.0015763326729669542,-0.028156379888218865,-0.35388131403759354
1750830928.9546044,-1.7287061772317855,-2.1943545855883713,-0.8152027249183558,1.5945635347418712,-0.047375891406486126,-1.6170840000000002,-0.012548259623326313,0.06754230009084186,-0.05627128842465826,-0.004191134829131474,-0.1279366516131764,-0.12800000000000009,3.6594800048001193,3.228093414292337,0.29086001500914366,-0.0015778887660193208,-0.02815637988603406,-0.35394219486478595
1750830928.9565783,-1.7287313717843107,-2.194218973313971,-0.815315707114646,1.594555119728972,-0.04763276421480356,-1.6173409999999997,-0.012646292901633549,0.06806997431030157,-0.056710907865475904,-0.004223878069984064,-0.12893615670390438,-0.1290000000000001,3.659937886563678,3.228360656612004,0.2908588408809988,-0.001579456876548548,-0.028156379883838966,-0.3540035564014395
1750830928.9585056,-1.7287567624033926,-2.194082305691131,-0.8154295685498179,1.5945466392295913,-0.04789163603330149,-1.6175999999999995,-0.012744326179940786,0.06859764852976127,-0.057150527306293546,-0.004256621310836654,-0.1299356617946323,-0.1300000000000001,3.660399316824123,3.2286299437492842,0.29085765708382083,-0.0015810370001355769,-0.028156379881631385,-0.3540653987178746
1750830928.9605389,-1.7287823490890304,-2.193944582719851,-0.8155443092238714,1.5945380932437287,-0.04815250686198169,-1.6178609999999995,-0.012842359458248024,0.06912532274922097,-0.05759014674711119,-0.004289364551689243,-0.13093516688536025,-0.1310000000000001,3.6608642952367325,3.2289012748945916,0.29085646360525225,-0.0015826291323257496,-0.028156379879413797,-0.3541277218847665
1750830928.9625027,-1.728808131841225,-2.1938058044001334,-0.8156599291368067,1.5945294817713844,-0.04841537670084328,-1.618124,-0.01294039273655526,0.06965299696868067,-0.058029766187928836,-0.004322107792541833,-0.13193467197608819,-0.1320000000000001,3.6613328214540863,3.229174649232148,0.2908552604328399,-0.001584233268628723,-0.028156379877185566,-0.35419052597313694
1750830928.9645355,-1.7288341106599763,-2.1936659707319768,-0.8157764282886228,1.5945208048125585,-0.04868024554988626,-1.6183889999999996,-0.013038426014862497,0.07018067118814038,-0.05846938562874648,-0.0043548510333944225,-0.13293417706681612,-0.1330000000000001,3.661804895126073,3.2294500659399987,0.2908540475540367,-0.0015858494045184462,-0.028156379874946843,-0.35425381105435366
1750830928.9667013,-1.7288602855452844,-2.1935250817153804,-0.8158938066793215,1.5945120623672508,-0.04894711340911062,-1.6186559999999997,-0.013136459293169733,0.07070834540760008,-0.05890900506956412,-0.004387594274247013,-0.13393368215754406,-0.1340000000000001,3.6622805158998903,3.229727524190018,0.29085282495619996,-0.0015874775354332048,-0.02815637987269777,-0.35431757720012397
1750830928.975867,-1.7289132235155709,-2.193240137636873,-0.8161312011773632,1.5944943810171905,-0.049486846158103504,-1.6191959999999996,-0.013332525849784208,0.07176369384651948,-0.0597882439511994,-0.004453080755952192,-0.13593269233899996,-0.1360000000000001,3.663242397328248,3.230288561973122,0.29085035055237957,-0.0015907697639118235,-0.028156379868169174,-0.35444655297382316
1750830928.9763525,-1.7289399866005484,-2.193096082574961,-0.8162512172847061,1.5944854421124377,-0.049759711047872024,-1.6194689999999996,-0.013430559128091444,0.07229136806597919,-0.06022786339201704,-0.004485823996804782,-0.1369321974297279,-0.1370000000000001,3.663728657263679,3.230572139819072,0.29084909872063647,-0.001592433852173359,-0.02815637986588995,-0.35451176274682306
1750830928.9767342,-1.7289669457520827,-2.192950972164609,-0.8163721126309307,1.5944764377212033,-0.05003457494782282,-1.6197439999999999,-0.013528592406398681,0.07281904228543888,-0.06066748283283469,-0.0045185672376573715,-0.13793170252045583,-0.1380000000000001,3.664218462862702,3.230857755832895,0.29084783711833934,-0.0015941099168550446,-0.028156379863600974,-0.35457745387450923
1750830928.9787424,-1.7289941009701746,-2.1928048064058183,-0.8164938872160379,1.594467367843487,-0.05031143785795411,-1.6200209999999995,-0.013626625684705919,0.07334671650489859,-0.06110710227365233,-0.004551310478509961,-0.13893120761118377,-0.1390000000000001,3.6647118137590176,3.2311454091556016,0.29084656573237205,-0.0015957979532160785,-0.028156379861302396,-0.35464362643021613
1750830928.980491,-1.7290214522548215,-2.192657585298589,-0.8166165410400259,1.5944582324792893,-0.05059029977826768,-1.6203000000000003,-0.013724658963013154,0.0738743907243583,-0.061546721714469975,-0.004584053719362551,-0.1399307127019117,-0.1400000000000001,3.665208709583597,3.2314350989220118,0.2908452845495213,-0.0015974979564797296,-0.02815637985899438,-0.3547102804875918
1750830928.9825258,-1.729048999606026,-2.1925093088429213,-0.8167400741028956,1.5944490316286097,-0.05087116070876174,-1.6205809999999996,-0.013822692241320392,0.074402064943818,-0.061986341155287616,-0.00461679696021514,-0.14093021779263964,-0.1410000000000001,3.66570914996474,3.2317268242607877,0.2908439935564806,-0.001599209921833361,-0.02815637985667707,-0.3547774161205898
1750830928.9850976,-1.7290767430237874,-2.192359977038814,-0.816864486404647,1.5944397652914484,-0.05115402064943808,-1.620864,-0.013920725519627627,0.07492973916327769,-0.06242596059610526,-0.00464954020106773,-0.1419297228833676,-0.1420000000000001,3.6662131345280287,3.2320205842944256,0.2908426927398474,-0.0016009338444283655,-0.028156379854351404,-0.35484503340346624
1750830928.9865851,-1.7291046825081047,-2.192209589886268,-0.8169897779452802,1.5944304334678054,-0.051438879600295806,-1.621149,-0.014018758797934865,0.0754574133827374,-0.0628655800369229,-0.0046822834419203195,-0.14292922797409555,-0.1430000000000001,3.666720662896338,3.2323163781392705,0.2908413820861257,-0.0016026697193801127,-0.028156379852015197,-0.35491313241077255
1750830928.988654,-1.7291328180589787,-2.192058147385283,-0.8171159487247941,1.5944210361576807,-0.05172573756133403,-1.621436,-0.014116792076242102,0.0759850876021971,-0.06330519947774055,-0.004715026682772909,-0.14392873306482348,-0.1440000000000001,3.667231734689842,3.2326142049054827,0.2908400615817231,-0.0016044175417679889,-0.02815637984967095,-0.3549817132173539
1750830928.990467,-1.7291611496764094,-2.191905649535859,-0.8172429987431906,1.5944115733610742,-0.052014594532554526,-1.6217249999999996,-0.014214825354549338,0.0765127618216568,-0.06374481891855818,-0.004747769923625499,-0.14492823815555142,-0.1450000000000001,3.6677463495260114,3.232914063697074,0.2908387312129538,-0.0016061773066353,-0.028156379847318044,-0.35505077589834155
1750830928.992457,-1.729189677360397,-2.1917520963379964,-0.8173709280004688,1.594402045077986,-0.05230545051395641,-1.6220160000000003,-0.014312858632856576,0.0770404360411165,-0.06418443835937583,-0.004780513164478088,-0.14592774324627936,-0.1460000000000001,3.6682645070196047,3.2332159536119076,0.2908373909660354,-0.0016079490089892475,-0.028156379844956635,-0.355120320529148
1750830928.994441,-1.7292184011109413,-2.191597487791695,-0.8174997364966288,1.5943924513084164,-0.05259830550553968,-1.6223089999999996,-0.014410891911163813,0.07756811026057621,-0.06462405780019348,-0.004813256405330678,-0.1469272483370073,-0.1470000000000001,3.668786206782674,3.233519873741671,0.29083604082709236,-0.0016097326438009295,-0.028156379842586884,-0.3551903471854647
1750830928.9964235,-1.7292473209280423,-2.1914418238969535,-0.8176294242316695,1.5943827920523648,-0.05289315950730433,-1.622604,-0.014508925189471049,0.07809578448003592,-0.06506367724101111,-0.004845999646183268,-0.14792675342773523,-0.1480000000000001,3.6693114484245686,3.2338258231719146,0.29083468078215446,-0.0016115282060053299,-0.028156379840208957,-0.3552608559432533
1750830928.9987073,-1.7292764368116993,-2.1912851046537742,-0.817759991205592,1.5943730673098315,-0.053190012519250374,-1.6229009999999997,-0.014606958467778286,0.07862345869949561,-0.06550329668182876,-0.004878742887035857,-0.1489262585184632,-0.1490000000000001,3.6698402315519103,3.2341338009820224,0.29083331081715386,-0.001613335690501167,-0.02815637983782379,-0.3553318468787426
1750830929.000586,-1.729305748761913,-2.191127330062156,-0.817891437418397,1.5943632770808167,-0.05348886454137869,-1.6231999999999998,-0.014704991746085524,0.07915113291895531,-0.0659429161226464,-0.004911486127888447,-0.14992576360919113,-0.1500000000000001,3.6703725557686346,3.234443806245245,0.29083193091793247,-0.0016151550921509788,-0.028156379835429214,-0.35540332006842235
1750830929.0024192,-1.7293352567786835,-2.190968500122098,-0.8180237628700828,1.59435342136532,-0.0537897155736875,-1.623501,-0.01480302502439276,0.07967880713841502,-0.06638253556346405,-0.0049442293687410365,-0.15092526869991907,-0.1510000000000001,3.6709084206759544,3.2347558380286654,0.2908305410702329,-0.0016169864057810808,-0.028156379833027725,-0.3554752755890404
1750830929.0044897,-1.7293649608620107,-2.1908086148336023,-0.8181569675606504,1.5943435001633417,-0.0540925656161777,-1.6238039999999998,-0.014901058302699997,0.08020648135787471,-0.0668221550042817,-0.004976972609593626,-0.151924773790647,-0.1520000000000001,3.671447825872361,3.235069895393221,0.2908291412597057,-0.0016188296261814747,-0.028156379830618725,-0.35554771351759434
1750830929.006437,-1.7293948610118939,-2.1906476741966667,-0.8182910514900996,1.5943335134748817,-0.054397414668850175,-1.6241089999999998,-0.014999091581007233,0.08073415557733442,-0.06726177444509933,-0.005009715850446216,-0.15292427888137494,-0.1530000000000001,3.671990770953651,3.235385977393731,0.29082773147190716,-0.0016206847481058306,-0.028156379828202373,-0.35562063393132776
1750830929.0084713,-1.7294249572283347,-2.190485678211293,-0.8184260146584315,1.59432346129994,-0.054704262731703146,-1.624416,-0.01509712485931447,0.08126182979679412,-0.06770139388591698,-0.005042459091298805,-0.15392378397210288,-0.1540000000000001,3.6725372555128977,3.235704083078833,0.29082631169229584,-0.001622551766271505,-0.028156379825778833,-0.35569403690772566
1750830929.0106149,-1.7294552495113313,-2.19032262687748,-0.8185618570656441,1.5943133436385164,-0.05501310980473839,-1.6247249999999998,-0.015195158137621708,0.08178950401625383,-0.06814101332673461,-0.005075202332151395,-0.15492328906283084,-0.1550000000000001,3.6730872791404567,3.2360242114910522,0.29082488190623923,-0.001624430675359454,-0.02815637982334907,-0.35576792252450745
1750830929.0124254,-1.7294857378608848,-2.1901585201952276,-0.8186985787117376,1.5943031604906113,-0.05532395588795502,-1.6250359999999997,-0.015293191415928943,0.08231717823571352,-0.06858063276755226,-0.0051079455730039846,-0.15592279415355878,-0.1560000000000001,3.6736408414239725,3.2363463616667567,0.29082344209900646,-0.0016263214700141951,-0.028156379820910897,-0.35584229085962427
1750830929.020979,-1.7294857378608848,-2.1901585201952276,-0.8186985787117376,1.5943031604906113,-0.05532395588795502,-1.6250359999999997,-0.015293191415928943,0.08231717823571352,-0.06858063276755226,-0.0051079455730039846,-0.15592279415355878,-0.1560000000000001,3.6736408414239725,3.2363463616667567,0.29082344209900646,-0.0016263214700141951,-0.028156379820910897,-0.35584229085962427
1750830929.0213697,-1.7295783793088848,-2.1896598680578387,-0.8191140190833108,1.5942722181280056,-0.056268488198692346,-1.6259809999999995,-0.015587291250850654,0.08390020089409263,-0.06989949109000519,-0.005206175295561754,-0.1589213094257426,-0.1590000000000001,3.675322756045946,3.237324933046526,0.2908190624015489,-0.001632065113277608,-0.028156379813559403,-0.3560682929578105
1750830929.0215855,-1.7295783793088848,-2.1896598680578387,-0.8191140190833108,1.5942722181280056,-0.056268488198692346,-1.6259809999999995,-0.015587291250850654,0.08390020089409263,-0.06989949109000519,-0.005206175295561754,-0.1589213094257426,-0.1590000000000001,3.675322756045946,3.237324933046526,0.2908190624015489,-0.001632065113277608,-0.028156379813559403,-0.3560682929578105
1750830929.022532,-1.7296096519246653,-2.189491539981831,-0.819254257684932,1.5942617730341737,-0.05658733032263541,-1.6262999999999996,-0.01568532452915789,0.08442787511355233,-0.07033911053082283,-0.005238918536414344,-0.15992081451647053,-0.16000000000000011,3.675890468775385,3.2376551605172357,0.2908175823604331,-0.001634003395915355,-0.028156379811096373,-0.35614459295017037
1750830929.0244727,-1.7296411206070017,-2.1893221565573846,-0.819395375525434,1.59425126245386,-0.05690817145675897,-1.626621,-0.015783357807465127,0.08495554933301204,-0.07077872997164047,-0.0052716617772669335,-0.16092031960719846,-0.16100000000000012,3.6764617180582277,3.2379874048412933,0.29081609222307625,-0.001635953536795128,-0.02815637980862738,-0.35622137605387283
1750830929.0264904,-1.7296727853558949,-2.1891517177844992,-0.8195373726048185,1.5942406863870646,-0.05723101160106392,-1.626944,-0.015881391085772367,0.08548322355247175,-0.07121834941245811,-0.005304405018119523,-0.16191982469792643,-0.16200000000000012,3.6770365034658075,3.238321665018283,0.29081459197418313,-0.0016379155303422315,-0.028156379806153372,-0.35629864234813247
1750830929.0285184,-1.7297046461713448,-2.188980223663174,-0.8196802489230839,1.5942300448337876,-0.05755585075555025,-1.627269,-0.015979424364079602,0.08601089777193144,-0.07165796885327576,-0.005337148258972113,-0.16291932978865437,-0.16300000000000012,3.677614824566739,3.238657940041662,0.29081308159836056,-0.0016398893709452945,-0.028156379803672187,-0.35637639191235676
1750830929.031683,-1.7297367030533515,-2.188807674193411,-0.819824004480231,1.5942193377940288,-0.05788268892021797,-1.6275959999999996,-0.016077457642386838,0.08653857199139114,-0.0720975882940934,-0.005369891499824702,-0.1639188348793823,-0.16400000000000012,3.678196680926899,3.2389962288987664,0.2908115610801238,-0.0016418750529562853,-0.028156379801186352,-0.35645462482613655
1750830929.0327103,-1.729768956001915,-2.188634069375209,-0.8199686392762597,1.5942085652677882,-0.05821152609506797,-1.6279249999999994,-0.016175490920694077,0.08706624621085085,-0.07253720773491104,-0.005402634740677292,-0.16491833997011024,-0.16500000000000012,3.6787820721094526,3.239336530570805,0.2908100304038918,-0.0016438725706904248,-0.028156379798695265,-0.35653334116924523
1750830929.0345497,-1.7298014050170343,-2.1884594092085674,-0.8201141533111711,1.594197727255066,-0.05854236228009846,-1.6282560000000004,-0.016273524199001313,0.08759392043031054,-0.07297682717572869,-0.005435377981529882,-0.16591784506083818,-0.16600000000000012,3.6793709976748317,3.2396788440328743,0.2908084895539883,-0.0016458819184261477,-0.02815637979619911,-0.35661254102162976
1750830929.036501,-1.7298340500987104,-2.1882836936934877,-0.8202605465849633,1.594186823755862,-0.058875197475311225,-1.6285889999999998,-0.01637155747730855,0.08812159464977025,-0.07341644661654632,-0.005468121222382471,-0.1669173501515661,-0.16700000000000012,3.67996345718075,3.240023168253956,0.29080693851464523,-0.0016479030904051162,-0.02815637979369806,-0.35669222446340487
1750830929.0384777,-1.7298668912469433,-2.1881069228299683,-0.8204078190976372,1.5941758547701765,-0.05921003168070538,-1.6289239999999996,-0.016469590755615784,0.08864926886922996,-0.07385606605736397,-0.005500864463235061,-0.16791685524229408,-0.16800000000000012,3.680559450182193,3.2403695021969083,0.2908053772699963,-0.0016499360808321277,-0.028156379791193096,-0.3567723915748499
1750830929.0404663,-1.729899928461733,-2.187929096618011,-0.8205559708491927,1.5941648202980092,-0.05954686489628003,-1.6292609999999996,-0.016567624033923024,0.08917694308868966,-0.07429568549818162,-0.0055336077040876504,-0.16891636033302201,-0.16900000000000012,3.681158976231409,3.2407178448184775,0.29080380580408377,-0.0016519808838751304,-0.028156379788682045,-0.35685304243639987
1750830929.0424626,-1.7299331617430793,-2.187750215057614,-0.82070500183963,1.59415372033936,-0.05988569712203695,-1.6296,-0.01666565731223026,0.08970461730814935,-0.07473530493899926,-0.00556635094494024,-0.16991586542374995,-0.17000000000000012,3.6817620348779347,3.241068195069309,0.29080222410085477,-0.0016540374936651445,-0.028156379786167453,-0.35693417712864217
1750830929.0444846,-1.7299665910909816,-2.187570278148778,-0.820854912068949,1.5941425548942294,-0.06022652835797526,-1.6299409999999996,-0.016763690590537495,0.09023229152760906,-0.0751749243798169,-0.00559909418579283,-0.1709153705144779,-0.17100000000000012,3.682368625668556,3.24142055189394,0.2908006321441598,-0.0016561059042962218,-0.02815637978364871,-0.3570157957323077
1750830929.0464752,-1.7300002165054416,-2.187389285891504,-0.8210057015371488,1.594131323962617,-0.06056935860409496,-1.6302839999999996,-0.016861723868844734,0.09075996574706877,-0.07561454382063454,-0.005631837426645419,-0.17191487560520582,-0.17200000000000013,3.6829787481473466,3.2417749142307843,0.29079902991775824,-0.0016581861098254633,-0.028156379781126013,-0.3570978983282688
1750830929.0484855,-1.7300340379864574,-2.18720723828579,-0.8211573702442312,1.5941200275445229,-0.06091418786039604,-1.6306289999999999,-0.01695975714715197,0.09128763996652846,-0.07605416326145219,-0.005664580667498009,-0.17291438069593376,-0.17300000000000013,3.6835924018556376,3.2421312810121674,0.2907974174053117,-0.0016602781042729146,-0.02815637977859956,-0.35718048499753113
1750830929.0505164,-1.73006805553403,-2.1870241353316375,-0.8213099181901953,1.594108665639947,-0.06126101612687851,-1.6309759999999995,-0.017057790425459206,0.09181531418598816,-0.07649378270226982,-0.0056973239083505985,-0.1739138857866617,-0.17400000000000013,3.6842095863320314,3.24248965116432,0.29079579459039073,-0.001662381881621587,-0.028156379776069523,-0.35726355582122526
1750830929.052513,-1.7301022691481593,-2.186839977029046,-0.8214633453750402,1.5940972382488894,-0.06160984340354325,-1.6313250000000004,-0.017155823703766445,0.09234298840544787,-0.07693340214308747,-0.005730067149203188,-0.17491339087738966,-0.17500000000000013,3.684830301112395,3.242850023607351,0.29079416145646764,-0.0016644974358173813,-0.028156379773536893,-0.35734711088060644
1750830929.054516,-1.7301366788288455,-2.186654763378016,-0.8216176517987668,1.5940857453713502,-0.06196066969038849,-1.6316759999999997,-0.01725385698207368,0.09287066262490758,-0.07737302158390512,-0.005762810390055778,-0.1759128959681176,-0.17600000000000013,3.6854545457298644,3.243212397255287,0.290792517986924,-0.0016666247607690383,-0.028156379770999506,-0.3574311502570437
1750830929.0564957,-1.7301712845760875,-2.1864684943785466,-0.821772837461376,1.5940741870073292,-0.06231349498741512,-1.6320289999999993,-0.017351890260380917,0.09339833684436727,-0.07781264102472275,-0.005795553630908367,-0.17691240105884554,-0.17700000000000013,3.686082319714828,3.2435767710160577,0.29079086416504474,-0.0016687638503481651,-0.02815637976845991,-0.3575156740320154
1750830929.0647855,-1.7301712845760875,-2.1864684943785466,-0.821772837461376,1.5940741870073292,-0.06231349498741512,-1.6320289999999993,-0.017351890260380917,0.09339833684436727,-0.07781264102472275,-0.005795553630908367,-0.17691240105884554,-0.17700000000000013,3.686082319714828,3.2435767710160577,0.29079086416504474,-0.0016687638503481651,-0.02815637976845991,-0.3575156740320154
1750830929.0652518,-1.7302060863898863,-2.1862811700306377,-0.821928902362866,1.5940625631568266,-0.06266831929462402,-1.632384,-0.017449923538688156,0.09392601106382698,-0.0782522604655404,-0.005828296871760957,-0.17791190614957347,-0.17800000000000013,3.686713622594954,3.2439431437915065,0.29078919997402053,-0.0016709146983891127,-0.028156379765917516,-0.35760068228710284
1750830929.06566,-1.7303116682306232,-2.1857128648962796,-0.8224023725006262,1.5940272986864283,-0.06374478627733815,-1.6334609999999996,-0.017744023373609866,0.09550903372220608,-0.07957111878799333,-0.005926526594318726,-0.1809104214217573,-0.18100000000000013,3.688628699841822,3.2450542451328883,0.29078414501657757,-0.0016774377310676835,-0.02815637975827629,-0.3578586147502957
1750830929.0670888,-1.7303116682306232,-2.1857128648962796,-0.8224023725006262,1.5940272986864283,-0.06374478627733815,-1.6334609999999996,-0.017744023373609866,0.09550903372220608,-0.07957111878799333,-0.005926526594318726,-0.1809104214217573,-0.18100000000000013,3.688628699841822,3.2450542451328883,0.29078414501657757,-0.0016774377310676835,-0.02815637975827629,-0.3578586147502957
1750830929.0684967,-1.730347254310649,-2.185521319154616,-0.8225619543576439,1.5940154128899988,-0.06410760662527171,-1.6338239999999997,-0.017842056651917102,0.09603670794166579,-0.08001073822881097,-0.005959269835171316,-0.18190992651248525,-0.18200000000000013,3.6892741135244203,3.245428602863607,0.2907824391790002,-0.001679635550554093,-0.0281563797557239,-0.3579455617435103
1750830929.0706694,-1.7303830364572317,-2.185328718064513,-0.8227224154535415,1.5940034616070875,-0.06447242598338754,-1.6341890000000001,-0.017940089930224338,0.09656438216112549,-0.08045035766962862,-0.005992013076023906,-0.18290943160321319,-0.18300000000000013,3.689923053699392,3.2458049540268736,0.2907807228868185,-0.0016818450971145952,-0.02815637975317048,-0.358032993626079
1750830929.0727742,-1.7304190146703702,-2.1851350616259717,-0.8228837557883217,1.5939914448376946,-0.06483924435168475,-1.634556,-0.018038123208531577,0.09709205638058518,-0.08088997711044625,-0.0060247563168764956,-0.18390893669394112,-0.18400000000000014,3.6905755198779477,3.246183297488008,0.29077899612265834,-0.001684066364359518,-0.028156379750615457,-0.35812091048007155
1750830929.0746596,-1.7304551889500654,-2.1849403498389908,-0.8230459753619837,1.5939793625818202,-0.06520806173016336,-1.634925,-0.018136156486838813,0.09761973060004489,-0.0813295965512639,-0.006057499557729085,-0.18490844178466906,-0.18500000000000014,3.6912315115685734,3.246563632106279,0.29077725886905004,-0.0016862993458616226,-0.028156379748059044,-0.3582093123876164
1750830929.0766442,-1.7304915592963175,-2.184744582703571,-0.8232090741745273,1.5939672148394637,-0.06557887811882335,-1.6352960000000003,-0.01823418976514605,0.0981474048195046,-0.08176921599208155,-0.006090242798581675,-0.185907946875397,-0.18600000000000014,3.6918910282769897,3.246945956734852,0.29077551110843103,-0.0016885440351562084,-0.028156379745501427,-0.35829819943089597
1750830929.080693,-1.7305281257091263,-2.184547760219713,-0.8233730522259517,1.5939550016106256,-0.06595169351766472,-1.635669,-0.018332223043453288,0.09867507903896429,-0.08220883543289918,-0.006122986039434264,-0.18690745196612493,-0.18700000000000014,3.6925540695061767,3.2473302702208318,0.29077375282314377,-0.0016908004257409287,-0.02815637974294282,-0.358387571692138
1750830929.0814693,-1.730564888188491,-2.1843498823874157,-0.8235379095162587,1.593942722895306,-0.06632650792668837,-1.636044,-0.018430256321760524,0.099202753258424,-0.08264845487371683,-0.006155729280286854,-0.1879069570568529,-0.18800000000000014,3.693220634756373,3.2477165714052725,0.2907719839954355,-0.0016930685110758679,-0.028156379740384218,-0.3584774292536098
1750830929.083266,-1.730564888188491,-2.1843498823874157,-0.8235379095162587,1.593942722895306,-0.06632650792668837,-1.636044,-0.018430256321760524,0.099202753258424,-0.08264845487371683,-0.006155729280286854,-0.1879069570568529,-0.18800000000000014,3.693220634756373,3.2477165714052725,0.2907719839954355,-0.0016930685110758679,-0.028156379740384218,-0.3584774292536098
1750830929.084723,-1.7306018467344124,-2.1841509492066793,-0.8237036460454465,1.5939303786935046,-0.06670332134589252,-1.6364210000000003,-0.01852828960006776,0.0997304274778837,-0.08308807431453447,-0.006188472521139444,-0.18890646214758083,-0.18900000000000014,3.6938907235250666,3.248104859123134,0.29077020460746195,-0.0016953482845834791,-0.028156379737823468,-0.35856777219761354
1750830929.0869958,-1.7306390013468915,-2.183950960677504,-0.823870261813517,1.5939179690052214,-0.06708213377527805,-1.6368,-0.018626322878374995,0.10025810169734341,-0.08352769375535211,-0.006221215761992033,-0.18990596723830877,-0.19000000000000014,3.6945643353069926,3.2484951322033213,0.29076841464128106,-0.0016976397396485108,-0.02815637973526314,-0.3586586006064763
1750830929.0887418,-1.7306763520259265,-2.18374991679989,-0.8240377568204682,1.5939054938304567,-0.06746294521484586,-1.637181,-0.018724356156682234,0.1007857759168031,-0.08396731319616975,-0.006253959002844623,-0.1909054723290367,-0.19100000000000014,3.6952414695941336,3.248887389468686,0.29076661407886034,-0.001699942869617962,-0.028156379732702654,-0.35874991456254673
1750830929.0906608,-1.7307138987715183,-2.183547817573837,-0.8242061310663011,1.59389295316921,-0.06784575566459417,-1.6375639999999994,-0.01882238943498947,0.1013134501362628,-0.0844069326369874,-0.0062867022436972125,-0.19190497741976464,-0.19200000000000014,3.695922125875732,3.249281629736019,0.2907648029020701,-0.001702257667801092,-0.02815637973014222,-0.35884171414818594
1750830929.0926237,-1.730751641583666,-2.183344662999345,-0.8243753845510167,1.593880347021482,-0.06823056512452474,-1.6379489999999999,-0.018920422713296706,0.10184112435572251,-0.08484655207780505,-0.006319445484549802,-0.19290448251049258,-0.19300000000000014,3.696606303638262,3.2496778518160463,0.29076298109268883,-0.0017045841274693193,-0.028156379727582052,-0.35893399944576304
1750830929.0946724,-1.7307895804623712,-2.1831404530764136,-0.824545517274613,1.5938676753872718,-0.06861737359463671,-1.6383359999999998,-0.019018455991603945,0.1023687985751822,-0.08528617151862268,-0.006352188725402392,-0.19390398760122052,-0.19400000000000014,3.6972940023654544,3.2500760545134355,0.29076114863239944,-0.0017069222418562631,-0.028156379725022367,-0.3590267705376466
1750830929.0966148,-1.7308277154076332,-2.182935187805044,-0.824716529237091,1.5938549382665803,-0.06900618107493006,-1.638725,-0.01911648926991118,0.10289647279464191,-0.08572579095944033,-0.006384931966254981,-0.19490349269194848,-0.19500000000000015,3.6979852215382905,3.250476236626823,0.290759305502791,-0.0017092720041575445,-0.028156379722464157,-0.3591200275061986
1750830929.0986264,-1.7308660464194512,-2.1827288671852356,-0.8248884204384508,1.5938421356594068,-0.06939698756540391,-1.6391159999999996,-0.019214522548218416,0.10342414701410162,-0.08616541040025796,-0.006417675207107571,-0.19590299778267642,-0.19600000000000015,3.698679960634971,3.2508783969487767,0.2907574516853597,-0.0017116334075309712,-0.028156379719905287,-0.35921377043376784
1750830929.1005938,-1.730904573497826,-2.1825214912169884,-0.8250611908786922,1.5938292675657517,-0.06978979306606004,-1.6395090000000003,-0.019312555826525656,0.10395182123356132,-0.08660502984107561,-0.006450418447960161,-0.19690250287340436,-0.19700000000000015,3.699378219130966,3.2512825342658256,0.2907555871615053,-0.00171400644509627,-0.02815637971734833,-0.3593079994026832
1750830929.1026423,-1.7309432966427565,-2.1823130599003013,-0.8252348405578145,1.593816333985615,-0.07018459757689754,-1.6399039999999996,-0.01941058910483289,0.10447949545302102,-0.08704464928189326,-0.00648316168881275,-0.1979020079641323,-0.19800000000000015,3.7000799964989723,3.251688647358454,0.290753711912536,-0.0017163911099351901,-0.02815637971479271,-0.3594027144952467
1750830929.1047213,-1.7309822158542447,-2.1821035732351763,-0.8254093694758193,1.5938033349189966,-0.07058140109791733,-1.640301,-0.019508622383140127,0.10500716967248072,-0.0874842687227109,-0.00651590492966534,-0.19890151305486023,-0.19900000000000015,3.7007852922089404,3.252096735001106,0.29075182591966536,-0.0017187873950914238,-0.028156379712238652,-0.3594979157937256
1750830929.1066031,-1.7310213311322897,-2.1818930312216107,-0.8255847776327059,1.5937902703658964,-0.07098020362911761,-1.6406999999999998,-0.019606655661447366,0.10553484389194043,-0.08792388816352854,-0.006548648170517929,-0.19990101814558817,-0.20000000000000015,3.701494105728049,3.2525067959621876,0.2907499291640111,-0.0017211952935705535,-0.02815637970968638,-0.3595936033803478
1750830929.1085415,-1.7310606424768906,-2.181681433859608,-0.8257610650284732,1.5937771403263146,-0.07138100517049928,-1.641101,-0.019704688939754602,0.10606251811140012,-0.08836350760434618,-0.006581391411370519,-0.20090052323631613,-0.20100000000000015,3.7022064365207092,3.2529188290040545,0.2907480216265999,-0.0017236147983399766,-0.028156379707136893,-0.35968977733729257
1750830929.11057,-1.7311001498880483,-2.1814687811491655,-0.8259382316631232,1.593763944800251,-0.07178380572206233,-1.6415039999999994,-0.019802722218061838,0.10659019233085983,-0.08880312704516383,-0.006614134652223109,-0.20190002832704407,-0.20200000000000015,3.702922284048586,3.253332832883058,0.29074610328836203,-0.0017260459023289451,-0.028156379704588064,-0.35978643774668406
1750830929.1125221,-1.7311398533657627,-2.181255073090284,-0.826116277536654,1.5937506837877056,-0.07218860528380766,-1.641909,-0.019900755496369077,0.10711786655031953,-0.08924274648598148,-0.006646877893075698,-0.202899533417772,-0.20300000000000015,3.7036416477705685,3.253748806349488,0.2907441741301351,-0.001728488598428456,-0.02815637970204247,-0.3598835846905861
1750830929.1145422,-1.731179752910034,-2.181040309682965,-0.8262952026490673,1.5937373572886786,-0.07259540385573349,-1.642316,-0.019998788774676313,0.10764554076977924,-0.08968236592679911,-0.006679621133928288,-0.20389903850849994,-0.20400000000000015,3.7043645271427867,3.254166748147621,0.2907422341326631,-0.0017309428794912009,-0.028156379699499544,-0.35998121825099244
1750830929.1165323,-1.7312198485208619,-2.180824490927206,-0.8264750070003615,1.5937239653031698,-0.07300420143784159,-1.6427249999999995,-0.02009682205298355,0.10817321498923893,-0.09012198536761676,-0.0067123643747808775,-0.20489854359922788,-0.20500000000000015,3.7050909216186017,3.2545866570157065,0.29074028327659424,-0.0017334087383315954,-0.028156379696959517,-0.36007933850982216
1750830929.1185384,-1.7312601401982457,-2.180607616823007,-0.8266556905905373,1.5937105078311795,-0.07341499803013107,-1.6431360000000002,-0.020194855331290788,0.10870088920869864,-0.09056160480843439,-0.006745107615633468,-0.20589804868995581,-0.20600000000000016,3.705820830648605,3.255008531685983,0.29073832154248613,-0.0017358861677256696,-0.028156379694422612,-0.3601779455489102
1750830929.1238089,-1.7313006279421872,-2.1803896873703703,-0.8268372534195949,1.5936969848727074,-0.07382779363260106,-1.6435490000000001,-0.020292888609598023,0.10922856342815834,-0.09100122424925204,-0.006777850856486058,-0.20689755378068375,-0.20700000000000016,3.706554253680626,3.255432370884637,0.2907363489107986,-0.001738375160410978,-0.02815637969188906,-0.3602770394500023
1750830929.1242266,-1.7313006279421872,-2.1803896873703703,-0.8268372534195949,1.5936969848727074,-0.07382779363260106,-1.6435490000000001,-0.020292888609598023,0.10922856342815834,-0.09100122424925204,-0.006777850856486058,-0.20689755378068375,-0.20700000000000016,3.706554253680626,3.255432370884637,0.2907363489107986,-0.001738375160410978,-0.02815637969188906,-0.3602770394500023
1750830929.125325,-1.7313413117526846,-2.1801707025692947,-0.8270196954875342,1.5936833964277535,-0.07424258824525332,-1.6439639999999995,-0.02039092188790526,0.10975623764761804,-0.09144084369006968,-0.006810594097338647,-0.20789705887141172,-0.20800000000000016,3.7072911901597143,3.2558581733318683,0.2907343653619012,-0.0017408757090867529,-0.028156379689359867,-0.3603766202947467
1750830929.1269786,-1.7313821916297387,-2.17995066241978,-0.8272030167943552,1.593669742496318,-0.07465938186808696,-1.644381,-0.020488955166212495,0.11028391186707774,-0.09188046313088732,-0.006843337338191237,-0.20889656396213965,-0.20900000000000016,3.7080316395281576,3.2562859377418523,0.290732370876067,-0.0017433878064136118,-0.028156379686832923,-0.36047668816468564
1750830929.1287727,-1.7314232675733496,-2.179729566921827,-0.8273872173400578,1.5936560230784007,-0.07507817450110199,-1.6448,-0.020586988444519734,0.11081158608653745,-0.09232008257170497,-0.0068760805790438265,-0.2098960690528676,-0.21000000000000016,3.7087756012254647,3.2567156628227427,0.2907303654334769,-0.0017459114450136854,-0.028156379684310805,-0.3605772431412523
1750830929.130482,-1.7314645395835164,-2.1795074160754346,-0.8275722971246422,1.5936422381740019,-0.07549896614429841,-1.6452209999999994,-0.02068502172282697,0.11133926030599715,-0.09275970201252261,-0.006908823819896416,-0.21089557414359553,-0.21100000000000016,3.7095230746883763,3.2571473472767014,0.29072834901421846,-0.0017484466174704782,-0.028156379681792958,-0.3606782853057591
1750830929.1325343,-1.73150600766024,-2.1792842098806027,-0.8277582561481083,1.5936283877831212,-0.07592175679767621,-1.6456439999999999,-0.020783055001134206,0.11186693452545685,-0.09319932145334026,-0.006941567060749006,-0.21189507923432346,-0.21200000000000016,3.710274059350855,3.2575809897998673,0.2907263215982825,-0.0017509933163289042,-0.028156379679279617,-0.36077981473939175
1750830929.134526,-1.7315476718035212,-2.1790599483373327,-0.8279450944104552,1.5936144719057588,-0.0763465464612354,-1.6460689999999998,-0.020881088279441445,0.11239460874491655,-0.09363894089415789,-0.006974310301601595,-0.2128945843250514,-0.21300000000000016,3.7110285546440935,3.258016589082387,0.29072428316557036,-0.0017535515340951682,-0.028156379676771013,-0.3608818315232022
1750830929.136503,-1.7315895320133583,-2.178834631445623,-0.8281328119116846,1.5936004905419148,-0.07677333513497686,-1.646496,-0.02097912155774868,0.11292228296437626,-0.09407856033497554,-0.007007053542454185,-0.21389408941577936,-0.21400000000000016,3.7117865599964985,3.258454143808403,0.2907222336958858,-0.0017561212632367423,-0.02815637967426817,-0.3609843357381024
1750830929.1393244,-1.7315895320133583,-2.178834631445623,-0.8281328119116846,1.5936004905419148,-0.07677333513497686,-1.646496,-0.02097912155774868,0.11292228296437626,-0.09407856033497554,-0.007007053542454185,-0.21389408941577936,-0.21400000000000016,3.7117865599964985,3.258454143808403,0.2907222336958858,-0.0017561212632367423,-0.02815637967426817,-0.3609843357381024
1750830929.1407893,-1.7316315882897522,-2.1786082592054745,-0.8283214086517958,1.593586443691589,-0.07720212281889882,-1.6469249999999995,-0.021077154836055916,0.11344995718383595,-0.09451817977579319,-0.0070397967833067746,-0.2148935945065073,-0.21500000000000016,3.7125480748337005,3.258893652656052,0.29072017316894155,-0.0017587024961823604,-0.028156379671768976,-0.36108732746485483
1750830929.1425347,-1.7316738406327028,-2.178380831616888,-0.8285108846307878,1.5935723313547816,-0.07763290951300217,-1.6473560000000003,-0.021175188114363155,0.11397763140329566,-0.09495779921661082,-0.007072540024159364,-0.21589309959723524,-0.21600000000000016,3.7133130985785545,3.2593351142974933,0.29071810156435623,-0.0017612952253218978,-0.028156379669276015,-0.3611908067840647
1750830929.1445382,-1.7317162890422093,-2.178152348679861,-0.8287012398486615,1.5935581535314924,-0.07806569521728779,-1.6477889999999995,-0.02127322139267039,0.11450530562275536,-0.09539741865742847,-0.007105283265011954,-0.21689260468796318,-0.21700000000000016,3.714081630651136,3.2597785273988826,0.2907160188616531,-0.0017638994430064182,-0.028156379666788744,-0.36129477377617586
1750830929.1465452,-1.7317589335182735,-2.1779228103943966,-0.8288924743054178,1.5935439102217215,-0.0785004799317548,-1.648224,-0.021371254670977627,0.11503297984221507,-0.0958370380982461,-0.007138026505864543,-0.2178921097786911,-0.21800000000000017,3.7148536704687323,3.260223890620376,0.29071392504026417,-0.0017665151415480443,-0.028156379664307396,-0.36139922852145906
1750830929.1486738,-1.7318017740608935,-2.1776922167604926,-0.8290845880010549,1.593529601425469,-0.0789372636564023,-1.6486609999999997,-0.021469287949284866,0.11556065406167476,-0.09627665753906375,-0.007170769746717133,-0.21889161486941905,-0.21900000000000017,3.715629217445848,3.260671202616163,0.2907118200795258,-0.0017691423132199394,-0.02815637966183222,-0.3615041711000075
1750830929.1507413,-1.7318448106700703,-2.17746056777815,-0.8292775809355737,1.5935152271427346,-0.07937604639123208,-1.6490999999999998,-0.021567321227592102,0.11608832828113447,-0.0967162769798814,-0.007203512987569723,-0.21989111996014699,-0.22000000000000017,3.716408270994212,3.2611204620344445,0.2907097039586826,-0.0017717809502562892,-0.02815637965936346,-0.36160960159172734
1750830929.1525326,-1.731888043345804,-2.177227863447368,-0.8294714531089742,1.5935007873735185,-0.07981682813624325,-1.6495410000000001,-0.021665354505899338,0.11661600250059417,-0.09715589642069904,-0.007236256228422312,-0.22089062505087495,-0.22100000000000017,3.717190830522756,3.2615716675174298,0.29070757665688474,-0.0017744310448522247,-0.028156379656902132,-0.36171552007633034
1750830929.1545615,-1.7319314720880943,-2.1769941037681475,-0.8296662045212564,1.5934862821178208,-0.0802596088914358,-1.649984,-0.021763387784206577,0.11714367672005387,-0.09759551586151669,-0.007268999469274902,-0.2218901301416029,-0.22200000000000017,3.717976895437634,3.262024817701358,0.29070543815318767,-0.0017770925891637565,-0.028156379654446145,-0.36182192663332735
1750830929.1565392,-1.7319750968969405,-2.176759288740488,-0.8298618351724203,1.5934717113756416,-0.08070438865680973,-1.650429,-0.021861421062513813,0.11767135093951357,-0.09803513530233432,-0.0073017427101274915,-0.22288963523233082,-0.22300000000000017,3.718766465142203,3.2624799112165053,0.2907032884265567,-0.0017797655753077739,-0.028156379651998076,-0.361928821342019
1750830929.1585097,-1.7320189177723435,-2.17652341836439,-0.8300583450624659,1.5934570751469803,-0.08115116743236506,-1.6508760000000002,-0.021959454340821048,0.11819902515897328,-0.09847475474315197,-0.007334485950980081,-0.22388914032305876,-0.22400000000000017,3.7195595390370415,3.2629369466871543,0.2907011274558596,-0.0017824499953620159,-0.028156379649557403,-0.3620362042814898
1750830929.1605964,-1.7320629347143042,-2.1762864926398517,-0.8302557341913932,1.5934423734318377,-0.08159994521810177,-1.651325,-0.022057487619128287,0.11872669937843298,-0.0989143741839696,-0.007367229191832671,-0.2248886454137867,-0.22500000000000017,3.720356116519931,3.263395922731628,0.2906989552198741,-0.001785145841364896,-0.028156379647124363,-0.36214407553059824
1750830929.1625257,-1.7321071477228207,-2.1760485115668757,-0.8304540025592022,1.593427606230213,-0.08205072201401986,-1.651776,-0.022155520897435523,0.11925437359789268,-0.09935399362478725,-0.00739997243268526,-0.22588815050451463,-0.22600000000000017,3.721156196985856,3.263856837962285,0.2906967716972814,-0.0017878531053156447,-0.028156379644699213,-0.3622524351679707
1750830929.1645596,-1.732151556797894,-2.17580947514546,-0.830653150165892,1.5934127735421069,-0.08250349782012023,-1.6522290000000002,-0.02225355417574276,0.11978204781735238,-0.0997936130656049,-0.00743271567353785,-0.2268876555952426,-0.22700000000000017,3.7219597798270203,3.264319690985534,0.29069457686667305,-0.0017905717791740741,-0.028156379642282986,-0.36236128327199113
1750830929.1675456,-1.7321961619395232,-2.1755693833756062,-0.8308531770114644,1.5933978753675189,-0.0829582726364011,-1.6526839999999998,-0.022351587454049998,0.12030972203681209,-0.10023323250642253,-0.00746545891439044,-0.22788716068597054,-0.22800000000000017,3.7227668644328147,3.2647844804017994,0.2906923707065439,-0.0017933018548606714,-0.02815637963987358,-0.3624706199207968
1750830929.1691597,-1.7321961619395232,-2.1755693833756062,-0.8308531770114644,1.5933978753675189,-0.0829582726364011,-1.6526839999999998,-0.022351587454049998,0.12030972203681209,-0.10023323250642253,-0.00746545891439044,-0.22788716068597054,-0.22800000000000017,3.7227668644328147,3.2647844804017994,0.2906923707065439,-0.0017933018548606714,-0.02815637963987358,-0.3624706199207968
1750830929.171872,-1.7322859604224528,-2.1750860337905813,-0.8312558684192535,1.593367882558898,-0.08387381929950788,-1.6536,-0.02254765401066447,0.12136507047573149,-0.10111247138805782,-0.00753094539609562,-0.2298861708674264,-0.23000000000000018,3.724391536481949,3.2657198627853483,0.2906879243112408,-0.0017987961792030524,-0.028156379635082503,-0.3626907591640212
1750830929.1740556,-1.7322859604224528,-2.1750860337905813,-0.8312558684192535,1.593367882558898,-0.08387381929950788,-1.6536,-0.02254765401066447,0.12136507047573149,-0.10111247138805782,-0.00753094539609562,-0.2298861708674264,-0.23000000000000018,3.724391536481949,3.2657198627853483,0.2906879243112408,-0.0017987961792030524,-0.028156379635082503,-0.3626907591640212
1750830929.1745288,-1.7323311537637522,-2.17484277597541,-0.8314585329814701,1.593352787924865,-0.08433459114633379,-1.6540609999999996,-0.022645687288971705,0.1218927446951912,-0.10155209082887547,-0.007563688636948209,-0.23088567595815435,-0.23100000000000018,3.725209122690106,3.2661904529237407,0.2906856840325924,-0.0018015604115023905,-0.028156379632700557,-0.362801561913398
1750830929.176473,-1.7323765431716085,-2.174598462811801,-0.8316620767825684,1.59333762780435,-0.0847973620033402,-1.6545240000000003,-0.022743720567278945,0.1224204189146509,-0.10199171026969311,-0.007596431877800799,-0.23188518104888228,-0.23200000000000018,3.726030208192533,3.2666629737973594,0.29068343233747457,-0.0018043360129170508,-0.028156379630328014,-0.36291285351746116
1750830929.1785555,-1.7324221286460215,-2.174353094299752,-0.8318664998225493,1.5933224021973538,-0.08526213187052889,-1.6549889999999996,-0.02284175384558618,0.12294809313411059,-0.10243132971051075,-0.0076291751186533885,-0.23288468613961022,-0.23300000000000018,3.726854792364646,3.2671374239768913,0.2906811692039168,-0.0018071229751698001,-0.028156379627965133,-0.363024634052985
1750830929.180492,-1.7324679101869913,-2.1741066704392633,-0.8320718021014111,1.5933071111038755,-0.08572890074789896,-1.655456,-0.022939787123893416,0.1234757673535703,-0.1028709491513284,-0.007661918359505978,-0.23388419123033818,-0.23400000000000018,3.727682874579056,3.267613802027092,0.2906788946098552,-0.001809921289943865,-0.028156379625612946,-0.36313690359644635
1750830929.1824868,-1.732513887794517,-2.1738591912303376,-0.8322779836191545,1.5932917545239158,-0.08619766863545042,-1.6559249999999999,-0.023037820402200655,0.12400344157303,-0.10331056859214603,-0.007694661600358568,-0.23488369632106612,-0.23500000000000018,3.7285144542055484,3.2680921065067503,0.2906766085331333,-0.0018127309488826374,-0.028156379623269372,-0.36324966222401706
1750830929.1845794,-1.7325600614686003,-2.173610656672972,-0.8324850443757796,1.5932763324574741,-0.08666843553318326,-1.656396,-0.02313585368050789,0.1245311157924897,-0.10375018803296368,-0.007727404841211157,-0.23588320141179406,-0.23600000000000018,3.729349530611143,3.268572335968742,0.2906743109515001,-0.0018155519435898565,-0.028156379620937016,-0.36336291001155746
1750830929.187833,-1.7325600614686003,-2.173610656672972,-0.8324850443757796,1.5932763324574741,-0.08666843553318326,-1.656396,-0.02313585368050789,0.1245311157924897,-0.10375018803296368,-0.007727404841211157,-0.23588320141179406,-0.23600000000000018,3.729349530611143,3.268572335968742,0.2906743109515001,-0.0018155519435898565,-0.028156379620937016,-0.36336291001155746
1750830929.1884525,-1.7326064312092395,-2.1733610667671677,-0.8326929843712865,1.5932608449045509,-0.0871412014410975,-1.6568690000000004,-0.023233886958815127,0.12505879001194942,-0.10418980747378133,-0.007760148082063747,-0.236882706502522,-0.23700000000000018,3.730188103160019,3.269054488960021,0.2906720018426138,-0.0018183842656293438,-0.028156379618615356,-0.36347664703460325
1750830929.1905015,-1.7326529970164355,-2.1731104215129236,-0.8329018036056741,1.5932452918651459,-0.08761596635919311,-1.6573440000000002,-0.023331920237122366,0.1255864642314091,-0.10462942691459896,-0.007792891322916337,-0.23788221159324993,-0.23800000000000018,3.7310301712135634,3.2695385640215737,0.2906696811840371,-0.0018212279065251136,-0.028156379616304652,-0.36359087336836576
1750830929.192471,-1.7326997588901882,-2.1728587209102415,-0.8331115020789444,1.5932296733392592,-0.08809273028747011,-1.6578210000000002,-0.0234299535154296,0.1261141384508688,-0.10506904635541661,-0.007825634563768925,-0.23888171668397787,-0.23900000000000018,3.731875734130359,3.2700245596885154,0.2906673489532407,-0.0018240828577611838,-0.028156379614005175,-0.3637055890877124
