mathias31415/primitives_from_planned_trajectory_python/data/saved_trajectories/trajectory_20250624_121923_planned.csv
time_from_start,shoulder_pan_joint_pos,shoulder_lift_joint_pos,elbow_joint_pos,wrist_1_joint_pos,wrist_2_joint_pos,wrist_3_joint_pos,shoulder_pan_joint_vel,shoulder_lift_joint_vel,elbow_joint_vel,wrist_1_joint_vel,wrist_2_joint_vel,wrist_3_joint_vel,shoulder_pan_joint_acc,shoulder_lift_joint_acc,elbow_joint_acc,wrist_1_joint_acc,wrist_2_joint_acc,wrist_3_joint_acc,fk_x,fk_y,fk_z,fk_qx,fk_qy,fk_qz,fk_qw
0.0,-0.4877760000000002,-1.7890100000000002,-2.1248749999999994,-0.7879159999999992,1.604518,1.0824940000000005,-0.0004999292322937519,-5.888863309903533e-05,9.357868960901947e-05,-4.617112055381138e-05,-9.499694614143493e-06,-0.0005000000000000001,-0.4999292322937519,-0.05888863309903533,0.09357868960901947,-0.04617112055381138,-0.009499694614143493,-0.5000000000000001,0.5060147709347678,-0.4611512744871516,0.26484634842360266,-0.00035237885907331594,0.9998437902081486,0.012409526490071631,0.01258072587871804
0.1,-0.49027564616146896,-1.7893044431654952,-2.124407106551954,-0.7881468556027682,1.6044705015269294,1.0799940000000003,-0.049992923229375014,-0.005888863309903512,0.009357868960901914,-0.004617112055381122,-0.000949969461414346,-0.049999999999999836,-0.4999292322936245,-0.05888863309901933,0.09357868960899524,-0.04617112055379977,-0.00949969461414099,-0.49999999999986816,0.5050684336236249,-0.462531957564207,0.26487114856415783,-0.00035194694657412996,0.9998443419490719,0.01237061373264688,0.012575210600687836
0.2,-0.49777458464587515,-1.7901877726619808,-2.123003426207819,-0.7888394224110754,1.6043280061077172,1.0724940000000003,-0.09998584645874987,-0.011777726619807007,0.018715737921803796,-0.00923422411076223,-0.001899938922828689,-0.09999999999999952,-0.49992923229352737,-0.05888863309900892,0.09357868960897442,-0.04617112055379023,-0.009499694614139038,-0.49999999999977796,0.5022068548983447,-0.46666279478711625,0.2649453136854982,-0.000350659386041546,0.9998459888455898,0.012254507739334071,0.012557972266498556
0.30000000000000004,-0.510272815453219,-1.7916599884894568,-2.1206639589675937,-0.7899937004249207,1.6040905137423636,1.0599940000000005,-0.14997876968812404,-0.01766658992971042,0.028073606882705555,-0.013851336166143275,-0.0028499083842430193,-0.14999999999999852,-0.4999292322920008,-0.058888633098830245,0.0935786896086934,-0.046171120553651454,-0.009499694614110632,-0.4999999999982514,0.4973625423582597,-0.47350953565055376,0.2650681379640305,-0.0003485407084209514,0.9998487059188077,0.012063125234939532,0.01252696297696013
0.4,-0.5277703385835003,-1.793721090647923,-2.117388704831278,-0.791609689644304,1.6037580244308685,1.0424940000000005,-0.1999716929174968,-0.023555453239613666,0.037431475843607044,-0.018468448221524186,-0.003799877845657322,-0.1999999999999961,-0.4999292322900579,-0.05888863309860126,0.09357868960832563,-0.04617112055347104,-0.009499694614073335,-0.4999999999963085,0.4904237253535402,-0.48301305251758003,0.2652384452884978,-0.0003456317987886042,0.9998524515367764,0.011799725532503396,0.01247886901587874
0.5,-0.5486246228684143,-1.7961775989224296,-2.113485119143435,-0.7935356935896314,1.6033617496797516,1.02163676367754,-0.20943951023930113,-0.024670704728217994,0.03920369855274327,-0.01934285145043886,-0.003979786055479289,-0.20946915754291925,1.8407732706294768e-11,2.1692847654632014e-12,-3.444519260176393e-12,1.7014677633265684e-12,3.4999642382074017e-13,1.8407732706294768e-11,0.48191646486933054,-0.4942104894072682,0.2654389160149875,-0.00034225206246437924,0.9998568269034729,0.011492842701530816,0.012414633489646956
0.6000000000000001,-0.5695685738923453,-1.7986446693952514,-2.10956474928816,-0.7954699787346754,1.602963771074204,1.0006898479232473,-0.20943951023930113,-0.024670704728217994,0.03920369855274327,-0.01934285145043886,-0.003979786055479289,-0.20946915754291925,1.8407732706294768e-11,2.1692847654632014e-12,-3.444519260176393e-12,1.7014677633265684e-12,3.4999642382074017e-13,1.8407732706294768e-11,0.4731150867026886,-0.5053089819278569,0.2656375035487092,-0.0003389532664065882,0.9998611238654622,0.011192521162712694,0.012342834488080986
0.7000000000000001,-0.590512524916277,-1.8011117398680736,-2.105644379432886,-0.7974042638797194,1.6025657924686558,0.9797429321689537,-0.20943951023932045,-0.02467070472822027,0.039203698552746885,-0.019342851450440644,-0.0039797860554796555,-0.20946915754293857,-8.871196484961334e-13,-1.0395933380814063e-13,1.6633493409302502e-13,-7.970215591957449e-14,-1.64602278529556e-14,-8.871196484961334e-13,0.464058062009179,-0.51625414930084,0.2658333408589923,-0.000335750147650644,0.9998653234002164,0.01090026500501915,0.012264035079833062
0.8,-0.6114564759402091,-1.8035788103408956,-2.1017240095776115,-0.7993385490247635,1.6021678138631081,0.95879601641466,-0.20943951023932045,-0.02467070472822027,0.039203698552746885,-0.019342851450440644,-0.0039797860554796555,-0.20946915754293857,-8.871196484961334e-13,-1.0395933380814063e-13,1.6633493409302502e-13,-7.970215591957449e-14,-1.64602278529556e-14,-8.871196484961334e-13,0.4547479755598864,-0.5270401014018921,0.266026428785477,-0.00033264270662143255,0.999869425506452,0.010616232928593983,0.012178541974852743
0.9,-0.6324004269641411,-1.8060458808137174,-2.0978036397223363,-0.8012728341698074,1.60176983525756,0.9378491006603661,-0.20943951023932045,-0.02467070472822027,0.039203698552746885,-0.019342851450440644,-0.0039797860554796555,-0.20946915754293857,-8.871196484961334e-13,-1.0395933380814063e-13,1.6633493409302502e-13,-7.970215591957449e-14,-1.64602278529556e-14,-8.871196484961334e-13,0.4451875478759331,-0.5376609894634273,0.2662167681881008,-0.00032963094372553346,0.9998734301829042,0.010340574316077196,0.012086665401483258
1.0,-0.653344377988073,-1.8085129512865394,-2.093883269867062,-0.8032071193148516,1.601371856652012,0.9169021849060722,-0.20943951023932045,-0.02467070472822027,0.039203698552746885,-0.019342851450440644,-0.0039797860554796555,-0.20946915754293857,-8.871196484961334e-13,-1.0395933380814063e-13,1.6633493409302502e-13,-7.970215591957449e-14,-1.64602278529556e-14,-8.871196484961334e-13,0.43537963462555584,-0.5481110092043189,0.2664043599470861,-0.0003267148593503349,0.9998773374283274,0.010073429156067593,0.011988718850534484
1.1,-0.6742883290120039,-1.8109800217593615,-2.089962900011787,-0.8051414044598955,1.6009738780464642,0.8959552691517796,-0.2094395102392818,-0.024670704728215722,0.039203698552739655,-0.019342851450437078,-0.003979786055478922,-0.20946915754289994,3.770258506108567e-11,4.4390635536076056e-12,-7.0553734544458115e-12,3.4826376825727113e-12,7.164530754944359e-13,3.770258506108567e-11,0.42532722594900135,-0.5583844039524697,0.2665892049629346,-0.00032389445386481284,0.9998811472414937,0.009814927973216564,0.0118850188177223
1.2,-0.695232280035934,-1.8134470922321833,-2.086042530156513,-0.8070756896049394,1.600575899440916,0.8750083533974877,-0.2094395102392818,-0.024670704728215722,0.039203698552739655,-0.019342851450437078,-0.003979786055478922,-0.20946915754289994,3.770258506108567e-11,4.4390635536076056e-12,-7.0553734544458115e-12,3.4826376825727113e-12,7.164530754944359e-13,3.770258506108567e-11,0.41503344571127065,-0.5684754677585676,0.2667713041564129,-0.00032116972761958817,0.9998848596211948,0.00956519176499874,0.011775884544631365
1.3,-0.716176231059864,-1.815914162705005,-2.0821221603012385,-0.8090099747499833,1.6001779208353684,0.8540614376431958,-0.2094395102392818,-0.024670704728215722,0.039203698552739655,-0.019342851450437078,-0.003979786055478922,-0.20946915754289994,3.770258506108567e-11,4.4390635536076056e-12,-7.0553734544458115e-12,3.4826376825727113e-12,7.164530754944359e-13,3.770258506108567e-11,0.4045015506827895,-0.5783785484993568,0.26695065846854377,-0.0003185406809460968,0.9998884745662403,0.009324331945181586,0.011661637758377459
1.4,-0.7371201820837943,-1.8183812331778269,-2.078201790445964,-0.8109442598950272,1.5997799422298205,0.8331145218889039,-0.2094395102392818,-0.024670704728215535,0.03920369855274003,-0.019342851450437078,-0.003979786055478922,-0.20946915754289994,3.770258506108567e-11,4.435598242480667e-12,-7.0553734544458115e-12,3.4826376825727113e-12,7.164530754944359e-13,3.770258506108567e-11,0.39373492964811424,-0.5880880509687578,0.2671272688605947,-0.00031600731415743773,0.9998919920754591,0.009092450294023056,0.011542602410129417
1.5,-0.7580641331077242,-1.8208483036506486,-2.0742814205906903,-0.8128785450400712,1.5993819636242725,0.8121676061346121,-0.2094395102392818,-0.024670704728215535,0.03920369855274003,-0.019342851450437078,-0.003979786055478922,-0.20946915754289994,3.770258506108567e-11,4.435598242480667e-12,-7.0553734544458115e-12,3.4826376825727113e-12,7.164530754944359e-13,3.770258506108567e-11,0.38273710244282494,-0.5975984399551701,0.2673011363140679,-0.00031356962754819525,0.9998954121476981,0.008869638915221655,0.01141910441266298
1.6,-0.7790080841316542,-1.8233153741234704,-2.0703610507354155,-0.814812830185115,1.5989839850187244,0.7912206903803202,-0.2094395102392818,-0.024670704728215535,0.03920369855274003,-0.019342851450437078,-0.003979786055478922,-0.20946915754289994,3.770258506108567e-11,4.435598242480667e-12,-7.0553734544458115e-12,3.4826376825727113e-12,7.164530754944359e-13,3.770258506108567e-11,0.3715117189187918,-0.6069042433032887,0.26747226183068856,-0.0003112276213942045,0.9998987347818233,0.008655980199632126,0.011291471377112552
1.7000000000000002,-0.7999520351555843,-1.825782444596292,-2.066440680880141,-0.8167471153301589,1.5985860064131763,0.7702737746260282,-0.2094395102392818,-0.024670704728215535,0.03920369855274003,-0.019342851450437078,-0.003979786055478922,-0.20946915754289994,3.770258506108567e-11,4.435598242480667e-12,-7.0553734544458115e-12,3.4826376825727113e-12,7.164530754944359e-13,3.770258506108567e-11,0.360062557838045,-0.6160000549587671,0.2676406464323935,-0.0003089812959524701,0.9999019599767194,0.008451546795768152,0.0111600323490879
1.8,-0.8208959861795144,-1.8282495150691138,-2.062520311024867,-0.8186814004752028,1.5981880278076286,0.7493268588717363,-0.2094395102392818,-0.024670704728215535,0.03920369855274003,-0.019342851450437078,-0.003979786055478922,-0.20946915754289994,3.770258506108567e-11,4.435598242480667e-12,-7.0553734544458115e-12,3.4826376825727113e-12,7.164530754944359e-13,3.770258506108567e-11,0.34839352569551507,-0.6248805379940704,0.26780629116132104,-0.00030683065146119593,0.9999050877312894,0.00825640158709401,0.011025117544328824
1.9,-0.8418399372034445,-1.8307165855419356,-2.0585999411695926,-0.8206156856202464,1.5977900492020805,0.7283799431174445,-0.2094395102392818,-0.024670704728215535,0.03920369855274003,-0.019342851450437078,-0.003979786055478922,-0.20946915754289994,3.770258506108567e-11,4.435598242480667e-12,-7.0553734544458115e-12,3.4826376825727113e-12,7.164530754944359e-13,3.770258506108567e-11,0.336508655470945,-0.6335404276138531,0.26796919707979894,-0.0003047756881405505,0.9999081180444553,0.008070597676116434,0.010887058084061754
2.0,-0.8627838882273746,-1.8331836560147574,-2.054679571314318,-0.8225499707652905,1.5973920705965328,0.7074330273631526,-0.20943951023937474,-0.024670704728226477,0.03920369855275742,-0.019342851450445658,-0.003979786055480688,-0.20946915754299286,-5.5112308162834515e-11,-6.493993051883292e-12,1.0312765913769838e-11,-5.087076734346144e-12,-1.0473902881172492e-12,-5.5112308162834515e-11,0.3244121053103208,-0.6419745341382121,0.26812936527033293,-0.0003028164061915853,0.9999110509151575,0.007894178375279419,0.010746185730230645
2.1,-0.8837278392513047,-1.8356507264875792,-2.0507592014590434,-0.8244842559103344,1.5969940919909849,0.6864861116088607,-0.2094395102392818,-0.024670704728215535,0.03920369855274003,-0.019342851450437078,-0.003979786055478922,-0.20946915754289994,3.770258506108567e-11,4.435598242480667e-12,-7.0553734544458115e-12,3.4826376825727113e-12,7.164530754944359e-13,3.770258506108567e-11,0.31210815713720175,-0.6501777459621634,0.2682867968355957,-0.0003009528057967373,0.9999138863423552,0.007727177204653701,0.010602832620768627
2.2,-0.9046717902752348,-1.838117796960401,-2.046838831603769,-0.8264185410553783,1.596596113385437,0.6655391958545688,-0.2094395102392818,-0.024670704728215535,0.03920369855274003,-0.019342851450437078,-0.003979786055478922,-0.20946915754289994,3.770258506108567e-11,4.435598242480667e-12,-7.0553734544458115e-12,3.4826376825727113e-12,7.164530754944359e-13,3.770258506108567e-11,0.2996012151943706,-0.6581450324896999,0.2684414928984137,-0.0002991848871200931,0.9999166243250261,0.007569617896422694,0.010457331005080223
2.3,-0.925615741299165,-1.8405848674332228,-2.042918461748495,-0.828352826200422,1.5961981347798888,0.6445922801002768,-0.2094395102392818,-0.024670704728215535,0.03920369855274003,-0.019342851450437078,-0.003979786055478922,-0.20946915754289994,3.770258506108567e-11,4.435598242480667e-12,-7.0553734544458115e-12,3.4826376825727113e-12,7.164530754944359e-13,3.770258506108567e-11,0.28689580451626245,-0.6658714470408,0.2685934546017567,-0.000297512650306753,0.999919264862167,0.007421514406146578,0.010310012979902855
2.4,-0.946559692323095,-1.8430519379060444,-2.038998091893221,-0.8302871113454661,1.595800156174341,0.623645364345985,-0.2094395102392818,-0.024670704728215535,0.03920369855274003,-0.019342851450437078,-0.003979786055478922,-0.20946915754289994,3.770258506108567e-11,4.435598242480667e-12,-7.0553734544458115e-12,3.4826376825727113e-12,7.164530754944359e-13,3.770258506108567e-11,0.27399656933267097,-0.6733521297297504,0.26874268310872546,-0.000295936095483276,0.9999218079527927,0.007282870930797264,0.010161210225714028
2.5,-0.9675036433470249,-1.8455190083788662,-2.0350777220379466,-0.8322213964905099,1.5954021775687932,0.6026984485916932,-0.2094395102392818,-0.024670704728215535,0.03920369855274003,-0.019342851450437078,-0.003979786055478922,-0.20946915754289994,3.770258506108567e-11,4.435598242480667e-12,-7.0553734544458115e-12,3.4826376825727113e-12,7.164530754944359e-13,3.770258506108567e-11,0.2609082714042663,-0.6805823103131767,0.2688891796025396,-0.00029445522275776514,0.999924253595937,0.007153681933539197,0.01001125374385358
2.6,-0.988447594370955,-1.8479860788516882,-2.0311573521826722,-0.8341556816355538,1.5950041989632453,0.5817515328374013,-0.2094395102392819,-0.024670704728215535,0.039203698552739655,-0.01934285145043717,-0.003979786055479109,-0.20946915754290002,3.759169510502365e-11,4.428667620226791e-12,-7.034581587684183e-12,3.4722417491918974e-12,7.147204199309669e-13,3.761941759403916e-11,0.24763578829049634,-0.6875573110061629,0.2690329452865247,-0.0002930700322192575,0.9999266017906525,0.007033932175239518,0.009860473594525552
2.7,-1.0093915453948852,-1.8504531493245098,-2.0272369823273975,-0.8360899667805977,1.5946062203576972,0.5608046170831094,-0.2094395102392819,-0.024670704728215535,0.039203698552739655,-0.01934285145043717,-0.003979786055479109,-0.20946915754290002,3.759169510502365e-11,4.428667620226791e-12,-7.034581587684183e-12,3.4722417491918974e-12,7.147204199309669e-13,3.761941759403916e-11,0.23418411155048852,-0.6942725492648691,0.2691739813841013,-0.00029178052393842043,0.99992885253601,0.006923596752675721,0.009709198635850394
2.8,-1.0303354964188154,-1.8529202197973318,-2.0233166124721236,-0.8380242519256416,1.5942082417521493,0.5398577013288175,-0.2094395102392819,-0.024670704728215535,0.039203698552739655,-0.01934285145043717,-0.003979786055479109,-0.20946915754290002,3.759169510502365e-11,4.428667620226791e-12,-7.034581587684183e-12,3.4722417491918974e-12,7.147204199309669e-13,3.761941759403916e-11,0.22055834487759232,-0.7007235405340602,0.26931228913876926,-0.00029058669796741294,0.9999310058310997,0.006822641143415865,0.009557756264126839
2.9,-1.0512794474427454,-1.8553872902701536,-2.0193962426168492,-0.8399585370706855,1.5938102631466016,0.5189107855745256,-0.2094395102392819,-0.024670704728215535,0.039203698552739655,-0.01934285145043717,-0.003979786055479109,-0.20946915754290002,3.759169510502365e-11,4.428667620226791e-12,-7.034581587684183e-12,3.4722417491918974e-12,7.147204199309669e-13,3.761941759403916e-11,0.20676370216825643,-0.7069059009579728,0.26944786981410046,-0.0002894885543395549,0.9999330616750296,0.006731021257327788,0.009406472155475564
3.0,-1.0722233984666754,-1.8578543607429752,-2.0154758727615745,-0.8418928222157294,1.5934122845410532,0.4979638698202338,-0.2094395102392819,-0.024670704728215535,0.039203698552739655,-0.01934285145043717,-0.003979786055479109,-0.20946915754290002,3.759169510502365e-11,4.428667620226791e-12,-7.034581587684183e-12,3.4722417491918974e-12,7.147204199309669e-13,3.761941759403916e-11,0.1928055055259584,-0.7128153500529592,0.2695807246937211,-0.0002884860930694112,0.9999350200669269,0.0066486834946903805,0.009255670009020722
3.1,-1.0931673494906056,-1.860321431215797,-2.0115555029063006,-0.8438271073607733,1.5930143059355055,0.4770169540659419,-0.2094395102392819,-0.024670704728215535,0.039203698552739655,-0.01934285145043717,-0.003979786055479109,-0.20946915754290002,3.759169510502365e-11,4.428667620226791e-12,-7.034581587684183e-12,3.4722417491918974e-12,7.147204199309669e-13,3.761941759403916e-11,0.17868918320094992,-0.7184477133403625,0.2697108550812997,-0.000287579314152945,0.9999368810059375,0.006575564810857199,0.009105671291779307
3.2,-1.1141113005145356,-1.8627885016886188,-2.007635133051026,-0.8457613925058172,1.5926163273299574,0.45607003831165,-0.2094395102392819,-0.024670704728215535,0.039203698552739655,-0.01934285145043717,-0.003979786055479109,-0.20946915754290002,3.759169510502365e-11,4.428667620226791e-12,-7.034581587684183e-12,3.4722417491918974e-12,7.147204199309669e-13,3.761941759403916e-11,0.16442026746661498,-0.7237989249381006,0.26983826230053737,-0.0002867682175678667,0.9999386444912255,0.006511592787421972,0.008956794985415227
3.3,-1.1350552515384655,-1.8652555721614406,-2.0037147631957515,-0.8476956776508611,1.5922183487244095,0.4351231225573581,-0.2094395102392819,-0.024670704728215535,0.039203698552739655,-0.01934285145043717,-0.003979786055479109,-0.20946915754290002,3.759169510502365e-11,4.428667620226791e-12,-7.034581587684183e-12,3.4722417491918974e-12,7.147204199309669e-13,3.761941759403916e-11,0.15000439243326869,-0.7288650301094308,0.26996294769514984,-0.0002860528032727458,0.9999403105219741,0.006456685709849652,0.008809357335020685
3.4,-1.1559992025623957,-1.8677226426342624,-1.9997943933404774,-0.849629962795905,1.5918203701188616,0.41417620680306616,-0.2094395102392819,-0.024670704728215535,0.039203698552739655,-0.01934285145043717,-0.003979786055479109,-0.20946915754290002,3.759169510502365e-11,4.428667620226791e-12,-7.034581587684183e-12,3.4722417491918974e-12,7.147204199309669e-13,3.761941759403916e-11,0.1354472918002731,-0.7336421877674132,0.27008491262885825,-0.0002854330712075125,0.9999418790973849,0.00641075265150251,0.008663671600083567
3.5,-1.1769431535863257,-1.8701897131070842,-1.9958740234852033,-0.8515642479409488,1.5914223915133137,0.39322929104877435,-0.2094395102392819,-0.024670704728215535,0.039203698552739655,-0.01934285145043717,-0.003979786055479109,-0.20946915754290002,3.759169510502365e-11,4.428667620226791e-12,-7.034581587684183e-12,3.4722417491918974e-12,7.147204199309669e-13,3.761941759403916e-11,0.12075479654736963,-0.7381266729335815,0.27020415848537305,-0.00028490902129386025,0.9999433502166781,0.006373693564014842,0.008520047807799034
3.6,-1.1978871046102557,-1.872656783579906,-1.991953653629929,-0.8534985330859927,1.5910244129077658,0.3722823752944824,-0.2094395102392819,-0.024670704728215535,0.039203698552739655,-0.01934285145043717,-0.003979786055479109,-0.20946915754290002,3.759169510502365e-11,4.428667620226791e-12,-7.034581587684183e-12,3.4722417491918974e-12,7.147204199309669e-13,3.761941759403916e-11,0.10593283256616766,-0.7423148791493698,0.2703206866683821,-0.0002844806534345252,0.9999447238790933,0.0063453993739492785,0.008378792508880913
3.7,-1.2188310556341857,-1.8751238540527277,-1.9880332837746546,-0.8554328182310366,1.5906264343022176,0.3513354595401905,-0.2094395102392819,-0.024670704728215535,0.039203698552739655,-0.01934285145043717,-0.003979786055479109,-0.20946915754290002,3.759169510502365e-11,4.428667620226791e-12,-7.034581587684183e-12,3.4722417491918974e-12,7.147204199309669e-13,3.761941759403916e-11,0.09098741823276679,-0.7462033208388453,0.27043449860153557,-0.0002841479675136761,0.9999460000838876,0.006325752085670765,0.008240208536028136
3.8,-1.2397750066581161,-1.8775909245255495,-1.98411291391938,-0.8573671033760805,1.5902284556966697,0.3303885437858986,-0.20943951023928178,-0.02467070472821573,0.03920369855273967,-0.019342851450437085,-0.0039797860554789235,-0.20946915754290002,3.767486257207017e-11,4.4390635536076056e-12,-7.0553734544458115e-12,3.4791723714457735e-12,7.155867477127013e-13,3.767486257207017e-11,0.07592466192251983,-0.7497886356213345,0.27054559572843373,-0.00028391096339655357,0.9999471788303373,0.006314624890367058,0.008104594765200259
3.9,-1.2607189576820461,-1.8800579949983713,-1.980192544064106,-0.8593013885211244,1.5898304770911218,0.3094416280316067,-0.20943951023928178,-0.02467070472821573,0.03920369855273967,-0.019342851450437085,-0.0039797860554789235,-0.20946915754290002,3.767486257207017e-11,4.4390635536076056e-12,-7.0553734544458115e-12,3.4791723714457735e-12,7.155867477127013e-13,3.767486257207017e-11,0.06075075946798004,-0.7530675865725351,0.2706539795126113,-0.0002837696409304287,0.9999482601177377,0.006311882281146291,0.007972245879850421
4.0,-1.2816629087059759,-1.8825250654711927,-1.9762721742088316,-0.8612356736661682,1.5894324984855737,0.2884947122773149,-0.20943951023946755,-0.02467070472823761,0.039203698552774446,-0.01934285145045424,-0.003979786055482453,-0.20946915754308582,-1.4787175640876483e-10,-1.741665372399822e-11,2.7680905281993193e-11,-1.36567911512688e-11,-2.8095009961662467e-12,-1.4789947889778035e-10,0.045471991561108226,-0.7560370644327443,0.27075965143752506,-0.0002837239999433962,0.9999492439454025,0.006317380174129405,0.00784345213826952
4.1,-1.3026068597299063,-1.8849921359440147,-1.972351804353557,-0.8631699588112121,1.589034519880026,0.2675477965230227,-0.20943951023928178,-0.02467070472821573,0.03920369855273967,-0.019342851450437085,-0.0039797860554789235,-0.20946915754290002,3.767486257207017e-11,4.4390635536076056e-12,-7.0553734544458115e-12,3.4791723714457735e-12,7.155867477127013e-13,3.767486257207017e-11,0.030094721100849976,-0.7586940897608371,0.2708626130065377,-0.0002837740402448748,0.9999501303126638,0.006330966035465235,0.007718499144185432
4.2,-1.3235508107538365,-1.8874592064168367,-1.968431434498283,-0.865104243956256,1.5886365412744783,0.24660088076873093,-0.20943951023928178,-0.02467070472821573,0.03920369855273967,-0.019342851450437085,-0.0039797860554789235,-0.20946915754290002,3.767486257207017e-11,4.4390635536076056e-12,-7.0553734544458115e-12,3.4791723714457735e-12,7.155867477127013e-13,3.767486257207017e-11,0.014625390487228484,-0.7610358150326734,0.2709628657429054,-0.0002839197616257188,0.9999509192188724,0.006352479014174601,0.007597667620764731
4.3,-1.3444947617777663,-1.8899262768896585,-1.9645110646430086,-0.8670385291012999,1.5882385626689302,0.22565396501443918,-0.20943951023928178,-0.02467070472821573,0.03920369855273967,-0.019342851450437085,-0.0039797860554789235,-0.20946915754290002,3.767486257207017e-11,4.4390635536076056e-12,-7.0553734544458115e-12,3.4791723714457735e-12,7.155867477127013e-13,3.767486257207017e-11,-0.0009294811368792816,-0.7630595266826213,0.2710604111897633,-0.0002841611638585375,0.9999516106633982,0.006381750080744077,0.007481233188160424
4.4,-1.3654387128016965,-1.89239334736248,-1.9605906947877343,-0.8689728142463438,1.5878405840633822,0.2047070492601471,-0.20943951023928178,-0.02467070472821573,0.03920369855273967,-0.019342851450437085,-0.0039797860554789235,-0.20946915754290002,3.767486257207017e-11,4.4390635536076056e-12,-7.0553734544458115e-12,3.4791723714457735e-12,7.155867477127013e-13,3.767486257207017e-11,-0.01656330069507212,-0.7647626470869122,0.27115525091010934,-0.00028449824669671053,0.9999522046456293,0.006418602171377239,0.007369466144746624
4.5,-1.3863826638256265,-1.894860417835302,-1.95667032493246,-0.8709070993913877,1.5874426054578343,0.18376013350585535,-0.20943951023928178,-0.02467070472821573,0.03920369855273967,-0.019342851450437085,-0.0039797860554789235,-0.20946915754290002,3.767486257207017e-11,4.4390635536076056e-12,-7.0553734544458115e-12,3.4791723714457735e-12,7.155867477127013e-13,3.767486257207017e-11,-0.0322694040366215,-0.7661427364875747,0.2712473864867902,-0.0002849310098752209,0.9999527011649729,0.006462850337804907,0.007262631252178315
4.6,-1.4073266148495567,-1.897327488308124,-1.9527499550771856,-0.8728413845364316,1.5870446268522864,0.1628132177515633,-0.20943951023928178,-0.02467070472821573,0.03920369855273967,-0.019342851450437085,-0.0039797860554789235,-0.20946915754290002,3.767486257207017e-11,4.4390635536076056e-12,-7.0553734544458115e-12,3.4791723714457735e-12,7.155867477127013e-13,3.767486257207017e-11,-0.04804105884427458,-0.7671974948557161,0.2713368195224872,-0.0002854594531104748,0.9999531002208544,0.006514301902561399,0.007160987524415053
4.7,-1.4282705658734867,-1.8997945587809455,-1.9488295852219113,-0.8747756696814755,1.5866466482467385,0.14186630199727152,-0.20943951023928178,-0.02467070472821573,0.03920369855273967,-0.019342851450437085,-0.0039797860554789235,-0.20946915754290002,3.767486257207017e-11,4.4390635536076056e-12,-7.0553734544458115e-12,3.4791723714457735e-12,7.155867477127013e-13,3.767486257207017e-11,-0.0638714675893583,-0.7679247636929475,0.2714235516397013,-0.00028608357610009386,0.9999534018127182,0.006572756619624849,0.0070647880208411186
4.8,-1.4492145168974169,-1.9022616292537675,-1.944909215366637,-0.8767099548265193,1.5862486696411906,0.12091938624297945,-0.20943951023928178,-0.02467070472821573,0.03920369855273967,-0.019342851450437085,-0.0039797860554789235,-0.20946915754290002,3.767486257207017e-11,4.4390635536076056e-12,-7.0553734544458115e-12,3.4791723714457735e-12,7.155867477127013e-13,3.767486257207017e-11,-0.07975377053286414,-0.7683225277697768,0.2715075844807365,-0.0002868033785231271,0.9999536059400269,0.006638006840317877,0.006974279643614493
4.9,-1.4701584679213469,-1.904728699726589,-1.9409888455113626,-0.8786442399715632,1.5858506910356425,0.09997247048868771,-0.20943951023928178,-0.02467070472821573,0.03920369855273967,-0.019342851450437085,-0.0039797860554789235,-0.20946915754290002,3.767486257207017e-11,4.4390635536076056e-12,-7.0553734544458115e-12,3.4791723714457735e-12,7.155867477127013e-13,3.767486257207017e-11,-0.09568104877115234,-0.7683889167998272,0.2715889197076869,-0.000287618860039957,0.9999537126022625,0.006709837684358826,0.006889702939374273
5.0,-1.4911024189452766,-1.907195770199411,-1.9370684756560883,-0.8805785251166071,1.5854527124300946,0.07902555473439593,-0.20943951023928165,-0.02467070472821571,0.03920369855273983,-0.01934285145043707,-0.003979786055478921,-0.20946915754289996,3.784119750616319e-11,4.456390109242295e-12,-7.083095943461315e-12,3.4964989270804635e-12,7.190520588396394e-13,3.784119750616319e-11,-0.1116463273248968,-0.7681222070487582,0.27166755900241907,-0.00028853002029244926,0.9999537217989248,0.00678802721595881,0.006811291905432922
5.1,-1.5120463699692068,-1.9096628406722327,-1.933148105800814,-0.882512810261651,1.5850547338245466,0.05807863898010386,-0.20943951023928165,-0.02467070472821571,0.03920369855273983,-0.01934285145043707,-0.003979786055478921,-0.20946915754289996,3.784119750616319e-11,4.456390109242295e-12,-7.083095943461315e-12,3.4964989270804635e-12,7.190520588396394e-13,3.784119750616319e-11,-0.12764257826985648,-0.7675208228768092,0.27174350406655823,-0.0002895368589035153,0.9999536335295333,0.00687234662484496,0.006739273800576449
5.2,-1.532990320993137,-1.9121299111450545,-1.9292277359455396,-0.8844470954066947,1.584656755218999,0.03713172322581211,-0.20943951023928165,-0.02467070472821571,0.03920369855273983,-0.01934285145043707,-0.003979786055478921,-0.20946915754289996,3.784119750616319e-11,4.456390109242295e-12,-7.083095943461315e-12,3.4964989270804635e-12,7.190520588396394e-13,3.784119750616319e-11,-0.14366272390803464,-0.7665833382139036,0.2718167566214722,-0.0002906393754775204,0.9999534477936252,0.00696256041209882,0.006673868960595351
5.3,-1.553934272017067,-1.9145969816178763,-1.9253073660902653,-0.8863813805517387,1.5842587766134506,0.01618480747152002,-0.20943951023928165,-0.02467070472821571,0.03920369855273983,-0.01934285145043707,-0.003979786055478921,-0.20946915754289996,3.784119750616319e-11,4.456390109242295e-12,-7.083095943461315e-12,3.4964989270804635e-12,7.190520588396394e-13,3.784119750616319e-11,-0.15969963997776523,-0.7653084779662913,0.2718873184082554,-0.0002918375696007015,0.9999531645907566,0.007058426580687975,0.006615290618662332
5.4,-1.5748782230409972,-1.9170640520906983,-1.9213869962349912,-0.8883156656967826,1.583860798007903,-0.004762108282771724,-0.20943951023928165,-0.02467070472821571,0.03920369855273983,-0.01934285145043707,-0.003979786055478921,-0.20946915754289996,3.784119750616319e-11,4.456390109242295e-12,-7.083095943461315e-12,3.4964989270804635e-12,7.190520588396394e-13,3.784119750616319e-11,-0.1757461589012342,-0.7636951193537381,0.2719551911877128,-0.0002931314408396497,0.9999527839205025,0.007159696830569474,0.006563744730675857
5.5,-1.595822174064927,-1.9195311225635199,-1.9174666263797167,-0.8902499508418265,1.583462819402355,-0.025709024037063502,-0.20943951023928165,-0.02467070472821571,0.03920369855273983,-0.01934285145043707,-0.003979786055478921,-0.20946915754289996,3.784119750616319e-11,4.456390109242295e-12,-7.083095943461315e-12,3.4964989270804635e-12,7.190520588396394e-13,3.784119750616319e-11,-0.19179507306792098,-0.7617422931763008,0.2720203767403456,-0.000294520988743411,0.9999523057824568,0.007266116758239776,0.006519429805675459
5.6,-1.6167661250888572,-1.921998193036342,-1.9135462565244423,-0.8921842359868704,1.583064840796807,-0.04665593979135556,-0.20943951023928165,-0.02467070472821571,0.03920369855273983,-0.01934285145043707,-0.003979786055478921,-0.20946915754289996,3.784119750616319e-11,4.456390109242295e-12,-7.083095943461315e-12,3.4964989270804635e-12,7.190520588396394e-13,3.784119750616319e-11,-0.20783913815242508,-0.759449185009757,0.272082876866332,-0.00029600621284151066,0.9999517301762311,0.007377426060607921,0.006482536741446002
5.7,-1.6377100761127872,-1.9244652635091635,-1.909625886669168,-0.8941185211319143,1.5826668621912594,-0.06760285554564732,-0.20943951023928165,-0.02467070472821571,0.03920369855273983,-0.01934285145043707,-0.003979786055478921,-0.20946915754289996,3.784119750616319e-11,4.456390109242295e-12,-7.083095943461315e-12,3.4964989270804635e-12,7.190520588396394e-13,3.784119750616319e-11,-0.2238710764651108,-0.7568151363288078,0.2721426933855145,-0.0002975871126452342,0.9999510571014566,0.007493358743052647,0.0064532486654107655
5.8,-1.6586540271367174,-1.9269323339819855,-1.9057055168138937,-0.8960528062769582,1.5822688835857113,-0.08854977129993942,-0.20943951023928165,-0.02467070472821571,0.03920369855273983,-0.01934285145043707,-0.003979786055478921,-0.20946915754289996,3.784119750616319e-11,4.456390109242295e-12,-7.083095943461315e-12,3.4964989270804635e-12,7.190520588396394e-13,3.784119750616319e-11,-0.23988358033399285,-0.7538396455571807,0.2721998281373804,-0.00029926368764724413,0.999950286557783,0.007613643331542816,0.006431740780918995
5.9,-1.6795979781606474,-1.929399404454807,-1.9017851469586193,-0.8979870914220021,1.5818709049801634,-0.10949668705423118,-0.20943951023928165,-0.02467070472821571,0.03920369855273983,-0.01934285145043707,-0.003979786055478921,-0.20946915754289996,3.784119750616319e-11,4.456390109242295e-12,-7.083095943461315e-12,3.4964989270804635e-12,7.190520588396394e-13,3.784119750616319e-11,-0.2558693155162492,-0.7505223690438211,0.27225428298104826,-0.0003010359373213515,0.9999494185448783,0.007738003088674949,0.006418180219028626
6.0,-1.7005419291845774,-1.9318664749276289,-1.897864777103345,-0.8999213765670458,1.5814729263746155,-0.13044360280852305,-0.20943951023928165,-0.02467070472821571,0.03920369855273983,-0.01934285145043707,-0.003979786055478921,-0.20946915754289996,3.784119750616319e-11,4.456390109242295e-12,-7.083095943461315e-12,3.4964989270804635e-12,7.190520588396394e-13,3.784119750616319e-11,-0.2718209246377424,-0.746863121964377,0.2723060597952486,-0.0003029038611229771,0.9999484530624293,0.007866156233499125,0.00641272589587738
6.1,-1.7214858802085076,-1.9343335454004507,-1.8939444072480704,-0.9018556617120898,1.5810749477690675,-0.151390518562815,-0.20943951023928165,-0.02467070472821571,0.03920369855273983,-0.01934285145043707,-0.003979786055478921,-0.20946915754289996,3.784119750616319e-11,4.456390109242295e-12,-7.083095943461315e-12,3.4964989270804635e-12,7.190520588396394e-13,3.784119750616319e-11,-0.2877310306588947,-0.7428618791472287,0.2723551604783091,-0.0003048674584885783,0.9999473901101418,0.007997816164987471,0.006415528375738819
6.2,-1.7424298312324376,-1.9368006158732725,-1.8900240373927963,-0.9037899468571337,1.5806769691635196,-0.17233743431710669,-0.2094395102392819,-0.024670704728215535,0.039203698552739835,-0.01934285145043717,-0.003979786055479109,-0.2094691575428999,3.759169510502365e-11,4.428667620226791e-12,-7.041512209938059e-12,3.4722417491918974e-12,7.147204199309669e-13,3.761941759403916e-11,-0.3035922403652554,-0.738518775823345,0.2724015869481362,-0.0003069267288362522,0.9999462296877395,0.008132691689007147,0.006426729739850955
6.3,-1.7633737822563678,-1.9392676863460943,-1.886103667537522,-0.9057242320021776,1.5802789905579717,-0.19328435007139874,-0.2094395102392819,-0.024670704728215535,0.039203698552739835,-0.01934285145043717,-0.003979786055479109,-0.2094691575428999,3.759169510502365e-11,4.428667620226791e-12,-7.041512209938059e-12,3.4722417491918974e-12,7.147204199309669e-13,3.761941759403916e-11,-0.3193971478810747,-0.7338341082992935,0.27244534114220026,-0.00030908167156543337,0.9999449717949658,0.008270487248649844,0.006446463461103986
6.4,-1.7843177332802975,-1.9417347568189158,-1.8821832976822477,-0.9076585171472213,1.5798810119524234,-0.21423126582569046,-0.2094395102392819,-0.024670704728215535,0.039203698552739835,-0.01934285145043717,-0.003979786055479109,-0.2094691575428999,3.759169510502365e-11,4.428667620226791e-12,-7.041512209938059e-12,3.4722417491918974e-12,7.147204199309669e-13,3.761941759403916e-11,-0.33513833820417743,-0.728808334552754,0.2724864250175162,-0.0003113322860567682,0.9999436164315818,0.00841090315777705,0.006474854284670388
6.5,-1.8052616843042277,-1.9442018272917378,-1.8782629278269733,-0.9095928022922652,1.5794830333468757,-0.23517818157998238,-0.2094395102392819,-0.024670704728215535,0.039203698552739835,-0.01934285145043717,-0.003979786055479109,-0.2094691575428999,3.759169510502365e-11,4.428667620226791e-12,-7.041512209938059e-12,3.4722417491918974e-12,7.147204199309669e-13,3.761941759403916e-11,-0.3508083907604242,-0.7234420747499419,0.2725248405506266,-0.00031367857167216996,0.9999421635973679,0.00855363583762784,0.0065120181146570925
6.6,-1.826205635328158,-1.9466688977645594,-1.874342557971699,-0.9115270874373093,1.579085054741328,-0.2561250973342743,-0.2094395102392819,-0.024670704728215535,0.039203698552739835,-0.01934285145043717,-0.003979786055479109,-0.2094691575428999,3.759169510502365e-11,4.428667620226791e-12,-7.041512209938059e-12,3.4722417491918974e-12,7.147204199309669e-13,3.761941759403916e-11,-0.3663998829760149,-0.7177361116843732,0.2725605897375867,-0.00031612052775522003,0.9999406132921229,0.008698378056339995,0.006558061906851487
6.7,-1.8471495863520877,-1.949135968237381,-1.8704221881164245,-0.913461372582353,1.5786870761357796,-0.27707201308856605,-0.2094395102392819,-0.024670704728215535,0.039203698552739835,-0.01934285145043717,-0.003979786055479109,-0.2094691575428999,3.759169510502365e-11,4.428667620226791e-12,-7.041512209938059e-12,3.4722417491918974e-12,7.147204199309669e-13,3.761941759403916e-11,-0.3819053938658919,-0.7116913911364433,0.272593674593944,-0.0003186581536307858,0.9999389655156642,0.008844819171236081,0.0066130835676391385
6.8,-1.868093537376018,-1.951603038710203,-1.8665018182611504,-0.915395657727397,1.578289097530232,-0.2980189288428581,-0.2094395102392819,-0.024670704728215535,0.039203698552739835,-0.01934285145043717,-0.003979786055479109,-0.2094691575428999,3.759169510502365e-11,4.428667620226791e-12,-7.041512209938059e-12,3.4722417491918974e-12,7.147204199309669e-13,3.761941759403916e-11,-0.3973175076364728,-0.7053090221533347,0.2726240971547206,-0.0003212914486047906,0.999937220267828,0.008992645373717635,0.006677171859158349
6.9,-1.8890374883999468,-1.9540701091830246,-1.862581448405876,-0.9173299428724409,1.5778911189246838,-0.3189658445971487,-0.20943951023921945,-0.024670704728208176,0.03920369855272814,-0.0193428514504314,-0.0039797860554779225,-0.20946915754283746,9.996729538981936e-11,1.1778592520451884e-11,-1.8719610707702586e-11,9.235054153281634e-12,1.8998568253420846e-12,9.999501787883483e-11,-0.4126288173009344,-0.6985902772488108,0.27265185947439957,-0.00032402041196474764,0.9999353775484693,0.009141539936609782,0.006750406310751836
7.0,-1.9099814394238737,-1.9565371796558462,-1.8586610785506024,-0.9192642280174843,1.5774931403191361,-0.3399127603514374,-0.20943951023921945,-0.024670704728208176,0.03920369855272814,-0.0193428514504314,-0.0039797860554779225,-0.20946915754283746,9.996729538981936e-11,1.1778592520451884e-11,-1.8719610707702586e-11,9.235054153281634e-12,1.8998568253420846e-12,9.999501787883483e-11,-0.427831928305259,-0.6915365925224791,0.27267696362690114,-0.00032684504297962646,0.9999334373574613,0.009291183463808354,0.006832857136786454
7.1,-1.930925390447801,-1.9590042501286675,-1.8547407086953287,-0.921198513162528,1.5770951617135882,-0.36085967610572633,-0.20943951023921945,-0.024670704728208176,0.03920369855272814,-0.0193428514504314,-0.0039797860554779225,-0.20946915754283746,9.996729538981936e-11,1.1778592520451884e-11,-1.8719610707702586e-11,9.235054153281634e-12,1.8998568253420846e-12,9.999501787883483e-11,-0.44291946216323935,-0.6841495676981649,0.2726994117055703,-0.0003297653408993525,0.9999313996946964,0.009441254142060644,0.006924585160886322
7.2,-1.9518693414717276,-1.9614713206014889,-1.8508203388400548,-0.9231327983075716,1.5766971831080403,-0.38180659186001503,-0.20943951023921945,-0.024670704728208176,0.03920369855272814,-0.0193428514504314,-0.0039797860554779225,-0.20946915754283746,9.996729538981936e-11,1.1778592520451884e-11,-1.8719610707702586e-11,9.235054153281634e-12,1.8998568253420846e-12,9.999501787883483e-11,-0.45788406009862104,-0.6764309660810709,0.27271920582315445,-0.00033278130495593115,0.9999292645600852,0.009591427994727127,0.007025641746641377
7.3,-1.972813292495655,-1.9639383910743105,-1.8468999689847811,-0.9250670834526151,1.5762992045024924,-0.40275350761430395,-0.20943951023921945,-0.024670704728208176,0.03920369855272814,-0.0193428514504314,-0.0039797860554779225,-0.20946915754283746,9.996729538981936e-11,1.1778592520451884e-11,-1.8719610707702586e-11,9.235054153281634e-12,1.8998568253420846e-12,9.999501787883483e-11,-0.4727183866925729,-0.6683827144334248,0.27273634811178704,-0.00033589293436184865,0.9999270319535574,0.009741379137361946,0.007136068734835528
7.4,-1.9937572435195818,-1.9664054615471318,-1.8429795991295075,-0.9270013685976588,1.5759012258969445,-0.42370042336859265,-0.2094395102392195,-0.024670704728208186,0.03920369855272798,-0.019342851450431315,-0.003979786055477736,-0.20946915754283754,9.99118504117884e-11,1.1768196587071081e-11,-1.8705749463194845e-11,9.224658219900829e-12,1.8989904975603508e-12,9.99118504117884e-11,-0.4874151335346385,-0.6600069027683878,0.2727508407229698,-0.000339100228311641,0.999924701875061,0.00989078003494684,0.007255898387240795
7.5,-2.0147011945435085,-1.9688725320199532,-1.8390592292742336,-0.9289356537427023,1.5755032472913966,-0.44464733912288124,-0.2094395102392195,-0.024670704728208186,0.03920369855272798,-0.019342851450431315,-0.003979786055477736,-0.20946915754283754,9.99118504117884e-11,1.1768196587071081e-11,-1.8705749463194845e-11,9.224658219900829e-12,1.8989904975603508e-12,9.99118504117884e-11,-0.5019670228753403,-0.6513057840620066,0.2727626858275528,-0.0003424031859808789,0.9999222743245628,0.010039301760620683,0.007385153337019836
7.6,-2.035645145567436,-1.9713396024927747,-1.8351388594189597,-0.9308699388877459,1.5751052686858487,-0.4655942548771702,-0.2094395102392195,-0.024670704728208186,0.03920369855272798,-0.019342851450431315,-0.003979786055477736,-0.20946915754283754,9.99118504117884e-11,1.1768196587071081e-11,-1.8705749463194845e-11,9.224658219900829e-12,1.8989904975603508e-12,9.99118504117884e-11,-0.51636681127858,-0.6422817738830535,0.2727718856157164,-0.00034580180652627704,0.9999197493020482,0.0101866142557366,0.007523846545773385
7.7,-2.0565890965913622,-1.9738066729655959,-1.8312184895636858,-0.9328042240327895,1.5747072900803007,-0.48654117063145885,-0.2094395102392195,-0.024670704728208186,0.03920369855272798,-0.019342851450431315,-0.003979786055477736,-0.20946915754283754,9.99118504117884e-11,1.1768196587071081e-11,-1.8705749463194845e-11,9.224658219900829e-12,1.8989904975603508e-12,9.99118504117884e-11,-0.5306072932719827,-0.6329374499406408,0.27277844229695336,-0.0003492960890868733,0.9999171268075217,0.010332386591081311,0.007671981267265005
7.8,-2.07753304761529,-1.9762737434384174,-1.8272981197084122,-0.9347385091778331,1.574309311474753,-0.5074880863857478,-0.2094395102392195,-0.024670704728208186,0.03920369855272798,-0.019342851450431315,-0.003979786055477736,-0.20946915754283754,9.99118504117884e-11,1.1768196587071081e-11,-1.8705749463194845e-11,9.224658219900829e-12,1.8989904975603508e-12,9.99118504117884e-11,-0.5446813049933362,-0.6232755515495156,0.27278235810004775,-0.000352886032781487,0.9999144068410057,0.010476287229095268,0.00782955101785525
7.9,-2.0984769986392164,-1.978740813911239,-1.823377749853139,-0.9366727943228768,1.5739113328692051,-0.5284350021400366,-0.2094395102392195,-0.024670704728208186,0.03920369855272798,-0.019342851450431315,-0.003979786055477736,-0.20946915754283754,9.99118504117884e-11,1.1768196587071081e-11,-1.8705749463194845e-11,9.224658219900829e-12,1.8989904975603508e-12,9.99118504117884e-11,-0.5585817278312418,-0.613298979013022,0.272783635273059,-0.0003565716367119791,0.9999115894025418,0.010617984286920863,0.0079965395536669
8.0,-2.1194209496631435,-1.9812078843840601,-1.819457379997865,-0.9386070794679203,1.5735133542636572,-0.5493819178943252,-0.2094395102392195,-0.024670704728208186,0.03920369855272798,-0.019342851450431315,-0.003979786055477736,-0.20946915754283754,9.99118504117884e-11,1.1768196587071081e-11,-1.8705749463194845e-11,9.224658219900829e-12,1.8989904975603508e-12,9.99118504117884e-11,-0.5723014920581366,-0.603010792923716,0.2727822760833016,-0.0003603528999601557,0.99990867449219,0.010757145800115699,0.008172920854505888
8.1,-2.1403649006870884,-1.9836749548568837,-1.8155370101425878,-0.9405413646129656,1.573115375658109,-0.5703288336486321,-0.20943951023959115,-0.02467070472825196,0.03920369855279754,-0.019342851450465635,-0.003979786055484798,-0.20946915754320922,-2.712922775057238e-10,-3.1953633901495495e-11,5.0773738631895887e-11,-2.5054199447761894e-11,-5.154650301320307e-12,-2.713199999947393e-10,-0.5858335804538037,-0.5924142133816881,0.27277828281732325,-0.00036422982159018134,0.9999056621100294,0.010893439986865107,0.008358659114554844
8.2,-2.1613088517110346,-1.9861420253297073,-1.8116166402873106,-0.942475649758011,1.572717397052561,-0.5912757494029399,-0.20943951023959115,-0.02467070472825196,0.03920369855279754,-0.019342851450465635,-0.003979786055484798,-0.20946915754320922,-2.712922775057238e-10,-3.1953633901495495e-11,5.0773738631895887e-11,-2.5054199447761894e-11,-5.154650301320307e-12,-2.713199999947393e-10,-0.5991710319174666,-0.5815126191307253,0.2727716577808898,-0.00036820240064693987,0.9999025522561572,0.011026535512517466,0.008553708739848261
8.3,-2.18225280273498,-1.988609095802531,-1.8076962704320332,-0.9444099349030562,1.5723194184470128,-0.6122226651572472,-0.20943951023959115,-0.02467070472825196,0.03920369855279754,-0.019342851450465635,-0.003979786055484798,-0.20946915754320922,-2.712922775057238e-10,-3.1953633901495495e-11,5.0773738631895887e-11,-2.5054199447761894e-11,-5.154650301320307e-12,-2.713199999947393e-10,-0.6123069450666918,-0.5703095466123589,0.27276240329896284,-0.0003722706361572124,0.9998993449306895,0.011156101754283587,0.008758014352544637
8.4,-2.2031967537589257,-1.9910761662753544,-1.8037759005767562,-0.9463442200481015,1.5719214398414645,-0.6331695809115544,-0.20943951023959115,-0.02467070472825196,0.03920369855279754,-0.019342851450465635,-0.003979786055484798,-0.20946915754320922,-2.712922775057238e-10,-3.1953633901495495e-11,5.0773738631895887e-11,-2.5054199447761894e-11,-5.154650301320307e-12,-2.713199999947393e-10,-0.6252344818211352,-0.5588086889380579,0.2727505217156813,-0.00037643452712849573,0.9998960401337613,0.011281809065925914,0.008971510801996591
8.5,-2.224140704782871,-1.9935432367481782,-1.799855530721479,-0.9482785051931469,1.5715234612359161,-0.6541164966658617,-0.20943951023959115,-0.02467070472825196,0.03920369855279754,-0.019342851450465635,-0.003979786055484798,-0.20946915754320922,-2.712922775057238e-10,-3.1953633901495495e-11,5.0773738631895887e-11,-2.5054199447761894e-11,-5.154650301320307e-12,-2.713199999947393e-10,-0.6379468709693029,-0.547013894779757,0.2727360153943412,-0.0003806940725503887,0.9998926378655258,0.011403329042269561,0.009194123182620922
8.6,-2.2450846558068163,-1.9960103072210018,-1.7959351608662018,-0.9502127903381922,1.571125482630368,-0.6750634124201689,-0.2094395102395909,-0.024670704728252137,0.03920369855279771,-0.019342851450465628,-0.003979786055484796,-0.20946915754320916,-2.7104277510458425e-10,-3.192591141247999e-11,5.073908552062651e-11,-2.5029942269873328e-11,-5.150318662411634e-12,-2.710982200826153e-10,-0.6504374117164641,-0.534929167178976,0.27271888671737665,-0.00038504927139334095,0.9998891381261553,0.01152033478336712,0.009425766858565107
8.7,-2.266028606830762,-1.9984773776938254,-1.7920147910109245,-0.9521470754832375,1.5707275040248199,-0.6960103281744764,-0.2094395102395909,-0.024670704728252137,0.03920369855279771,-0.019342851450465628,-0.003979786055484796,-0.20946915754320916,-2.7104277510458425e-10,-3.192591141247999e-11,5.073908552062651e-11,-2.5029942269873328e-11,-5.150318662411634e-12,-2.710982200826153e-10,-0.6626994772118463,-0.522558662274846,0.27269913808633856,-0.0003895001226090818,0.9998855409158405,0.0116325011581492,0.009666347495164176
8.8,-2.2869725578547073,-2.000944448166649,-1.7880944211556473,-0.9540813606282827,1.5703295254192717,-0.7169572439287837,-0.2094395102395909,-0.024670704728252137,0.03920369855279771,-0.019342851450465628,-0.003979786055484796,-0.20946915754320916,-2.7104277510458425e-10,-3.192591141247999e-11,5.073908552062651e-11,-2.5029942269873328e-11,-5.150318662411634e-12,-2.710982200826153e-10,-0.6747265180532561,-0.5099066879513872,0.2726767719218755,-0.0003940466251313392,0.9998818462347908,0.011739505067389865,0.009915761097175487
8.9,-2.3079165088786526,-2.0034115186394725,-1.7841740513003699,-0.9560156457733281,1.5699315468137232,-0.7379041596830909,-0.2094395102395909,-0.024670704728252137,0.03920369855279771,-0.019342851450465628,-0.003979786055484796,-0.20946915754320916,-2.7104277510458425e-10,-3.192591141247999e-11,5.073908552062651e-11,-2.5029942269873328e-11,-5.150318662411634e-12,-2.710982200826153e-10,-0.6865120657672816,-0.49697770240442546,0.2726517906637139,-0.00039868877787424306,0.9998780540832342,0.011841025705819944,0.010173894053775622
9.0,-2.3288604599025984,-2.0058785891122963,-1.7802536814450929,-0.9579499309183734,1.569533568208175,-0.7588510754373984,-0.2094395102395909,-0.024670704728252137,0.03920369855279771,-0.019342851450465628,-0.003979786055484796,-0.20946915754320916,-2.7104277510458425e-10,-3.192591141247999e-11,5.073908552062651e-11,-2.5029942269873328e-11,-5.150318662411634e-12,-2.710982200826153e-10,-0.6980497362632186,-0.4837763126285874,0.27262419677063515,-0.00040342657973408373,0.9998741644614177,0.011936744823221462,0.010440623190303509
9.1,-2.3498044109265437,-2.00834565958512,-1.7763333115898157,-0.9598842160634187,1.569135589602627,-0.7797979911917052,-0.2094395102395909,-0.024670704728252137,0.03920369855279771,-0.019342851450465628,-0.003979786055484796,-0.20946915754320916,-2.7104277510458425e-10,-3.192591141247999e-11,5.073908552062651e-11,-2.5029942269873328e-11,-5.150318662411634e-12,-2.710982200826153e-10,-0.7093332332588932,-0.47030727282484514,0.2725939927204593,-0.00040826002958835436,0.9998701773696066,0.012026346984332331,0.010715815826718484
9.2,-2.37074836195049,-2.0108127300579435,-1.7724129417345382,-0.961818501208464,1.5687376109970788,-0.8007449069460131,-0.2094395102395909,-0.024670704728252137,0.03920369855279771,-0.019342851450465628,-0.003979786055484796,-0.20946915754320916,-2.7104277510458425e-10,-3.192591141247999e-11,5.073908552062651e-11,-2.5029942269873328e-11,-5.150318662411634e-12,-2.710982200826153e-10,-0.7203563516765498,-0.45657548272912546,0.2725611810100217,-0.00041318912629552537,0.9998660928080849,0.012109519827398555,0.010999329842755258
9.3,-2.391692312974435,-2.013279800530767,-1.768492571879261,-0.9637527863535094,1.5683396323915304,-0.8216918227003204,-0.2094395102395909,-0.024670704728252137,0.03920369855279771,-0.019342851450465628,-0.003979786055484796,-0.20946915754320916,-2.7104277510458425e-10,-3.192591141247999e-11,5.073908552062651e-11,-2.5029942269873328e-11,-5.150318662411634e-12,-2.710982200826153e-10,-0.7311129810069772,-0.4425859858625559,0.27252576415515173,-0.0004182138686961531,0.9998619107771556,0.012185954321204277,0.011291013749737615
9.4,-2.4126362639983805,-2.0157468710035906,-1.7645722020239838,-0.9656870714985546,1.567941653785982,-0.8426387384546277,-0.2094395102395909,-0.024670704728252137,0.03920369855279771,-0.019342851450465628,-0.003979786055484796,-0.20946915754320916,-2.7104277510458425e-10,-3.192591141247999e-11,5.073908552062651e-11,-2.5029942269873328e-11,-5.150318662411634e-12,-2.710982200826153e-10,-0.7415971086400752,-0.42834396770392946,0.27248774469065357,-0.00042333425561144773,0.99985763127714,0.012255345020414973,0.011590706769016768
9.5,-2.433490362794008,-2.0182033574285834,-1.7606686510567437,-0.967613058312961,1.5675453825595473,-0.8634957892615446,-0.19947176368500535,-0.023496564606491355,0.037337897153961214,-0.018422277100952122,-0.0037903781510394237,-0.19949999999979848,0.4999292324944501,0.0588886331226767,-0.09357868964659037,0.04617112057234743,0.009499694617957488,0.5000000002007283,-0.7517596422802034,-0.4139174346274347,0.2724473049829328,-0.00042852770412806835,0.9998532732943131,0.012317140249798813,0.011896903072698908
9.6,-2.450986830672464,-2.0202643352847813,-1.757393594446551,-0.9692289500742319,1.5672129133000305,-0.8809947338603423,-0.14947884045578366,-0.0176077012966059,0.027980028193087952,-0.01380516504558516,-0.002840408689627991,-0.14949999999995195,0.49992923234234937,0.058888633104761,-0.09357868961811978,0.046171120558300124,0.009499694615066967,0.5000000000486278,-0.760068817057114,-0.4016285233478937,0.2724113895096862,-0.0004329581289898329,0.9998495424235244,0.012363153426165509,0.012159666939866592
9.7,-2.4634840062279815,-2.021736426809989,-1.7550543247324488,-0.970383130629965,1.5669754409866552,-0.8934936784591396,-0.09948591722647253,-0.01171883798670991,0.018622159232197948,-0.009188052990209937,-0.0018904392282148583,-0.09950000000001598,0.49992923227781766,0.05888863309715944,-0.0935786896060357,0.046171120552339615,0.009499694613840735,0.4999999999840683,-0.7658805260618938,-0.3927494488418667,0.27238462724537266,-0.00043616350563458834,0.9998468359357289,0.012392659267109817,0.012350563833173758
9.8,-2.4709818894605626,-2.022619632004206,-1.7536508419144363,-0.9710755999801599,1.5668329656194213,-0.900992623057938,-0.04949299399716066,-0.005829974676813832,0.009264290271307804,-0.0045709409348346445,-0.0009404697668017117,-0.04950000000007927,0.4999292322147431,0.05888863308972789,-0.09357868959423091,0.04617112054651441,0.00949969461264204,0.49999999992097294,-0.7693174751702103,-0.38738228874485603,0.272368127507021,-0.0004381029672567964,0.9998451954782763,0.01240898826853377,0.012466360934489221
9.899978891,-2.4734804804815775,-2.022913950880552,-1.7531831459716674,-0.9713063581351025,1.5667854871962126,-0.9034915677681232,-2.635301829132844e-16,-3.1042258083006754e-17,4.932860012266721e-17,-2.4338412436958212e-17,-5.007621274313842e-18,-2.635674870462843e-16,0.4999292324367415,0.05888863311587868,-0.09357868963578532,0.04617112056701725,0.009499694616860599,0.5000000001430103,-0.7704544353528563,-0.38558713067102457,0.2723625553166862,-0.00043875199543621385,0.9998446460380664,0.012414197965711783,0.012505157918567975
