mathias31415/primitives_from_planned_trajectory_python/data/saved_trajectories/trajectory_20250624_120746_planned.csv
time_from_start,shoulder_pan_joint_pos,shoulder_lift_joint_pos,elbow_joint_pos,wrist_1_joint_pos,wrist_2_joint_pos,wrist_3_joint_pos,shoulder_pan_joint_vel,shoulder_lift_joint_vel,elbow_joint_vel,wrist_1_joint_vel,wrist_2_joint_vel,wrist_3_joint_vel,shoulder_pan_joint_acc,shoulder_lift_joint_acc,elbow_joint_acc,wrist_1_joint_acc,wrist_2_joint_acc,wrist_3_joint_acc,fk_x,fk_y,fk_z,fk_qx,fk_qy,fk_qz,fk_qw
0.0,-2.4735389999999997,-2.022895,-1.7532490000000003,-0.9713180000000001,1.566735,-0.9034110000000002,0.0002094549324852207,0.00026053910630381233,0.0005,0.0003758401703534748,-1.5756314782210784e-06,0.00023137524453996654,0.20945493248522068,0.26053910630381233,0.5,0.37584017035347483,-0.0015756314782210783,0.23137524453996652,-0.7704544233305528,-0.3855167340326098,0.27233928885129943,-0.0003697203222327986,0.9998441101485496,0.012452276176351983,0.012512374921108236
0.1,-2.4724917253375738,-2.021592304468481,-1.7507490000000003,-0.9694387991482328,1.5667271218426089,-0.9022541237773004,0.020945493248521924,0.026053910630381056,0.049999999999999656,0.03758401703534722,-0.00015756314782210676,0.023137524453996493,0.20945493248507288,0.2605391063036295,0.4999999999996461,0.3758401703532057,-0.0015756314782199713,0.23137524453980035,-0.7710318797303798,-0.387098486932112,0.2750995761210688,-0.00030923050247060404,0.9998899052269444,0.010707890457533795,0.010267564642985953
0.2,-2.469349901350295,-2.017684217873924,-1.7432490000000003,-0.9638011965929306,1.5667034873704353,-0.8987834951092009,0.04189098649704417,0.05210782126076251,0.10000000000000007,0.07516803407069501,-0.0003151262956442159,0.04627504890799334,0.2094549324852741,0.26053910630387234,0.5000000000001249,0.37584017035355266,-0.001575631478221462,0.23137524454001893,-0.772698201962267,-0.39181275331865545,0.28342712645126455,-0.00012758982949432764,0.9999788469060686,0.005444713403294595,0.003555918615597411
0.30000000000000004,-2.464113528038165,-2.0111707402163286,-1.730749,-0.9544051923340937,1.5666640965834802,-0.8929991139957016,0.06283647974556761,0.07816173189114546,0.15000000000000335,0.11275205110604498,-0.0004726894434663341,0.06941257336199153,0.20945493248640515,0.26053910630528787,0.5000000000028311,0.3758401703556066,-0.001575631478229973,0.2313752445412818,-0.7752545547326054,-0.39956328501627764,0.2974591374543653,0.00017563294744516283,0.9999655938378413,-0.0034260852999215903,-0.007552630873987513
0.4,-2.456782605401182,-2.002051871495695,-1.7132490000000002,-0.941250786371722,1.5666089494817421,-0.8849009804368028,0.08378197299408911,0.10421564252152599,0.200000000000002,0.15033606814139144,-0.0006302525912884377,0.09255009781598754,0.20945493248560024,0.26053910630428867,0.5000000000008882,0.3758401703541633,-0.0015756314782238473,0.23137524454037975,-0.7783675132727642,-0.4101788114034016,0.3174145535380843,0.0006008816389960622,0.9996079296908128,-0.01604838151007177,-0.02293633125437035
0.5,-2.447357133439347,-1.9903276117120234,-1.6907490000000003,-0.9243379787058157,1.5665380460652223,-0.8744890944325043,0.10472746624260289,0.13026955315189692,0.24999999999998224,0.18792008517672407,-0.0007878157391104832,0.11568762226997505,0.20945493247705377,0.26053910629368543,0.4999999999805156,0.3758401703388491,-0.0015756314781596834,0.23137524453095776,-0.7815670049497798,-0.4233969471982033,0.34357895051810416,0.0011481994091635923,0.9985669839699296,-0.03261457069146204,-0.04241403001279755
0.6000000000000001,-2.43583711215266,-1.9759979608653135,-1.663249,-0.9036667693363745,1.5664513863339202,-0.861763455982806,0.12567295949113988,0.1563234637822967,0.30000000000001786,0.22550410221209832,-0.0009453788869327034,0.13882514672398819,0.2094549324917481,0.26053910631193533,0.5000000000155986,0.37584017036521,-0.0015756314782702512,0.23137524454719374,-0.7842454171315519,-0.43884215145160627,0.3762823594418726,0.0018166496895026174,0.9964079248008879,-0.05335592083137466,-0.06573502027176766
0.7000000000000001,-2.4227606784193707,-1.9597323025774498,-1.6320336125700288,-0.8802027762777143,1.566353018439841,-0.8473185201827673,0.13160441543073712,0.16370154846737398,0.31415926535896505,0.23614734362127185,-0.0009899984553487884,0.14537735369385354,-5.9627037884496076e-12,-7.404846100074628e-12,-1.425502208029348e-11,-1.0705133313216504e-11,4.485027922271325e-14,-6.600574426283751e-12,-0.7856399489491368,-0.4553441840851779,0.4142865143728416,0.0025725661378449794,0.9927777096554014,-0.07752131909644833,-0.09152183455541524
0.8,-2.4096002368762965,-1.943362147730712,-1.6006176860341315,-0.8565880419155866,1.5662540185943064,-0.8327807848133817,0.13160441543073712,0.16370154846737398,0.31415926535896505,0.23614734362127185,-0.0009899984553487884,0.14537735369385354,-5.9627037884496076e-12,-7.404846100074628e-12,-1.425502208029348e-11,-1.0705133313216504e-11,4.485027922271325e-14,-6.600574426283751e-12,-0.7852797671077032,-0.47075001826058777,0.45337916188516325,0.003327683940785799,0.9878624604748005,-0.10246437429441896,-0.11669506289777871
0.9,-2.396439795333223,-1.9269919928839743,-1.5692017594982344,-0.8329733075534588,1.5661550187487712,-0.818243049443996,0.13160441543073712,0.16370154846737398,0.31415926535896505,0.23614734362127185,-0.0009899984553487884,0.14537735369385354,-5.9627037884496076e-12,-7.404846100074628e-12,-1.425502208029348e-11,-1.0705133313216504e-11,4.485027922271325e-14,-6.600574426283751e-12,-0.7831616155118885,-0.48485194617184485,0.49320780895069993,0.004074416179805831,0.981687717666313,-0.12798275595032715,-0.14104268252999858
1.0,-2.3832793537901487,-1.9106218380372366,-1.5377858329623373,-0.8093585731913311,1.5660560189032364,-0.8037053140746103,0.131604415430737,0.1637015484673742,0.31415926535896477,0.23614734362127188,-0.000989998455349157,0.14537735369385327,-6.073637812420763e-12,-7.543513630038572e-12,-1.4532357140221369e-11,-1.0899267855166025e-11,4.5716951284987904e-14,-6.711508450254907e-12,-0.7793051458240481,-0.49755581339550453,0.5336581287842852,0.004810060500342843,0.974261358713293,-0.15402547452544652,-0.16452301186558202
1.1,-2.370118912247073,-1.894251683190497,-1.5063699064264364,-0.7857438388292006,1.5659570190577017,-0.789167578705223,0.1316044154307662,0.1637015484674105,0.3141592653590345,0.23614734362132425,-0.0009899984553493767,0.14537735369388552,2.3102010491995693e-11,2.8731912208532458e-11,5.513420991367039e-11,4.1433857953231166e-11,-1.7376774848608705e-13,2.551482551336859e-11,-0.7737381620409747,-0.5087719055263787,0.5746131581018447,0.005531936201356003,0.9655928593150019,-0.18053984802197323,-0.18709674234990228
1.2,-2.3569584707039977,-1.8778815283437573,-1.4749539798905358,-0.7621291044670704,1.5658580192121665,-0.7746298433358356,0.1316044154307662,0.1637015484674105,0.3141592653590345,0.23614734362132425,-0.0009899984553493767,0.14537735369388552,2.3102010491995693e-11,2.8731912208532458e-11,5.513420991367039e-11,4.1433857953231166e-11,-1.7376774848608705e-13,2.551482551336859e-11,-0.7664964383543678,-0.5184154653249349,0.6159537228571199,0.006237389876705399,0.955693281290151,-0.20747162583479928,-0.20872702637141985
1.3,-2.343798029160922,-1.8615113734970175,-1.4435380533546351,-0.73851437010494,1.5657590193666318,-0.7600921079664484,0.1316044154307662,0.1637015484674105,0.3141592653590345,0.23614734362132425,-0.0009899984553493767,0.14537735369388552,2.3102010491995693e-11,2.8731912208532458e-11,5.513420991367039e-11,4.1433857953231166e-11,-1.7376774848608705e-13,2.551482551336859e-11,-0.7576234945563173,-0.526407186961666,0.6575588729137625,0.0069238010093069955,0.9445752584519677,-0.23476511666034103,-0.22937955902703827
1.4,-2.330637587617847,-1.8451412186502782,-1.4121221268187352,-0.7148996357428101,1.5656600195210966,-0.7455543725970615,0.13160441543073895,0.1637015484673766,0.31415926535896943,0.23614734362127537,-0.0009899984553491717,0.14537735369385543,-4.1322923929250836e-12,-5.1306986086653716e-12,-9.873128133431742e-12,-7.404846100073807e-12,3.098352622631538e-14,-4.54829498281687e-12,-0.747170330429101,-0.5326736843914305,0.6993063238232915,0.007588587508103214,0.9322529804728501,-0.26236332015121383,-0.24902265354451417
1.5,-2.317477146074773,-1.8287710638035406,-1.3807062002828376,-0.6912849013806822,1.5655610196755618,-0.7310166372276757,0.13160441543073895,0.1637015484673766,0.31415926535896943,0.23614734362127537,-0.0009899984553491717,0.14537735369385543,-4.1322923929250836e-12,-5.1306986086653716e-12,-9.873128133431742e-12,-7.404846100073807e-12,3.098352622631538e-14,-4.54829498281687e-12,-0.7351951208005167,-0.5371479310369613,0.7410729038481235,0.008229211177980226,0.9187421747592238,-0.2902080619962801,-0.26762731018048846
1.6,-2.304316704531699,-1.8124009089568025,-1.34929027374694,-0.6676701670185543,1.5654620198300269,-0.71647890185829,0.13160441543073903,0.16370154846737636,0.31415926535897,0.2361473436212755,-0.000989998455348803,0.1453773536938557,-3.910424344982797e-12,-4.853363548737514e-12,-9.318458013576027e-12,-6.98884351018202e-12,2.925018210176627e-14,-4.298693428881798e-12,-0.7217628731768402,-0.5397696681249246,0.7827350043460793,0.008843183112880796,0.9040600863597685,-0.31824013209704194,-0.28516727842874456
1.7000000000000002,-2.2911562629886246,-1.7960307541100646,-1.3178743472110426,-0.6440554326564264,1.565363019984492,-0.7019411664889041,0.13160441543073903,0.16370154846737636,0.31415926535897,0.2361473436212755,-0.000989998455348803,0.1453773536938557,-3.910424344982797e-12,-4.853363548737514e-12,-9.318458013576027e-12,-6.98884351018202e-12,2.925018210176627e-14,-4.298693428881798e-12,-0.70694505008381,-0.5404857791990482,0.8241690316186773,0.009428069002475442,0.88822545593272,-0.3463994255036034,-0.30161911238973216
1.8,-2.2779958214455505,-1.7796605992633268,-1.286458420675145,-0.6204406982942985,1.5652640201389572,-0.6874034311195183,0.13160441543073903,0.16370154846737636,0.31415926535897,0.2361473436212755,-0.000989998455348803,0.1453773536938557,-3.910424344982797e-12,-4.853363548737514e-12,-9.318458013576027e-12,-6.98884351018202e-12,2.925018210176627e-14,-4.298693428881798e-12,-0.690819158450405,-0.53925062853182,0.8652518583202775,0.009981494342902023,0.8712584958004062,-0.3746250857665596,-0.31696221916924755
1.9,-2.2648353799024763,-1.7632904444165889,-1.2550424941392477,-0.5968259639321706,1.5651650202934224,-0.6728656957501326,0.13160441543073903,0.16370154846737636,0.31415926535897,0.2361473436212755,-0.000989998455348803,0.1453773536938557,-3.910424344982797e-12,-4.853363548737514e-12,-9.318458013576027e-12,-6.98884351018202e-12,2.925018210176627e-14,-4.298693428881798e-12,-0.6734683085593475,-0.5360263613677839,0.9058612725285594,0.01050114954223754,0.8531808641216568,-0.4028556503550733,-0.33117890019127916
2.0,-2.2516749383594026,-1.746920289569851,-1.2236265676033504,-0.5732112295700427,1.5650660204478872,-0.6583279603807467,0.13160441543079743,0.163701548467449,0.31415926535910943,0.23614734362138032,-0.000989998455349242,0.1453773536939202,5.4440872263850596e-11,6.772522163439793e-11,1.3001467609420864e-10,9.773287511859882e-11,-4.095025494248186e-13,6.015397449836573e-11,-0.6549807452610176,-0.530783164156208,0.9458764225890961,0.010984794911536852,0.8340156372151171,-0.4310291977862155,-0.34425438532745706
2.1,-2.2385144968163257,-1.7305501347231096,-1.1922106410674458,-0.5495964952079095,1.5649670206023525,-0.6437902250113577,0.13160441543079743,0.163701548467449,0.31415926535910943,0.23614734362138032,-0.000989998455349242,0.1453773536939202,5.4440872263850596e-11,6.772522163439793e-11,1.3001467609420864e-10,9.773287511859882e-11,-4.095025494248186e-13,6.015397449836573e-11,-0.6354493543027312,-0.5234994831674283,0.9851782558677379,0.011430265532458853,0.8137872800688707,-0.45908349610629895,-0.3561768597632146
2.2,-2.2253540552732485,-1.714179979876368,-1.1607947145315411,-0.5259817608457764,1.5648680207568175,-0.6292524896419687,0.13160441543079748,0.16370154846744908,0.3141592653591092,0.23614734362138023,-0.0009899984553492426,0.14537735369392008,5.4357671745872216e-11,6.761428761042677e-11,1.2979280804626632e-10,9.756647408264208e-11,-4.090692133936812e-13,6.004304047439456e-11,-0.6149711467622047,-0.514162200133955,1.02364994957401,0.011835475992706993,0.7925216150741238,-0.4869561523614599,-0.3669374835386146
2.3,-2.212193613730171,-1.6978098250296265,-1.129378787995637,-0.5023670264836432,1.5647690209112826,-0.6147147542725797,0.13160441543079748,0.16370154846744908,0.3141592653591092,0.23614734362138023,-0.0009899984553492426,0.14537735369392008,5.4357671745872216e-11,6.761428761042677e-11,1.2979280804626632e-10,9.756647408264208e-11,-4.090692133936812e-13,6.004304047439456e-11,-0.5936467246915326,-0.5027667638128669,1.0611773318568611,0.012198424980716513,0.7702457890229069,-0.514584762692257,-0.37653040371983637
2.4,-2.1990331721870944,-1.681439670182885,-1.0979628614597325,-0.47875229212151016,1.5646700210657478,-0.6001770189031908,0.13160441543079748,0.16370154846744908,0.3141592653591092,0.23614734362138023,-0.0009899984553492426,0.14537735369392008,5.4357671745872216e-11,6.761428761042677e-11,1.2979280804626632e-10,9.756647408264208e-11,-4.090692133936812e-13,6.004304047439456e-11,-0.5715797311756959,-0.48931727662852714,1.0976492914201879,0.012517199731262073,0.7469882384120703,-0.5419070626852664,-0.3849527591753907
2.5,-2.185872730644017,-1.6650695153361434,-1.0665469349238281,-0.45513755775937714,1.5645710212202129,-0.5856392835338018,0.13160441543079748,0.16370154846744908,0.3141592653591092,0.23614734362138023,-0.0009899984553492426,0.14537735369392008,5.4357671745872216e-11,6.761428761042677e-11,1.2979280804626632e-10,9.756647408264208e-11,-4.090692133936812e-13,6.004304047439456e-11,-0.5488762880866228,-0.4738265358224554,1.132958173959969,0.01278998031389327,0.7227786530979469,-0.5688610776139766,-0.3922046779493495
2.6,-2.1727122891009403,-1.648699360489402,-1.035131008387924,-0.43152282339724396,1.5644720213746781,-0.5711015481644128,0.13160441543079748,0.16370154846744908,0.3141592653591092,0.23614734362138023,-0.0009899984553492426,0.14537735369392008,5.4357671745872216e-11,6.761428761042677e-11,1.2979280804626632e-10,9.756647408264208e-11,-4.090692133936812e-13,6.004304047439456e-11,-0.5256444248699499,-0.45631602880863065,1.1670001637868717,0.013015043756370826,0.6976479383481964,-0.5953852722013798,-0.3982892672420635
2.7,-2.159551847557863,-1.6323292056426606,-1.0037150818520193,-0.4079080890351108,1.5643730215291431,-0.5565638127950238,0.13160441543079748,0.16370154846744908,0.3141592653591092,0.23614734362138023,-0.0009899984553492426,0.14537735369392008,5.4357671745872216e-11,6.761428761042677e-11,1.2979280804626632e-10,9.756647408264208e-11,-4.090692133936812e-13,6.004304047439456e-11,-0.5019935017364618,-0.4368158827058003,1.1996756490677043,0.013190767995538644,0.6716281753393959,-0.6214186995376947,-0.40321259602701165
2.8,-2.146391406014786,-1.6159590507959187,-0.9722991553161148,-0.3842933546729776,1.5642740216836082,-0.5420260774256347,0.13160441543079793,0.16370154846744908,0.3141592653591088,0.23614734362138007,-0.0009899984553496098,0.14537735369392005,5.4219004215908255e-11,6.744788657447001e-11,1.2940453896236721e-10,9.731687252870695e-11,-4.077692053002691e-13,5.99043729444306e-11,-0.47803363064363885,-0.4153647682917656,1.2308895691957473,-0.013315635648356895,-0.6447525801509296,0.6469011487885938,0.40698367035054006
2.9,-2.133230964471709,-1.5995888959491773,-0.9408832287802104,-0.3606786203108444,1.564175021838073,-0.5274883420562457,0.13160441543079793,0.16370154846744908,0.3141592653591088,0.23614734362138007,-0.0009899984553496098,0.14537735369392005,5.4219004215908255e-11,6.744788657447001e-11,1.2940453896236721e-10,9.731687252870695e-11,-4.077692053002691e-13,5.99043729444306e-11,-0.4538750974447571,-0.39200975889636697,1.2605517428833632,-0.013388237596107458,-0.6170554613076596,0.6717732913321316,0.40961440137921956
3.0,-2.120070522928632,-1.5832187411024359,-0.909467302244306,-0.3370638859487114,1.5640760219925383,-0.5129506066868568,0.13160441543079793,0.16370154846744908,0.3141592653591088,0.23614734362138007,-0.0009899984553496098,0.14537735369392005,5.4219004215908255e-11,6.744788657447001e-11,1.2940453896236721e-10,9.731687252870695e-11,-4.077692053002691e-13,5.99043729444306e-11,-0.429627788553751,-0.3668061450182121,1.2885771756600424,-0.013407276375100904,-0.5885721759257146,0.6959768249662862,0.41111956627740126
3.1,-2.106910081385555,-1.5668485862556942,-0.8780513757084017,-0.31344915158657827,1.5639770221470033,-0.49841287131746775,0.13160441543079793,0.16370154846744908,0.3141592653591088,0.23614734362138007,-0.0009899984553496098,0.14537735369392005,5.4219004215908255e-11,6.744788657447001e-11,1.2940453896236721e-10,9.731687252870695e-11,-4.077692053002691e-13,5.99043729444306e-11,-0.40540062542380856,-0.3398172057134247,1.3148863455546342,-0.01337156936751842,-0.5593390845175252,0.7194546158336274,0.41151676201515036
3.2,-2.0937496398424775,-1.5504784314089528,-0.8466354491724972,-0.2898344172244451,1.5638780223014686,-0.48387513594807874,0.13160441543079793,0.16370154846744908,0.3141592653591088,0.23614734362138007,-0.0009899984553496098,0.14537735369392005,5.4219004215908255e-11,6.744788657447001e-11,1.2940453896236721e-10,9.731687252870695e-11,-4.077692053002691e-13,5.99043729444306e-11,-0.38130101006686523,-0.31111393806104964,1.3394054658416061,-0.013280051786362922,-0.529393504513956,0.7421508377150778,0.4108263522241383
3.3,-2.0805891982994007,-1.5341082765622112,-0.8152195226365928,-0.2662196828623119,1.5637790224559334,-0.4693374005786898,0.13160441543079793,0.16370154846744908,0.3141592653591088,0.23614734362138007,-0.0009899984553496098,0.14537735369392005,5.4219004215908255e-11,6.744788657447001e-11,1.2940453896236721e-10,9.731687252870695e-11,-4.077692053002691e-13,5.99043729444306e-11,-0.3574342847503212,-0.2807747462576946,1.3620667238371573,-0.013131779448823672,-0.49877366256301403,0.7640111083510641,0.4090714072361482
3.4,-2.067428756756324,-1.5177381217154697,-0.7838035961006884,-0.24260494850017883,1.5636800226103986,-0.45479966520930076,0.13160441543079685,0.1637015484674492,0.31415926535910943,0.2361473436213805,-0.0009899984553488738,0.14537735369392019,5.446860576984338e-11,6.775295514039073e-11,1.3001467609420864e-10,9.773287511859882e-11,-4.097192174403873e-13,6.015397449836573e-11,-0.33390320889715236,-0.2488850921318633,1.382808494841452,-0.012925931332708956,-0.4675186456662013,0.7849826224554959,0.4062776374556142
3.5,-2.0546731983694078,-1.501871597384429,-0.7533541857297574,-0.2197167253382317,1.5635840685114513,-0.4407091856679569,0.11845973236452055,0.14735099544823993,0.28278095664536296,0.2125608858366237,-0.0008911171534634753,0.13085702599013288,-0.20945493251733424,-0.2605391063437444,-0.5000000000766609,-0.37584017041110396,0.0015756314784620045,-0.23137524457544684,-0.31151056009682454,-0.21658386025730572,1.4010280948963338,-0.012670812257788908,-0.4366567099166476,0.8044125033958016,0.40260513233439543
3.6,-2.043862373776364,-1.4884241099251512,-0.7275471434587274,-0.2003180790113052,1.563502743735127,-0.4287669642353312,0.09751423911602179,0.12129708481788753,0.23278095664541829,0.1749768688013178,-0.0007335540056416007,0.10771950153616189,-0.20945493249389466,-0.26053910631460103,-0.5000000000207334,-0.37584017036905426,0.0015756314782857132,-0.23137524454955088,-0.2929172938920691,-0.1882010713060939,1.4149842733641487,-0.012411341372868428,-0.41008969361885556,0.8201554000367544,0.3987700108878182
3.7,-2.034570643340102,-1.477463840884267,-0.7067325915716247,-0.18454851855201118,1.5634469364087058,-0.4185583186743787,0.10389103141548946,0.10077863595251181,0.18296535336268707,0.1434188724482612,-0.00011076218220431549,0.1121214383544155,0.40332140981275544,-0.1380832655982028,-0.4997320950588521,-0.24324746963622282,0.012049535064593307,0.38611472458392343,-0.2780477514064114,-0.16469195995195632,1.425261149956576,-0.012167010654794952,-0.3882949741855498,0.8326189067623072,0.3947464160393477
3.8,-2.022389759922381,-1.4681087332656888,-0.6909060359687222,-0.17145248925116138,1.5634919681961246,-0.40564098824325595,0.13823841633374734,0.08577228305382731,0.13298484970680222,0.11779604980020504,0.000991944889411412,0.14470192849768337,0.2896675545933411,-0.16083071157423462,-0.4998620600834276,-0.26789299462390453,0.010107730015542271,0.27158335460847555,-0.2655543581481239,-0.14649865309220292,1.4327048055506642,-0.01190900395012715,-0.37058940889481856,0.8441459413638862,0.38721995728369063
3.9,-2.0072938049408657,-1.460358239346869,-0.6800780536108026,-0.16103138336934875,1.563638391312902,-0.3899892851443552,0.16243070333559598,0.06873432161634184,0.08299479314979231,0.0899724839140474,0.0019211282863309958,0.1670489974820476,0.19759911509491584,-0.17924245885293352,-0.4999320262338842,-0.2878344325776976,0.00853435306564064,0.17880549480511346,-0.2554969067206809,-0.1337772856427852,1.4377468107693596,-0.01164888149097863,-0.3570862317165425,0.8548634401603752,0.37624755860424847
4.0,-1.9902124530250258,-1.4543982832554583,-0.6742493711024224,-0.15348657581024647,1.563870318560941,-0.37254004830019743,0.1780226234658465,0.049976918913087615,0.03299923146093101,0.060286814695788137,0.002703327573792709,0.18072947255627178,0.1161864336219193,-0.19551552932517496,-0.49997617859544274,-0.3054561880414242,0.007142891895599741,0.09676621918839845,-0.24804116753802327,-0.12667482677019978,1.4406810228406257,-0.011406109486862994,-0.3480437204534022,0.8644061385583469,0.362680985084655
4.1,-1.9719655647634362,-1.450392744584472,-0.6734204394780259,-0.1489955294347027,1.5641737373960238,-0.3541194486309418,0.18571000234973428,0.02963988495626326,-0.01699979883325653,0.028890750402721353,0.003350418312491785,0.18644460218441522,0.03845812505100347,-0.2110389932615485,-0.4999882482224871,-0.3222605712104829,0.005814091744656622,0.018440895523019144,-0.2431814982714571,-0.12535949005366406,1.44170404203366,-0.011196605675124875,-0.34367265804632113,0.8724348228661674,0.347305657862367
4.2,-1.9533348275968434,-1.4484977257884082,-0.6775913531473402,-0.14772722243721217,1.5645352842440672,-0.33551517646152806,0.18557941698548464,0.007742953340187933,-0.06699669976253977,-0.004193299297370863,0.0038638229795078787,0.1842818552200945,-0.041060715018789884,-0.22689722500085638,-0.49994841289052694,-0.33941755511600236,0.004454143474738937,-0.06168659237324619,-0.24081011750054007,-0.1299964848825219,1.4408954784865458,-0.011032937558217968,-0.34414990933171025,0.8786087601615519,0.33088632604444806
4.3,-1.9351206976008029,-1.448872870889597,-0.686761736690547,-0.14985437811765429,1.5649412697972036,-0.3175338157041585,0.1771465818925582,-0.015809397297136214,-0.1169888091929856,-0.03906822414358988,0.004235234267078177,0.17375333769206683,-0.12869847556774702,-0.24436804651763344,-0.49988954835720983,-0.35831638496534696,0.0029551893754620386,-0.14999453620929123,-0.24077911337432792,-0.14072567508971737,1.4382017608126072,-0.010924476632360972,-0.349628055501013,0.8825624696008986,0.31420433776262924
4.4,-1.9181618669827747,-1.451685299730262,-0.7009308537511223,-0.15555774363137392,1.5653773473001007,-0.30102046518226183,0.16784132084665795,-0.0395816493046468,-0.1670854452709167,-0.07420078114638959,0.004592807669740699,0.16234145232205535,0.49999999987695953,-0.11791389955477048,-0.497748243361518,-0.2210444387408067,0.013681993341813716,0.48361586843809706,-0.24295590465910163,-0.15763748804639763,1.4334223083959565,-0.010877166310866689,-0.36023600123388827,0.8838950408263515,0.2980625227542811
4.5,-1.8989840234249553,-1.4562079683692826,-0.7200223296405533,-0.16403605496445456,1.5659021295559667,-0.2824710462437278,0.20943951023925347,-0.049391658758458724,-0.208496296675475,-0.09259087800475511,0.005731099970622834,0.20257654130906116,-6.597951272322986e-11,1.5552313713332754e-11,6.567456539551745e-11,2.9150192280872355e-11,-1.8054267924791366e-12,-6.378943646056803e-11,-0.24605093982417123,-0.18055616956832368,1.4264424995422367,-0.010845881915801851,-0.37516252086656543,0.883748295985671,0.2795074223074141
4.6,-1.8780400724010264,-1.4611471342451292,-0.7408719593081041,-0.17329514276493158,1.566475239553029,-0.2622133921128184,0.20943951023925347,-0.049391658758458724,-0.208496296675475,-0.09259087800475511,0.005731099970622834,0.20257654130906116,-6.597951272322986e-11,1.5552313713332754e-11,6.567456539551745e-11,2.9150192280872355e-11,-1.8054267924791366e-12,-6.378943646056803e-11,-0.24846562077951906,-0.20558810235592664,1.4183098475052143,-0.010801462384079507,-0.39135308288318144,0.8828910010321563,0.25928666225749414
4.7,-1.857096121377098,-1.4660863001209758,-0.761721588975655,-0.18255423056540854,1.5670483495500913,-0.2419557379819091,0.20943951023925347,-0.049391658758458724,-0.208496296675475,-0.09259087800475511,0.005731099970622834,0.20257654130906116,-6.597951272322986e-11,1.5552313713332754e-11,6.567456539551745e-11,2.9150192280872355e-11,-1.8054267924791366e-12,-6.378943646056803e-11,-0.24987384165449875,-0.23057699891696545,1.4096501168124251,-0.010746587167227468,-0.40742337924933497,0.8813080383057029,0.23913770619261068
4.8,-1.8361521703531691,-1.4710254659968225,-0.7825712186432059,-0.19181331836588558,1.5676214595471538,-0.22169808385099968,0.20943951023925347,-0.049391658758458724,-0.208496296675475,-0.09259087800475511,0.005731099970622834,0.20257654130906116,-6.597951272322986e-11,1.5552313713332754e-11,6.567456539551745e-11,2.9150192280872355e-11,-1.8054267924791366e-12,-6.378943646056803e-11,-0.2502792219728916,-0.2554758659935236,1.4004693510208674,-0.010681518600827696,-0.42336846356764624,0.879002546633481,0.21908804674971616
4.9,-1.8152082193292405,-1.4759646318726691,-0.8034208483107566,-0.2010724061663625,1.568194569544216,-0.20144042972009052,0.20943951023925397,-0.049391658758458426,-0.20849629667547517,-0.09259087800475518,0.00573109997062216,0.2025765413090613,-6.548050800515501e-11,1.5441423775982787e-11,6.517556067744262e-11,2.8942273648341168e-11,-1.791565550310391e-12,-6.331815422683068e-11,-0.24968758500913493,-0.2802379493326393,1.3907740464097322,-0.010606524279582509,-0.43918342824223217,0.8759787115188397,0.19916504453819317
5.0,-1.794264268305312,-1.4809037977485158,-0.8242704779783073,-0.21033149396683945,1.5687676795412786,-0.18118277558918122,0.20943951023925397,-0.049391658758458426,-0.20849629667547517,-0.09259087800475518,0.00573109997062216,0.2025765413090613,-6.548050800515501e-11,1.5441423775982787e-11,6.517556067744262e-11,2.8942273648341168e-11,-1.791565550310391e-12,-6.331815422683068e-11,-0.2481069446789479,-0.3048168411181329,1.380571147411883,-0.010521876898748193,-0.4548634059913302,0.8722417596436912,0.17939588827554276
5.1,-1.7733203172813812,-1.4858429636243629,-0.8451201076458601,-0.21959058176731736,1.5693407895383409,-0.16092512145826987,0.20943951023937674,-0.04939165875848738,-0.20849629667559738,-0.09259087800480946,0.005731099970625519,0.20257654130918007,5.7136040219620754e-11,-1.348005800911722e-11,-5.6886537860583104e-11,-2.5269044473645956e-11,1.5637213821630195e-12,5.530635625334469e-11,-0.24554748708548504,-0.32916658671530763,1.369868041605439,-0.01042785409336713,-0.47040357134733474,0.8677979518525837,0.15980755515037828
5.2,-1.7523763662574465,-1.4907821295002108,-0.8659697373134172,-0.22884966956779706,1.5699138995354032,-0.14066746732735458,0.20943951023937674,-0.04939165875848738,-0.20849629667559738,-0.09259087800480946,0.005731099970625519,0.20257654130918007,5.7136040219620754e-11,-1.348005800911722e-11,-5.6886537860583104e-11,-2.5269044473645956e-11,1.5637213821630195e-12,5.530635625334469e-11,-0.24202154675634502,-0.353241790457927,1.358672554269271,-0.010324738275369538,-0.4857991421437792,0.8626545746277999,0.14042677147055332
5.3,-1.7314324152335114,-1.495721295376059,-0.8868193669809741,-0.2381087573682768,1.570487009532466,-0.12040981319643926,0.20943951023937674,-0.04939165875848738,-0.20849629667559738,-0.09259087800480946,0.005731099970625519,0.20257654130918007,5.7136040219620754e-11,-1.348005800911722e-11,-5.6886537860583104e-11,-2.5269044473645956e-11,1.5637213821630195e-12,5.530635625334469e-11,-0.23754357762063963,-0.3769977202086855,1.3469929425066922,-0.010212816468619748,-0.5010453809888039,0.8568199300670357,0.12127997365386775
5.4,-1.7104884642095768,-1.5006604612519072,-0.907668996648531,-0.2473678451687564,1.5710601195295282,-0.10015215906552419,0.20943951023937674,-0.04939165875848738,-0.20849629667559738,-0.09259087800480946,0.005731099970625519,0.20257654130918007,5.7136040219620754e-11,-1.348005800911722e-11,-5.6886537860583104e-11,-2.5269044473645956e-11,1.5637213821630195e-12,5.530635625334469e-11,-0.23213011878911494,-0.40039041042696005,1.3348378889420713,-0.010092380141983465,-0.5161375967246723,0.8503033243773777,0.10239326961831638
5.5,-1.689544513185642,-1.5055996271277552,-0.9285186263160878,-0.2566269329692361,1.5716332295265907,-0.07989450493460887,0.20943951023937674,-0.04939165875848738,-0.20849629667559738,-0.09259087800480946,0.005731099970625519,0.20257654130918007,5.7136040219620754e-11,-1.348005800911722e-11,-5.6886537860583104e-11,-2.5269044473645956e-11,1.5637213821630195e-12,5.530635625334469e-11,-0.22579975521397055,-0.42337676348081943,1.3222164949955908,-0.009963725040487323,-0.5310711458728609,0.8431150549014916,0.0837924006283302
5.6,-1.6686005621617068,-1.5105387930036032,-0.9493682559836448,-0.2658860207697158,1.5722063395236532,-0.05963685080369354,0.20943951023937674,-0.04939165875848738,-0.20849629667559738,-0.09259087800480946,0.005731099970625519,0.20257654130918007,5.7136040219620754e-11,-1.348005800911722e-11,-5.6886537860583104e-11,-2.5269044473645956e-11,1.5637213821630195e-12,5.530635625334469e-11,-0.21857307331850906,-0.4459146489442878,1.3091382737417696,-0.00982715101465301,-0.5458414340642905,0.8352663956940608,0.06550270365280048
5.7,-1.6476566111377722,-1.5154779588794511,-0.9702178856512014,-0.2751451085701954,1.5727794495207157,-0.03937919667277849,0.2094395102393764,-0.04939165875848708,-0.2084962966755973,-0.09259087800480936,0.005731099970625517,0.2025765413091801,5.680337040757056e-11,-1.3389959935020292e-11,-5.65261455641954e-11,-2.5102709567620858e-11,1.5541917781719982e-12,5.4945963956956976e-11,-0.21047261170001821,-0.46796300062548724,1.295613142357873,-0.009682961848078523,-0.5604439174542557,0.8267695816686432,0.04754907428996667
5.8,-1.6267126601138375,-1.5204171247552993,-0.9910675153187585,-0.2844041963706751,1.5733525595177782,-0.019121542541863157,0.2094395102393764,-0.04939165875848708,-0.2084962966755973,-0.09259087800480936,0.005731099970625517,0.2025765413091801,5.680337040757056e-11,-1.3389959935020292e-11,-5.65261455641954e-11,-2.5102709567620858e-11,1.5541917781719982e-12,5.4945963956956976e-11,-0.20152280702232717,-0.4894819110766481,1.2816514141687232,-0.009531465083346484,-0.5748741041216181,0.8176377913372076,0.02995593031346085
5.9,-1.6057687090899027,-1.5253562906311475,-1.0119171449863156,-0.29366328417115484,1.573925669514841,0.0011361115890521772,0.2094395102393764,-0.04939165875848708,-0.2084962966755973,-0.09259087800480936,0.005731099970625517,0.2025765413091801,5.680337040757056e-11,-1.3389959935020292e-11,-5.65261455641954e-11,-2.5102709567620858e-11,1.5541917781719982e-12,5.4945963956956976e-11,-0.1917499352272325,-0.5104327233429822,1.2672637902948958,-0.00937297184633744,-0.5891275554518277,0.8078851281666696,0.01274717589292882
6.0,-1.584824758065968,-1.5302954565069955,-1.0327667746538722,-0.3029223719716344,1.5744987795119032,0.021393765719967272,0.2094395102393764,-0.04939165875848708,-0.2084962966755973,-0.09259087800480936,0.005731099970625517,0.2025765413091801,5.680337040757056e-11,-1.3389959935020292e-11,-5.65261455641954e-11,-2.5102709567620858e-11,1.5541917781719982e-12,5.4945963956956976e-11,-0.18118204820642791,-0.5307781197141122,1.2524613509116924,-0.009207796669028637,-0.6031998875033497,0.7975266005787771,-0.004053833458309964
6.1,-1.5638808070420331,-1.5352346223828435,-1.0536164043214291,-0.31218145977211414,1.5750718895089655,0.04165141985088261,0.2094395102393764,-0.04939165875848708,-0.2084962966755973,-0.09259087800480936,0.005731099970625517,0.2025765413091801,5.680337040757056e-11,-1.3389959935020292e-11,-5.65261455641954e-11,-2.5102709567620858e-11,1.5541917781719982e-12,5.4945963956956976e-11,-0.1698489060876605,-0.5504822072490714,1.2372555461267138,-0.00903625731085499,-0.6170867723570764,0.7865781006216824,-0.02042432515712724
6.2,-1.5429368560180983,-1.5401737882586914,-1.074466033988986,-0.3214405475725939,1.575644999506028,0.06190907398179794,0.2094395102393764,-0.04939165875848708,-0.2084962966755973,-0.09259087800480936,0.005731099970625517,0.2025765413091801,5.680337040757056e-11,-1.3389959935020292e-11,-5.65261455641954e-11,-2.5102709567620858e-11,1.5541917781719982e-12,5.4945963956956976e-11,-0.15778190530055172,-0.569510599853832,1.2216581864842597,-0.008858674578716091,-0.6307839394483035,0.7750563813434944,-0.03634214299563808
6.3,-1.5219929049941634,-1.5451129541345394,-1.095315663656543,-0.33069963537307356,1.5762181095030905,0.08216672811271326,0.2094395102393764,-0.04939165875848708,-0.2084962966755973,-0.09259087800480936,0.005731099970625517,0.2025765413091801,5.680337040757056e-11,-1.3389959935020292e-11,-5.65261455641954e-11,-2.5102709567620858e-11,1.5541917781719982e-12,5.4945963956956976e-11,-0.145014002598805,-0.5878304966988942,1.2056814331051984,-0.00867537214570799,-0.6442871768808655,0.7629790329000019,-0.051785779708291096
6.4,-1.5010489539702287,-1.5500521200103876,-1.1161652933240997,-0.3399587231735532,1.576791219500153,0.10242438224362836,0.2094395102393764,-0.04939165875848708,-0.2084962966755973,-0.09259087800480936,0.005731099970625517,0.2025765413091801,5.680337040757056e-11,-1.3389959935020292e-11,-5.65261455641954e-11,-2.5102709567620858e-11,1.5541917781719982e-12,5.4945963956956976e-11,-0.13157963522637603,-0.6054107567735945,1.1893377874713351,-0.00848667636866126,-0.6575923327230261,0.7503644574306301,-0.06673440861308909
6.5,-1.4801050029462939,-1.5549912858862356,-1.1370149229916569,-0.34921781097403287,1.5773643294972153,0.12268203637454368,0.2094395102393765,-0.04939165875848738,-0.20849629667559738,-0.0925908780048094,0.00573109997062552,0.20257654130918,5.6886537860583104e-11,-1.3424613040442188e-11,-5.663703550154546e-11,-2.515815453629589e-11,1.5576570887141878e-12,5.502913140996952e-11,-0.11751463742554506,-0.6222219693835007,1.1726400808636999,-0.008292916104567801,-0.6706953162847191,0.7372318427384968,-0.08116791428035826
6.6,-1.459161051922359,-1.5599304517620836,-1.157864552659214,-0.35847689877451266,1.577937439494278,0.14293969050545902,0.2094395102393765,-0.04939165875848738,-0.20849629667559738,-0.0925908780048094,0.00573109997062552,0.20257654130918,5.6886537860583104e-11,-1.3424613040442188e-11,-5.663703550154546e-11,-2.515815453629589e-11,1.5576570887141878e-12,5.502913140996952e-11,-0.1028561534946975,-0.6382365204074878,1.155601463464551,-0.008094422525977795,-0.6835920993757516,0.7236011348122041,-0.09506692218386958
6.7,-1.4382171008984244,-1.5648696176379315,-1.1787141823267706,-0.3677359865749922,1.5785105494913403,0.1631973446363741,0.2094395102393765,-0.04939165875848738,-0.20849629667559738,-0.0925908780048094,0.00573109997062552,0.20257654130918,5.6886537860583104e-11,-1.3424613040442188e-11,-5.663703550154546e-11,-2.515815453629589e-11,1.5576570887141878e-12,5.502913140996952e-11,-0.08764254761294359,-0.6534286541418417,1.1382353931332652,-0.00789152893545116,-0.6962787175445806,0.7094930092287018,-0.108412827290576
6.8,-1.4172731498744895,-1.5698087835137797,-1.1995638119943275,-0.376995074375472,1.5790836594884028,0.1834549987672894,0.2094395102393765,-0.04939165875848738,-0.20849629667559738,-0.0925908780048094,0.00573109997062552,0.20257654130918,5.6886537860583104e-11,-1.3424613040442188e-11,-5.663703550154546e-11,-2.515815453629589e-11,1.5576570887141878e-12,5.502913140996952e-11,-0.07191331065747764,-0.6677745305699523,1.1205556238666272,0.0076845705791431995,0.7087512712972844,-0.6949288414782125,0.12118782154674877
6.9,-1.3963291988505546,-1.5747479493896277,-1.2204134416618846,-0.38625416217595165,1.5796567694854655,0.20371265289820473,0.2094395102393765,-0.04939165875848738,-0.20849629667559738,-0.0925908780048094,0.00573109997062552,0.20257654130918,5.6886537860583104e-11,-1.3424613040442188e-11,-5.663703550154546e-11,-2.515815453629589e-11,1.5576570887141878e-12,5.502913140996952e-11,-0.055708964247762324,-0.6812522779078285,1.1025761939543994,0.007473884459611773,0.721005927296347,-0.6799306762538085,0.13337492021987357
7.0,-1.37538524782662,-1.579687115265476,-1.2412630713294412,-0.3955132499764312,1.5802298794825278,0.22397030702911983,0.2094395102393765,-0.04939165875848738,-0.20849629667559738,-0.0925908780048094,0.00573109997062552,0.20257654130918,5.6886537860583104e-11,-1.3424613040442188e-11,-5.663703550154546e-11,-2.515815453629589e-11,1.5576570887141878e-12,5.502913140996952e-11,-0.03907096225819202,-0.6938420402877733,1.0843114138413654,0.007259809147927046,0.7330389195388958,-0.6645211957497473,0.14495798705731902
7.1,-1.354441296802685,-1.5846262811413239,-1.2621127009969981,-0.40477233777691096,1.5808029894795903,0.24422796116003515,0.2094395102393765,-0.04939165875848738,-0.20849629667559738,-0.0925908780048094,0.00573109997062552,0.20257654130918,5.6886537860583104e-11,-1.3424613040442188e-11,-5.663703550154546e-11,-2.515815453629589e-11,1.5576570887141878e-12,5.502913140996952e-11,-0.022041590047834902,-0.7055260204550148,1.0657758537073818,0.007042684595167096,0.7448465505140248,-0.6487236870141526,0.1559217582244853
7.2,-1.3334973457787502,-1.589565447017172,-1.282962330664555,-0.4140314255773907,1.5813760994766528,0.26448561529095044,0.2094395102393765,-0.04939165875848738,-0.20849629667559738,-0.0925908780048094,0.00573109997062552,0.20257654130918,5.6886537860583104e-11,-1.3424613040442188e-11,-5.663703550154546e-11,-2.515815453629589e-11,1.5576570887141878e-12,5.502913140996952e-11,-0.004663861662151557,-0.716288517364946,1.0469843307772766,0.006822851943386888,0.7564251923388488,-0.632562008403029,0.16625186498689354
7.3,-1.3125533947548154,-1.59450461289302,-1.3038119603321123,-0.4232905133778704,1.5819492094737153,0.2847432694218658,0.2094395102393765,-0.04939165875848732,-0.20849629667559738,-0.09259087800480928,0.00573109997062579,0.20257654130918007,5.6886537860583104e-11,-1.3417682419357809e-11,-5.663703550154546e-11,-2.515815453629589e-11,1.5567907610786405e-12,5.5056853894307044e-11,0.013018584732797699,-0.7261159585817564,1.0279518963727332,0.0066006533361410245,0.7677712878729395,-0.6160605551839268,0.17593485510249504
7.4,-1.2916094437308807,-1.599443778768868,-1.324661589999669,-0.43254960117834995,1.5825223194707778,0.30500092355278086,0.2094395102393765,-0.04939165875848732,-0.20849629667559738,-0.09259087800480928,0.00573109997062579,0.20257654130918007,5.6886537860583104e-11,-1.3417682419357809e-11,-5.663703550154546e-11,-2.515815453629589e-11,1.5567907610786405e-12,5.5056853894307044e-11,0.030961592918196452,-0.734996927392698,1.0086938227185884,0.006376431728646923,0.7788813518108026,-0.5992442243388445,0.18495821289232706
7.5,-1.2706654927069458,-1.6043829446447162,-1.3455112196672259,-0.4418086889788297,1.58309542946784,0.32525857768369615,0.2094395102393765,-0.04939165875848732,-0.20849629667559738,-0.09259087800480928,0.00573109997062579,0.20257654130918007,5.6886537860583104e-11,-1.3417682419357809e-11,-5.663703550154546e-11,-2.515815453629589e-11,1.5567907610786405e-12,5.5056853894307044e-11,0.04912059592267069,-0.7429221845659024,0.9892255895162395,0.006150530697673341,0.7897519717520592,-0.5821383786171505,0.19331037795955697
7.6,-1.249721541683011,-1.6093221105205642,-1.3663608493347827,-0.45106777677930937,1.5836685394649028,0.34551623181461144,0.2094395102393765,-0.04939165875848732,-0.20849629667559738,-0.09259087800480928,0.00573109997062579,0.20257654130918007,5.6886537860583104e-11,-1.3417682419357809e-11,-5.663703550154546e-11,-2.515815453629589e-11,1.5567907610786405e-12,5.5056853894307044e-11,0.06745072428161562,-0.7498846846935642,0.9695628702971297,0.0059232942512362965,0.8003798092490028,-0.564768809890423,0.20098076252890104
7.7,-1.2287775906590763,-1.6142612763964124,-1.3872104790023396,-0.460326864579789,1.584241649461965,0.36577388594552657,0.2094395102393765,-0.04939165875848732,-0.20849629667559738,-0.09259087800480928,0.00573109997062579,0.20257654130918007,5.6886537860583104e-11,-1.3417682419357809e-11,-5.663703550154546e-11,-2.515815453629589e-11,1.5567907610786405e-12,5.5056853894307044e-11,0.08590691497962337,-0.7558795870763906,0.9497215185695119,0.005695066638191324,0.8107616008312107,-0.5471617018621538,0.20795976738040056
7.8,-1.2078336396351415,-1.6192004422722603,-1.4080601086698965,-0.4695859523802687,1.5848147594590278,0.3860315400764419,0.2094395102393765,-0.04939165875848732,-0.20849629667559738,-0.09259087800480928,0.00573109997062579,0.20257654130918007,5.6886537860583104e-11,-1.3417682419357809e-11,-5.663703550154546e-11,-2.515815453629589e-11,1.5567907610786405e-12,5.5056853894307044e-11,0.10444402079790595,-0.7609042611194168,0.9297175537719364,0.005466192157802538,0.8208941590068978,-0.5293435921862332,0.21423879635357124
7.9,-1.1868896886112066,-1.6241396081481083,-1.4289097383374536,-0.47884504018074836,1.5853878694560903,0.40628919420735726,0.2094395102393765,-0.04939165875848732,-0.20849629667559738,-0.09259087800480928,0.00573109997062579,0.20257654130918007,5.6886537860583104e-11,-1.3417682419357809e-11,-5.663703550154546e-11,-2.515815453629589e-11,1.5567907610786405e-12,5.5056853894307044e-11,0.12301691978727482,-0.764958286223605,0.909567147047122,0.005237014969376138,0.8307743732407,-0.5113413340490198,0.2198102694000018
8.0,-1.165945737587272,-1.6290787740239563,-1.4497593680050103,-0.488104127981228,1.5859609794531528,0.42654684833827233,0.2094395102393765,-0.04939165875848732,-0.20849629667559738,-0.09259087800480928,0.00573109997062579,0.20257654130918007,5.6886537860583104e-11,-1.3417682419357809e-11,-5.663703550154546e-11,-2.515815453629589e-11,1.5567907610786405e-12,5.5056853894307044e-11,0.1415806245866469,-0.7680434461720045,0.8892866068500754,0.0050078789020417975,0.8403992109075958,-0.4931820572706168,0.22466763416459157
8.1,-1.1450017865633555,-1.6340179398998003,-1.4706089976725492,-0.4973632157816996,1.586534089450215,0.44680450246917003,0.209439510239005,-0.04939165875839978,-0.20849629667522734,-0.09259087800464517,0.0057310999706153545,0.2025765413088208,-3.141511925124541e-10,7.408140877086176e-11,3.1270962332690456e-10,1.3887578528866386e-10,-8.596569127529018e-12,-3.038384283389073e-10,0.16009039130718292,-0.7701637180236482,0.8688923644045276,0.0047791272647678285,0.8497657182226583,-0.4748931289817162,0.2288053760777308
8.2,-1.1240578355394388,-1.638957105775644,-1.4914586273400878,-0.5066223035821712,1.587107199447277,0.46706215660006756,0.209439510239005,-0.04939165875839978,-0.20849629667522734,-0.09259087800464517,0.0057310999706153545,0.2025765413088208,-3.141511925124541e-10,7.408140877086176e-11,3.1270962332690456e-10,1.3887578528866386e-10,-8.596569127529018e-12,-3.038384283389073e-10,0.17850182770315814,-0.7713252555427376,0.8484009590218379,0.004551102656691379,0.8588710211463967,-0.45650211393293544,0.23221902694291705
8.3,-1.103113884515523,-1.6438962716514878,-1.5123082570076258,-0.5158813913826426,1.5876803094443388,0.48731981073096453,0.209439510239005,-0.04939165875839978,-0.20849629667522734,-0.09259087800464517,0.0057310999706153545,0.2025765413088208,-3.141511925124541e-10,7.408140877086176e-11,3.1270962332690456e-10,1.3887578528866386e-10,-8.596569127529018e-12,-3.038384283389073e-10,0.1967710003520717,-0.7715363672049579,0.8278290232969203,0.004324146777853642,0.8677123262653297,-0.43803673449436614,0.2349051720064203
8.4,-1.0821699334916066,-1.6488354375273313,-1.533157886675164,-0.525140479183114,1.5882534194414006,0.5075774648618618,0.209439510239005,-0.04939165875839978,-0.20849629667522734,-0.09259087800464517,0.0057310999706153545,0.2025765413088208,-3.141511925124541e-10,7.408140877086176e-11,3.1270962332690456e-10,1.3887578528866386e-10,-8.596569127529018e-12,-3.038384283389073e-10,0.21485454056920866,-0.77080748883702,0.8071932681955573,0.004098600240418254,0.8762869216476005,-0.4195248304032306,0.23686145549789644
8.5,-1.0612259824676906,-1.6537746034031748,-1.5540075163427027,-0.5343995669835855,1.5888265294384625,0.527835118992759,0.209439510239005,-0.04939165875839978,-0.20849629667522734,-0.09259087800464517,0.0057310999706153545,0.2025765413088208,-3.141511925124541e-10,7.408140877086176e-11,3.1270962332690456e-10,1.3887578528866386e-10,-8.596569127529018e-12,-3.038384283389073e-10,0.23270974878473652,-0.769151150959587,0.7865104680478543,0.0038748023804611475,0.8845921776733336,-0.40099431831817245,0.23808658463299806
8.6,-1.0402820314437742,-1.6587137692790188,-1.574857146010241,-0.543658654784057,1.5893996394355245,0.5480927731236563,0.209439510239005,-0.04939165875839978,-0.20849629667522734,-0.09259087800464517,0.0057310999706153545,0.2025765413088208,-3.141511925124541e-10,7.408140877086176e-11,3.1270962332690456e-10,1.3887578528866386e-10,-8.596569127529018e-12,-3.038384283389073e-10,0.2502946971153846,-0.7665819409176529,0.7657974454625907,0.003653091070413541,0.8926255478394852,-0.3824731512389294,0.23858033207130278
8.7,-1.019338080419858,-1.6636529351548623,-1.5957067756777794,-0.5529177425845284,1.5899727494325866,0.5683504272545538,0.209439510239005,-0.04939165875839978,-0.20849629667522734,-0.09259087800464517,0.0057310999706153545,0.2025765413088208,-3.141511925124541e-10,7.408140877086176e-11,3.1270962332690456e-10,1.3887578528866386e-10,-8.596569127529018e-12,-3.038384283389073e-10,0.2675683298672819,-0.7631164598961562,0.7450710561773415,0.003433802532242173,0.9003845695389425,-0.363989277850379,0.2383435368251093
8.8,-0.9983941293959419,-1.668592101030706,-1.6165564053453176,-0.5621768303849998,1.5905458594296484,0.5886080813854508,0.209439510239005,-0.04939165875839978,-0.20849629667522734,-0.09259087800464517,0.0057310999706153545,0.2025765413088208,-3.141511925124541e-10,7.408140877086176e-11,3.1270962332690456e-10,1.3887578528866386e-10,-8.596569127529018e-12,-3.038384283389073e-10,0.2844905617118221,-0.7587732749320493,0.7243481738593324,0.0032172711514497055,0.9078668648136354,-0.34557060185009475,0.2373781036169119
8.9,-0.9774501783720257,-1.6735312669065496,-1.6374060350128559,-0.5714359181854712,1.5911189694267103,0.608865735516348,0.2094395102390051,-0.04939165875839945,-0.20849629667522765,-0.09259087800464522,0.005731099970615349,0.20257654130882052,-3.140680250594417e-10,7.406754752869303e-11,3.126819008425671e-10,1.3884806280432638e-10,-8.593970144622378e-12,-3.037829833702323e-10,0.3010223732823784,-0.753572866047216,0.7036456748720494,0.0030038292919780164,0.9150701410814286,-0.327244941318604,0.23568700068561788
9.0,-0.9565062273481095,-1.6784704327823934,-1.6582556646803943,-0.5806950059859427,1.5916920794237723,0.6291233896472452,0.2094395102390051,-0.04939165875839945,-0.20849629667522765,-0.09259087800464522,0.005731099970615349,0.20257654130882052,-3.140680250594417e-10,7.406754752869303e-11,3.126819008425671e-10,1.3884806280432638e-10,-8.593970144622378e-12,-3.037829833702323e-10,0.31712590394634127,-0.7475375686394796,0.6829804230226734,0.0027938071120972158,0.9219921918365728,-0.3090399881915123,0.23327425604383048
9.1,-0.9355622763241933,-1.683409598658237,-1.679105294347933,-0.5899540937864143,1.5922651894208344,0.6493810437781424,0.2094395102390051,-0.04939165875839945,-0.20849629667522765,-0.09259087800464522,0.005731099970615349,0.20257654130882052,-3.140680250594417e-10,7.406754752869303e-11,3.126819008425671e-10,1.3884806280432638e-10,-8.593970144622378e-12,-3.037829833702323e-10,0.33276454151425405,-0.740691511281424,0.6623692543054539,0.0025875323813620062,0.9286308973235037,-0.2909832678925432,0.23014495219077932
9.2,-0.9146183253002766,-1.6883487645340807,-1.6999549240154717,-0.5992131815868857,1.5928382994178962,0.6696386979090402,0.2094395102390051,-0.04939165875839945,-0.20849629667522765,-0.09259087800464522,0.005731099970615349,0.20257654130882052,-3.140680250594417e-10,7.406754752869303e-11,3.126819008425671e-10,1.3884806280432638e-10,-8.593970144622378e-12,-3.037829833702323e-10,0.34790300865577095,-0.7330605490888548,0.6418289616561408,0.0023853302987170387,0.9349842251837818,-0.2731020991863358,0.22630521928772718
9.3,-0.8936743742763607,-1.6932879304099242,-1.7208045536830099,-0.6084722693873572,1.5934114094149583,0.6898963520399372,0.2094395102390051,-0.04939165875839945,-0.20849629667522765,-0.09259087800464522,0.005731099970615349,0.20257654130882052,-3.140680250594417e-10,7.406754752869303e-11,3.126819008425671e-10,1.3884806280432638e-10,-8.593970144622378e-12,-3.037829833702323e-10,0.3625074458007204,-0.7246721928324051,0.621376279732606,0.0021875233118313782,0.9410502310759751,-0.25542355430956887,0.22176222680492902
9.4,-0.8727304232524444,-1.698227096285768,-1.7416541833505481,-0.6177313571878287,1.5939845194120204,0.7101540061708345,0.2094395102390051,-0.04939165875839945,-0.20849629667522765,-0.09259087800464522,0.005731099970615349,0.20257654130882052,-3.140680250594417e-10,7.406754752869303e-11,3.126819008425671e-10,1.3884806280432638e-10,-8.593970144622378e-12,-3.037829833702323e-10,0.3765454903127309,-0.7155555339770004,0.6010278697367621,0.0019944309377450302,0.9468270592683014,-0.2379744194385903,0.21652417365144475
9.5,-0.8517864722285283,-1.7031662621616115,-1.7625038130180866,-0.6269904449883001,1.5945576294090822,0.7304116603017317,0.2094395102390051,-0.04939165875839945,-0.20849629667522765,-0.09259087800464522,0.005731099970615349,0.20257654130882052,-3.140680250594417e-10,7.406754752869303e-11,3.126819008425671e-10,1.3884806280432638e-10,-8.593970144622378e-12,-3.037829833702323e-10,0.3899863517325941,-0.7057411658446419,0.5808003042928677,0.0018063695849051956,0.9523129432038427,-0.22078115555128905,0.210600276801325
9.6,-0.8308425212046119,-1.7081054280374552,-1.7833534426856252,-0.6362495327887717,1.5951307394061442,0.7506693144326291,0.2094395102390051,-0.04939165875839945,-0.20849629667522765,-0.09259087800464522,0.005731099970615349,0.20257654130882052,-3.140680250594417e-10,7.406754752869303e-11,3.126819008425671e-10,1.3884806280432638e-10,-8.593970144622378e-12,-3.037829833702323e-10,0.4028008828988463,-0.695261101106173,0.5607100523972445,0.0016236523766716136,0.9575062060381683,-0.20386985974039276,0.20400075843188656
9.7,-0.8098985701806956,-1.7130445939132992,-1.8042030723531637,-0.6455086205892432,1.5957038494032063,0.7709269685635266,0.20943951023900495,-0.04939165875839976,-0.2084962966752275,-0.09259087800464501,0.005731099970615353,0.20257654130882063,-3.142066374811291e-10,7.409527001303052e-11,3.1279279077991705e-10,1.3890350777300136e-10,-8.597435455164564e-12,-3.0392159579191976e-10,0.41496164676382574,-0.6841486858173785,0.5407734644543871,0.0014465889763725307,0.9624052611491964,-0.18726622703475998,0.19673683159196692
9.8,-0.7889546191567792,-1.7179837597891425,-1.825052702020702,-0.6547677083897147,1.5962769594002681,0.7911846226944237,0.20943951023900495,-0.04939165875839976,-0.2084962966752275,-0.09259087800464501,0.005731099970615353,0.20257654130882063,-3.142066374811291e-10,7.409527001303052e-11,3.1279279077991705e-10,1.3890350777300136e-10,-8.597435455164564e-12,-3.0392159579191976e-10,0.42644297873477754,-0.6724385102238546,0.5210067574143494,0.0012754854139854141,0.9670086126191471,-0.17099551278451558,0.18882068442019698
9.9,-0.7680106681328633,-1.722922925664986,-1.8459023316882401,-0.664026796190186,1.59685006939733,0.8114422768253209,0.20943951023900495,-0.04939165875839976,-0.2084962966752275,-0.09259087800464501,0.005731099970615353,0.20257654130882063,-3.142066374811291e-10,7.409527001303052e-11,3.1279279077991705e-10,1.3890350777300136e-10,-8.597435455164564e-12,-3.0392159579191976e-10,0.437221044381316,-0.6601663165676109,0.5014260000262094,0.001110643914524174,0.9713148556884348,-0.1550824956650985,0.18026546293545795
10.0,-0.7470667171089471,-1.72786209154083,-1.8667519613557786,-0.6732858839906575,1.5974231793943923,0.8316999309562181,0.20943951023900495,-0.04939165875839976,-0.2084962966752275,-0.09259087800464501,0.005731099970615353,0.20257654130882063,-3.142066374811291e-10,7.409527001303052e-11,3.1279279077991705e-10,1.3890350777300136e-10,-8.597435455164564e-12,-3.0392159579191976e-10,0.44727389236273885,-0.6473689041362356,0.4820470982223003,0.0009523627282050396,0.9753226771813683,-0.1395514413544183,0.17108525242377431
10.1,-0.7261227660850305,-1.7328012574166736,-1.8876015910233175,-0.6825449717911292,1.597996289391454,0.8519575850871157,0.20943951023900495,-0.04939165875839976,-0.2084962966752275,-0.09259087800464501,0.005731099970615353,0.20257654130882063,-3.142066374811291e-10,7.409527001303052e-11,3.1279279077991705e-10,1.3890350777300136e-10,-8.597435455164564e-12,-3.0392159579191976e-10,0.4565815024412624,-0.6340840318027187,0.4628857806477648,0.0008009359624719806,0.9790308559035273,-0.12442606693636286,0.16129505744795256
10.2,-0.7051788150611142,-1.7377404232925175,-1.9084512206908557,-0.6918040595916004,1.5985693993885162,0.872215239218013,0.20943951023900495,-0.04939165875839976,-0.2084962966752275,-0.09259087800464501,0.005731099970615353,0.20257654130882063,-3.142066374811291e-10,7.409527001303052e-11,3.1279279077991705e-10,1.3890350777300136e-10,-8.597435455164564e-12,-3.0392159579191976e-10,0.46512582846019146,-0.6203503183106033,0.4439575843498479,0.0006566534159529286,0.982438263010697,-0.10972950608287459,0.1509107805082999
10.3,-0.6842348640371982,-1.742679589168361,-1.929300850358394,-0.7010631473920719,1.599142509385578,0.89247289334891,0.20943951023900495,-0.04939165875839976,-0.2084962966752275,-0.09259087800464501,0.005731099970615353,0.20257654130882063,-3.142066374811291e-10,7.409527001303052e-11,3.1279279077991705e-10,1.3890350777300136e-10,-8.597435455164564e-12,-3.0392159579191976e-10,0.4728908361792898,-0.6062071405650398,0.425277840641192,0.0005198004144233888,0.9855438623492508,-0.09548427506570831,0.13994919938472705
10.4,-0.6632909130132821,-1.7476187550442046,-1.9501504800259324,-0.7103222351925433,1.59971561938264,0.9127305474798073,0.20943951023900495,-0.04939165875839976,-0.2084962966752275,-0.09259087800464501,0.005731099970615353,0.20257654130882063,-3.142066374811291e-10,7.409527001303052e-11,3.1279279077991705e-10,1.3890350777300136e-10,-8.597435455164564e-12,-3.0392159579191976e-10,0.4798625358731813,-0.591694530195548,0.40686166115121397,0.0003906576488507809,0.9883467107678802,-0.08171223964780609,0.1284279431924884
10.5,-0.6423469619893466,-1.752557920920053,-1.97100010969349,-0.7195813229930234,1.6002887293797023,0.9329882016107233,0.2094395102395028,-0.04939165875851709,-0.20849629667572278,-0.09259087800486522,0.005731099970628967,0.20257654130930214,1.8305156408045665e-10,-4.31708387345587e-11,-1.822198895503319e-10,-8.09219317811378e-11,5.009106388730503e-12,1.7706350746355847e-10,0.4860290096124228,-0.576853068660757,0.3887239240794558,0.00026950101559106897,0.9908459584005777,-0.06843458290295616,0.1163654671856811
10.6,-0.6214030109654051,-1.7574970867959026,-1.9918497393610535,-0.7288404107935059,1.600861839376765,0.9532458557416449,0.2094395102395028,-0.04939165875851709,-0.20849629667572278,-0.09259087800486522,0.005731099970628967,0.20257654130930214,1.8305156408045665e-10,-4.31708387345587e-11,-1.822198895503319e-10,-8.09219317811378e-11,5.009106388730503e-12,1.7706350746355847e-10,0.4913804331608804,-0.5617237811692662,0.3708792606646687,0.00015660145881228244,0.993040848920783,-0.055671774011147465,0.10378102634453651
10.7,-0.6004590599414643,-1.762436252671752,-2.012699369028616,-0.7380994985939883,1.6014349493738278,0.9735035098725661,0.2094395102395028,-0.04939165875851709,-0.20849629667572278,-0.09259087800486522,0.005731099970628967,0.20257654130930214,1.8305156408045665e-10,-4.31708387345587e-11,-1.822198895503319e-10,-8.09219317811378e-11,5.009106388730503e-12,1.7706350746355847e-10,0.4959090924373328,-0.5463480296936386,0.35334204188297347,5.2224815212597304e-05,0.9949307197666359,-0.043443538075479175,0.0906946477841812
10.8,-0.5795151089175229,-1.7673754185476016,-2.0335489986961797,-0.7473585863944708,1.6020080593708903,0.9937611640034876,0.2094395102395028,-0.04939165875851709,-0.20849629667572278,-0.09259087800486522,0.005731099970628967,0.20257654130930214,1.8305156408045665e-10,-4.31708387345587e-11,-1.822198895503319e-10,-8.09219317811378e-11,5.009106388730503e-12,1.7706350746355847e-10,0.4996093945034584,-0.530767405357042,0.33612636538845364,-4.336833889548564e-05,0.9965150023372508,-0.0317688270052105,0.07712710202444598
10.9,-0.5585711578935821,-1.7723145844234511,-2.0543986283637428,-0.7566176741949533,1.602581169367953,1.0140188181344088,0.2094395102395028,-0.04939165875851709,-0.20849629667572278,-0.09259087800486522,0.005731099970628967,0.20257654130930214,1.8305156408045665e-10,-4.31708387345587e-11,-1.822198895503319e-10,-8.09219317811378e-11,5.009106388730503e-12,1.7706350746355847e-10,0.5024778730548806,-0.515023620473516,0.31924604270915286,-0.00012992283806404365,0.9977932221599626,-0.020665791507902286,0.06309987316189791
11.0,-0.5376272068696412,-1.7772537502993007,-2.0752482580313054,-0.7658767619954356,1.6031542793650158,1.0342764722653297,0.2094395102395028,-0.04939165875851709,-0.20849629667572278,-0.09259087800486522,0.005731099970628967,0.20257654130930214,1.8305156408045665e-10,-4.31708387345587e-11,-1.822198895503319e-10,-8.09219317811378e-11,5.009106388730503e-12,1.7706350746355847e-10,0.5045131884064362,-0.4991584005236373,0.3027145867111929,-0.0002071890756881783,0.9987649990284996,-0.010151754232019009,0.04863512798688462
11.1,-0.5179583329699443,-1.7818922175431708,-2.0948285529010704,-0.7745721523812198,1.6036924981686214,1.0533008313344139,0.17350000000010932,-0.04091612315560033,-0.17271864048905622,-0.07670242026198301,0.004747651690780199,0.1678147063894199,-0.49999999989019894,0.11791389955789362,0.4977482433746999,0.2210444387466513,-0.013681993342174547,-0.48361586845090554,0.5056666390181301,-0.48418563111372187,0.28751900883916603,-0.0002710763925265752,0.9993983311446791,-0.0008288213390725127,0.03467297619194913
11.2,-0.5030852041150823,-1.7853997147877487,-2.109634700426308,-0.7811473972229231,1.60409948626865,1.0676865935930255,0.12349999999990272,-0.029124733197172778,-0.12294381614045073,-0.05459797638237159,0.003379452356256618,0.11945311953350994,-0.500000000096867,0.11791389960663112,0.49774824358042824,0.22104443883802552,-0.013681993347829728,-0.4836158686507887,0.5060527619194568,-0.4728377958443092,0.27624703065751777,-0.0003136838120032145,0.999697519194208,0.005858471124178558,0.02388409586941183
11.3,-0.49321207526021965,-1.7877280730364888,-2.119463365516706,-0.7855121976766747,1.6043696544352266,1.0772361971660667,0.0735000000000524,-0.017333343238829242,-0.07316899179219992,-0.032493532502917685,0.002011253021742787,0.07109153267794459,-0.4999999999462097,0.1179138995711027,0.4977482434304411,0.22104443877142194,-0.01368199334370714,-0.4836158685050594,0.506078759122651,-0.4653006933912847,0.2688708573392944,-0.0003392095363706645,0.9998106314938728,0.010122314584679756,0.016617004428068686
11.4,-0.4883389464053571,-1.788877292289391,-2.124314548172264,-0.7876665537424743,1.6045030026683513,1.0819496420535366,0.023499999999982858,-0.00554195328043401,-0.023394167443730855,-0.010389088623366861,0.0006430536872229567,0.022729945822167183,-0.5000000000192207,0.11791389958832064,0.4977482435031308,0.22104443880369717,-0.01368199334570518,-0.48361586857569194,0.5060240627177226,-0.46158093366913444,0.2652619467076461,-0.00035098828918219083,0.9998413120790852,0.01217471274880765,0.013000147563715385
11.447462577,-0.48777577234917974,-1.7890101043876077,-2.12487518596674,-0.7879155267288578,1.6045184133557289,1.0824943618741907,-2.7208521421604036e-16,6.416525725460745e-17,2.70859874908003e-16,1.2028584696171328e-16,-7.445336180451082e-18,-2.631694543892707e-16,-0.49999999988686245,0.11791389955710735,0.49774824337137025,0.22104443874518392,-0.013681993342083377,-0.4836158684476711,0.5060148699488605,-0.46115110162074235,0.26484623947509683,-0.000352314392806978,0.9998437862624197,0.012409669842753657,0.012580899864128562
