mathias31415/primitives_from_planned_trajectory_python/data/saved_trajectories/trajectory_20250624_120746_executed.csv
timestamp,shoulder_lift_joint_pos,elbow_joint_pos,wrist_1_joint_pos,wrist_2_joint_pos,wrist_3_joint_pos,shoulder_pan_joint_pos,shoulder_lift_joint_vel,elbow_joint_vel,wrist_1_joint_vel,wrist_2_joint_vel,wrist_3_joint_vel,shoulder_pan_joint_vel,shoulder_lift_joint_eff,elbow_joint_eff,wrist_1_joint_eff,wrist_2_joint_eff,wrist_3_joint_eff,shoulder_pan_joint_eff
1750759689.1562707,-1.7131229999999995,-2.354367,-0.6779270000000004,1.5833869999999999,-0.42556300000000036,-1.9952639999999997,0.0,0.0,0.0,0.0,0.0,0.0,3.188922556091831,2.709325242941199,0.2998841335134861,0.001038831291399793,0.0,6.862362401169689e-18
1750759689.1571636,-1.7131229999999995,-2.354367,-0.6779270000000004,1.5833869999999999,-0.42556300000000036,-1.9952639999999997,0.0,0.0,0.0,0.0,0.0,0.0,3.188922556091831,2.709325242941199,0.2998841335134861,0.001038831291399793,0.0,6.862362401169689e-18
1750759689.1591713,-1.7131229999999995,-2.354367,-0.6779270000000004,1.5833869999999999,-0.42556300000000036,-1.9952639999999997,0.0,0.0,0.0,0.0,0.0,0.0,3.188922556091831,2.709325242941199,0.2998841335134861,0.001038831291399793,0.0,6.862362401169689e-18
1750759689.1597714,-1.7131229999999995,-2.354367,-0.6779270000000004,1.5833869999999999,-0.42556300000000036,-1.9952639999999997,0.0,0.0,0.0,0.0,0.0,0.0,3.188922556091831,2.709325242941199,0.2998841335134861,0.001038831291399793,0.0,6.862362401169689e-18
1750759689.1603308,-1.7131229999999995,-2.354367,-0.6779270000000004,1.5833869999999999,-0.42556300000000036,-1.9952639999999997,0.0,0.0,0.0,0.0,0.0,0.0,3.188922556091831,2.709325242941199,0.2998841335134861,0.001038831291399793,0.0,6.862362401169689e-18
1750759689.1612573,-1.7131229999999995,-2.354367,-0.6779270000000004,1.5833869999999999,-0.42556300000000036,-1.9952639999999997,0.0,0.0,0.0,0.0,0.0,0.0,3.188922556091831,2.709325242941199,0.2998841335134861,0.001038831291399793,0.0,6.862362401169689e-18
1750759689.1633172,-1.7131229999999995,-2.354367,-0.6779270000000004,1.5833869999999999,-0.42556300000000036,-1.9952639999999997,0.0,0.0,0.0,0.0,0.0,0.0,3.188922556091831,2.709325242941199,0.2998841335134861,0.001038831291399793,0.0,6.862362401169689e-18
1750759689.1652215,-1.7131229999999995,-2.354367,-0.6779270000000004,1.5833869999999999,-0.42556300000000036,-1.9952639999999997,0.0,0.0,0.0,0.0,0.0,0.0,3.188922556091831,2.709325242941199,0.2998841335134861,0.001038831291399793,0.0,6.862362401169689e-18
1750759689.167387,-1.7131229999999995,-2.354367,-0.6779270000000004,1.5833869999999999,-0.42556300000000036,-1.9952639999999997,0.0,0.0,0.0,0.0,0.0,0.0,3.188922556091831,2.709325242941199,0.2998841335134861,0.001038831291399793,0.0,6.862362401169689e-18
1750759689.1697214,-1.7131229999999995,-2.354367,-0.6779270000000004,1.5833869999999999,-0.42556300000000036,-1.9952639999999997,0.0,0.0,0.0,0.0,0.0,0.0,3.188922556091831,2.709325242941199,0.2998841335134861,0.001038831291399793,0.0,6.862362401169689e-18
1750759689.1711283,-1.7131229999999995,-2.354367,-0.6779270000000004,1.5833869999999999,-0.42556300000000036,-1.9952639999999997,0.0,0.0,0.0,0.0,0.0,0.0,3.188922556091831,2.709325242941199,0.2998841335134861,0.001038831291399793,0.0,6.862362401169689e-18
1750759689.1734164,-1.7131229999999995,-2.354367,-0.6779270000000004,1.5833869999999999,-0.42556300000000036,-1.9952639999999997,0.0,0.0,0.0,0.0,0.0,0.0,3.188922556091831,2.709325242941199,0.2998841335134861,0.001038831291399793,0.0,6.862362401169689e-18
1750759689.1753716,-1.7131229999999995,-2.354367,-0.6779270000000004,1.5833869999999999,-0.42556300000000036,-1.9952639999999997,0.0,0.0,0.0,0.0,0.0,0.0,3.188922556091831,2.709325242941199,0.2998841335134861,0.001038831291399793,0.0,6.862362401169689e-18
1750759689.1782477,-1.7131229999999995,-2.354367,-0.6779270000000004,1.5833869999999999,-0.42556300000000036,-1.9952639999999997,0.0,0.0,0.0,0.0,0.0,0.0,3.188922556091831,2.709325242941199,0.2998841335134861,0.001038831291399793,0.0,6.862362401169689e-18
1750759689.1814172,-1.7131229999999995,-2.354367,-0.6779270000000004,1.5833869999999999,-0.42556300000000036,-1.9952639999999997,0.0,0.0,0.0,0.0,0.0,0.0,3.188922556091831,2.709325242941199,0.2998841335134861,0.001038831291399793,0.0,6.862362401169689e-18
1750759689.1820316,-1.7131229999999995,-2.354367,-0.6779270000000004,1.5833869999999999,-0.42556300000000036,-1.9952639999999997,0.0,0.0,0.0,0.0,0.0,0.0,3.188922556091831,2.709325242941199,0.2998841335134861,0.001038831291399793,0.0,6.862362401169689e-18
1750759689.1842487,-1.7131229999999995,-2.354367,-0.6779270000000004,1.5833869999999999,-0.42556300000000036,-1.9952639999999997,0.0,0.0,0.0,0.0,0.0,0.0,3.188922556091831,2.709325242941199,0.2998841335134861,0.001038831291399793,0.0,6.862362401169689e-18
1750759689.18656,-1.7131229999999995,-2.354367,-0.6779270000000004,1.5833869999999999,-0.42556300000000036,-1.9952639999999997,0.0,0.0,0.0,0.0,0.0,0.0,3.188922556091831,2.709325242941199,0.2998841335134861,0.001038831291399793,0.0,6.862362401169689e-18
1750759689.187503,-1.7131229999999995,-2.354367,-0.6779270000000004,1.5833869999999999,-0.42556300000000036,-1.9952639999999997,0.0,0.0,0.0,0.0,0.0,0.0,3.188922556091831,2.709325242941199,0.2998841335134861,0.001038831291399793,0.0,6.862362401169689e-18
1750759689.1938262,-1.7131229999999995,-2.354367,-0.6779270000000004,1.5833869999999999,-0.42556300000000036,-1.9952639999999997,0.0,0.0,0.0,0.0,0.0,0.0,3.188922556091831,2.709325242941199,0.2998841335134861,0.001038831291399793,0.0,6.862362401169689e-18
1750759689.1972394,-1.7131229999999995,-2.354367,-0.6779270000000004,1.5833869999999999,-0.42556300000000036,-1.9952639999999997,0.0,0.0,0.0,0.0,0.0,0.0,3.188922556091831,2.709325242941199,0.2998841335134861,0.001038831291399793,0.0,6.862362401169689e-18
1750759689.1978223,-1.7131229999999995,-2.354367,-0.6779270000000004,1.5833869999999999,-0.42556300000000036,-1.9952639999999997,0.0,0.0,0.0,0.0,0.0,0.0,3.188922556091831,2.709325242941199,0.2998841335134861,0.001038831291399793,0.0,6.862362401169689e-18
1750759689.1997786,-1.7131229999999995,-2.354367,-0.6779270000000004,1.5833869999999999,-0.42556300000000036,-1.9952639999999997,0.0,0.0,0.0,0.0,0.0,0.0,3.188922556091831,2.709325242941199,0.2998841335134861,0.001038831291399793,0.0,6.862362401169689e-18
1750759689.2013474,-1.7131229999999995,-2.354367,-0.6779270000000004,1.5833869999999999,-0.42556300000000036,-1.9952639999999997,0.0,0.0,0.0,0.0,0.0,0.0,3.188922556091831,2.709325242941199,0.2998841335134861,0.001038831291399793,0.0,6.862362401169689e-18
1750759689.2033784,-1.7131229999999995,-2.354367,-0.6779270000000004,1.5833869999999999,-0.42556300000000036,-1.9952639999999997,0.0,0.0,0.0,0.0,0.0,0.0,3.188922556091831,2.709325242941199,0.2998841335134861,0.001038831291399793,0.0,6.862362401169689e-18
1750759689.2055917,-1.7131229999999995,-2.354367,-0.6779270000000004,1.5833869999999999,-0.42556300000000036,-1.9952639999999997,0.0,0.0,0.0,0.0,0.0,0.0,3.188922556091831,2.709325242941199,0.2998841335134861,0.001038831291399793,0.0,6.862362401169689e-18
1750759689.2070491,-1.7131229999999995,-2.354367,-0.6779270000000004,1.5833869999999999,-0.42556300000000036,-1.9952639999999997,0.0,0.0,0.0,0.0,0.0,0.0,3.188922556091831,2.709325242941199,0.2998841335134861,0.001038831291399793,0.0,6.862362401169689e-18
1750759689.209178,-1.7131229999999995,-2.354367,-0.6779270000000004,1.5833869999999999,-0.42556300000000036,-1.9952639999999997,0.0,0.0,0.0,0.0,0.0,0.0,3.188922556091831,2.709325242941199,0.2998841335134861,0.001038831291399793,0.0,6.862362401169689e-18
1750759689.2113,-1.7131229999999995,-2.354367,-0.6779270000000004,1.5833869999999999,-0.42556300000000036,-1.9952639999999997,0.0,0.0,0.0,0.0,0.0,0.0,3.188922556091831,2.709325242941199,0.2998841335134861,0.001038831291399793,0.0,6.862362401169689e-18
1750759689.2147634,-1.7131229999999995,-2.354367,-0.6779270000000004,1.5833869999999999,-0.42556300000000036,-1.9952639999999997,0.0,0.0,0.0,0.0,0.0,0.0,3.188922556091831,2.709325242941199,0.2998841335134861,0.001038831291399793,0.0,6.862362401169689e-18
1750759689.2157743,-1.7131229999999995,-2.354367,-0.6779270000000004,1.5833869999999999,-0.42556300000000036,-1.9952639999999997,0.0,0.0,0.0,0.0,0.0,0.0,3.188922556091831,2.709325242941199,0.2998841335134861,0.001038831291399793,0.0,6.862362401169689e-18
1750759689.2170236,-1.7131229999999995,-2.354367,-0.6779270000000004,1.5833869999999999,-0.42556300000000036,-1.9952639999999997,0.0,0.0,0.0,0.0,0.0,0.0,3.188922556091831,2.709325242941199,0.2998841335134861,0.001038831291399793,0.0,6.862362401169689e-18
1750759689.21984,-1.7131229999999995,-2.354367,-0.6779270000000004,1.5833869999999999,-0.42556300000000036,-1.9952639999999997,0.0,0.0,0.0,0.0,0.0,0.0,3.188922556091831,2.709325242941199,0.2998841335134861,0.001038831291399793,0.0,6.862362401169689e-18
1750759689.2219439,-1.7131229999999995,-2.354367,-0.6779270000000004,1.5833869999999999,-0.42556300000000036,-1.9952639999999997,0.0,0.0,0.0,0.0,0.0,0.0,3.188922556091831,2.709325242941199,0.2998841335134861,0.001038831291399793,0.0,6.862362401169689e-18
1750759689.223367,-1.7131229999999995,-2.354367,-0.6779270000000004,1.5833869999999999,-0.42556300000000036,-1.9952639999999997,0.0,0.0,0.0,0.0,0.0,0.0,3.188922556091831,2.709325242941199,0.2998841335134861,0.001038831291399793,0.0,6.862362401169689e-18
1750759689.2255638,-1.7131229999999995,-2.354367,-0.6779270000000004,1.5833869999999999,-0.42556300000000036,-1.9952639999999997,0.0,0.0,0.0,0.0,0.0,0.0,3.188922556091831,2.709325242941199,0.2998841335134861,0.001038831291399793,0.0,6.862362401169689e-18
1750759689.2273831,-1.7131229999999995,-2.354367,-0.6779270000000004,1.5833869999999999,-0.42556300000000036,-1.9952639999999997,0.0,0.0,0.0,0.0,0.0,0.0,3.188922556091831,2.709325242941199,0.2998841335134861,0.001038831291399793,0.0,6.862362401169689e-18
1750759689.2290852,-1.7131229999999995,-2.354367,-0.6779270000000004,1.5833869999999999,-0.42556300000000036,-1.9952639999999997,0.0,0.0,0.0,0.0,0.0,0.0,3.188922556091831,2.709325242941199,0.2998841335134861,0.001038831291399793,0.0,6.862362401169689e-18
1750759689.2314467,-1.7131229999999995,-2.354367,-0.6779270000000004,1.5833869999999999,-0.42556300000000036,-1.9952639999999997,0.0,0.0,0.0,0.0,0.0,0.0,3.188922556091831,2.709325242941199,0.2998841335134861,0.001038831291399793,0.0,6.862362401169689e-18
1750759689.233356,-1.7131229999999995,-2.354367,-0.6779270000000004,1.5833869999999999,-0.42556300000000036,-1.9952639999999997,0.0,0.0,0.0,0.0,0.0,0.0,3.188922556091831,2.709325242941199,0.2998841335134861,0.001038831291399793,0.0,6.862362401169689e-18
1750759689.2356744,-1.7131229999999995,-2.354367,-0.6779270000000004,1.5833869999999999,-0.42556300000000036,-1.9952639999999997,0.0,0.0,0.0,0.0,0.0,0.0,3.188922556091831,2.709325242941199,0.2998841335134861,0.001038831291399793,0.0,6.862362401169689e-18
1750759689.2372851,-1.7131229999999995,-2.354367,-0.6779270000000004,1.5833869999999999,-0.42556300000000036,-1.9952639999999997,0.0,0.0,0.0,0.0,0.0,0.0,3.188922556091831,2.709325242941199,0.2998841335134861,0.001038831291399793,0.0,6.862362401169689e-18
1750759689.239513,-1.7131229999999995,-2.354367,-0.6779270000000004,1.5833869999999999,-0.42556300000000036,-1.9952639999999997,0.0,0.0,0.0,0.0,0.0,0.0,3.188922556091831,2.709325242941199,0.2998841335134861,0.001038831291399793,0.0,6.862362401169689e-18
1750759689.2411556,-1.7131229999999995,-2.354367,-0.6779270000000004,1.5833869999999999,-0.42556300000000036,-1.9952639999999997,0.0,0.0,0.0,0.0,0.0,0.0,3.188922556091831,2.709325242941199,0.2998841335134861,0.001038831291399793,0.0,6.862362401169689e-18
1750759689.2432065,-1.7131229999999995,-2.354367,-0.6779270000000004,1.5833869999999999,-0.42556300000000036,-1.9952639999999997,0.0,0.0,0.0,0.0,0.0,0.0,3.188922556091831,2.709325242941199,0.2998841335134861,0.001038831291399793,0.0,6.862362401169689e-18
1750759689.2450557,-1.7131229999999995,-2.354367,-0.6779270000000004,1.5833869999999999,-0.42556300000000036,-1.9952639999999997,0.0,0.0,0.0,0.0,0.0,0.0,3.188922556091831,2.709325242941199,0.2998841335134861,0.001038831291399793,0.0,6.862362401169689e-18
1750759689.2473116,-1.7131229999999995,-2.354367,-0.6779270000000004,1.5833869999999999,-0.42556300000000036,-1.9952639999999997,0.0,0.0,0.0,0.0,0.0,0.0,3.188922556091831,2.709325242941199,0.2998841335134861,0.001038831291399793,0.0,6.862362401169689e-18
1750759689.249769,-1.7131229999999995,-2.354367,-0.6779270000000004,1.5833869999999999,-0.42556300000000036,-1.9952639999999997,0.0,0.0,0.0,0.0,0.0,0.0,3.188922556091831,2.709325242941199,0.2998841335134861,0.001038831291399793,0.0,6.862362401169689e-18
1750759689.251727,-1.7131229999999995,-2.354367,-0.6779270000000004,1.5833869999999999,-0.42556300000000036,-1.9952639999999997,0.0,0.0,0.0,0.0,0.0,0.0,3.188922556091831,2.709325242941199,0.2998841335134861,0.001038831291399793,0.0,6.862362401169689e-18
1750759689.2533863,-1.7131229999999995,-2.354367,-0.6779270000000004,1.5833869999999999,-0.42556300000000036,-1.9952639999999997,0.0,0.0,0.0,0.0,0.0,0.0,3.188922556091831,2.709325242941199,0.2998841335134861,0.001038831291399793,0.0,6.862362401169689e-18
1750759689.2551684,-1.7131229999999995,-2.354367,-0.6779270000000004,1.5833869999999999,-0.42556300000000036,-1.9952639999999997,0.0,0.0,0.0,0.0,0.0,0.0,3.188922556091831,2.709325242941199,0.2998841335134861,0.001038831291399793,0.0,6.862362401169689e-18
1750759689.257249,-1.7131229999999995,-2.354367,-0.6779270000000004,1.5833869999999999,-0.42556300000000036,-1.9952639999999997,0.0,0.0,0.0,0.0,0.0,0.0,3.188922556091831,2.709325242941199,0.2998841335134861,0.001038831291399793,0.0,6.862362401169689e-18
1750759689.2592323,-1.7131229999999995,-2.354367,-0.6779270000000004,1.5833869999999999,-0.42556300000000036,-1.9952639999999997,0.0,0.0,0.0,0.0,0.0,0.0,3.188922556091831,2.709325242941199,0.2998841335134861,0.001038831291399793,0.0,6.862362401169689e-18
1750759689.2610855,-1.7131229999999995,-2.354367,-0.6779270000000004,1.5833869999999999,-0.42556300000000036,-1.9952639999999997,0.0,0.0,0.0,0.0,0.0,0.0,3.188922556091831,2.709325242941199,0.2998841335134861,0.001038831291399793,0.0,6.862362401169689e-18
1750759689.2679145,-1.7131229999999995,-2.354367,-0.6779270000000004,1.5833869999999999,-0.42556300000000036,-1.9952639999999997,0.0,0.0,0.0,0.0,0.0,0.0,3.188922556091831,2.709325242941199,0.2998841335134861,0.001038831291399793,0.0,6.862362401169689e-18
1750759689.268362,-1.7131229999999995,-2.354367,-0.6779270000000004,1.5833869999999999,-0.42556300000000036,-1.9952639999999997,0.0,0.0,0.0,0.0,0.0,0.0,3.188922556091831,2.709325242941199,0.2998841335134861,0.001038831291399793,0.0,6.862362401169689e-18
1750759689.269332,-1.7131228569712684,-2.3543659999999997,-0.6779267005536429,1.5833869878977975,-0.42556299574844925,-1.9952640238566328,0.00014302873089533182,0.001,0.0002994463576255411,-1.2102202309493399e-05,4.251551011936129e-06,-2.3856633208588787e-05,3.286534766649505,2.9478710815944824,0.3195903304583938,0.0006702771934925267,0.00011992299198932758,0.00790974376452008
1750759689.274055,-1.713122427885076,-2.3543629999999998,-0.6779258022145696,1.5833869515911907,-0.4255629829937959,-1.995264095426533,0.00028605746179066364,0.002,0.0005988927152510822,-2.4204404618986798e-05,8.503102023872259e-06,-4.7713266417177574e-05,3.2865421225792657,2.947882367284459,0.31959077170838945,0.0006702736406610967,0.00011992299679896854,0.007909503209549869
1750759689.2746694,-1.7131217127414216,-2.354358,-0.6779243049827821,1.5833868910801792,-0.42556296173604125,-1.9952642147096986,0.0004290861926859955,0.003,0.0008983390728766232,-3.63066069284802e-05,1.2754653035808389e-05,-7.156989962576636e-05,3.2865543824089127,2.947901176691817,0.31959150711279116,0.0006702677192402915,0.00011992300481496021,0.007909102281628982
1750759689.2759416,-1.7131207115403049,-2.354351,-0.6779222088582788,1.583386806364763,-0.42556293197518436,-1.9952643817061313,0.0005721149235813273,0.004,0.0011977854305021643,-4.8408809237973596e-05,1.7006204047744517e-05,-9.542653283435515e-05,3.2865715460585245,2.9479275097026556,0.31959253665321374,0.0006702594291774994,0.00011992301603718747,0.007908540976301852
1750759689.276751,-1.713119424281727,-2.354342,-0.6779195138410596,1.5833866974449422,-0.42556289371122524,-1.9952645964158302,0.0007151436544766592,0.005,0.0014972317881277054,-6.0511011547467e-05,2.1257755059680646e-05,-0.00011928316604294394,3.2865936134162066,2.9479613661575024,0.3195938603039171,0.0006702487703990866,0.00011992303046548952,0.007907819287331303
1750759689.2789233,-1.7131178509656877,-2.3543309999999997,-0.6779162199311255,1.5833865643207168,-0.4255628469441639,-1.9952648588387953,0.000858172385371991,0.006,0.0017966781457532464,-7.26132138569604e-05,2.5509306071616778e-05,-0.00014313979925153271,3.2866205843380807,2.9480027458513214,0.319595478031806,0.0006702357428103425,0.00011992304809965941,0.007906937206697435
1750759689.2808728,-1.7131159915921854,-2.3543179999999997,-0.6779123271284764,1.5833864069920867,-0.42556279167400035,-1.9952651689750267,0.0010012011162673228,0.007,0.0020961245033787874,-8.47154161664538e-05,2.9760857083552906e-05,-0.00016699643246012152,3.286652458648295,2.948051648533514,0.3195973897964312,0.0006702203462955396,0.00011992306893944394,0.007905894724598864
1750759689.2829661,-1.7131138461612228,-2.354303,-0.6779078354331123,1.583386225459052,-0.42556272790073546,-1.9952655268245252,0.0011442298471626546,0.008,0.0023955708610043287,-9.681761847594719e-05,3.4012408095489035e-05,-0.0001908530656687103,3.2866892361390265,2.948108073907897,0.3195995955499884,0.0006702025807179411,0.00011992309298454445,0.00790469182945305
1750759689.2848387,-1.713111414672797,-2.3542859999999997,-0.6779027448450332,1.5833860197216127,-0.42556265562436835,-1.9952659323872899,0.0012872585780579866,0.009000000000000001,0.00269501721862987,-0.00010891982078544061,3.826395910742517e-05,-0.0002147096988772991,3.2867309165704572,2.94817202163273,0.31960209523731814,0.0006701824459197459,0.00011992312023461607,0.00790332850789616
1750759689.2872524,-1.71310869712691,-2.3542669999999997,-0.6778970553642374,1.583385789779769,-0.425562574844899,-1.9952663856633208,0.0014302873089533186,0.010000000000000002,0.002994463576255411,-0.00012102202309493401,4.25155101193613e-05,-0.00023856633208588793,3.28677749967078,2.9482434913206688,0.3196048887959053,0.0006701599417221767,0.00011992315068926734,0.007901804744782854
1750759689.2887058,-1.713105693523561,-2.354246,-0.6778907669907275,1.5833855356335205,-0.42556248556232745,-1.995266886652618,0.0015733160398486506,0.011000000000000003,0.0032939099338809524,-0.00013312422540442742,4.6767061131297433e-05,-0.00026242296529447673,3.286828985136202,2.948322482538802,0.3196079761558798,0.0006701350679254045,0.00011992318434806208,0.007900120523187854
1750759689.292452,-1.713105693523561,-2.354246,-0.6778907669907275,1.5833855356335205,-0.42556248556232745,-1.995266886652618,0.0015733160398486506,0.011000000000000003,0.0032939099338809524,-0.00013312422540442742,4.6767061131297433e-05,-0.00026242296529447673,3.286828985136202,2.948322482538802,0.3196079761558798,0.0006701350679254045,0.00011992318434806208,0.007900120523187854
1750759689.2930098,-1.7131024038627505,-2.3542229999999997,-0.6778838797245026,1.5833852572828673,-0.42556238777665456,-1.9952674353551814,0.0017163447707439824,0.012000000000000004,0.0035933562915064937,-0.00014522642771392082,5.101861214323357e-05,-0.00028627959850306554,3.2868853726309273,2.9484089948086165,0.3196113572400151,0.0006701078243086186,0.00011992322121051689,0.007898275824405483
1750759689.2948606,-1.713098828144478,-2.354198,-0.6778763935655618,1.5833849547278096,-0.42556228148787945,-1.9952680317710119,0.0018593735016393144,0.013000000000000005,0.0038928026491320353,-0.00015732863002341425,5.52701631551697e-05,-0.00031013623171165434,3.286946661787152,2.9485030276060082,0.31961503196372854,0.0006700782106300344,0.00011992326127610279,0.007896270627950302
1750759689.296732,-1.713094966368744,-2.354171,-0.6778683085139061,1.5833846279683472,-0.4255621666960021,-1.9952686759001086,0.0020024022325346464,0.014000000000000005,0.004192249006757577,-0.00016943083233290766,5.952171416710583e-05,-0.00033399286492024314,3.287012852205063,2.9486045803612626,0.3196190002350803,0.0006700462266268467,0.00011992330454424546,0.007894104911557967
1750759689.2986755,-1.713090818535548,-2.354142,-0.6778596245695345,1.5833842770044801,-0.42556204340102255,-1.9952693677424715,0.0021454309634299784,0.015000000000000006,0.004491695364383118,-0.00018153303464240106,6.377326517904196e-05,-0.00035784949812883195,3.287083943452821,2.9487136524590563,0.319623261954774,0.0006700118720152963,0.0001199233510143233,0.007891778651185163
1750759689.3009443,-1.7130863846448907,-2.354111,-0.677850341732448,1.5833839018362086,-0.42556191160294166,-1.9952701072981007,0.0022884596943253104,0.016000000000000007,0.004791141722008659,-0.00019363523695189446,6.80248161909781e-05,-0.00038170613133742075,3.2871599350665663,2.948830243238443,0.3196278170161553,0.0006699751464906823,0.0001199234006856702,0.007889291821010249
1750759689.30299,-1.7130816646967713,-2.354078,-0.6778404600026464,1.5833835024635325,-0.42556177130175765,-1.995270894566997,0.0024314884252206424,0.017000000000000008,0.0050905880796342,-0.0002057374392613879,7.227636720291423e-05,-0.00040556276454600955,3.2872408265503985,2.948954351992852,0.31963266530521217,0.0006699360497273386,0.00011992345355757265,0.007886644393433936
1750759689.3051765,-1.7130766586911896,-2.354043,-0.6778299793801299,1.5833830788864516,-0.4255616224974723,-1.9952717295491595,0.002574517156115974,0.01800000000000001,0.005390034437259742,-0.0002178396415708813,7.652791821485037e-05,-0.0004294193977545984,3.2873266173763698,2.9490859779700718,0.3196378067005736,0.0006698945813786276,0.00011992350962927205,0.007883836339080966
1750759689.3073761,-1.7130713666281459,-2.354006,-0.6778188998648975,1.5833826311049661,-0.42556146519008475,-1.9952726122445883,0.002717545887011306,0.01900000000000001,0.005689480794885283,-0.0002299418438803747,8.07794692267865e-05,-0.0004532760309631872,3.287417306984475,2.949225120372236,0.31964324107350917,0.0006698507410770647,0.00011992356889996353,0.00788086762679906
1750759689.3089764,-1.7130657885076417,-2.353967,-0.6778072214569502,1.583382159119076,-0.42556129937959586,-1.9952735426532833,0.002860574617906638,0.02000000000000001,0.005988927152510824,-0.0002420440461898681,8.503102023872264e-05,-0.000477132664171776,3.287512894782659,2.949371778355826,0.3196489682879296,0.0006698045284342057,0.00011992363136879618,0.007877738223660561
1750759689.3109548,-1.7130599243296745,-2.353926,-0.6777949441562878,1.5833816629287814,-0.42556112506600385,-1.9952745207752445,0.00300360334880197,0.02100000000000001,0.006288373510136366,-0.0002541462484993615,8.928257125065876e-05,-0.0005009892973803648,3.287613380146758,2.9495259510316543,0.31965498820038407,0.000669755943040755,0.00011992369703487284,0.007874448094963087
1750759689.3129392,-1.713053774094246,-2.3538829999999997,-0.6777820679629096,1.583381142534082,-0.4255609422493105,-1.9952755466104728,0.003146632079697302,0.022000000000000013,0.0065878198677619074,-0.00026624845080885494,9.35341222625949e-05,-0.0005248459305889536,3.2877187624205524,2.9496876374648493,0.31966130066006204,0.0006697049844665081,0.00011992376589725173,0.007870997204231171
1750759689.3149283,-1.7130473378013562,-2.353838,-0.6777685928768165,1.5833805979349782,-0.42556075092951495,-1.9952766201589673,0.003289660810592634,0.023000000000000013,0.006887266225387449,-0.0002783506531183483,9.778567327453103e-05,-0.0005487025637975424,3.2878290409156983,2.9498568366748357,0.31966790550878954,0.0006696516522604462,0.00011992383795494291,0.007867385513214788
1750759689.3174045,-1.7130406154510034,-2.3537909999999997,-0.6777545188980083,1.5833800291314697,-0.42556055110661717,-1.9952777414207281,0.003432689541487966,0.024000000000000014,0.00718671258301299,-0.00029045285542784175,0.00010203722428646716,-0.0005725591970061313,3.287944214911749,2.9500335476353556,0.31967480258103237,0.000669595945950673,0.00011992391320691192,0.00786361298189359
1750759689.3188667,-1.7130336070431902,-2.353742,-0.6777398460264843,1.5833794361235565,-0.42556034278061805,-1.9952789103957551,0.003575718272383298,0.025000000000000015,0.007486158940638531,-0.0003025550577373352,0.0001062887752984033,-0.0005964158302147201,3.2880642836561282,2.950217769274398,0.3196819917038908,0.0006695378650445002,0.0001199239916520779,0.007859679568474923
1750759689.3208742,-1.713026312577914,-2.353691,-0.6777245742622453,1.5833788189112386,-0.4255601259515167,-1.9952801270840492,0.00371874700327863,0.026000000000000016,0.007785605298264072,-0.00031465726004682856,0.00011054032631033944,-0.0006202724634233089,3.288189246364111,2.9504095004742448,0.3196894726971028,0.0006694774090284443,0.00011992407328931404,0.00785558522939596
1750759689.3228154,-1.7130187320551773,-2.3536379999999997,-0.6777087036052913,1.5833781774945161,-0.42555990061931226,-1.9952813914856087,0.0038617757341739617,0.027000000000000017,0.008085051655889615,-0.000326759462356322,0.00011479187732227556,-0.0006441290966318977,3.288319102218836,2.95060874007141,0.31969724537304045,0.0006694145773682603,0.00011992415811744706,0.007851329919325587
1750759689.3283534,-1.7130108654749776,-2.353583,-0.6776922340556215,1.5833775118733893,-0.42555966678400736,-1.9952827036004352,0.004004804465069294,0.028000000000000018,0.008384498013515155,-0.00033886166466581537,0.00011904342833421169,-0.0006679857298404865,3.2884538503712406,2.9508154868566514,0.3197053095367108,0.0006693493695089434,0.00011992424613525934,0.00784691359116404
1750759689.3313642,-1.7129942741421935,-2.3534669999999998,-0.6776574982781369,1.5833761080179214,-0.42555917360409,-1.995285470969888,0.004290861926859958,0.03000000000000002,0.008983390728766237,-0.00036306606928480223,0.00012754653035808395,-0.0007156989962576641,3.2887380200119907,2.951251496925467,0.31972231151044306,0.0006692118228691828,0.00011992443173481271,0.0078375976833337
1750759689.3317783,-1.7129942741421935,-2.3534669999999998,-0.6776574982781369,1.5833761080179214,-0.42555917360409,-1.995285470969888,0.004290861926859958,0.03000000000000002,0.008983390728766237,-0.00036306606928480223,0.00012754653035808395,-0.0007156989962576641,3.2887380200119907,2.951251496925467,0.31972231151044306,0.0006692118228691828,0.00011992443173481271,0.0078375976833337
1750759689.3342195,-1.7129855493896091,-2.3534059999999997,-0.6776392320503222,1.5833753697835804,-0.42555891425947756,-1.9952869262245132,0.00443389065775529,0.03100000000000002,0.00928283708639178,-0.0003751682715942956,0.0001317980813700201,-0.0007395556294662529,3.288887439641237,2.9514807575615745,0.31973124889368165,0.000669139482875177,0.00011992452931388767,0.007832698000635907
1750759689.3352485,-1.7129765385795626,-2.3533429999999997,-0.6776203669297916,1.583374607344835,-0.4255586464117638,-1.9952884291924056,0.004576919388650622,0.03200000000000002,0.00958228344401732,-0.00038727047390378904,0.00013604963238195622,-0.0007634122626748417,3.289041747849953,2.951717520090801,0.319740476911005,0.0006690647642549492,0.00011992463007730417,0.007827637093789754
1750759689.3379304,-1.7129672417120547,-2.353278,-0.677600902916546,1.5833738207016848,-0.42555837006094865,-1.9952899798735642,0.004719948119545954,0.03300000000000002,0.009881729801642862,-0.0003993726762132824,0.00014030118339389237,-0.0007872688958834305,3.2892009436279883,2.9519617830748213,0.31974999533057735,0.0006689876663500828,0.00011992473402361642,0.007822414906873493
1750759689.3388574,-1.7129576587870847,-2.353211,-0.6775808400105854,1.58337300985413,-0.4255580852070304,-1.995291578267989,0.004862976850441286,0.03400000000000002,0.010181176159268402,-0.00041147487852277585,0.0001445527344058285,-0.0008111255290920193,3.289365025932916,2.952213545029447,0.3197598039131913,0.0006689081884815854,0.00011992484115132649,0.007817031382203084
1750759689.3411255,-1.7129477898046526,-2.353142,-0.677560178211909,1.5833721748021707,-0.42555779185001086,-1.99529322437568,0.005006005581336618,0.035000000000000024,0.010480622516893945,-0.0004235770808322693,0.00014880428541776464,-0.0008349821623006081,3.2895339936900165,2.9524728044245956,0.3197699024122674,0.0006688263299498657,0.00011992495145889659,0.007811486460336227
1750759689.342985,-1.7129376347647591,-2.353071,-0.6775389175205175,1.5833713155458067,-0.42555748998988907,-1.9952949181966382,0.00514903431223195,0.036000000000000025,0.010780068874519485,-0.00043567928314176265,0.00015305583642970076,-0.0008588387955091969,3.2897078457922597,2.952739559684274,0.3197802905738517,0.0006687420900348044,0.00011992506494473679,0.007805780080072153
1750759689.345031,-1.7129271936674035,-2.352998,-0.6775170579364111,1.5833704320850381,-0.42555717962666506,-1.9952966597308626,0.005292063043127282,0.037000000000000026,0.011079515232145027,-0.0004477814854512561,0.00015730738744163688,-0.0008826954287177857,3.2898865811002738,2.9530138091865648,0.3197909681366161,0.0006686554679957834,0.00011992518160721648,0.007799912178454256
1750759689.347149,-1.7129164665125867,-2.3529229999999997,-0.6774945994595889,1.583369524419865,-0.42555686076033883,-1.9952984489783532,0.005435091774022614,0.03800000000000003,0.011378961589770569,-0.00045988368776074946,0.00016155893845357303,-0.0009065520619263745,3.2900701984423386,2.953295551263589,0.319801934831856,0.0006685664630716767,0.00011992530144465678,0.007793882690769373
1750759689.3490648,-1.7129054533003076,-2.352846,-0.6774715420900517,1.5833685925502872,-0.42555653339091126,-1.99530028593911,0.005578120504917945,0.03900000000000003,0.01167840794739611,-0.0004719858900702429,0.00016581048946550915,-0.0009304086951349633,3.2902586966143477,2.9535847842015013,0.31981319038348904,0.0006684750744809326,0.0001199254244553305,0.007787691550552621
1750759689.3512878,-1.7128941540305664,-2.352767,-0.6774478858277995,1.5833676364763047,-0.4255561975183815,-1.995302170613133,0.005721149235813277,0.04000000000000003,0.011977854305021652,-0.0004840880923797363,0.0001700620404774453,-0.0009542653283435521,3.2904520743798025,2.9538815062404593,0.31982473450805526,0.000668381301421556,0.00011992555063746977,0.007781338689586005
1750759689.3551507,-1.712882568703364,-2.352686,-0.6774236306728323,1.5833666561979176,-0.42555585314274946,-1.9953041030004233,0.005864177966708609,0.04100000000000003,0.012277300662647192,-0.0004961902946892297,0.00017431359148938142,-0.000978121961552141,3.2906503304697816,2.954185715574599,0.3198365669147144,0.0006682851430711822,0.00011992567998925464,0.0077748240379017005
1750759689.3558512,-1.7128706973187002,-2.3526029999999998,-0.6773987766251492,1.583365651715126,-0.42555550026401523,-1.9953060831009797,0.006007206697603941,0.04200000000000003,0.012576747020272734,-0.0005082924969987231,0.00017856514250131757,-0.0010019785947607298,3.2908534635829128,2.9544974103520123,0.3198486873052449,0.0006681865985871118,0.0001199258125088252,0.007768147523783534
1750759689.3575838,-1.7128706973187002,-2.3526029999999998,-0.6773987766251492,1.583365651715126,-0.42555550026401523,-1.9953060831009797,0.006007206697603941,0.04200000000000003,0.012576747020272734,-0.0005082924969987231,0.00017856514250131757,-0.0010019785947607298,3.2908534635829128,2.9544974103520123,0.3198486873052449,0.0006681865985871118,0.0001199258125088252,0.007768147523783534
1750759689.3592944,-1.7128585398765743,-2.352518,-0.6773733236847512,1.5833646230279297,-0.42555513888217966,-1.9953081109148023,0.006150235428499273,0.04300000000000003,0.012876193377898274,-0.0005203946993082166,0.0001828166935132537,-0.0010258352279693187,3.2910614723853526,2.9548165886747255,0.3198610953740429,0.0006680856671063002,0.00011992594819426947,0.0077613090737675096
1750759689.361076,-1.7128460963769863,-2.3524309999999997,-0.6773472718516373,1.5833635701363287,-0.425554768997241,-1.9953101864418912,0.006293264159394605,0.04400000000000003,0.013175639735523817,-0.00053249690161771,0.00018706824452518982,-0.0010496918611779074,3.2912743555107675,2.9551432485986755,0.31987379080812073,0.0006679823477454415,0.00011992608704363473,0.007754308612645301
1750759689.3630164,-1.712833366819936,-2.3523419999999997,-0.6773206211258085,1.5833624930403232,-0.42555439060920097,-1.9953123096822472,0.006436292890289937,0.04500000000000003,0.013475086093149357,-0.0005445991039272033,0.00019131979553712596,-0.0010735484943864963,3.291492111560301,2.955477388133674,0.3198867732871052,0.0006678766396010092,0.00011992622905492004,0.0077471460634644445
1750759689.3650546,-1.7128203512054245,-2.352251,-0.6772933715072647,1.583361391739913,-0.42555400371805874,-1.9953144806358694,0.006579321621185269,0.046000000000000034,0.013774532450774899,-0.0005567013062366967,0.00019557134654906209,-0.001097405127595085,3.29171473910255,2.955819005243391,0.3199000424832363,0.0006677685417492268,0.0001199263742260761,0.007739821347532066
1750759689.3670447,-1.7128070495334518,-2.3521579999999997,-0.6772655229960058,1.5833602662350983,-0.42555360832381517,-1.9953166993027578,0.006722350352080601,0.047000000000000035,0.01407397880840044,-0.0005688035085461902,0.00019982289756099823,-0.0011212617608036739,3.2919422366735476,2.9561680978453273,0.319913598061366,0.0006676580532462045,0.00011992652255501295,0.007732334384414458
1750759689.368959,-1.7127934618040168,-2.352063,-0.6772370755920312,1.583359116525879,-0.4255532044264685,-1.9953189656829124,0.006865379082975933,0.048000000000000036,0.014373425166025982,-0.0005809057108556836,0.00020407444857293436,-0.0011451183940122626,3.2921746027767114,2.9565246638107863,0.31992743967895704,0.0006675451731278856,0.0001199266740395885,0.007724685091940672
1750759689.3708863,-1.7127795880171197,-2.351966,-0.6772080292953415,1.5833579426122548,-0.4255527920260205,-1.9953212797763333,0.007008407813871265,0.04900000000000004,0.014672871523651524,-0.000593007913165177,0.00020832599958487048,-0.0011689750272208515,3.2924118358828403,2.956888700964841,0.31994156698607973,0.0006674299004101426,0.00011992682867761998,0.007716873386203549
1750759689.3729298,-1.7127654281727613,-2.351867,-0.6771783841059369,1.5833567444942263,-0.42555237112247024,-1.9953236415830213,0.007151436544766597,0.05000000000000004,0.014972317881277064,-0.0006051101154746704,0.00021257755059680663,-0.0011928316604294402,3.292653934430082,2.957260207086313,0.31995597962541245,0.0006673122340888346,0.0001199269864668763,0.007708899181563385
1750759689.3748298,-1.7127509822709408,-2.351766,-0.6771481400238164,1.583355522171793,-0.42555194171581867,-1.9953260511029756,0.007294465275661929,0.05100000000000004,0.015271764238902606,-0.0006172123177841638,0.00021682910160874275,-0.001216688293638029,3.2929008968238898,2.9576391799077397,0.3199706772322391,0.0006671921731397642,0.00011992714740507811,0.007700762390646556
1750759689.3767831,-1.712736250311659,-2.351663,-0.6771172970489809,1.583354275644955,-0.425551503806064,-1.995328508336196,0.007437494006557261,0.05200000000000004,0.015571210596528147,-0.0006293145200936572,0.0002210806526206789,-0.0012405449268466178,3.2931527214370147,2.958025617115343,0.31998565943444707,0.00066706971651882,0.0001199273114899053,0.0076924629243525465
1750759689.3787923,-1.7127212322949141,-2.351558,-0.6770858551814305,1.5833530049137126,-0.425551057393208,-1.9953310132826827,0.007580522737452593,0.05300000000000004,0.015870656954153687,-0.0006414167224031507,0.00022533220363261502,-0.0012644015600552067,3.29340940660945,2.958419516349007,0.32000092585252643,0.0006669448631619781,0.0001199274787189857,0.007684000691850363
1750759689.3808174,-1.7127059282207089,-2.351451,-0.6770538144211642,1.5833517099780654,-0.42555060247724974,-1.9953335659424365,0.007723551468347925,0.05400000000000004,0.01617010331177923,-0.0006535189247126441,0.00022958375464455117,-0.0012882581932637954,3.29367095064843,2.9588208752022256,0.3200164760995672,0.0006668176119853163,0.00011992764908990717,0.007675375600586179
1750759689.3828142,-1.7126903380890415,-2.351342,-0.6770211747681829,1.5833503908380138,-0.4255501390581893,-1.9953361663154556,0.007866580199243257,0.05500000000000004,0.01646954966940477,-0.0006656211270221374,0.0002338353056564873,-0.0013121148264723843,3.2939373518283706,2.959229691222105,0.320032309781259,0.0006666879618851266,0.00011992782260020546,0.007666587556281043
1750759689.384807,-1.712674461899912,-2.351231,-0.6769879362224867,1.5833490474935572,-0.4255496671360266,-1.9953388144017419,0.008009608930138589,0.05600000000000004,0.016768996027030313,-0.0006777233293316308,0.0002380868566684234,-0.001335971459680973,3.29420860839086,2.9596459619093074,0.3200484264958882,0.0006665559117378601,0.00011992799924737565,0.007657636462936558
1750759689.3867917,-1.7126582996533202,-2.351118,-0.6769540987840745,1.5833476799446964,-0.4255491867107626,-1.9953415102012944,0.008152637661033921,0.057000000000000044,0.017068442384655852,-0.0006898255316411243,0.00024233840768035956,-0.001359828092889562,3.2944847185446107,2.9600696847180195,0.32006482583433665,0.0006664214604003482,0.00011992817902886447,0.00764852222283515
1750759689.3892438,-1.712641851349268,-2.351003,-0.6769196624529483,1.5833462881914306,-0.42554869778239635,-1.995344253714114,0.008295666391929253,0.058000000000000045,0.017367888742281394,-0.0007019277339506177,0.0002465899586922957,-0.0013836847260981506,3.2947656804654417,2.960500857055922,0.32008150738007907,0.0006662846067096214,0.0001199283619420711,0.007639244736543391
1750759689.394322,-1.7126251169877529,-2.350886,-0.6768846272291063,1.5833448722337606,-0.4255482003509279,-1.9953470449401989,0.008438695122824585,0.059000000000000045,0.017667335099906936,-0.0007140299362601111,0.0002508415097042318,-0.0014075413593067395,3.295051492296216,2.9609394762841688,0.3200984707091827,0.0006661453494831905,0.0001199285479843495,0.007629803902913251
1750759689.3947694,-1.7126080965687764,-2.350767,-0.6768489931125483,1.5833434320716857,-0.4255476944163572,-1.995349883879551,0.008581723853719917,0.060000000000000046,0.01796678145753248,-0.0007261321385696045,0.00025509306071616795,-0.0014313979925153284,3.295342152146853,2.9613855397173303,0.32011571539030376,0.00066600368751888,0.00011992873715301286,0.007620199619085844
1750759689.3969114,-1.7125907900923378,-2.350646,-0.6768127601032754,1.5833419677052063,-0.4255471799786852,-1.9953527705321692,0.008724752584615249,0.06100000000000005,0.01826622781515802,-0.0007382343408790979,0.0002593446117281041,-0.0014552546257239171,3.295637658094247,2.9618390446233778,0.32013324098468704,0.0006658596195950653,0.00011992892944531925,0.007610431780493471
1750759689.399266,-1.712573197558438,-2.350523,-0.6767759282012875,1.5833404791343222,-0.42554665703791095,-1.9953557048980537,0.008867781315510581,0.06200000000000005,0.01856567417278356,-0.0007503365431885913,0.0002635961627400402,-0.001479111258932506,3.295938008182261,2.9622999882236294,0.32015104704616204,0.0006657131444706041,0.00011992912485848526,0.007600500280861887
1750759689.401417,-1.712555318967076,-2.3503979999999998,-0.6767384974065846,1.5833389663590336,-0.4255461255940336,-1.9953586869772044,0.009010810046405911,0.06300000000000004,0.018865120530409098,-0.0007624387454980846,0.00026784771375197634,-0.0015029678921410945,3.2962432004216775,2.9627683676927346,0.32016913312114376,0.0006655642608849617,0.00011992932338968596,0.0075904050122123
1750759689.4028401,-1.7125371543182517,-2.3502709999999998,-0.6767004677191659,1.5833374293793403,-0.4255455856470558,-1.9953617167696223,0.009153838777301243,0.06400000000000004,0.01916456688803464,-0.0007745409478075781,0.00027209926476391244,-0.0015268245253496834,3.296553232790173,2.963244180158627,0.3201874987486283,0.0006654129675581809,0.00011992952503603983,0.00758014586486631
1750759689.4047923,-1.7125187036119662,-2.350142,-0.6766618391390322,1.5833358681952423,-0.4255450371969749,-1.9953647942753054,0.009296867508196575,0.06500000000000004,0.019464013245660182,-0.0007866431501170715,0.0002763508157758486,-0.0015506811585582721,3.296868103232273,2.963727422702472,0.32020614346019116,0.0006652592631910304,0.00011992972979463142,0.007569722727444962
1750759689.4067094,-1.7124999668482195,-2.350011,-0.6766226116661835,1.5833342828067398,-0.42554448024379266,-1.9953679194942566,0.009439896239091907,0.06600000000000004,0.019763459603285724,-0.0007987453524265648,0.00028060236678778474,-0.001574537791766861,3.2971878096593135,2.964218092358661,0.3202250667799867,0.0006651031464650218,0.00011992993766248861,0.007559135486874913
1750759689.4087832,-1.7124809440270106,-2.349878,-0.676582785300619,1.5833326732138326,-0.4255439147875073,-1.9953710924264731,0.00958292496998724,0.06700000000000005,0.020062905960911266,-0.0008108475547360583,0.00028485391779972083,-0.0015983944249754497,3.297512349949401,2.964716186114745,0.32024426822474444,0.0006649446160424193,0.00011993014863659782,0.007548384028388905
1750759689.4106805,-1.7124616351483395,-2.3497429999999997,-0.6765423600423404,1.5833310394165208,-0.4255433408281215,-1.995374313071956,0.009725953700882571,0.06800000000000005,0.020362352318536805,-0.0008229497570455517,0.000289105468811657,-0.0016222510581840387,3.2978417219473846,2.9652217009114143,0.32026374730376755,0.0006647836705663732,0.00011993036271390394,0.007537468235529174
1750759689.414487,-1.7124420402122071,-2.349606,-0.676501335891345,1.5833293814148044,-0.4255427583656326,-1.9953775814307058,0.009868982431777903,0.06900000000000005,0.020661798676162347,-0.0008350519593550451,0.00029335701982359313,-0.0016461076913926273,3.2981759234648105,2.965734633642441,0.320283503518931,0.000664620308660955,0.00011993057989129672,0.007526387990151204
1750759689.4148288,-1.7124221592186126,-2.3494669999999998,-0.6764597128476355,1.5833276992086833,-0.42554216740004147,-1.9953808975027219,0.010012011162673235,0.07000000000000005,0.02096124503378789,-0.0008471541616645386,0.0002976085708355293,-0.0016699643246012163,3.2985149522798785,2.966254981154659,0.3203035363646788,0.0006644545289311658,0.00011993080016562603,0.0075151431724244395
1750759689.4167917,-1.712401992167556,-2.349326,-0.6764174909112102,1.5833259927981578,-0.425541567931349,-1.9953842612880042,0.010155039893568567,0.07100000000000005,0.02126069139141343,-0.0008592563639740319,0.00030186012184746537,-0.0016938209578098052,3.2988588061374022,2.966782740247903,0.32032384532802216,0.0006642863299630817,0.00011993102353369252,0.007503733660837906
1750759689.4187047,-1.712381539059038,-2.349183,-0.6763746700820699,1.5833242621832275,-0.4255409599595543,-1.9953876727865527,0.0102980686244639,0.07200000000000005,0.02156013774903897,-0.0008713585662835253,0.0003061116728594015,-0.0017176775910183939,3.2992074827487783,2.96731790767498,0.3203444298885369,0.0006641157103238155,0.00011993124999225697,0.007492159332200691
1750759689.4207168,-1.7123607998930588,-2.3490379999999997,-0.6763312503602137,1.5833225073638926,-0.4255403434846574,-1.9953911319983684,0.010441097355359232,0.07300000000000005,0.021859584106664512,-0.0008834607685930187,0.00031036322387133767,-0.0017415342242269828,3.299560979791934,2.9678604801416255,0.32036528951836235,0.000663942668561669,0.00011993147953802499,0.00748042006164663
1750759689.4227455,-1.7123397746696165,-2.348891,-0.6762872317456434,1.5833207283401531,-0.42553971850665917,-1.9953946389234503,0.010584126086254564,0.07400000000000005,0.022159030464290054,-0.0008955629709025122,0.00031461477488327376,-0.0017653908574355715,3.2999192949112746,2.9684104543064596,0.3203864236821971,0.0006637672032061667,0.00011993171216766066,0.00746851572263671
1750759689.4247246,-1.712318463388713,-2.3487419999999997,-0.6762426142383564,1.583318925112009,-0.4255390850255578,-1.9953981935617975,0.010727154817149896,0.07500000000000005,0.022458476821915596,-0.0009076651732120056,0.0003188663258952099,-0.0017892474906441604,3.300282425717676,2.96896782678094,0.32040783183729804,0.0006635893127680722,0.00011993194787778661,0.007456446186961606
1750759689.4266474,-1.7122968660503481,-2.348591,-0.6761973978383553,1.5833170976794602,-0.42553844304135513,-1.9954017959134127,0.010870183548045228,0.07600000000000005,0.022757923179541138,-0.0009197673755214989,0.00032311787690714606,-0.001813104123852749,3.300650369788402,2.969532594129319,0.3204295134334782,0.0006634089957395181,0.0001199321866649703,0.007444211324745967
1750759689.4287188,-1.7122968660503481,-2.348591,-0.6761973978383553,1.5833170976794602,-0.42553844304135513,-1.9954017959134127,0.010870183548045228,0.07600000000000005,0.022757923179541138,-0.0009197673755214989,0.00032311787690714606,-0.001813104123852749,3.300650369788402,2.969532594129319,0.3204295134334782,0.0006634089957395181,0.0001199321866649703,0.007444211324745967
1750759689.430696,-1.7122749826545212,-2.348438,-0.6761515825456383,1.5833152460425068,-0.4255377925540502,-1.9954054459782933,0.011013212278940558,0.07700000000000005,0.023057369537166677,-0.0009318695778309924,0.0003273694279190822,-0.001836960757061338,3.3010231246670823,2.9701047528686138,0.32045146791310336,0.000663226250594043,0.00011993242852573922,0.007431811004450818
1750759689.432754,-1.712252813201232,-2.348283,-0.6761051683602064,1.5833133702011488,-0.425537133563644,-1.995409143756441,0.01115624100983589,0.07800000000000006,0.02335681589479222,-0.0009439717801404858,0.0003316209789310183,-0.0018608173902699267,3.3014006878636653,2.970684299468537,0.3204736947110907,0.0006630410757866467,0.00011993267345657176,0.007419245092876948
1750759689.4348042,-1.7122303576904816,-2.3481259999999997,-0.6760581552820595,1.5833114701553863,-0.4255364660701346,-1.995412889247854,0.011299269740731222,0.07900000000000006,0.02365626225241776,-0.0009560739824499792,0.00033587252994295445,-0.0018846740234785156,3.3017830568543687,2.9712712303514706,0.32049619325490497,0.0006628534697538877,0.00011993292145390636,0.007406513455168004
1750759689.4369555,-1.712207616122269,-2.3479669999999997,-0.6760105433111967,1.583309545905219,-0.42553579007352393,-1.9954166824525341,0.011442298471626554,0.08000000000000006,0.023955708610043303,-0.0009681761847594726,0.0003401240809548906,-0.0019085306566871043,3.3021702290816326,2.9718655418924107,0.32051896296455806,0.0006626634309139018,0.00011993317251412628,0.0073936159548139285
1750759689.438777,-1.7121845884965952,-2.347806,-0.6759623324476189,1.5833075974506472,-0.425535105573811,-1.9954205233704814,0.011585327202521886,0.08100000000000006,0.024255154967668842,-0.000980278387068966,0.0003443756319668267,-0.0019323872898956932,3.3025622019540806,2.9724672304189195,0.32054200325260446,0.0006624709576665153,0.00011993342663357332,0.007380552453654284
1750759689.4407027,-1.7121612748134591,-2.3476429999999997,-0.6759135226913262,1.5833056247916708,-0.4255344125709959,-1.995424412001694,0.011728355933417218,0.08200000000000006,0.024554601325294384,-0.0009923805893784594,0.00034862718297876285,-0.001956243923104282,3.302958972846463,2.9730762922110916,0.3205653135241402,0.0006622760483933269,0.00011993368380854773,0.007367322811882736
1750759689.4502623,-1.7121376750728619,-2.3474779999999997,-0.6758641140423176,1.5833036279282897,-0.4255337110650794,-1.9954283483461737,0.01187138466431255,0.08300000000000006,0.024854047682919926,-0.001004482791687953,0.000352878733990699,-0.0019801005563128706,3.303360539099622,2.9736927235014874,0.32058889317679967,0.0006620787014576968,0.00011993394403529464,0.0073539268880471595
1750759689.4507358,-1.7121376750728619,-2.3474779999999997,-0.6758641140423176,1.5833036279282897,-0.4255337110650794,-1.9954283483461737,0.01187138466431255,0.08300000000000006,0.024854047682919926,-0.001004482791687953,0.000352878733990699,-0.0019801005563128706,3.303360539099622,2.9736927235014874,0.32058889317679967,0.0006620787014576968,0.00011993394403529464,0.0073539268880471595
1750759689.4510891,-1.7120896174192808,-2.347142,-0.6757635000661555,1.5832995615883139,-0.42553228254393893,-1.9954363641749318,0.012157442126103214,0.08500000000000006,0.025452940398171007,-0.0010286871963069396,0.00036138183601457124,-0.0020278138227300484,3.304178046881742,2.9749476792692904,0.32063685817870297,0.0006616766879622577,0.00011993447362887747,0.007326635620186217
1750759689.4513848,-1.7120896174192808,-2.347142,-0.6757635000661555,1.5832995615883139,-0.42553228254393893,-1.9954363641749318,0.012157442126103214,0.08500000000000006,0.025452940398171007,-0.0010286871963069396,0.00036138183601457124,-0.0020278138227300484,3.304178046881742,2.9749476792692904,0.32063685817870297,0.0006616766879622577,0.00011993447362887747,0.007326635620186217
1750759689.4543724,-1.712065159506298,-2.346971,-0.675712294739002,1.5832974921117189,-0.4255315555287158,-1.9954404436592101,0.012300470856998546,0.08600000000000006,0.02575238675579655,-0.0010407893986164331,0.0003656333870265074,-0.0020516704559386373,3.304593982922371,2.9755861959737597,0.3206612422858851,0.0006614720180389213,0.0001199347429879855,0.007312739985073094
1750759689.454823,-1.7120404155358528,-2.3467979999999997,-0.6756604905191326,1.5832953984307194,-0.42553082001039133,-1.9954445708567556,0.012443499587893878,0.08700000000000006,0.02605183311342209,-0.0010528916009259265,0.00036988493803844354,-0.002075527089147226,3.305014703347,2.976232066630479,0.3206858932900606,0.0006612649037263458,0.00011993501538340424,0.0072986774857280706
1750759689.4566891,-1.7120153855079465,-2.3466229999999997,-0.6756080874065482,1.5832932805453153,-0.42553007598896375,-1.9954487457675665,0.01258652831878921,0.08800000000000006,0.026351279471047633,-0.00106499380323542,0.00037413648905037963,-0.0020993837223558147,3.3054402053261605,2.9768852872336478,0.3207108105515178,0.0006610553432980426,0.00011993529081115311,0.007284447972535676
1750759689.4587424,-1.711990069422578,-2.346446,-0.675555085401248,1.5832911384555064,-0.42552932346443484,-1.9954529683916444,0.012729557049684542,0.08900000000000007,0.026650725828673175,-0.0010770960055449133,0.0003783880400623158,-0.0021232403555644036,3.3058704859961656,2.9775458537296453,0.3207359934230667,0.000660843335009855,0.00011993556926721001,0.007270051294258625
1750759689.460632,-1.7119644672797474,-2.3462669999999997,-0.6755014845032337,1.583288972161293,-0.4255285624368037,-1.9954572387289895,0.012872585780579874,0.09000000000000007,0.026950172186298714,-0.0010891982078544066,0.00038263959107425193,-0.0021470969887729925,3.306305542459065,2.9782137620169693,0.32076144125003725,0.0006606288770999315,0.00011993585074749773,0.0072554872980409805
1750759689.4627156,-1.7119385790794555,-2.3460859999999997,-0.6754472847125035,1.583286781662675,-0.42552779290607035,-1.9954615567796,0.013015614511475206,0.09100000000000007,0.027249618543924256,-0.0011013004101639002,0.000386891142086188,-0.002170953621981581,3.306745371782599,2.978889007946193,0.32078715337027763,0.0006604119677888152,0.0001199361352478975,0.007240755829412732
1750759689.4646323,-1.7119124048217014,-2.345903,-0.6753924860290574,1.5832845669596523,-0.42552701487223565,-1.9954659225434774,0.013158643242370538,0.09200000000000007,0.027549064901549798,-0.0011134026124733935,0.00039114269309812417,-0.00219481025519017,3.307189971000133,2.9795715873199082,0.32081312911414933,0.0006601926052795738,0.00011993642276424914,0.007225856732292409
1750759689.4680912,-1.711885944506486,-2.3457179999999997,-0.6753370884528973,1.583282328052225,-0.42552622833529785,-1.9954703360206203,0.01330167197326587,0.09300000000000007,0.02784851125917534,-0.001125504814782887,0.0003953942441100603,-0.002218666888398759,3.3076393371106128,2.98026149589267,0.3208393678045259,0.0006599707877578226,0.00011993671329233721,0.007210789848992466
1750759689.4687347,-1.7118591981338085,-2.345531,-0.6752810919840213,1.583280064940393,-0.4255254332952587,-1.9954747972110312,0.013444700704161202,0.09400000000000007,0.02814795761680088,-0.0011376070170923804,0.00039964579512199647,-0.0022425235216073478,3.308093467078505,2.9809587293709483,0.32086586875678974,0.0006597465133918366,0.00011993700682790636,0.00719555502022272
1750759689.4708674,-1.7118321657036688,-2.345342,-0.6752244966224303,1.5832777776241567,-0.42552462975211736,-1.9954793061147074,0.013587729435056534,0.09500000000000007,0.02844740397442642,-0.0011497092194018737,0.00040389734613393256,-0.0022663801548159367,3.3085523578337517,2.9816632834130683,0.3208926312788295,0.0006595197803326155,0.00011993730336665214,0.00718015208509276
1750759689.4727259,-1.7118048472160678,-2.345151,-0.6751673023681235,1.5832754661035155,-0.42552381770587466,-1.9954838627316498,0.013730758165951866,0.09600000000000007,0.028746850332051963,-0.0011618114217113672,0.0004081488971458687,-0.002290236788024525,3.309016006271708,2.9823751536291536,0.3209196546710364,0.0006592905867139542,0.0001199376029042301,0.007164580881118683
1750759689.4747076,-1.7117772426710056,-2.3449579999999997,-0.6751095092211017,1.58327313037847,-0.42552299715652886,-1.9954884670618593,0.013873786896847198,0.09700000000000007,0.029046296689677505,-0.0011739136240208605,0.00041240044815780486,-0.002314093421233114,3.3094844092530926,2.9830943355810793,0.32094693822630216,0.0006590589306525947,0.00011993790543624066,0.0071488412442244804
1750759689.476688,-1.7117493520684803,-2.344763,-0.6750511171813649,1.5832707704490194,-0.4255221681040817,-1.9954931191053351,0.01401681562774253,0.09800000000000007,0.029345743047303047,-0.001186015826330354,0.00041665199916974096,-0.002337950054441703,3.30995756360391,2.9838208247824083,0.3209744812300158,0.0006588248102481632,0.00011993821095824273,0.0071329330087489835
1750759689.4786687,-1.7117211754084947,-2.344566,-0.6749921262489122,1.5832683863151644,-0.42552133054853236,-1.995497818862077,0.014159844358637862,0.09900000000000007,0.029645189404928586,-0.0011981180286398474,0.0004209035501816771,-0.002361806687650292,3.3104354661154383,2.9845546166983277,0.32100228296006034,0.0006585882235834712,0.00011993851946575371,0.007116856007446191
1750759689.480801,-1.711692712691046,-2.3443669999999996,-0.6749325364237446,1.583265977976905,-0.4255204844898808,-1.9955025663320853,0.014302873089533194,0.10000000000000007,0.029944635762554128,-0.0012102202309493407,0.00042515510119361325,-0.0023856633208588804,3.3109181135441204,2.9852957067456187,0.3210303426868112,0.0006583491687244016,0.00011993883095423586,0.007100610071493845
1750759689.482831,-1.711663963916136,-2.344166,-0.674872347705862,1.5832635454342407,-0.42551962992812786,-1.9955073615153607,0.014445901820428526,0.10100000000000008,0.03024408212017967,-0.0012223224332588343,0.0004294066522055494,-0.0024095199540674693,3.311405502611549,2.9860440902925585,0.3210586596731308,0.0006581076437200665,0.00011993914541911149,0.007084195030493812
1750759689.484933,-1.7116349290837647,-2.343963,-0.6748115600952644,1.5832610886871719,-0.42551876686327184,-1.9955122044119022,0.014588930551323858,0.10200000000000008,0.030543528477805212,-0.0012344246355683276,0.0004336582032174855,-0.002433376587276058,3.3118976300043843,2.986799762658896,0.32108723317436777,0.0006578636466029465,0.00011993946285575376,0.007067610712479118
1750759689.4869204,-1.7116056081939313,-2.343758,-0.674750173591951,1.5832586077356985,-0.4255178952953145,-1.9955170950217092,0.01473195928221919,0.10300000000000008,0.03084297483543075,-0.0012465268378778211,0.00043790975422942165,-0.002457233220484647,3.312394492374295,2.9875627191157776,0.32111606243835283,0.0006576171753889026,0.00011993978325949592,0.007050856943916397
1750759689.4887547,-1.7115760012466357,-2.3435509999999997,-0.6746881881959226,1.5832561025798204,-0.4255170152242549,-1.995522033344784,0.014874988013114522,0.10400000000000008,0.031142421193056293,-0.0012586290401873145,0.0004421613052413578,-0.0024810898536932356,3.312896086337914,2.9883329548856894,0.3211451467053966,0.0006573682280773122,0.00011994010662561604,0.007033933549711606
1750759689.490704,-1.711546108241878,-2.343342,-0.6746256039071792,1.5832535732195376,-0.425516126650094,-1.9955270193811243,0.015018016744009854,0.10500000000000008,0.03144186755068183,-0.0012707312424968078,0.0004464128562532939,-0.0025049464869018245,3.313402408476762,2.9891104651423945,0.3211744852082848,0.0006571168026511131,0.00011994043294935073,0.00701684035321275
1750759689.4926841,-1.7115159291796598,-2.343131,-0.6745624207257199,1.5832510196548504,-0.42551522957282994,-1.9955320531307317,0.015161045474905186,0.10600000000000008,0.031741313908307374,-0.0012828334448063013,0.00045066440726523004,-0.0025288031201104134,3.3139134553372056,2.9898952450108727,0.3212040771722771,0.0006568628970769681,0.00011994076222589505,0.006999577176217295
1750759689.4946823,-1.7114854640599786,-2.342918,-0.6744986386515457,1.5832484418857584,-0.4255143239924646,-1.9955371345936044,0.015304074205800518,0.10700000000000008,0.032040760265932916,-0.0012949356471157946,0.0004549159582771662,-0.0025526597533190023,3.3144292234303676,2.990687289567274,0.32123392181510285,0.0006566065093052899,0.00011994109445038895,0.0069821438389728475
1750759689.5068183,-1.7114854640599786,-2.342918,-0.6744986386515457,1.5832484418857584,-0.4255143239924646,-1.9955371345936044,0.015304074205800518,0.10700000000000008,0.032040760265932916,-0.0012949356471157946,0.0004549159582771662,-0.0025526597533190023,3.3144292234303676,2.990687289567274,0.32123392181510285,0.0006566065093052899,0.00011994109445038895,0.0069821438389728475
1750759689.5074337,-1.7113923523561656,-2.3422669999999997,-0.6743036990727314,1.583240563352055,-0.42551155623275605,-1.9955526652618234,0.015733160398486514,0.11000000000000008,0.03293909933880954,-0.0013312422540442748,0.0004676706113129746,-0.0026242296529447686,3.3160048196878225,2.993106961391466,0.3213249638808575,0.0006558224320677063,0.00011994210876233169,0.006928821045110259
1750759689.5077507,-1.7113607430066384,-2.342046,-0.6742375214276963,1.5832378887653447,-0.4255106166399827,-1.9955579375777628,0.015876189129381844,0.11100000000000008,0.033238545696435084,-0.0013433444563537684,0.00047192216232491073,-0.0026480862861533575,3.316539437116501,2.993928014481931,0.32135581126559937,0.0006555560946887326,0.00011994245272915421,0.006910705238558176
1750759689.508956,-1.7113288475996482,-2.3418229999999998,-0.6741707448899454,1.5832351899742296,-0.4255096685441071,-1.9955632576069684,0.016019217860277178,0.11200000000000009,0.03353799205406063,-0.0013554466586632617,0.0004761737133368468,-0.002671942919361946,3.317078757802981,2.9947563069062095,0.3213869073047604,0.0006552872646241667,0.00011994279961895827,0.006892418349941811
1750759689.5108075,-1.7112966661351967,-2.341598,-0.6741033694594796,1.58323246697871,-0.4255087119451293,-1.9955686253494402,0.01616224659117251,0.11300000000000009,0.03383743841168617,-0.0013675488609727552,0.00048042526434878297,-0.002695799552570535,3.3176227780457217,2.9955918334460594,0.3214182511708225,0.0006550159397290102,0.00011994314942661668,0.006873960190319472
1750759689.512611,-1.711264198613284,-2.3413709999999996,-0.6740353951362987,1.5832297197787857,-0.42550774684304926,-1.9955740408051783,0.016305275322067842,0.11400000000000009,0.034136884769311704,-0.0013796510632822485,0.0004846768153607191,-0.002719656185779124,3.3181714941075184,2.996434588833968,0.3214498420287159,0.0006547421178427796,0.00011994350214694717,0.006855330569233373
1750759689.5146134,-1.711231445033909,-2.341142,-0.6739668219204029,1.5832269483744568,-0.4255067732378679,-1.9955795039741835,0.016448304052963172,0.11500000000000009,0.034436331126937246,-0.0013917532655917419,0.0004889283663726552,-0.0027435128189877128,3.3187249022154086,2.9972845677530633,0.32148167903581454,0.0006544657967894466,0.00011994385777472591,0.006836529294717164
1750759689.516715,-1.711198405397072,-2.3409109999999997,-0.6738976498117912,1.5832241527657234,-0.4255057911295834,-1.995585014856454,0.016591332783858506,0.11600000000000009,0.03473577748456279,-0.0014038554679012354,0.0004931799173845914,-0.0027673694521963012,3.319282998560652,2.998141764837061,0.3215137613419338,0.0006541869743776807,0.00011994421630468925,0.006817556173297307
1750759689.5207841,-1.7111650797027735,-2.340678,-0.6738278788104646,1.5832213329525853,-0.4255048005181976,-1.9955905734519916,0.016734361514753836,0.11700000000000009,0.03503522384218833,-0.0014159576702107287,0.0004974314683965275,-0.00279122608540489,3.3198457792986202,2.9990061746701775,0.32154608808932555,0.0006539056484008666,0.00011994457773151069,0.006798411010000594
1750759689.521406,-1.711131467951013,-2.340443,-0.673757508916422,1.5832184889350425,-0.42550380140371047,-1.9955961797607964,0.01687739024564917,0.11800000000000009,0.03533467019981387,-0.0014280598725202223,0.0005016830194084636,-0.002815082718613479,3.320413240548761,2.9998777917870902,0.3215786584126768,0.0006536218166372145,0.0001199449420498375,0.006779093608358303
1750759689.5232687,-1.7110975701417903,-2.340206,-0.6736865401296654,1.5832156207130952,-0.4255027937861202,-1.9956018337828665,0.0170204189765445,0.11900000000000009,0.035634116557439414,-0.0014401620748297156,0.0005059345704203998,-0.002838939351822068,3.3209853783945085,3.0007566106728514,0.3216114714391052,0.0006533354768499424,0.00011994530925426189,0.006759603770412172
1750759689.5248601,-1.7110633862751072,-2.3399669999999997,-0.673614972450193,1.5832127282867432,-0.4255017776654286,-1.9956075355182037,0.017163447707439834,0.12000000000000009,0.03593356291506496,-0.001452264277139209,0.0005101861214323359,-0.002862795985030657,3.3215621888832434,3.0016426257628157,0.3216445262881556,0.0006530466267872369,0.00011994567933932079,0.0067399412967172195
1750759689.5268228,-1.711028916350961,-2.3397259999999998,-0.6735428058780046,1.5832098116559865,-0.4255007530416348,-1.9956132849668062,0.017306476438335164,0.1210000000000001,0.0362330092726905,-0.0014643664794487025,0.000514437672444272,-0.0028866526182392454,3.322143668026172,3.002535831442594,0.32167782207179735,0.0006527552641824734,0.00011994605229952351,0.006720105986349321
1750759689.5287058,-1.7109941603693537,-2.339483,-0.6734700404131022,1.5832068708208253,-0.4254997199147388,-1.9956190821286768,0.017449505169230498,0.1220000000000001,0.03653245563031604,-0.0014764686817581958,0.0005186892234562082,-0.0029105092514478343,3.3227298117983235,3.003436222047959,0.32171135789441974,0.0006524613867543207,0.00011994642812932413,0.006700097636908542
1750759689.5306144,-1.7109591183302841,-2.339238,-0.6733966760554839,1.5832039057812595,-0.42549867828474053,-1.9956249270038127,0.01759253390012583,0.1230000000000001,0.036831901987941576,-0.0014885708840676893,0.0005229407744681443,-0.002934365884656423,3.323320616138421,3.004343791864788,0.3217451328528297,0.000652164992206734,0.00011994680682312158,0.0066799160445264955
1750759689.532603,-1.7109237902337533,-2.338991,-0.6733227128051498,1.5832009165372891,-0.42549762815164094,-1.9956308195922148,0.017735562631021162,0.1240000000000001,0.03713134834556712,-0.0015006730863771826,0.0005271923254800804,-0.002958222517865012,3.323916076948854,3.0052585351289887,0.3217791460362482,0.0006518660782292233,0.00011994718837528718,0.006659561003869193
1750759689.5349638,-1.7109237902337533,-2.338991,-0.6733227128051498,1.5832009165372891,-0.42549762815164094,-1.9956308195922148,0.017735562631021162,0.1240000000000001,0.03713134834556712,-0.0015006730863771826,0.0005271923254800804,-0.002958222517865012,3.323916076948854,3.0052585351289887,0.3217791460362482,0.0006518660782292233,0.00011994718837528718,0.006659561003869193
1750759689.5366778,-1.7108881760797594,-2.338742,-0.6732481506621015,1.583197903088914,-0.4254965695154391,-1.995636759893884,0.01787859136191649,0.12500000000000008,0.03743079470319266,-0.001512775288686676,0.0005314438764920165,-0.0029820791510736006,3.3245161900955718,3.0061804460264363,0.3218133965263052,0.000651564642496798,0.00011994757278013395,0.00663903230814353
1750759689.5387673,-1.7108522758683051,-2.338491,-0.6731729896263374,1.5831948654361343,-0.4254955023761351,-1.9956427479088195,0.018021620092811823,0.12600000000000008,0.037730241060818195,-0.0015248774909961693,0.0005356954275039527,-0.003005935784282189,3.325120951408056,3.007109518692889,0.3218478833970388,0.000651260682670197,0.00011994796003193505,0.006618329749103256
1750759689.540817,-1.7108160895993887,-2.338238,-0.6730972296978583,1.58319180357895,-0.42549442673372884,-1.9956487836370211,0.018164648823707153,0.12700000000000009,0.03802968741844374,-0.0015369796933056626,0.0005399469785158888,-0.003029792417490778,3.3257303566791907,3.0080457472139197,0.3218826057148899,0.0006509541963959692,0.00011994835012490548,0.006597453117053517
1750759689.542974,-1.71077961727301,-2.337983,-0.6730208708766634,1.5831887175173611,-0.42549334258822036,-1.995654867078489,0.018307677554602487,0.12800000000000009,0.03832913377606928,-0.0015490818956151562,0.0005441985295278249,-0.003053649050699367,3.3263444016652377,3.0089891256248515,0.3219175625386981,0.0006506451813065294,0.00011994874305323247,0.006576402200856037
1750759689.5449886,-1.7107428588891702,-2.337726,-0.6729439131627535,1.5831856072513677,-0.42549224993961055,-1.995660998233224,0.018450706285497817,0.1290000000000001,0.03862858013369482,-0.0015611840979246495,0.0005484500805397611,-0.003077505683907956,3.326963082085742,3.009939647910671,0.3219527529197001,0.0006503336350203735,0.00011994913881104821,0.006555176787936314
1750759689.5466511,-1.7107058144478682,-2.3374669999999997,-0.6728663565561286,1.5831824727809694,-0.4254911487878985,-1.9956671771012253,0.01859373501639315,0.1300000000000001,0.038928026491320364,-0.001573286300234143,0.0005527016315516972,-0.0031013623171165443,3.3275863936234678,3.010897308005975,0.32198817590152556,0.0006500195551420297,0.00011994953739242975,0.00653377666428673
1750759689.548759,-1.7106684839491049,-2.3372059999999997,-0.6727882010567887,1.5831793141061667,-0.42549003913308425,-1.995673403682492,0.01873676374728848,0.1310000000000001,0.039227472848945906,-0.0015853885025436363,0.0005569531825636333,-0.003125218950325133,3.328214331924306,3.011862099794865,0.3220238305201916,0.0006497029392624119,0.00011994993879142638,0.006512201614474197
1750759689.553698,-1.7106308673928794,-2.3369429999999998,-0.672709446664733,1.5831761312269592,-0.42548892097516866,-1.9956796779770265,0.018879792478183815,0.1320000000000001,0.03952691920657145,-0.0015974907048531297,0.0005612047335755695,-0.003149075583533722,3.3288468925972214,3.012834017110907,0.3220597158041024,0.0006493837849586437,0.00011995034300203238,0.0064904514216445565
1750759689.5541015,-1.7105929647791918,-2.336678,-0.6726300933799623,1.5831729241433472,-0.42548779431414996,-1.9956859999848264,0.019022821209079145,0.1330000000000001,0.03982636556419699,-0.0016095929071626232,0.0005654562845875056,-0.003172932216742311,3.3294840712141567,3.0138130537370307,0.32209583077404275,0.0006490620897944307,0.00011995075001818684,0.006468525867529275
1750759689.5572853,-1.7105929647791918,-2.336678,-0.6726300933799623,1.5831729241433472,-0.42548779431414996,-1.9956859999848264,0.019022821209079145,0.1330000000000001,0.03982636556419699,-0.0016095929071626232,0.0005654562845875056,-0.003172932216742311,3.3294840712141567,3.0138130537370307,0.32209583077404275,0.0006490620897944307,0.00011995075001818684,0.006468525867529275
1750759689.557825,-1.7105163013794318,-2.3361419999999997,-0.672469590132275,1.5831664373629093,-0.42548551548280766,-1.9956987871402259,0.01930887867086981,0.1350000000000001,0.04042525827944807,-0.00163379731178161,0.0005739593866113779,-0.0032206454831594884,3.330772264382402,3.0157924597976673,0.32216874581704064,0.0006484110670724197,0.0001199515724427319,0.006424147795326258
1750759689.5613267,-1.710438493749825,-2.335598,-0.672306691313727,1.583159853764853,-0.42548320263905737,-1.995711765148692,0.019594936132660473,0.1370000000000001,0.04102415099469915,-0.0016580017164005967,0.0005824624886352502,-0.003268358749576666,3.332078875261497,3.01780026722479,0.3222425676629649,0.0006477498513396703,0.00011995240601572251,0.0063790656236360245
1750759689.5628028,-1.7103991608488283,-2.335323,-0.6722243435653796,1.583156525659218,-0.42548203346252933,-1.995718325722824,0.019737964863555807,0.1380000000000001,0.041323597352324694,-0.0016701039187100902,0.0005867140396471863,-0.0032922153827852547,3.3327390758770545,3.0188148053680277,0.32227981610794,0.0006474154148630634,0.00011995282696726544,0.006356259939942739
1750759689.5647445,-1.7103595418903712,-2.3350459999999997,-0.6721413969243173,1.5831531733491782,-0.42548085578289907,-1.995724934010223,0.019880993594451137,0.1390000000000001,0.041623043709950236,-0.0016822061210195836,0.0005909655906591224,-0.0033160720159938436,3.3334038670867976,3.019836424451484,0.32231728820346917,0.0006470784226305669,0.00011995325068709066,0.006333277555962667
1750759689.5668995,-1.710319636874451,-2.334767,-0.67205785139054,1.583149796834734,-0.4254796696001666,-1.9957315900108883,0.02002402232534647,0.1400000000000001,0.04192249006757578,-0.0016943083233290771,0.0005952171416710586,-0.0033399286492024325,3.3340732442014303,3.0208651179015584,0.32235498291690834,0.0006467388721144754,0.00011995367716882478,0.0063101182436857105
1750759689.5687642,-1.710319636874451,-2.334767,-0.67205785139054,1.583149796834734,-0.4254796696001666,-1.9957315900108883,0.02002402232534647,0.1400000000000001,0.04192249006757578,-0.0016943083233290771,0.0005952171416710586,-0.0033399286492024325,3.3340732442014303,3.0208651179015584,0.32235498291690834,0.0006467388721144754,0.00011995367716882478,0.0063101182436857105
1750759689.570744,-1.7102794458010697,-2.334486,-0.6719737069640468,1.583146396115885,-0.4254784749143319,-1.9957382937248198,0.0201670510562418,0.1410000000000001,0.04222193642520132,-0.0017064105256385704,0.0005994686926829946,-0.0033637852824110214,3.3347472024940243,3.0219008790933843,0.32239289920796477,0.0006463967607745169,0.00011995410640603947,0.006286781773734858
1750759689.5743508,-1.7102389686702262,-2.334203,-0.6718889636448386,1.5831429711926313,-0.42547727172539584,-1.9957450451520176,0.020310079787137135,0.1420000000000001,0.04252138278282686,-0.0017185127279480638,0.0006037202436949307,-0.0033876419156196103,3.3354257371999436,3.022943701350781,0.3224310360286951,0.0006460520860579513,0.00011995453839227866,0.006263267915370781
1750759689.5748343,-1.7101982054819214,-2.3339179999999997,-0.6718036214329155,1.583139522064973,-0.4254760600333576,-1.9957518442924824,0.020453108518032465,0.1430000000000001,0.042820829140452404,-0.0017306149302575573,0.000607971794706867,-0.003411498548828199,3.336108843516745,3.0239935779461513,0.32246939232350047,0.0006457048453997511,0.00011995497312103132,0.006239576436499186
1750759689.5769567,-1.7101571562361535,-2.333631,-0.6717176803282774,1.5831360487329103,-0.4254748398382171,-1.9957586911462126,0.0205961372489278,0.1440000000000001,0.04312027549807794,-0.0017427171325670506,0.000612223345718803,-0.0034353551820367877,3.3367965166041076,3.0250505021004113,0.32250796702912327,0.0006453550362226696,0.00011995541058573132,0.0062157071036764945
1750759689.5788536,-1.7101158209329252,-2.333342,-0.6716311403309234,1.5831325511964427,-0.4254736111399744,-1.99576558571321,0.02073916597982313,0.1450000000000001,0.04341972185570348,-0.0017548193348765442,0.0006164748967307391,-0.0034592118152453766,3.337488751583764,3.0261144669829005,0.32254675907464353,0.0006450026559373673,0.00011995585077978493,0.006191659682116466
1750759689.58083,-1.7100741995722348,-2.3330509999999998,-0.6715440014408545,1.5831290294555707,-0.42547237393863035,-1.9957725279934735,0.020882194710718463,0.1460000000000001,0.043719168213329024,-0.0017669215371860375,0.0006207264477426753,-0.0034830684484539656,3.3381855435393892,3.027185465711313,0.3225857673814743,0.0006446477019426262,0.00011995629369654342,0.006167433935695272
1750759689.5827825,-1.7100322921540823,-2.3327579999999997,-0.6714562636580705,1.5831254835102941,-0.4254711282341832,-1.9957795179870041,0.021025223441613793,0.1470000000000001,0.044018614570954566,-0.0017790237394955308,0.0006249779987546114,-0.003506925081662554,3.3388868875165363,3.028263491351604,0.32262499086335916,0.0006442901716253497,0.00011995673932930302,0.006143029626960597
1750759689.5847306,-1.7099900986784684,-2.3324629999999997,-0.6713679269825708,1.5831219133606127,-0.4254698740266347,-1.995786555693801,0.021168252172509127,0.1480000000000001,0.04431806092858011,-0.0017911259418050243,0.0006292295497665475,-0.003530781714871143,3.339592778522557,3.0293485369179067,0.32266442842636683,0.0006439300623607306,0.00011995718767133242,0.00611844651713444
1750759689.5867093,-1.7099476191453924,-2.332166,-0.671278991414356,1.5831183190065268,-0.425468611315984,-1.9957936411138633,0.021311280903404457,0.1490000000000001,0.04461750728620565,-0.0018032281441145177,0.0006334811007784837,-0.003554638348079732,3.340303211526497,3.0304405953724576,0.32270407896888875,0.0006435673715125015,0.0001199576387158452,0.00609368436612295
1750759689.5887566,-1.7099476191453924,-2.332166,-0.671278991414356,1.5831183190065268,-0.425468611315984,-1.9957936411138633,0.021311280903404457,0.1490000000000001,0.04461750728620565,-0.0018032281441145177,0.0006334811007784837,-0.003554638348079732,3.340303211526497,3.0304405953724576,0.32270407896888875,0.0006435673715125015,0.0001199576387158452,0.00609368436612295
1750759689.5908818,-1.7099048535548542,-2.331867,-0.6711894569534254,1.5831147004480364,-0.425467340102232,-1.9958007742471935,0.02145430963429979,0.1500000000000001,0.04491695364383119,-0.0018153303464240112,0.0006377326517904198,-0.0035784949812883208,3.3410181814590376,3.0315396596255044,0.32274394138163465,0.0006432020964328838,0.00011995809245600006,0.006068742932519674
1750759689.5927348,-1.7098618019068548,-2.331566,-0.6710993235997806,1.583111057685141,-0.4254660603853768,-1.995807955093789,0.02159733836519512,0.1510000000000001,0.045216400001456734,-0.0018274325487335045,0.0006419842028023559,-0.0036023516144969093,3.3417376832123913,3.032645722535221,0.32278401454762856,0.0006428342344628147,0.0001199585488849281,0.0060436219736156
1750759689.5946493,-1.709818464201394,-2.331263,-0.6710085913534201,1.5831073907178412,-0.42546477216542034,-1.9958151836536508,0.021740367096090455,0.1520000000000001,0.045515846359082276,-0.0018395347510429978,0.0006462357538142921,-0.003626208247705498,3.3424617116402255,3.0337587769076295,0.32282429734220547,0.0006424637829320978,0.00011995900799570541,0.006018321245402209
1750759689.5966148,-1.7097748404384703,-2.330958,-0.6709172602143436,1.583103699546137,-0.4254634754423616,-1.9958224599267798,0.021883395826985785,0.1530000000000001,0.04581529271670781,-0.0018516369533524914,0.0006504873048262282,-0.003650064880914087,3.3431902615575573,3.034878815496515,0.32286478863300694,0.0006420907391594901,0.00011995946978135315,0.0059928405025816344
1750759689.5986395,-1.7097309306180861,-2.330651,-0.6708253301825531,1.583099984170028,-0.4254621702162016,-1.995829783913175,0.022026424557881116,0.1540000000000001,0.046114739074333354,-0.0018637391556619847,0.0006547388558381644,-0.003673921514122676,3.3439233277407125,3.0360058310033224,0.32290548727997775,0.0006417151004528504,0.00011995993423486797,0.005967179498570313
1750759689.6112745,-1.709686734740239,-2.330342,-0.6707328012580467,1.5830962445895143,-0.42546085648693843,-1.9958371556128363,0.02216945328877645,0.1550000000000001,0.046414185431958896,-0.0018758413579714783,0.0006589904068501005,-0.0036977781473312645,3.3446609049271774,3.0371398160770986,0.32294639213536164,0.0006413368641092531,0.00011996040134917634,0.005941337985507258
1750759689.6118128,-1.709686734740239,-2.330342,-0.6707328012580467,1.5830962445895143,-0.42546085648693843,-1.9958371556128363,0.02216945328877645,0.1550000000000001,0.046414185431958896,-0.0018758413579714783,0.0006589904068501005,-0.0036977781473312645,3.3446609049271774,3.0371398160770986,0.32294639213536164,0.0006413368641092531,0.00011996040134917634,0.005941337985507258
1750759689.6121426,-1.7095524307619288,-2.3294029999999997,-0.6704516211282368,1.5830848806215456,-0.4254568642805383,-1.9958595569914186,0.022598539481462444,0.1580000000000001,0.04731252450483552,-0.0019121479648999584,0.0006717450598859089,-0.003769348046957031,3.346900649297491,3.0405835144025675,0.32307033235883226,0.0006401865420692852,0.00011996181858560831,0.005862727894377253
1750759689.6124282,-1.7095070906542347,-2.3290859999999998,-0.6703566966328687,1.5830810442234136,-0.42545551653886804,-1.9958671195441458,0.022741568212357777,0.1590000000000001,0.047611970862461064,-0.0019242501672094518,0.000675996610897845,-0.0037932046801656197,3.3476562170929633,3.0417453031832657,0.3231120504161508,0.000639797887938497,0.00011996229627158919,0.005836161841183583
1750759689.6127534,-1.7095070906542347,-2.3290859999999998,-0.6703566966328687,1.5830810442234136,-0.42545551653886804,-1.9958671195441458,0.022741568212357777,0.1590000000000001,0.047611970862461064,-0.0019242501672094518,0.000675996610897845,-0.0037932046801656197,3.3476562170929633,3.0417453031832657,0.3231120504161508,0.000639797887938497,0.00011996229627158919,0.005836161841183583
1750759689.6130664,-1.7094614644890793,-2.328767,-0.6702611732447865,1.5830771836208768,-0.42545416029409466,-1.99587472981014,0.022884596943253108,0.16000000000000011,0.047911417220086606,-0.0019363523695189453,0.0006802481619097812,-0.0038170613133742086,3.3484162689940327,3.042914023986856,0.32315396882745095,0.0006394066224996195,0.00011996277658237935,0.005809414020707751
1750759689.6148202,-1.7094155522664618,-2.328446,-0.6701650509639885,1.5830732988139355,-0.42545279554621995,-1.9958823877893996,0.02302762567414844,0.16100000000000012,0.04821086357771215,-0.0019484545718284386,0.0006844997129217173,-0.0038409179465827975,3.3491807995034897,3.0440896691460564,0.3231960863986896,0.0006390127429881239,0.0001199632595106336,0.005782484177566458
1750759689.6168578,-1.7093693539863821,-2.3281229999999997,-0.6700683297904755,1.5830693898025896,-0.425451422295243,-1.9958900934819255,0.02317065440504377,0.16200000000000012,0.048510309935337684,-0.001960556774137932,0.0006887512639336534,-0.0038647745797913864,3.3499498030846824,3.045272230940545,0.3232384019280944,0.0006386162466295961,0.00011996374504897942,0.005755372055148449
1750759689.618729,-1.7093228696488412,-2.327798,-0.6699710097242475,1.583065456586839,-0.42545004054116387,-1.9958978468877184,0.023313683135939105,0.16300000000000012,0.048809756292963226,-0.0019726589764474255,0.0006930028149455896,-0.003888631212999975,3.350723274161449,3.0464617015968787,0.32328091420616245,0.0006382171306400512,0.00011996423318998939,0.0057280773956189844
1750759689.620703,-1.709276099253839,-2.3274709999999996,-0.6698730907653037,1.5830614991666838,-0.4254486502839834,-1.9959056480067776,0.023456711866834436,0.16400000000000012,0.04910920265058877,-0.001984761178756919,0.0006972543659575257,-0.003912487846208564,3.3515012071179986,3.047658073288401,0.3233236220156534,0.0006378153922259694,0.00011996472392618121,0.005700599939929358
1750759689.6227374,-1.7092290428013737,-2.327142,-0.6697745729136448,1.583057517542124,-0.42544725152370066,-1.995913496839103,0.02359974059772977,0.16500000000000012,0.04940864900821431,-0.001996863381066412,0.0007015059169694618,-0.003936344479417153,3.3522835962988315,3.048861338135154,0.32336652413158745,0.00063741102858447,0.00011996521725004516,0.005672939427822876
1750759689.626379,-1.709181700291448,-2.3268109999999997,-0.669675456169271,1.5830535117131594,-0.42544584426031573,-1.9959213933846955,0.0237427693286251,0.16600000000000012,0.04970809536583985,-0.002008965583375906,0.000705757467981398,-0.003960201112625741,3.353070436008657,3.050071488203773,0.32340961932124057,0.0006370040369034509,0.00011996571315401676,0.0056450955978434025
1750759689.6270058,-1.7091340717240593,-2.326478,-0.6695757405321814,1.5830494816797904,-0.4254444284938286,-1.9959293376435543,0.023885798059520433,0.16700000000000012,0.050007541723465394,-0.002021067785685399,0.0007100090189933341,-0.00398405774583433,3.3538617205122736,3.0512885155074163,0.32345290634414137,0.0006365944143618085,0.00011996621163047665,0.00561706818733914
1750759689.6289995,-1.7090861570992093,-2.3261429999999996,-0.6694754260023768,1.5830454274420167,-0.4254430042242392,-1.9959373296156784,0.024028826790415764,0.16800000000000012,0.050306988081090936,-0.0020331699879948925,0.0007142605700052703,-0.004007914379042919,3.354657444034503,3.052512412005651,0.32349638395206637,0.0006361821581294181,0.00011996671267178115,0.005588856932475895
1750759689.6307182,-1.709037956416898,-2.325806,-0.6693745125798571,1.5830413489998385,-0.4254415714515485,-1.9959453693010705,0.024171855521311097,0.16900000000000012,0.05060643443871648,-0.002045272190304386,0.0007185121210172064,-0.004031771012251508,3.355457600760077,3.0537431696043686,0.32354005088903615,0.0006357672653674634,0.00011996721627021652,0.005560461568238988
1750759689.6326637,-1.7089894696771246,-2.3254669999999997,-0.6692730002646226,1.5830372463532556,-0.42544013017575555,-1.995953456699728,0.024314884252206428,0.17000000000000012,0.050905880796342014,-0.002057374392613879,0.0007227636720291425,-0.004055627645460097,3.356262184833549,3.054980780155699,0.32358390589131125,0.0006353497332284543,0.00011996772241804479,0.005531881828443974
1750759689.6347935,-1.708940696879889,-2.325126,-0.6691708890566721,1.583033119502268,-0.4254386803968604,-1.9959615918116516,0.02445791298310176,0.17100000000000012,0.051205327153967556,-0.002069476594923373,0.0007270152230410787,-0.004079484278668686,3.3570711903591985,3.0562252354579034,0.3236279476873901,0.0006349295588564375,0.00011996823110747322,0.005503117445742292
1750759689.6367433,-1.7088916380251922,-2.324783,-0.6690681789560067,1.583028968446876,-0.425437222114863,-1.9959697746368423,0.024600941713997092,0.17200000000000013,0.0515047735115931,-0.0020815787972328663,0.0007312667740530148,-0.004103340911877275,3.3578846114009377,3.0574765272552846,0.3236721749980011,0.0006345067393872035,0.00011996874233065425,0.005474168151631263
1750759689.6386712,-1.7088422931130332,-2.324438,-0.6689648699626254,1.5830247931870791,-0.4254357553297643,-1.9959780051752993,0.024743970444892426,0.17300000000000013,0.05180421986921864,-0.0020936809995423596,0.0007355183250649509,-0.004127197545085864,3.358702441982213,3.0587346472381007,0.32371658653610347,0.0006340812719482621,0.00011996925607971306,0.005445033676457837
1750759689.6406994,-1.7087926621434129,-2.3240909999999997,-0.6688609620765291,1.5830205937228776,-0.42543428004156336,-1.9959862834270226,0.024886999175787756,0.17400000000000013,0.05210366622684418,-0.002105783201851853,0.0007397698760768871,-0.004151054178294452,3.3595246760859028,3.0599995870424475,0.32376118100687873,0.000633653153659173,0.00011996977234672012,0.005415713749430712
1750759689.6426566,-1.7087427451163304,-2.3237419999999998,-0.6687564552977179,1.5830163700542716,-0.4254327962502602,-1.995994609392013,0.02503002790668309,0.17500000000000013,0.052403112584469724,-0.0021178854041613462,0.0007440214270888232,-0.0041749108115030405,3.3603513076542235,3.0612713382501866,0.32380595710773047,0.0006332223816316327,0.0001199702911236912,0.005386208098623591
1750759689.644711,-1.7086925420317858,-2.323391,-0.6686513496261917,1.583012122181261,-0.4254313039558548,-1.9960029830702695,0.02517305663757842,0.17600000000000013,0.052702558942095266,-0.00212998760647084,0.0007482729781007593,-0.0041987674447116295,3.3611823305886386,3.062549892388839,0.3238509135282777,0.0006327889529695885,0.00011997081240261475,0.005356516450987622
1750759689.6466107,-1.7086420528897799,-2.323038,-0.6685456450619496,1.5830078501038458,-0.4254298031583472,-1.9960114044617914,0.025316085368473754,0.17700000000000013,0.05300200529972081,-0.0021420898087803333,0.0007525245291126955,-0.004222624077920218,3.362017738749756,3.063835240931482,0.32389604895035295,0.0006323528647695127,0.00011997133617542464,0.0053266385323556395
1750759689.6486247,-1.7085912776903118,-2.3226829999999996,-0.6684393416049925,1.583003553822026,-0.4254282938577383,-1.9960198735665804,0.025459114099369084,0.17800000000000013,0.05330145165734635,-0.0021541920110898266,0.0007567760801246316,-0.004246480711128807,3.3628575259572178,3.0651273752966635,0.32394136204799645,0.0006319141141203685,0.00011997186243399995,0.005296574067451473
1750759689.6507757,-1.7085402164333825,-2.322326,-0.6683324392553205,1.5829992333358014,-0.4254267760540271,-1.9960283903846356,0.025602142830264418,0.17900000000000013,0.053600898014971886,-0.00216629421339932,0.0007610276311365677,-0.004270337344337396,3.3637016859896223,3.0664262868482903,0.32398685148745315,0.0006314726981039485,0.00011997239117019274,0.005266322779896553
1750759689.6531627,-1.708488869118991,-2.321967,-0.6682249380129326,1.5829948886451723,-0.42542524974721374,-1.996036954915958,0.025745171561159748,0.18000000000000013,0.05390034437259743,-0.0021783964157088133,0.0007652791821485039,-0.004294193977545985,3.3645502125844007,3.0677319668955487,0.32403251592716975,0.0006310286137949678,0.00011997292237580025,0.0052358843922209524
1750759689.661222,-1.7084372357471374,-2.3216059999999996,-0.6681168378778297,1.5829905197501386,-0.42542371493729814,-1.9960455671605466,0.02588820029205508,0.18100000000000013,0.05419979073022297,-0.002190498618018307,0.00076953073316044,-0.004318050610754574,3.365403099437742,3.0690444066927918,0.32407835401778834,0.0006305818582611675,0.00011997345604256521,0.00520525862586741
1750759689.661599,-1.7083331108310453,-2.320878,-0.6678988409294782,1.5829817093468572,-0.42542061980816204,-1.9960629347895225,0.026174257753845746,0.18300000000000013,0.054798683445474054,-0.0022147030226372937,0.0007780338351843122,-0.004365763877171751,3.3671219284979426,3.0716895302798752,0.3241705457152612,0.0006296803217566393,0.00011997453072637521,0.005143443837523565
1750759689.661873,-1.7083331108310453,-2.320878,-0.6678988409294782,1.5829817093468572,-0.42542061980816204,-1.9960629347895225,0.026174257753845746,0.18300000000000013,0.054798683445474054,-0.0022147030226372937,0.0007780338351843122,-0.004365763877171751,3.3671219284979426,3.0716895302798752,0.3241705457152612,0.0006296803217566393,0.00011997453072637521,0.005143443837523565
1750759689.6628292,-1.708280619286807,-2.3205109999999998,-0.6677889441162304,1.5829772678386096,-0.42541905948894065,-1.9960716901739097,0.026317286484741076,0.18400000000000014,0.055098129803099596,-0.002226805224946787,0.0007822853861962483,-0.00438962051038034,3.3679878578899793,3.0730221963033757,0.3242168965843483,0.000629225534888258,0.00011997507172668766,0.00511225425306646
1750759689.6650813,-1.7082278416851064,-2.3201419999999997,-0.6676784484102658,1.5829728021259575,-0.42541749066661705,-1.9960804932715632,0.02646031521563641,0.18500000000000014,0.05539757616072514,-0.0022389074272562803,0.0007865369372081845,-0.004413477143588929,3.3688581219107236,3.0743615865439726,0.32426341562879596,0.0006287680650001594,0.00011997561515472294,0.005080876165014488
1750759689.6669636,-1.7081747780259446,-2.319771,-0.6675673538115872,1.5829683122089007,-0.4254159133411912,-1.9960893440824838,0.02660334394653174,0.18600000000000014,0.05569702251835068,-0.002251009629565774,0.0007907884882201206,-0.004437333776797518,3.3697327140485527,3.0757076919803694,0.32431010146017014,0.0006283079091278853,0.00011997616100199363,0.005049309289506232
1750759689.6688638,-1.7081214283093207,-2.3193979999999996,-0.6674556603201927,1.5829637980874391,-0.42541432751266406,-1.9960982426066707,0.02674637267742707,0.18700000000000014,0.05599646887597622,-0.0022631118318752674,0.0007950400392320567,-0.004461190410006107,3.370611627749979,3.0770605035358396,0.3243569526822108,0.000627845064301097,0.00011997670925998838,0.005017553341644748
1750759689.6707025,-1.7080677925352354,-2.3190229999999996,-0.6673433679360832,1.5829592597615731,-0.4254127331810347,-1.9961071888441237,0.026889401408322404,0.18800000000000014,0.05629591523360176,-0.0022752140341847607,0.0007992915902439929,-0.0044850470432146955,3.3714948564195497,3.078420012078123,0.3244039678908264,0.0006273795275436158,0.0001199772599201413,0.004985608035503815
1750759689.6731844,-1.7080138707036872,-2.3186459999999998,-0.6672304766592587,1.5829546972313024,-0.42541113034630307,-1.996116182794844,0.027032430139217734,0.18900000000000014,0.0565953615912273,-0.002287316236494254,0.000803543141255929,-0.0045089036764232844,3.372382393419716,3.0797862084193266,0.32445114567409133,0.0006269112958736578,0.00011997781297383205,0.0049534730841394
1750759689.674864,-1.7079596628146785,-2.3182669999999996,-0.6671169864897184,1.5829501104966273,-0.42540951900846924,-1.9961252244588295,0.027175458870113068,0.19000000000000014,0.05689480794885284,-0.0022994184388037474,0.0008077946922678651,-0.004532760309631873,3.3732742320707776,3.081159083315809,0.32449848461224007,0.0006264403663040135,0.0001199783684124133,0.004921148199595527
1750759689.6767583,-1.7079051688682068,-2.3178859999999997,-0.6670028974274631,1.5829454995575472,-0.4254078991675341,-1.996134313836082,0.027318487601008398,0.19100000000000014,0.057194254306478384,-0.002311520641113241,0.0008120462432798013,-0.004556616942840461,3.374170365650717,3.0825386274681033,0.32454598327766515,0.0006259667358421248,0.0001199789262271833,0.004888633092914262
1750759689.6790414,-1.7078503888642738,-2.317503,-0.6668882094724928,1.5829408644140628,-0.4254062708234967,-1.996143450926601,0.027461516331903732,0.19200000000000014,0.057493700664103926,-0.0023236228434227344,0.0008162977942917374,-0.00458047357604905,3.3750707873951473,3.0839248315207786,0.32459364023491166,0.0006254904014904578,0.00011997948640938588,0.00485592747414274
1750759689.6812859,-1.7078503888642738,-2.317503,-0.6668882094724928,1.5829408644140628,-0.4254062708234967,-1.996143450926601,0.027461516331903732,0.19200000000000014,0.057493700664103926,-0.0023236228434227344,0.0008162977942917374,-0.00458047357604905,3.3750707873951473,3.0839248315207786,0.32459364023491166,0.0006254904014904578,0.00011997948640938588,0.00485592747414274
1750759689.6831217,-1.707739970684023,-2.316731,-0.6666570368844056,1.5829315215138797,-0.42540298862611525,-1.9961618682474382,0.027747573793694396,0.19400000000000014,0.05809259337935501,-0.002347827248041721,0.0008248008963156097,-0.004628186842466228,3.376884468107304,3.0867171816252523,0.3246894232437952,0.0006245296091025383,0.00011998061384090222,0.0047899435356047295
1750759689.6846411,-1.7076843325077045,-2.3163419999999997,-0.6665405522512895,1.5829268137571815,-0.4254013347727712,-1.9961711484777567,0.027890602524589726,0.19500000000000015,0.05839203973698055,-0.0023599294503512144,0.0008290524473275458,-0.004652043475674817,3.3777977133333166,3.088123308685547,0.3247375463852546,0.0006240451450470624,0.00011998118107248672,0.004756664631042661
1750759689.6866035,-1.7076284082739246,-2.3159509999999996,-0.6664234687254575,1.5829220817960783,-0.4253996724163258,-1.9961804764213404,0.02803363125548506,0.19600000000000015,0.058691486094606095,-0.002372031652660708,0.0008333039983394819,-0.004675900108883406,3.378715219240194,3.0895360576630035,0.3247858219981732,0.0006235579650635182,0.00011998175063607289,0.004723194044816781
1750759689.6885314,-1.7075721979826826,-2.315558,-0.6663057863069106,1.5829173256305706,-0.4253980015567782,-1.9961898520781922,0.02817665998638039,0.19700000000000015,0.05899093245223163,-0.0023841338549702015,0.0008375555493514181,-0.004699756742091995,3.379636978849973,3.0909554189209127,0.3248342486078041,0.0006230680661313665,0.00011998232252268783,0.0046895314821360405
1750759689.690663,-1.7075157016339784,-2.3151629999999996,-0.6661875049956487,1.5829125452606585,-0.4253963221941284,-1.9961992754483093,0.028319688717275724,0.19800000000000015,0.05929037880985717,-0.002396236057279695,0.0008418071003633542,-0.004723613375300584,3.3805629851416623,3.092381382765981,0.32488282473153113,0.0006225754452258759,0.00011998289672330433,0.00465567664726763
1750759689.692597,-1.7074589192278138,-2.3147659999999997,-0.666068624791671,1.5829077406863417,-0.4253946343283763,-1.9962087465316927,0.028462717448171054,0.19900000000000015,0.059589825167482714,-0.002408338259589188,0.0008460586513752904,-0.004747470008509172,3.381493231051131,3.0938139394482342,0.3249315488788638,0.0006220800993184493,0.00011998347322887145,0.004621629243547247
1750759689.6945114,-1.7074018507641862,-2.314367,-0.6659491456949791,1.5829029119076201,-0.42539293795952293,-1.9962182653283431,0.028605746179066388,0.20000000000000015,0.059889271525108256,-0.0024204404618986815,0.0008503102023872265,-0.004771326641717761,3.3824277094709756,3.0952530791609187,0.32498041955143375,0.0006215820253767599,0.00011998405203026886,0.004587388973385385
1750759689.6966336,-1.7073444962430973,-2.3139659999999997,-0.6658290677055714,1.582898058924494,-0.4253912330875673,-1.9962278318382598,0.02874877490996172,0.20100000000000015,0.0601887178827338,-0.0024325426642081752,0.0008545617533991626,-0.00479518327492635,3.383366413250447,3.0966987920403737,0.3250294352429912,0.000621081220364952,0.00011998463311835243,0.004552955538279675
1750759689.6987028,-1.7072868556645462,-2.313563,-0.6657083908234478,1.5828931817369634,-0.4253895197125095,-1.9962374460614427,0.028891803640857052,0.20200000000000015,0.06048816424035934,-0.0024446448665176685,0.0008588133044110988,-0.0048190399081349386,3.384309335195314,3.098151068165943,0.3250785944394014,0.0006205776812438062,0.00011998521648392394,0.004518328638821508
1750759689.7008288,-1.7072289290285338,-2.3131579999999996,-0.6655871150486092,1.582888280345028,-0.42538779783434943,-1.9962471079978927,0.029034832371752382,0.20300000000000015,0.06078761059798488,-0.002456747068827162,0.0008630648554230349,-0.0048428965413435275,3.385256468067756,3.0996098975598505,0.32512789561863914,0.0006200714049708577,0.00011998580211773098,0.004483507974706632
1750759689.7027245,-1.7071707163350593,-2.312751,-0.6654652403810557,1.582883354748688,-0.42538606745308805,-1.996256817647608,0.029177861102647716,0.20400000000000015,0.061087056955610425,-0.002468849271136655,0.000867316406434971,-0.004866753174552116,3.386207804586263,3.101075270187107,0.32517733725078707,0.000619562388500702,0.00011998639001049455,0.004448493244742891
1750759689.7044911,-1.7071122175841236,-2.3123419999999997,-0.6653427668207872,1.5828784049479434,-0.42538432856872355,-1.9962665750105906,0.029320889833543046,0.20500000000000015,0.06138650331323596,-0.0024809514734461485,0.0008715679574469072,-0.004890609807760705,3.38716333742551,3.10254717595539,0.3252269177980303,0.000619050628785055,0.00011998698015288149,0.0044132841468611005
1750759689.7066047,-1.7070534327757247,-2.311931,-0.6652196943678028,1.5828734309427943,-0.4253825811812577,-1.9962763800868393,0.02946391856443838,0.20600000000000016,0.0616859496708615,-0.0024930536757556423,0.0008758195084588433,-0.004914466440969294,3.3881230592162535,3.1040256047149466,0.3252766357146544,0.0006185361227730137,0.0001199875725355046,0.004377880378123124
1750759689.7152827,-1.7069943619098655,-2.311518,-0.6650960230221035,1.5828684327332403,-0.42538082529068966,-1.9962862328763542,0.02960694729533371,0.20700000000000016,0.061985396028487044,-0.0025051558780651356,0.0008800710594707794,-0.004938323074177882,3.3890869625452202,3.105510546258458,0.3253264894470385,0.0006180188674112055,0.00011998816714895013,0.004342281634731346
1750759689.7156816,-1.7068753620057606,-2.310686,-0.664846883652559,1.5828583637009188,-0.42537728800024777,-1.9963060815951845,0.029893004757124374,0.20900000000000016,0.06258428874373813,-0.0025293602826841222,0.0008885741614946517,-0.00498603634059506,3.3910272839438518,3.108499926579726,0.3254265981050639,0.0006169760964135873,0.00011998936303038348,0.004270498004558194
1750759689.7160027,-1.7068753620057606,-2.310686,-0.664846883652559,1.5828583637009188,-0.42537728800024777,-1.9963060815951845,0.029893004757124374,0.20900000000000016,0.06258428874373813,-0.0025293602826841222,0.0008885741614946517,-0.00498603634059506,3.3910272839438518,3.108499926579726,0.3254265981050639,0.0006169760964135873,0.00011998936303038348,0.004270498004558194
1750759689.7168608,-1.706815432967515,-2.3102669999999996,-0.6647214156287138,1.5828532928781511,-0.42537550660037393,-1.996316077524499,0.030036033488019708,0.21000000000000016,0.06288373510136366,-0.0025414624849936156,0.0008928257125065878,-0.005009892973803649,3.3920036869657766,3.110004344654135,0.3254768498839093,0.0006164505746603749,0.0001199899642793013,0.004234312505970717
1750759689.7198737,-1.7067552178718088,-2.309846,-0.6645953487121536,1.582848197850979,-0.4253737166973979,-1.9963261211670797,0.03017906221891504,0.21100000000000016,0.06318318145898921,-0.0025535646873031093,0.000897077263518524,-0.005033749607012238,3.3929842414302107,3.1115152341055743,0.32552723118491617,0.000615922291322967,0.00011999056772090162,0.004197930809137308
1750759689.7207897,-1.7066947167186397,-2.309423,-0.6644686829028785,1.582843078619402,-0.4253719182913196,-1.9963362125229267,0.030322090949810372,0.21200000000000016,0.06348262781661475,-0.0025656668896126026,0.0009013288145304601,-0.005057606240220827,3.393968939701996,3.113032584437344,0.3255777404148853,0.0006153912433384728,0.00011999117334552845,0.004161352606105838
1750759689.7227528,-1.7066339295080093,-2.308998,-0.6643414182008875,1.5828379351834205,-0.42537011138214,-1.9963463515920399,0.030465119680705702,0.21300000000000016,0.0637820741742403,-0.002577769091922096,0.0009055803655423962,-0.005081462873429416,3.394957774101265,3.1145563850945144,0.32562837597269256,0.0006148574276426028,0.00011999178114349934,0.004124577588123194
1750759689.724771,-1.7065728562399167,-2.3085709999999997,-0.6642135546061816,1.5828327675430343,-0.42536829596985815,-1.9963565383744202,0.030608148411601036,0.21400000000000016,0.06408152053186583,-0.0025898712942315893,0.0009098319165543324,-0.005105319506638005,3.395950736903313,3.116086625463837,0.3256791362492806,0.0006143208411699603,0.00011999239110507808,0.004087605445642921
1750759689.7267513,-1.7065114969143629,-2.3081419999999997,-0.6640850921187598,1.5828275756982435,-0.4253664720544732,-1.9963667728700667,0.030751177142496366,0.21500000000000016,0.06438096688949138,-0.0026019734965410826,0.0009140834675662685,-0.0051291761398465936,3.3969478203384855,3.117623294873618,0.32573001962766085,0.0006137814808541924,0.00011999300322047453,0.004050435868336832
1750759689.7300358,-1.7064498515313469,-2.307711,-0.663956030738623,1.582822359649048,-0.4253646396359878,-1.9963770550789794,0.0308942058733917,0.21600000000000016,0.06468041324711692,-0.0026140756988505764,0.0009183350185782047,-0.005153032773055182,3.3979490165920563,3.1191663825936122,0.3257810244829035,0.000613239343628123,0.00011999361747987549,0.004013068545103749
1750759689.730929,-1.7063879200908687,-2.3072779999999997,-0.6638263704657712,1.5828171193954481,-0.4253627987143993,-1.9963873850011584,0.03103723460428703,0.21700000000000016,0.06497985960474247,-0.0026261779011600697,0.0009225865695901408,-0.0051768894062637705,3.398954317804109,3.1207158778349107,0.3258321491821409,0.0006126944264240767,0.00011999423387339861,0.003975503164078336
