mathias31415/primitives_from_planned_trajectory_python/data/saved_trajectories/trajectory_20250617_163544_planned.csv
time_from_start,shoulder_pan_joint_pos,shoulder_lift_joint_pos,elbow_joint_pos,wrist_1_joint_pos,wrist_2_joint_pos,wrist_3_joint_pos,shoulder_pan_joint_vel,shoulder_lift_joint_vel,elbow_joint_vel,wrist_1_joint_vel,wrist_2_joint_vel,wrist_3_joint_vel,shoulder_pan_joint_acc,shoulder_lift_joint_acc,elbow_joint_acc,wrist_1_joint_acc,wrist_2_joint_acc,wrist_3_joint_acc,fk_x,fk_y,fk_z,fk_qx,fk_qy,fk_qz,fk_qw
0.0,-1.4890545234082015,-1.9552282595871953,-1.6781124099660554,-3.1166349920279592,0.9395129598786522,-2.100803370866826,-4.787973060284776e-05,9.690843209330555e-05,-4.0433838534503393e-05,0.00033294263664973957,8.109027165508654e-05,0.0005,-0.04787973060284776,0.09690843209330555,-0.04043383853450339,0.33294263664973955,0.08109027165508653,0.5,-0.19348899999933453,-0.6134989999993413,0.41412599997349747,-0.564211444273657,-0.004528747253349304,0.568626851426356,0.5985887072405375
0.1,-1.4892939220612158,-1.9547437174267286,-1.678314579158728,-3.1149702788447104,0.9399184112369277,-2.098303370866826,-0.004787973060284789,0.009690843209330582,-0.0040433838534503505,0.03329426366497405,0.008109027165508676,0.05000000000000014,-0.04787973060285142,0.09690843209331215,-0.040433838534505995,0.3329426366497701,0.08109027165509312,0.5000000000000416,-0.19360579769281397,-0.6133521146480881,0.41412355798503325,-0.5647956015459369,-0.003090252467726363,0.5692046456625982,0.597496820217618
0.2,-1.4900121180202586,-1.953290090945329,-1.6789210867367454,-3.1099761392949645,0.941134765311754,-2.090803370866826,-0.009575946120569409,0.01938168641866082,-0.008086767706900559,0.06658852732994693,0.016218054331017064,0.0999999999999985,-0.04787973060273519,0.09690843209307623,-0.04043383853440798,0.33294263664895823,0.0810902716548919,0.4999999999988204,-0.19395557716394843,-0.6129136830215139,0.4141164179248222,-0.5665285123568146,0.0012339999190641028,0.5709223633970721,0.5942150931304888
0.30000000000000004,-1.4912091112853296,-1.9508673801429963,-1.679931932700108,-3.101652573378721,0.9431620221031312,-2.078303370866826,-0.014363919180854461,0.029072529627991936,-0.01213015156035113,0.0998827909949228,0.024327081496526185,0.15000000000000138,-0.04787973060294683,0.09690843209350991,-0.04043383853458666,0.3329426366504293,0.08109027165525619,0.500000000001027,-0.19453651510267636,-0.6121903756351539,0.4141051925168619,-0.5693512990998546,0.008469848358535656,0.5737328985164066,0.5887256755417195
0.4,-1.4928849018564294,-1.9474755850197307,-1.681347117048816,-3.0899995810959804,0.9460001816110591,-2.060803370866826,-0.019151892241139515,0.038763372837323055,-0.016173535413801704,0.13317705465989868,0.032436108662035314,0.20000000000000429,-0.04787973060315846,0.09690843209393665,-0.040433838534765336,0.3329426366519003,0.08109027165561354,0.5000000000032196,-0.1953456311171299,-0.6111932990792537,0.4140910863318969,-0.5731651996852946,0.018658798914462378,0.577557380958049,0.5809999783078008
0.5,-1.4950394897335575,-1.943114705575532,-1.6831666397828684,-3.0750171624467417,0.9496492438355382,-2.038303370866826,-0.023939865301421906,0.04845421604664878,-0.02021691926725003,0.16647131832485607,0.04054513582753993,0.2499999999999794,-0.047879730600702906,0.09690843208896996,-0.04043383853269183,0.3329426366348399,0.08109027165145957,0.499999999977629,-0.19637887561533654,-0.6099379735997863,0.41407617078296083,-0.5778306742382426,0.03185566830222353,0.5822846746591986,0.5710004255369934
0.6000000000000001,-1.497672874916714,-1.9377847418104,-1.6853905009022658,-3.056705317431006,0.9541092087765677,-2.010803370866826,-0.028727838361708537,0.058145059255983095,-0.02426030312070194,0.19976558198984293,0.048654162993051725,0.29999999999999877,-0.04787973060249233,0.09690843209259051,-0.040433838534206755,0.3329426366472929,0.08109027165448944,0.49999999999628075,-0.19763125310337545,-0.6084442896445726,0.41406376880264445,-0.583166266888459,0.04812524683200331,0.5877707505182639,0.5586829249367963
0.7000000000000001,-1.5006620435983353,-1.931734673304353,-1.6879148167725369,-3.03591945064105,0.9591717372695981,-1.9795879834368544,-0.030083721983552445,0.060889363667045726,-0.025405330019285896,0.2091940282731238,0.05095052034184319,0.3141592653589737,5.373366786102844e-13,-1.0885401102169631e-12,4.541361606319178e-13,-3.744023309026498e-12,-9.082723212638356e-13,-5.602168210543352e-12,-0.19903933354172698,-0.6068027595278297,0.41405891366731074,-0.5887296836132487,0.06676702878929877,0.5936067883189143,0.5445828718946241
0.8,-1.5036704157966905,-1.9256457369376483,-1.6904553497744654,-3.0150000478137375,0.9642667893037826,-1.9481720569009566,-0.030083721983552445,0.060889363667045726,-0.025405330019285896,0.2091940282731238,0.05095052034184319,0.3141592653589737,5.373366786102844e-13,-1.0885401102169631e-12,4.541361606319178e-13,-3.744023309026498e-12,-9.082723212638356e-13,-5.602168210543352e-12,-0.20044252274585037,-0.6052083708103366,0.4140656574181206,-0.5937948221270244,0.08570033958643508,0.599057760882883,0.53027630546338
0.9,-1.5066787879950458,-1.9195568005709438,-1.692995882776394,-2.9940806449864255,0.9693618413379669,-1.916756130365059,-0.030083721983552445,0.060889363667045726,-0.025405330019285896,0.2091940282731238,0.05095052034184319,0.3141592653589737,5.373366786102844e-13,-1.0885401102169631e-12,4.541361606319178e-13,-3.744023309026498e-12,-9.082723212638356e-13,-5.602168210543352e-12,-0.20183231061062315,-0.6036715538674968,0.41408587475326264,-0.5983197615544458,0.10478999942509183,0.6040824665746025,0.5158651883303083
1.0,-1.5096871601934012,-1.913467864204239,-1.6955364157783226,-2.9731612421591125,0.9744568933721512,-1.8853402038291613,-0.030083721983552445,0.060889363667045726,-0.025405330019285896,0.2091940282731238,0.05095052034184319,0.3141592653589737,5.373366786102844e-13,-1.0885401102169631e-12,4.541361606319178e-13,-3.744023309026498e-12,-9.082723212638356e-13,-5.602168210543352e-12,-0.2032092776785555,-0.6021919564302335,0.414121370386969,-0.6023005101895391,0.12401989614987573,0.608678869823376,0.5013613409657075
1.1,-1.5126955323917568,-1.907378927837534,-1.6980769487802516,-2.9522418393317977,0.9795519454063362,-1.8539242772932605,-0.030083721983559124,0.060889363667059236,-0.025405330019291534,0.2091940282731702,0.050950520341854495,0.3141592653590434,-6.136038200905218e-12,1.2410743931774397e-11,-5.179232244153896e-12,4.2626398710921225e-11,1.0386197994300585e-11,6.40643988433494e-11,-0.20457400251159905,-0.6007691746001683,0.414173942346701,-0.6057335670728541,0.14337382245853486,0.6128452615947962,0.48677662032561764
1.2,-1.5157039045901124,-1.9012899914708283,-1.7006174817821806,-2.931322436504483,0.9846469974405212,-1.8225083507573592,-0.030083721983559124,0.060889363667059236,-0.025405330019291534,0.2091940282731702,0.050950520341854495,0.3141592653590434,-6.136038200905218e-12,1.2410743931774397e-11,-5.179232244153896e-12,4.2626398710921225e-11,1.0386197994300585e-11,6.40643988433494e-11,-0.2059270609504792,-0.5994027528476142,0.4142453806935454,-0.6086159241057411,0.16283549098228653,0.6165802599045991,0.4721229107949004
1.3,-1.5187122767884678,-1.8952010551041232,-1.7031580147841094,-2.910403033677168,0.989742049474706,-1.791092424221458,-0.03008372198355889,0.060889363667059236,-0.025405330019291766,0.2091940282731702,0.050950520341854495,0.3141592653590434,-6.132571512656119e-12,1.2410743931774397e-11,-5.179232244153896e-12,4.2626398710921225e-11,1.0386197994300585e-11,6.40643988433494e-11,-0.2072690253721158,-0.5980921840509503,0.41433746623770357,-0.610945067698852,0.18238854940781835,0.6198828100800758,0.45741211512878094
1.4,-1.5217206489868236,-1.889112118737418,-1.7056985477860385,-2.889483630849853,0.994837101508891,-1.7596764976855568,-0.03008372198355889,0.060889363667059236,-0.025405330019291766,0.2091940282731702,0.050950520341854495,0.3141592653590434,-6.132571512656119e-12,1.2410743931774397e-11,-5.179232244153896e-12,4.2626398710921225e-11,1.0386197994300585e-11,6.40643988433494e-11,-0.2086004639458962,-0.5968369095776787,0.4144519692500407,-0.6127189799542588,0.20201659562650734,0.6227521847693255,0.44265614539992576
1.5,-1.5247290211851792,-1.8830231823707126,-1.7082390807879673,-2.868564228022538,0.999932153543076,-1.728260571149656,-0.03008372198355889,0.060889363667059236,-0.025405330019291766,0.2091940282731702,0.050950520341854495,0.3141592653590434,-6.132571512656119e-12,1.2410743931774397e-11,-5.179232244153896e-12,4.2626398710921225e-11,1.0386197994300585e-11,6.40643988433494e-11,-0.20992193988957267,-0.5956363194074386,0.41459064817067454,-0.6139361393810313,0.2217031928964203,0.6251879836988364,0.42786691395810306
1.6,-1.5277373933835348,-1.8769342460040073,-1.7107796137898963,-2.847644825195223,1.0050272055772609,-1.6968446446137546,-0.03008372198355889,0.060889363667059236,-0.025405330019291766,0.2091940282731702,0.050950520341854495,0.3141592653590434,-6.132571512656119e-12,1.2410743931774397e-11,-5.179232244153896e-12,4.2626398710921225e-11,1.0386197994300585e-11,6.40643988433494e-11,-0.21123401072556913,-0.5944897522971974,0.4147552483155853,-0.6145955211445637,0.24143188500267387,0.6271901331800788,0.4130563244094597
1.7000000000000002,-1.53074576558189,-1.8708453096373026,-1.7133201467918249,-2.82672542236791,1.0101222576114455,-1.6654287180778558,-0.03008372198355415,0.06088936366704964,-0.025405330019287763,0.20919402827313724,0.05095052034184647,0.3141592653589939,-1.3936086761374862e-12,2.8218842347659545e-12,-1.1786740046933963e-12,9.678993591482242e-12,2.364281385884989e-12,1.458782415220533e-11,-0.21253722753848017,-0.5933964959888206,0.41494750058225255,-0.6146965968503879,0.26118621140175,0.6287588853659895,0.3982362626224167
1.8,-1.5337541377802453,-1.8647563732705974,-1.7158606797937537,-2.8058060195405967,1.0152173096456298,-1.634012791541957,-0.03008372198355415,0.06088936366704964,-0.025405330019287763,0.20919402827313724,0.05095052034184647,0.3141592653589939,-1.3936086761374862e-12,2.8218842347659545e-12,-1.1786740046933963e-12,9.678993591482242e-12,2.364281385884989e-12,1.458782415220533e-11,-0.21383213423455916,-0.5923557874591705,0.4151691201553135,-0.6142393338636564,0.2809497223354263,0.6298948172584257,0.3834185877671463
1.9,-1.5367625099786006,-1.8586674369038927,-1.7184012127956825,-2.7848866167132833,1.0203123616798144,-1.6025968650060585,-0.03008372198355415,0.06088936366704964,-0.025405330019287763,0.20919402827313724,0.05095052034184647,0.3141592653589939,-1.3936086761374862e-12,2.8218842347659545e-12,-1.1786740046933963e-12,9.678993591482242e-12,2.364281385884989e-12,1.458782415220533e-11,-0.21511926680398966,-0.5913668132128572,0.41542180521326433,-0.6132241941659216,0.3007059939000023,0.6305988294678601,0.368615123395572
2.0,-1.539770882176956,-1.852578500537188,-1.720941745797611,-2.7639672138859703,1.025407413713999,-1.5711809384701598,-0.03008372198355415,0.06088936366704964,-0.025405330019287763,0.20919402827313724,0.05095052034184647,0.3141592653589939,-1.3936086761374862e-12,2.8218842347659545e-12,-1.1786740046933963e-12,9.678993591482242e-12,2.364281385884989e-12,1.458782415220533e-11,-0.21639915258674514,-0.5904287096177147,0.41570723563721856,-0.6116521327512819,0.32043864305661474,0.6308721447267815,0.3538376485687671
2.1,-1.5427792543753107,-1.8464895641704846,-1.7234822787995392,-2.7430478110586614,1.0305024657481825,-1.5397650119342683,-0.0300837219835408,0.06088936366702262,-0.025405330019276487,0.20919402827304442,0.05095052034182385,0.3141592653588545,1.1942741018140733e-11,-2.4176683849205652e-11,1.0088062804873595e-11,-8.306185044837503e-11,-2.0231592621732748e-11,-1.2468984294353728e-10,-0.21767230954283992,-0.5895405632830499,0.4160270717227466,-0.6095245955644073,0.3401313425684857,0.6307163061584612,0.33909788903859517
2.2,-1.5457876265736654,-1.8404006278037812,-1.7260228118014673,-2.722128408231353,1.0355975177823658,-1.5083490853983763,-0.0300837219835408,0.06088936366702262,-0.025405330019276487,0.20919402827304442,0.05095052034182385,0.3141592653588545,1.1942741018140733e-11,-2.4176683849205652e-11,1.0088062804873595e-11,-8.306185044837503e-11,-2.0231592621732748e-11,-1.2468984294353728e-10,-0.2189392455277793,-0.5887014114806611,0.4163829528958321,-0.6068435169833777,0.3597678358510789,0.6301331753029311,0.3244075084903578
2.3,-1.5487959987720201,-1.8343116914370776,-1.7285633448033955,-2.7012090054040447,1.0406925698165492,-1.4769331588624848,-0.03008372198354103,0.06088936366702262,-0.025405330019276258,0.20919402827304442,0.050950520341823735,0.3141592653588545,1.1942741018140733e-11,-2.4176683849205652e-11,1.0084596116624498e-11,-8.306185044837503e-11,-2.0231592621732748e-11,-1.2468984294353728e-10,-0.22020045757401627,-0.5879102426085948,0.4167764964339722,-0.6036113168507258,0.37933195172119216,0.629124929902212,0.3097780998532026
2.4,-1.5518043709703746,-1.828222755070374,-1.7311038778053236,-2.6802896025767358,1.0457876218507327,-1.445517232326593,-0.03008372198354103,0.06088936366702262,-0.025405330019276258,0.20919402827304442,0.050950520341823735,0.3141592653588545,1.1942741018140733e-11,-2.4176683849205652e-11,1.0084596116624498e-11,-8.306185044837503e-11,-2.0231592621732748e-11,-1.2468984294353728e-10,-0.22145643117922484,-0.5871659966975588,0.41720929619346336,-0.5998308970564771,0.3988076190312148,0.6276940614470186,0.2952211766849082
2.5,-1.5548127431687295,-1.8221338187036706,-1.7336444108072517,-2.6593701997494272,1.050882673884916,-1.4141013057907015,-0.03008372198354103,0.06088936366702262,-0.025405330019276258,0.20919402827304442,0.050950520341823735,0.3141592653588545,1.1942741018140733e-11,-2.4176683849205652e-11,1.0084596116624498e-11,-8.306185044837503e-11,-2.0231592621732748e-11,-1.2468984294353728e-10,-0.22270763960219814,-0.5864675659598786,0.4176829213439128,-0.5955056376774231,0.41817888117485885,0.6258433724873461,0.280748164637658
2.6,-1.557821115367084,-1.8160448823369668,-1.7361849438091799,-2.6384507969221183,1.0559777259190994,-1.3826853792548097,-0.03008372198354103,0.06088936366702262,-0.025405330019276258,0.20919402827304442,0.050950520341823735,0.3141592653588545,1.1942741018140733e-11,-2.4176683849205652e-11,1.0084596116624498e-11,-8.306185044837503e-11,-2.0231592621732748e-11,-1.2468984294353728e-10,-0.22395454316717664,-0.5858137953808431,0.4181989151110143,-0.5906393926772735,0.43742991045085095,0.6235759737095329,0.26637039301129145
2.7,-1.560829487565439,-1.8099559459702637,-1.738725476811108,-2.6175313940948097,1.0610727779532827,-1.3512694527189182,-0.03008372198354103,0.06088936366702262,-0.025405330019276258,0.20919402827304442,0.050950520341823735,0.3141592653588545,1.1942741018140733e-11,-2.4176683849205652e-11,1.0084596116624498e-11,-8.306185044837503e-11,-2.0231592621732748e-11,-1.2468984294353728e-10,-0.22519758857741595,-0.5852034833522408,0.4187587935286299,-0.5852364851727447,0.4565450222712197,0.6208952807825727,0.2520990864004734
2.8,-1.5638378597637936,-1.80386700960356,-1.7412660098130361,-2.596611991267501,1.0661678299874662,-1.3198535261830262,-0.03008372198354103,0.06088936366702262,-0.025405330019276258,0.20919402827304442,0.050950520341823735,0.3141592653588545,1.1942741018140733e-11,-2.4176683849205652e-11,1.0084596116624498e-11,-8.306185044837503e-11,-2.0231592621732748e-11,-1.2468984294353728e-10,-0.2264372082387891,-0.5846353823478541,0.41936404420122475,-0.5793017022710643,0.47550868920100725,0.6178050109766218,0.23794535644211073
2.9,-1.5668462319621483,-1.7977780732368567,-1.7438065428149643,-2.5756925884401927,1.0712628820216494,-1.2884375996471347,-0.03008372198354103,0.06088936366702262,-0.025405330019276258,0.20919402827304442,0.050950520341823735,0.3141592653588545,1.1942741018140733e-11,-2.4176683849205652e-11,1.0084596116624498e-11,-8.306185044837503e-11,-2.0231592621732748e-11,-1.2468984294353728e-10,-0.2276738195942282,-0.5841081996406345,0.42001612507768704,-0.5728402894847517,0.49430555481640637,0.6143091795568298,0.22392019366927352
3.0,-1.569854604160503,-1.7916891368701533,-1.7463470758168924,-2.554773185612884,1.076357934055833,-1.257021673111243,-0.03008372198354103,0.06088936366702262,-0.025405330019276258,0.20919402827304442,0.050950520341823735,0.3141592653588545,1.1942741018140733e-11,-2.4176683849205652e-11,1.0084596116624498e-11,-8.306185044837503e-11,-2.0231592621732748e-11,-1.2468984294353728e-10,-0.22890782446979246,-0.5836205980612474,0.42071646323757916,-0.5658579447299474,0.5129204473685375,0.6104120959557907,0.21003445947776667
3.1,-1.5728629763588575,-1.7856002005034497,-1.7488876088188205,-2.5338537827855756,1.0814529860900162,-1.2256057465753514,-0.03008372198354103,0.06088936366702262,-0.025405330019276258,0.20919402827304442,0.050950520341823735,0.3141592653588545,1.1942741018140733e-11,-2.4176683849205652e-11,1.0084596116624498e-11,-8.306185044837503e-11,-2.0231592621732748e-11,-1.2468984294353728e-10,-0.23013960843315287,-0.5831711967976261,0.4214664536908502,-0.5583608119149482,0.531338393240283,0.6061183597280789,0.19629887821140768
3.2,-1.5758713485572124,-1.7795112641367463,-1.7514281418207487,-2.512934379958267,1.0865480381241996,-1.1941898200394596,-0.030083721983541062,0.06088936366702268,-0.02540533001927628,0.20919402827304417,0.05095052034182402,0.314159265358855,1.189420738265337e-11,-2.407268320173273e-11,1.0042995857635327e-11,-8.270131487046889e-11,-2.0141458727256215e-11,-1.2419063983566723e-10,-0.23136954016527295,-0.582758572235146,0.42226745819204425,-0.5503554741259797,0.549544630183834,0.6014328562905064,0.18272402937195734
3.3,-1.578879720755567,-1.773422327770043,-1.7539686748226768,-2.4920149771309585,1.0916430901583831,-1.1627738935035679,-0.030083721983541062,0.06088936366702268,-0.02540533001927628,0.20919402827304417,0.05095052034182402,0.314159265358855,1.189420738265337e-11,-2.407268320173273e-11,1.0042995857635327e-11,-8.270131487046889e-11,-2.0141458727256215e-11,-1.2419063983566723e-10,-0.23259797084605555,-0.5823812588369837,0.42312080407003216,-0.5418489464176248,0.5675246203268276,0.5963607524518926,0.1693203399595352
3.4,-1.5818880929539219,-1.7673333914033393,-1.756509207824605,-2.47109557430365,1.0967381421925664,-1.131357966967676,-0.030083721983541062,0.06088936366702268,-0.02540533001927628,0.20919402827304417,0.05095052034182402,0.314159265358855,1.189420738265337e-11,-2.407268320173273e-11,1.0042995857635327e-11,-8.270131487046889e-11,-2.0141458727256215e-11,-1.2419063983566723e-10,-0.233825233554725,-0.5820377500641828,0.4240277830742822,-0.5328486682156752,0.5852640629352118,0.590907491736309,0.1560980769492478
3.5,-1.5848964651522766,-1.761244455036636,-1.759049740826533,-2.4501761714763415,1.1018331942267499,-1.0999420404317843,-0.030083721983541062,0.06088936366702268,-0.02540533001927628,0.20919402827304417,0.05095052034182402,0.314159265358855,1.189420738265337e-11,-2.407268320173273e-11,1.0042995857635327e-11,-8.270131487046889e-11,-2.0141458727256215e-11,-1.2419063983566723e-10,-0.23505164268569181,-0.581726499334922,0.42498965023869345,-0.5233624953405549,0.6027489069212293,0.5850787895039044,0.14306733990962836
3.6,-1.587904837350631,-1.7551555186699324,-1.7615902738284612,-2.429256768649033,1.1069282462609333,-1.0685261138958926,-0.030083721983541062,0.06088936366702268,-0.02540533001927628,0.20919402827304417,0.05095052034182402,0.314159265358855,1.189420738265337e-11,-2.407268320173273e-11,1.0042995857635327e-11,-8.270131487046889e-11,-2.0141458727256215e-11,-1.2419063983566723e-10,-0.23627749338065038,-0.5814459210224262,0.4260076227639895,-0.5133986916597824,0.619965363085181,0.5788806278735815,0.130238053768366
3.7,-1.5909132095489857,-1.7490665823032288,-1.7641308068303894,-2.4083373658217244,1.1120232982951168,-1.037110187360001,-0.030083721983541062,0.06088936366702268,-0.02540533001927628,0.20919402827304417,0.05095052034182402,0.314159265358855,1.189420738265337e-11,-2.407268320173273e-11,1.0042995857635327e-11,-8.270131487046889e-11,-2.0141458727256215e-11,-1.2419063983566723e-10,-0.23750306097763912,-0.581194391490935,0.42708287891967883,-0.5029659203783129,0.6368999160799167,0.5723192504519352,0.11761996173068165
3.8,-1.5939215817473407,-1.7429776459365254,-1.7666713398323175,-2.387417962994416,1.1171183503293,-1.0056942608241093,-0.030083721983541062,0.06088936366702268,-0.02540533001927628,0.20919402827304417,0.05095052034182402,0.314159265358855,1.189420738265337e-11,-2.407268320173273e-11,1.0042995857635327e-11,-8.270131487046889e-11,-2.0141458727256215e-11,-1.2419063983566723e-10,-0.23872860047778274,-0.5809702501690982,0.4282165569665662,-0.49207323497590605,0.6535393360872793,0.5654011568730155,0.10522261835556472
3.9,-1.5969299539456954,-1.736888709569822,-1.7692118728342456,-2.366498560167107,1.1222134023634835,-0.9742783342882173,-0.030083721983541062,0.06088936366702268,-0.02540533001927628,0.20919402827304417,0.05095052034182402,0.314159265358855,1.189420738265337e-11,-2.407268320173273e-11,1.0042995857635327e-11,-8.270131487046889e-11,-2.0141458727256215e-11,-1.2419063983566723e-10,-0.23995434603042617,-0.5807718006601318,0.4294097541007978,-0.48073006980099725,0.6698706901960468,0.5581330971536126,0.0930553827949595
4.0,-1.5999383261440498,-1.7307997732031184,-1.7717524058361738,-2.345579157339799,1.127308454397667,-0.9428624077523258,-0.03008372198356776,0.060889363667076715,-0.025405330019298823,0.20919402827322983,0.05095052034186923,0.3141592653591338,-1.4781958694158107e-11,2.991751958972431e-11,-1.2483544385005475e-11,1.0280810671527975e-10,2.503642253499293e-11,1.5436469435588e-10,-0.2411805104373544,-0.5805973118880298,0.43066352542040526,-0.46894623033086463,0.6858813534712076,0.5505220658689076,0.08112741220084743
4.1,-1.6029466983424048,-1.724710836836415,-1.774292938838102,-2.32465975451249,1.1324035064318503,-0.9114464812164338,-0.030083721983541062,0.06088936366702268,-0.02540533001927628,0.20919402827304417,0.05095052034182402,0.314159265358855,1.189420738265337e-11,-2.407268320173273e-11,1.0042995857635327e-11,-8.270131487046889e-11,-2.0141458727256215e-11,-1.2419063983566723e-10,-0.2424072846767736,-0.5804450192790929,0.43197888291530767,-0.45673188310817947,0.7015590197047439,0.5425752961534558,0.06944765530501908
4.2,-1.6059550705407593,-1.7186219004697114,-1.77683347184003,-2.3037403516851813,1.1374985584660338,-0.8800305546805421,-0.030083721983541024,0.06088936366702284,-0.025405330019276248,0.2091940282730444,0.05095052034182373,0.3141592653588547,1.1925407576895246e-11,-2.4142016966714677e-11,1.0070729363628107e-11,-8.292318291841112e-11,-2.0203859115739968e-11,-1.245234419075806e-10,-0.24363483744771922,-0.5803131259779923,0.43335679448171427,-0.4440975453643229,0.7168917118384064,0.5343002535326089,0.05802484617620574
4.3,-1.6089634427391142,-1.7125329641030083,-1.7793740048419582,-2.2828209488578732,1.1425936105002172,-0.8486146281446507,-0.030083721983541024,0.06088936366702284,-0.025405330019276248,0.2091940282730444,0.05095052034182373,0.3141592653588547,1.1925407576895246e-11,-2.4142016966714677e-11,1.0070729363628107e-11,-8.292318291841112e-11,-2.0203859115739968e-11,-1.245234419075806e-10,-0.2448633147355387,-0.5801998040975589,0.4347981829618548,-0.431054074340127,0.7318677920493243,0.5257046295895955,0.046867498159061355
4.4,-1.6119718149374689,-1.7064440277363044,-1.7819145378438863,-2.261901546030564,1.1476886625344003,-0.8171987016087587,-0.030083721983541024,0.06088936366702284,-0.025405330019276248,0.2091940282730444,0.05095052034182373,0.3141592653588547,1.1925407576895246e-11,-2.4142016966714677e-11,1.0070729363628107e-11,-8.292318291841112e-11,-2.0203859115739968e-11,-1.245234419075806e-10,-0.24609283939907448,-0.5801031960014438,0.436303925209959,-0.41761265631497757,0.7464759714896155,0.5167963354736128,0.0359838979993531
4.5,-1.6149801871358236,-1.700355091369601,-1.7844550708458145,-2.2409821432032557,1.152783714568584,-0.7857827750728672,-0.030083721983541024,0.06088936366702284,-0.025405330019276248,0.2091940282730444,0.05095052034182373,0.3141592653588547,1.1925407576895246e-11,-2.4142016966714677e-11,1.0070729363628107e-11,-8.292318291841112e-11,-2.0203859115739968e-11,-1.245234419075806e-10,-0.24732351078016332,-0.5800214156187701,0.4378748511853764,-0.40378479535546413,0.7607053196715354,0.5075834952543896,0.02538210015956123
4.6,-1.617988559334178,-1.6942661550028975,-1.7869956038477426,-2.2200627403759468,1.1578787666027672,-0.7543668485369752,-0.030083721983541024,0.06088936366702284,-0.025405330019276248,0.2091940282730444,0.05095052034182373,0.3141592653588547,1.1925407576895246e-11,-2.4142016966714677e-11,1.0070729363628107e-11,-8.292318291841112e-11,-2.0203859115739968e-11,-1.245234419075806e-10,-0.2485554043360407,-0.579952549789854,0.4395117430737294,-0.38958230179501097,0.7745452734900556,0.4980744391287879,0.015069921328905797
4.7,-1.620996931532533,-1.688177218636194,-1.7895361368496707,-2.199143337548638,1.1629738186369507,-0.7229509220010838,-0.030083721983541024,0.06088936366702284,-0.025405330019276248,0.2091940282730444,0.05095052034182373,0.3141592653588547,1.1925407576895246e-11,-2.4142016966714677e-11,1.0070729363628107e-11,-8.292318291841112e-11,-2.0203859115739968e-11,-1.245234419075806e-10,-0.24978857129522544,-0.5798946596420439,0.441215334436958,-0.3750172804561682,0.7879856458751288,0.48827769648513547,0.005054935131694136
4.8,-1.6240053037308877,-1.6820882822694905,-1.7920766698515989,-2.1782239347213297,1.1680688706711342,-0.6915349954651919,-0.030083721983541024,0.06088936366702284,-0.025405330019276248,0.2091940282730444,0.05095052034182373,0.3141592653588547,1.1925407576895246e-11,-2.4142016966714677e-11,1.0070729363628107e-11,-8.292318291841112e-11,-2.0203859115739968e-11,-1.245234419075806e-10,-0.2510230383374346,-0.5798457819946936,0.4429863093931098,-0.3601021186274511,0.801016634066283,0.47820198883105897,-0.004655532962324272
4.9,-1.6270136759292422,-1.675999345902787,-1.7946172028535268,-2.157304531894021,1.1731639227053174,-0.6601190689293003,-0.030083721983541024,0.06088936366702284,-0.025405330019276248,0.2091940282730444,0.05095052034182373,0.3141592653588547,1.1925407576895246e-11,-2.4142016966714677e-11,1.0070729363628107e-11,-8.292318291841112e-11,-2.0203859115739968e-11,-1.245234419075806e-10,-0.2522588072980632,-0.5798039307922486,0.444825301826702,-0.3448494738068377,0.8136288275025553,0.4678562225907037,-0.01405441052204476
5.0,-1.6300220481275969,-1.6699104095360837,-1.797157735855455,-2.1363851290667126,1.1782589747395007,-0.6287031423934087,-0.030083721983541024,0.06088936366702284,-0.025405330019276248,0.2091940282730444,0.05095052034182373,0.3141592653588547,1.1925407576895246e-11,-2.4142016966714677e-11,1.0070729363628107e-11,-8.292318291841112e-11,-2.0203859115739968e-11,-1.245234419075806e-10,-0.253495854897735,-0.5797670985643999,0.44673289463046795,-0.3292722612242265,0.8258132153211775,0.45724948177730884,-0.023134882830174838
5.1,-1.6330304203259518,-1.6638214731693801,-1.799698268857383,-2.115465726239404,1.1833540267736842,-0.597287215857517,-0.030083721983540812,0.06088936366702264,-0.0254053300192765,0.20919402827304454,0.05095052034182376,0.3141592653588544,1.1953141082888025e-11,-2.4197483978700238e-11,1.0094996181371789e-11,-8.30895839543678e-11,-2.024545937472914e-11,-1.2480077696750837e-10,-0.254734132497412,-0.5797332579122265,0.44870961897927747,-0.31338364115534983,0.8375611934588082,0.44639102054719665,-0.031890397346289664
5.2,-1.6360387925243063,-1.6577325368026765,-1.8022388018593112,-2.0945463234120956,1.1884490788078677,-0.5658712893216252,-0.030083721983540812,0.06088936366702264,-0.0254053300192765,0.20919402827304454,0.05095052034182376,0.3141592653588544,1.1953141082888025e-11,-2.4197483978700238e-11,1.0094996181371789e-11,-8.30895839543678e-11,-2.024545937472914e-11,-1.2480077696750837e-10,-0.25597356587952647,-0.5797003630192122,0.4507559536369978,-0.29719700603980687,0.8488645713495124,0.4352902556413152,-0.04031466795475419
5.3,-1.6390471647226612,-1.6516436004359731,-1.8047793348612395,-2.073626920584787,1.1935441308420511,-0.5344553627857335,-0.030083721983540812,0.06088936366702264,-0.0254053300192765,0.20919402827304454,0.05095052034182376,0.3141592653588544,1.1953141082888025e-11,-2.4197483978700238e-11,1.0094996181371789e-11,-8.30895839543678e-11,-2.024545937472914e-11,-1.2480077696750837e-10,-0.25721405505557615,-0.5796663511860067,0.4528723242970436,-0.2807259674160421,0.8597155782140897,0.42395675872055305,-0.04840167899467381
5.4,-1.6420555369210157,-1.6455546640692695,-1.8073198678631677,-2.0527075177574785,1.1986391828762344,-0.503039436249842,-0.030083721983540812,0.06088936366702264,-0.0254053300192765,0.20919402827304454,0.05095052034182376,0.3141592653588544,1.1953141082888025e-11,-2.4197483978700238e-11,1.0094996181371789e-11,-8.30895839543678e-11,-2.024545937472914e-11,-1.2480077696750837e-10,-0.2584554741005929,-0.5796291443877574,0.45505910295734386,-0.26398434268624793,0.8701068689357606,0.41240024860111285,-0.056145689069215465
5.5,-1.6450639091193708,-1.6394657277025657,-1.809860400865096,-2.031788114930168,1.203734234910418,-0.47162350971394784,-0.030083721983559776,0.06088936366706103,-0.025405330019292516,0.2091940282731764,0.05095052034185588,0.3141592653590525,-6.995776886684873e-12,1.4164888185824773e-11,-5.907236776467306e-12,4.867230301737147e-11,1.1849140435425617e-11,7.310552179703201e-11,-0.25969767101488117,-0.5795866508528247,0.4573166073304181,-0.24698614172429667,0.8800315295176355,0.40063058339630214,-0.06354123463181546
5.6,-1.6480722813177262,-1.6333767913358603,-1.8124009338670248,-2.0108687121028526,1.2088292869446031,-0.4402075831780462,-0.030083721983559776,0.06088936366706103,-0.025405330019292516,0.2091940282731764,0.05095052034185588,0.3141592653590525,-6.995776886684873e-12,1.4164888185824773e-11,-5.907236776467306e-12,4.867230301737147e-11,1.1849140435425617e-11,7.310552179703201e-11,-0.2609404676133829,-0.5795367666616597,0.45964510028924777,-0.22974555333994345,0.889483082117801,0.38865775257115653,-0.07058313334698438
5.7,-1.651080653516082,-1.627287854969155,-1.8149414668689539,-1.9899493092755374,1.2139243389787882,-0.40879165664214473,-0.030083721983559776,0.06088936366706103,-0.025405330019292516,0.2091940282731764,0.05095052034185588,0.3141592653590525,-6.995776886684873e-12,1.4164888185824773e-11,-5.907236776467306e-12,4.867230301737147e-11,1.1849140435425617e-11,7.310552179703201e-11,-0.26218365944301253,-0.5794773773646003,0.4620447893495866,-0.21227693161264344,0.8984554896582808,0.3764918689163777,-0.07726648722358913
5.8,-1.6540890257144376,-1.6211989186024494,-1.8174819998708829,-1.9690299064482222,1.2190193910129732,-0.37737573010624276,-0.030083721983559776,0.06088936366706103,-0.025405330019292516,0.2091940282731764,0.05095052034185588,0.3141592653590525,-6.995776886684873e-12,1.4164888185824773e-11,-5.907236776467306e-12,4.867230301737147e-11,1.1849140435425617e-11,7.310552179703201e-11,-0.26342701572826727,-0.5794063596173192,0.4645158261893484,-0.1945947821083977,0.9069431600045631,0.36414316044808503,-0.08358668551870463
5.9,-1.6570973979127932,-1.6151099822357442,-1.820022532872812,-1.948110503620907,1.2241144430471582,-0.34595980357034123,-0.030083721983559776,0.06088936366706103,-0.025405330019292516,0.2091940282731764,0.05095052034185588,0.3141592653590525,-6.995776886684873e-12,1.4164888185824773e-11,-5.907236776467306e-12,4.867230301737147e-11,1.1849140435425617e-11,7.310552179703201e-11,-0.2646702793454006,-0.5793215828326332,0.46705830620565736,-0.17671374799318268,0.914940949712779,0.3516219622399833,-0.08953940741027763
6.0,-1.6601057701111488,-1.6090210458690388,-1.8225630658747407,-1.927191100793592,1.229209495081343,-0.31454387703444003,-0.030083721983559776,0.06088936366706103,-0.025405330019292516,0.2091940282731764,0.05095052034185588,0.3141592653590525,-6.995776886684873e-12,1.4164888185824773e-11,-5.907236776467306e-12,4.867230301737147e-11,1.1849140435425617e-11,7.310552179703201e-11,-0.2659131668254086,-0.5792209108473598,0.46967226811015006,-0.1586485960565295,0.9224441673420762,0.33893870819453226,-0.09512062443706744
6.1,-1.6631141423095044,-1.6029321095023334,-1.8251035988766697,-1.9062716979662768,1.2343045471155283,-0.2831279504985381,-0.030083721983559984,0.060889363667060985,-0.025405330019292263,0.2091940282731762,0.05095052034185607,0.31415926535905264,-7.013110327930375e-12,1.4199555068315777e-11,-5.924570217712808e-12,4.878323704134268e-11,1.1883807317916623e-11,7.327192283298884e-11,-0.2671553683860602,-0.57910220360289,0.4723576935630623,-0.1404142026589077,0.9294485763301397,0.32610392275977534,-0.1003266027044981
6.2,-1.66612251450786,-1.5968431731356278,-1.8276441318785985,-1.8853522951389614,1.239399599149713,-0.25171202396263653,-0.030083721983559984,0.060889363667060985,-0.025405330019292263,0.2091940282731762,0.05095052034185607,0.31415926535905264,-7.013110327930375e-12,1.4199555068315777e-11,-5.924570217712808e-12,4.878323704134268e-11,1.1883807317916623e-11,7.327192283298884e-11,-0.26839654799316615,-0.5789633188381257,0.47511450684663203,-0.12202553961659923,0.9359503974302499,0.31312821259849316,-0.10515390485525518
6.3,-1.6691308867062158,-1.5907542367689225,-1.8301846648805276,-1.8644328923116462,1.2444946511838983,-0.22029609742673498,-0.030083721983559984,0.060889363667060985,-0.025405330019292263,0.2091940282731762,0.05095052034185607,0.31415926535905264,-7.013110327930375e-12,1.4199555068315777e-11,-5.924570217712808e-12,4.878323704134268e-11,1.1883807317916623e-11,7.327192283298884e-11,-0.26963634345125653,-0.5788021137934065,0.47794257457829653,-0.10349766003777372,0.9419463107086926,0.3000222582163856,-0.10959939180364503
6.4,-1.6721392589045712,-1.584665300402217,-1.8327251978824564,-1.843513489484331,1.2495897032180832,-0.1888801708908334,-0.030083721983559984,0.060889363667060985,-0.025405330019292263,0.2091940282731762,0.05095052034185607,0.31415926535905264,-7.013110327930375e-12,1.4199555068315777e-11,-5.924570217712808e-12,4.878323704134268e-11,1.1883807317916623e-11,7.327192283298884e-11,-0.270874366523804,-0.5786164469240447,0.4808417054641562,-0.08484568412350363,0.9474334571017707,0.28679680555599085,-0.11366022423293408
6.5,-1.6751476311029272,-1.578576364035512,-1.8352657308843854,-1.822594086657016,1.2546847552522682,-0.15746424435493184,-0.030083721983559984,0.060889363667060985,-0.025405330019292263,0.2091940282731762,0.05095052034185607,0.31415926535905264,-7.013110327930375e-12,1.4199555068315777e-11,-5.924570217712808e-12,4.878323704134268e-11,1.1883807317916623e-11,7.327192283298884e-11,-0.2721102030831039,-0.5784041796220563,0.4838116500931245,-0.06608478494744396,0.95240943953209,0.27346265756307925,-0.1173338638550634
6.6,-1.6781560033012828,-1.5724874276688063,-1.8378062638863142,-1.801674683829701,1.2597798072864532,-0.12604831781903028,-0.030083721983559984,0.060889363667060985,-0.025405330019292263,0.2091940282731762,0.05095052034185607,0.31415926535905264,-7.013110327930375e-12,1.4199555068315777e-11,-5.924570217712808e-12,4.878323704134268e-11,1.1883807317916623e-11,7.327192283298884e-11,-0.2733434132898853,-0.5781631779446801,0.486852100772178,-0.047230174227904625,0.9568723235842278,0.2600306657322483,-0.12061807443234346
6.7,-1.681127699221831,-1.5664727239791145,-1.840315824226613,-1.781010317872517,1.2648127434880458,-0.09501539550376165,-0.02820116132507847,0.057079066502959276,-0.02381553089682346,0.19610321298670452,0.047762170004848004,0.2945000000000121,0.04787973060193951,-0.09690843209147162,0.04043383853373654,-0.3329426366434254,-0.08109027165354912,-0.4999999999905631,-0.27455855548053554,-0.5778948230436884,0.4899243482343288,-0.02852832069144599,0.9607756051672978,0.24667701655267524,-0.12347801803807106
6.8,-1.6837092667780553,-1.5612476389365144,-1.8424959260028766,-1.7630587985544928,1.2691849488408002,-0.06805651829496936,-0.023413188264797793,0.04738822329363702,-0.019772147043376584,0.16280894932175907,0.039653142839346275,0.2445000000000549,0.04787973059777617,-0.09690843208304087,0.04043383853021852,-0.3329426366144763,-0.0810902716464992,-0.4999999999470146,-0.27561135714609536,-0.577635668865496,0.4926485034846378,-0.012230924299737071,0.9637581377426077,0.23501575585414677,-0.12565130690119816
6.9,-1.6858120370282512,-1.5569916382148477,-1.8442716893937952,-1.7484367056029675,1.2727462514770032,-0.04609764108617834,-0.018625215204517123,0.03769738008431477,-0.01572876318992971,0.12951468565681368,0.03154411567384456,0.1945000000000977,0.047879730593609365,-0.09690843207460317,0.0404338385267005,-0.33294263658547174,-0.08109027163943541,-0.4999999999035216,-0.2764667277911635,-0.5774057205505136,0.49490514931269736,0.0010716627965809415,0.9659066718103538,0.22548063000252716,-0.12720706892605926
7.0,-1.6874360099724186,-1.553704721814114,-1.8456431143993686,-1.7371440390179398,1.2754966513966552,-0.02913876387738784,-0.013837242144211826,0.028006536874942683,-0.011685379336462041,0.09622042199169702,0.023435088508301134,0.1444999999998834,0.04787973061402097,-0.09690843211592148,0.04043383854393896,-0.33294263672743724,-0.0810902716740093,-0.5000000001166844,-0.27712587437035163,-0.5772160523327504,0.49667102353078096,0.01135881242573808,0.9673933749634601,0.2180966774104308,-0.12827655576765976
7.1,-1.6885811856105575,-1.5513868897343135,-1.846610201019597,-1.7291807987994092,1.2774361485997565,-0.017179886668597138,-0.009049269083939646,0.018315693665637622,-0.00764199548302234,0.06292615832681064,0.015326061342813795,0.09450000000001489,0.047879730601374834,-0.0969084320903239,0.04043383853325914,-0.3329426366394937,-0.08109027165259067,-0.49999999998460953,-0.27758986882721254,-0.5770757770563978,0.4979282954202049,0.018618648149841027,0.9683513093760014,0.21288032059501408,-0.12896145421877023
7.2,-1.6892475639426678,-1.550038141975446,-1.8471729492544804,-1.724546984947376,1.2785647430863072,-0.010221009459806227,-0.004261296023652155,0.008624850456301573,-0.003598611629569708,0.02963189466181781,0.007217034177300524,0.0444999999999865,0.047879730604041916,-0.09690843209572196,0.04043383853551184,-0.3329426366580432,-0.08109027165710869,-0.5000000000124691,-0.27785954291182957,-0.5769916130620357,0.49866446805692255,0.02284491725945358,0.9688743086117986,0.20984161173203322,-0.12933360682019457
7.289177544,-1.6894379489386417,-1.5496528033108041,-1.8473337270218084,-1.7232230994171114,1.278887183727643,-0.008232850863499227,-7.866045518731813e-18,1.5920852694804713e-17,-6.6427778603779166e-18,5.469834316189052e-17,1.3322125248701838e-17,8.214379466729881e-17,0.047879730607374126,-0.0969084321024669,0.04043383853832585,-0.33294263668121465,-0.08109027166275268,-0.5000000000472684,-0.27793654410244145,-0.5769672202521741,0.4988754090445626,0.02405257517298225,0.9690190794934587,0.20897302433808512,-0.129436363917533
