mathias31415/primitives_from_planned_trajectory_python/data/saved_trajectories/trajectory_20250624_120903_planned.csv
time_from_start,shoulder_pan_joint_pos,shoulder_lift_joint_pos,elbow_joint_pos,wrist_1_joint_pos,wrist_2_joint_pos,wrist_3_joint_pos,shoulder_pan_joint_vel,shoulder_lift_joint_vel,elbow_joint_vel,wrist_1_joint_vel,wrist_2_joint_vel,wrist_3_joint_vel,shoulder_pan_joint_acc,shoulder_lift_joint_acc,elbow_joint_acc,wrist_1_joint_acc,wrist_2_joint_acc,wrist_3_joint_acc,fk_x,fk_y,fk_z,fk_qx,fk_qy,fk_qz,fk_qw
0.0,-0.4877760000000002,-1.7890100000000002,-2.1248749999999994,-0.7879159999999992,1.604518,1.0824940000000005,-0.0002775104108779234,2.3869051049828262e-05,0.00029534081536028846,0.0005000000000000001,-9.699293398366792e-05,-0.0003352270435752782,-0.2775104108779234,0.023869051049828262,0.29534081536028844,0.5000000000000001,-0.09699293398366791,-0.3352270435752782,0.5060147709347678,-0.4611512744871516,0.26484634842360266,-0.00035237885907331594,0.9998437902081486,0.012409526490071631,0.01258072587871804
0.1,-0.4891635520543898,-1.788890654744751,-2.123398295923198,-0.7854159999999991,1.6040330353300816,1.080817864782124,-0.027751041087792153,0.00238690510498281,0.02953408153602865,0.04999999999999968,-0.009699293398366726,-0.0335227043575276,-0.27751041087778805,0.02386905104981641,0.29534081536014184,0.49999999999975714,-0.0969929339836184,-0.33522704357510896,0.5062619554809196,-0.46238939985247063,0.2660111273685441,-0.0005293933107019199,0.9998348368714142,0.01121314851721404,0.0142927961353245
0.2,-0.4933262082175587,-1.7885326189790036,-2.1189681836927936,-0.7779159999999992,1.6025781413203268,1.075789459128495,-0.055502082175584534,0.00477381020996564,0.05906816307205754,0.09999999999999977,-0.019398586796733536,-0.06704540871505547,-0.2775104108779303,0.023869051049828553,0.29534081536029794,0.5000000000000278,-0.09699293398367217,-0.3352270435752894,0.5069724485885961,-0.46610445603294154,0.2695231722376298,-0.0010544378201524454,0.9997822846779858,0.0075925026890555905,0.019406836626995043
0.30000000000000004,-0.5002639684895067,-1.7879358927027578,-2.1115846633087862,-0.7654159999999993,1.6001533179707352,1.067408783039113,-0.08325312326337858,0.007160715314948614,0.0886022446080882,0.15000000000000285,-0.029097880195100925,-0.10056811307258536,-0.2775104108797414,0.02386905104998468,0.29534081536222695,0.5000000000032752,-0.09699293398430361,-0.3352270435774682,0.5080526896590509,-0.4722972580673376,0.27543500570531537,-0.0019093988273883727,0.9996090868093631,0.0014539899070228728,0.027855227114840172
0.4,-0.509976832870234,-1.787100475916014,-2.101247734771176,-0.7479159999999994,1.5967585652813066,1.0556758365139782,-0.11100416435116865,0.009547620419931244,0.11813632614411464,0.19999999999999876,-0.038797173593466926,-0.13409081743011045,-0.27751041087757644,0.023869051049797328,0.29534081535990936,0.49999999999933387,-0.09699293398354727,-0.33522704357485916,0.5093455629366164,-0.480965063668043,0.2838321297835489,-0.003063704262443546,0.9991869475059932,-0.0073552127228161315,0.03952162061011599
0.5,-0.5224648013597404,-1.7860263686187716,-2.087957398079963,-0.7254159999999994,1.5923938832520417,1.040590619553091,-0.1387552054389587,0.011934525524913874,0.14767040768014106,0.24999999999999467,-0.048496466991832916,-0.1676135217876355,-0.2775104108753699,0.023869051049609978,0.29534081535759177,0.49999999999542033,-0.09699293398277706,-0.3352270435721946,0.5106289142584564,-0.4920953711626854,0.29482986581871007,-0.004473775017190018,0.9983365531230144,-0.019042204887597523,0.05423565680041941
0.6000000000000001,-0.5377278739580262,-1.784713570811031,-2.0717136532351477,-0.6979159999999995,1.5870592718829402,1.0221531321564508,-0.16650624652675933,0.014321430629897413,0.1772044892161787,0.3000000000000096,-0.058195760390202605,-0.20113622614517335,-0.2775104108837798,0.023869051050331623,0.2953408153665013,0.5000000000105471,-0.09699293398571221,-0.33522704358235317,0.5116140591117051,-0.5056571606714001,0.3085687260472009,-0.006082309099529513,0.9968280105012056,-0.03386108351436223,0.07176593913173315
0.7000000000000001,-0.555053063940836,-1.783223407458819,-2.0532752972844377,-0.6667006125700283,1.5810039278584003,1.0012246480720384,-0.17436493362174998,0.014997367085259714,0.18556810716821628,0.3141592653589725,-0.06094245777064085,-0.21062936347613928,3.799490321012076e-12,-3.2413535129071994e-13,-4.0213583689543865e-12,-6.822442474226062e-12,1.3242749111556685e-12,4.576028488810163e-12,0.5119490105625077,-0.5209622922812428,0.3245424386636493,-0.0077523195105388375,0.9944919200553488,-0.05136743017152702,0.09103356306552826
0.8,-0.5724895573030112,-1.7817236707502928,-2.034718486567616,-0.6352846860341307,1.5749096820813362,0.9801617117244241,-0.17436493362174998,0.014997367085259714,0.18556810716821628,0.3141592653589725,-0.06094245777064085,-0.21062936347613928,3.799490321012076e-12,-3.2413535129071994e-13,-4.0213583689543865e-12,-6.822442474226062e-12,1.3242749111556685e-12,4.576028488810163e-12,0.5114406367533763,-0.5362308153594736,0.34100378850468804,-0.009262721308644287,0.9914735936300746,-0.06968809132386083,0.10971729606521223
0.9,-0.5899260506651868,-1.7802239340417667,-2.0161616758507934,-0.6038687594982324,1.5688154363042717,0.9590987753768095,-0.17436493362177102,0.014997367085261523,0.18556810716823866,0.3141592653590104,-0.060942457770648197,-0.2106293634761647,-1.722250722152189e-11,1.4837425706142046e-12,1.8331847461233444e-11,3.106152671192354e-11,-6.018170800435185e-12,-2.0827863000584443e-11,0.5100817305180665,-0.5513226779551113,0.357828159738281,-0.010599289311014946,0.9877888595776967,-0.08867606855557693,0.12766118762498477
1.0,-0.607362544027363,-1.7787241973332408,-1.9976048651339706,-0.572452832962333,1.5627211905272074,0.9380358390291942,-0.1743649336217706,0.014997367085261505,0.18556810716823913,0.3141592653590102,-0.060942457770648474,-0.21062936347616426,-1.7111573197550734e-11,1.4716091617423595e-12,1.81931799312695e-11,3.083965866398122e-11,-5.976570541446002e-12,-2.066146196462771e-11,0.5078724734115233,-0.5661966722824975,0.3749915782367699,-0.011759298964428337,0.9834411575157519,-0.1082932753928757,0.14483706396025164
1.1,-0.6247990373895373,-1.777224460624715,-1.9790480544171496,-0.5410369064264368,1.5566269447501433,0.916972902681581,-0.17436493362173194,0.014997367085258178,0.18556810716819797,0.3141592653589405,-0.06094245777063496,-0.21062936347611755,2.1521200650401778e-11,-1.852944869143001e-12,-2.293560945603385e-11,-3.877144137791454e-11,7.529646877041344e-12,2.6014028621233075e-11,0.5048155829459813,-0.5808119192002864,0.3924694282279386,-0.01274026210987663,0.9784344004434662,-0.12850048164636907,0.16121859683937687
1.2,-0.6422355307517116,-1.7757247239161889,-1.9604912437003286,-0.5096209798905409,1.5505326989730794,0.8959099663339679,-0.17436493362173194,0.014997367085258178,0.18556810716819797,0.3141592653589405,-0.06094245777063496,-0.21062936347611755,2.1521200650401778e-11,-1.852944869143001e-12,-2.293560945603385e-11,-3.877144137791454e-11,7.529646877041344e-12,2.6014028621233075e-11,0.5009162994660276,-0.5951280215484848,0.4102365106495936,-0.013539930000086268,0.9727729705342817,-0.14925740339923846,0.17678134976297485
1.3,-0.6596720241138858,-1.774224987207663,-1.941934432983508,-0.4782050533546449,1.5444384531960158,0.8748470299863549,-0.17436493362173194,0.014997367085258178,0.18556810716819797,0.3141592653589405,-0.06094245777063496,-0.21062936347611755,2.1521200650401778e-11,-1.852944869143001e-12,-2.293560945603385e-11,-3.877144137791454e-11,7.529646877041344e-12,2.6014028621233075e-11,0.4961823627841454,-0.609105215954801,0.42826710318517774,-0.014156296064055666,0.9664617145761099,-0.1705227948290898,0.1915028197808814
1.4,-0.6771085174760602,-1.7727252504991373,-1.923377622266687,-0.4467891268187488,1.538344207418952,0.8537840936387419,-0.17436493362173194,0.014997367085258178,0.18556810716819797,0.3141592653589405,-0.06094245777063496,-0.21062936347611755,2.1521200650401778e-11,-1.852944869143001e-12,-2.293560945603385e-11,-3.877144137791454e-11,7.529646877041344e-12,2.6014028621233075e-11,0.4906239786781775,-0.6227045224214828,0.4465350218177019,-0.01458759841563171,0.9595059390641709,-0.19225454165261244,0.20536247487550333
1.5,-0.6945450108382343,-1.7712255137906112,-1.9048208115498657,-0.4153732002828529,1.5322499616418879,0.8327211572911288,-0.17436493362173194,0.014997367085258178,0.18556810716819797,0.3141592653589405,-0.06094245777063496,-0.21062936347611755,2.1521200650401778e-11,-1.852944869143001e-12,-2.293560945603385e-11,-3.877144137791454e-11,7.529646877041344e-12,2.6014028621233075e-11,0.48425377540009445,-0.635887891012229,0.46501368373426905,-0.014832322103387327,0.9519114049515549,-0.21440975597942857,0.21834178685038744
1.6,-0.7119815042004086,-1.7697257770820853,-1.886264000833045,-0.3839572737469569,1.5261557158648242,0.8116582209435158,-0.1743649336217323,0.014997367085257857,0.18556810716819766,0.3141592653589411,-0.060942457770634735,-0.21062936347611796,2.116066507249556e-11,-1.8200113307765677e-12,-2.2519606866142066e-11,-3.816130424607325e-11,7.390979347077414e-12,2.5570292525348503e-11,0.4770867503927784,-0.648618344970563,0.4836761714089798,-0.014889201099319386,0.9436843220629091,-0.23694487235933345,0.23042425967313193
1.7000000000000002,-0.729417997562583,-1.7682260403735595,-1.867707190116224,-0.3525413472110608,1.5200614700877604,0.7905952845959027,-0.1743649336217323,0.014997367085257857,0.18556810716819766,0.3141592653589411,-0.060942457770634735,-0.21062936347611796,2.116066507249556e-11,-1.8200113307765677e-12,-2.2519606866142066e-11,-3.816130424607325e-11,7.390979347077414e-12,2.5570292525348503e-11,0.46914020745801016,-0.6608601196161512,0.5024952976879888,-0.014757220024142995,0.9348313431769094,-0.25981574480541253,0.24159545323209847
1.8,-0.7468544909247572,-1.7667263036650336,-1.8491503793994033,-0.3211254206751648,1.5139672243106963,0.7695323482482896,-0.1743649336217323,0.014997367085257857,0.18556810716819766,0.3141592653589411,-0.060942457770634735,-0.21062936347611796,2.116066507249556e-11,-1.8200113307765677e-12,-2.2519606866142066e-11,-3.816130424607325e-11,7.390979347077414e-12,2.5570292525348503e-11,0.4604336846642399,-0.6725787963839144,0.521443671696963,-0.014435615607210914,0.9253595577834395,-0.28297774457430486,0.2518430024767767
1.9,-0.7642909842869315,-1.7652265669565077,-1.8305935686825823,-0.2897094941392688,1.5078729785336327,0.7484694119006765,-0.1743649336217323,0.014997367085257857,0.18556810716819766,0.3141592653589411,-0.060942457770634735,-0.21062936347611796,2.116066507249556e-11,-1.8200113307765677e-12,-2.2519606866142066e-11,-3.816130424607325e-11,7.390979347077414e-12,2.5570292525348503e-11,0.4509888733268024,-0.6837414313923047,0.5404937653882053,-0.013923877879351267,0.9152764855216382,-0.30638585848416866,0.26115663192206756
2.0,-0.7817274776491059,-1.7637268302479818,-1.8120367579657612,-0.25829356760337263,1.5017787327565686,0.7274064755530634,-0.17436493362180966,0.014997367085264512,0.18556810716828,0.31415926535908056,-0.060942457770661776,-0.21062936347621145,-5.61326161294109e-11,4.829096730994898e-12,5.976570541446665e-11,1.0117182986170503e-10,-1.96283888663985e-11,-6.783615565836911e-11,0.4408295284357747,-0.6943166779517137,0.559617980542225,-0.013221751097175438,0.9045900693052312,-0.3299947875506809,0.2695281655071732
2.1,-0.7991639710112839,-1.7622270935394555,-1.7934799472489362,-0.22687764106746977,1.4956844869795036,0.7063435392054458,-0.17436493362180966,0.014997367085264512,0.18556810716828,0.31415926535908056,-0.060942457770661776,-0.21062936347621145,-5.61326161294109e-11,4.829096730994898e-12,5.976570541446665e-11,1.0117182986170503e-10,-1.96283888663985e-11,-6.783615565836911e-11,0.4299813709474539,-0.7042749024515533,0.5787887160366161,-0.012329234397673543,0.8933086681417864,-0.35375904572167255,0.2769515318101821
2.2,-0.8166004643734621,-1.7607273568309294,-1.7749231365321112,-0.19546171453156677,1.4895902412024382,0.6852806028578279,-0.17436493362180966,0.014997367085264512,0.18556810716828,0.31415926535908056,-0.060942457770661776,-0.21062936347621145,-5.61326161294109e-11,4.829096730994898e-12,5.976570541446665e-11,1.0117182986170503e-10,-1.96283888663985e-11,-6.783615565836911e-11,0.4184719823942616,-0.7135882930949179,0.5979784351936769,-0.011246582182178262,0.8814410496527852,-0.3776330584917437,0.2834227646297791
2.3,-0.8340369577356403,-1.759227620122403,-1.7563663258152862,-0.1640457879956637,1.483495995425373,0.6642176665102101,-0.17436493362180938,0.014997367085264824,0.1855681071682802,0.3141592653590795,-0.06094245777066196,-0.21062936347621106,-5.557794600955506e-11,4.778829751382963e-12,5.912783477663243e-11,1.0011795663397893e-10,-1.9420387571452562e-11,-6.711508450255652e-11,0.40633069230449104,-0.7222309609828566,0.6171597330174381,-0.009974304229041827,0.868996382301583,-0.40157126117952396,0.2889399989558281
2.4,-0.8514734510978185,-1.757727883413877,-1.7378095150984612,-0.1326298614597608,1.4774017496483078,0.6431547301625924,-0.17436493362180938,0.014997367085264824,0.1855681071682802,0.3141592653590795,-0.06094245777066196,-0.21062936347621106,-5.557794600955506e-11,4.778829751382963e-12,5.912783477663243e-11,1.0011795663397893e-10,-1.9420387571452562e-11,-6.711508450255652e-11,0.39358845895765937,-0.7301790330858576,0.6363054031303792,-0.008513165534642238,0.8559842273366054,-0.42552819665187697,0.29350346236072905
2.5,-0.8689099444599966,-1.7562281467053507,-1.7192527043816361,-0.10121393492385797,1.4713075038712424,0.6220917938149746,-0.17436493362180938,0.014997367085264824,0.1855681071682802,0.3141592653590795,-0.06094245777066196,-0.21062936347621106,-5.557794600955506e-11,4.778829751382963e-12,5.912783477663243e-11,1.0011795663397893e-10,-1.9420387571452562e-11,-6.711508450255652e-11,0.38027774403293224,-0.737410736678138,0.6553885042204711,-0.006864185882596989,0.8424145304572869,-0.4494586122816431,0.29711546185356613
2.6,-0.8863464378221747,-1.7547284099968246,-1.700695893664811,-0.06979800838795507,1.4652132580941775,0.601028857467357,-0.17436493362180938,0.014997367085264824,0.1855681071682802,0.3141592653590795,-0.06094245777066196,-0.21062936347621106,-5.557794600955506e-11,4.778829751382963e-12,5.912783477663243e-11,1.0011795663397893e-10,-1.9420387571452562e-11,-6.711508450255652e-11,0.36643238173718057,-0.7439064748504834,0.6743824258099603,-0.005028639141334637,0.8282976132104922,-0.47331755592815744,0.29978036624899845
2.7,-0.9037829311843529,-1.7532286732882982,-1.682139082947986,-0.038382081852052004,1.459119012317112,0.5799659211197392,-0.17436493362180938,0.014997367085264824,0.1855681071682802,0.3141592653590795,-0.06094245777066196,-0.21062936347621106,-5.557794600955506e-11,4.778829751382963e-12,5.912783477663243e-11,1.0011795663397893e-10,-1.9420387571452562e-11,-6.711508450255652e-11,0.3520874430254035,-0.7496488927595036,0.6932609531587309,-0.0030080522904372244,0.8136441641253396,-0.49706047073295195,0.3015045841126326
2.8,-0.921219424546531,-1.751728936579772,-1.6635822722311608,-0.006966155316149096,1.4530247665400469,0.5589029847721214,-0.17436493362180938,0.014997367085264824,0.1855681071682802,0.3141592653590795,-0.06094245777066196,-0.21062936347621106,-5.557794600955506e-11,4.778829751382963e-12,5.912783477663243e-11,1.0011795663397893e-10,-1.9420387571452562e-11,-6.711508450255652e-11,0.33727909554948243,-0.7546229343150804,0.7119983311170042,-0.0008042041764399634,0.7984652295945386,-0.5206432885266309,0.3022965373542327
2.9,-0.9386559179087094,-1.7502291998712456,-1.6450254615143358,0.024449771219753946,1.446930520762982,0.5378400484245036,-0.1743649336218097,0.014997367085264847,0.1855681071682798,0.31415926535908,-0.06094245777066171,-0.2106293634762114,-5.585528106948298e-11,4.804829913251205e-12,5.943290334255314e-11,1.0061715974184918e-10,-1.9517454842427333e-11,-6.74756200804628e-11,0.3220444599913101,-0.758815889053243,0.730569326744654,0.0015808760009640823,0.7827722045105371,-0.5440225216469737,0.3021666305495224
3.0,-0.9560924112708873,-1.7487294631627193,-1.6264686507975108,0.05586569775565672,1.4408362749859167,0.5167771120768859,-0.1743649336218097,0.014997367085264847,0.1855681071682798,0.31415926535908,-0.06094245777066171,-0.2106293634762114,-5.585528106948298e-11,4.804829913251205e-12,5.943290334255314e-11,1.0061715974184918e-10,-1.9517454842427333e-11,-6.74756200804628e-11,0.30642146345321775,-0.7622174289885109,0.74894929051745,0.00414491047109422,0.7665768226649392,-0.5671553529727992,0.3011272160805339
3.1,-0.9735289046330655,-1.7472297264541932,-1.607911840080686,0.08728162429155965,1.4347420292088513,0.49571417572926824,-0.1743649336218097,0.014997367085264847,0.1855681071682798,0.31415926535908,-0.06094245777066171,-0.2106293634762114,-5.585528106948298e-11,4.804829913251205e-12,5.943290334255314e-11,1.0061715974184918e-10,-1.9517454842427333e-11,-6.74756200804628e-11,0.2904486905921667,-0.7648196352876392,0.7671142159441352,0.006885374941348928,0.7498911469198252,-0.5899997239830156,0.2991925551933932
3.2,-0.9909653979952437,-1.745729989745667,-1.589355029363861,0.11869755082746274,1.4286477834317863,0.47465123938165044,-0.1743649336218097,0.014997367085264847,0.1855681071682798,0.31415926535908,-0.06094245777066171,-0.2106293634762114,-5.585528106948298e-11,4.804829913251205e-12,5.943290334255314e-11,1.0061715974184918e-10,-1.9517454842427333e-11,-6.74756200804628e-11,0.2741652331943485,-0.7666170146554692,0.7850407974223675,0.009799500911416585,0.732727559159756,-0.612514420655615,0.2963787750811276
3.3,-1.008401891357422,-1.7442302530371407,-1.570798218647036,0.1501134773633657,1.422553537654721,0.45358830303403264,-0.1743649336218097,0.014997367085264847,0.1855681071682798,0.31415926535908,-0.06094245777066171,-0.2106293634762114,-5.585528106948298e-11,4.804829913251205e-12,5.943290334255314e-11,1.0061715974184918e-10,-1.9517454842427333e-11,-6.74756200804628e-11,0.257610538893528,-0.7676065053729759,0.8027064861661851,0.01288427825062711,0.7150987500334004,-0.6346591570270625,0.2927038221074796
3.4,-1.0258383847196002,-1.7427305163286144,-1.552241407930211,0.18152940389926878,1.4164592918776557,0.4325253666864148,-0.1743649336218097,0.014997367085264847,0.1855681071682798,0.31415926535908,-0.06094245777066171,-0.2106293634762114,-5.585528106948298e-11,4.804829913251205e-12,5.943290334255314e-11,1.0061715974184918e-10,-1.9517454842427333e-11,-6.74756200804628e-11,0.24082425973970753,-0.7677874729773592,0.8200895440428215,0.016136458036166392,0.6970177084938541,-0.656394656238633,0.28818741129582787
3.5,-1.0432748780817782,-1.741230779620088,-1.533684597213386,0.21294533043517158,1.4103650461005908,0.41146243033879715,-0.17436493362180944,0.014997367085264507,0.18556810716828032,0.3141592653590806,-0.060942457770661755,-0.2106293634762114,-5.6188083141396484e-11,4.832563419243997e-12,5.979343892045943e-11,1.0122729687369061e-10,-1.96353222428967e-11,-6.789162267035468e-11,0.22384610132438168,-0.7671616956239122,0.8371690951623332,0.019552555649628635,0.6784977111468573,-0.6776827289027016,0.28285097221510747
3.6,-1.0607113714439564,-1.739731042911562,-1.5151277864965607,0.2443612569710747,1.4042708003235254,0.39039949399117935,-0.17436493362180944,0.014997367085264507,0.18556810716828032,0.3141592653590806,-0.060942457770661755,-0.2106293634762114,-5.6188083141396484e-11,4.832563419243997e-12,5.979343892045943e-11,1.0122729687369061e-10,-1.96353222428967e-11,-6.789162267035468e-11,0.20671567316484926,-0.7657333392191545,0.8539251750696334,-0.02312885412911571,-0.6595523114162437,0.6984863486288009,-0.27671759140208213
3.7,-1.0781478648061344,-1.7382313062030357,-1.4965709757797356,0.27577718350697766,1.3981765545464602,0.3693365576435616,-0.17436493362180944,0.014997367085264507,0.18556810716828032,0.3141592653590806,-0.060942457770661755,-0.2106293634762114,-5.6188083141396484e-11,4.832563419243997e-12,5.979343892045943e-11,1.0122729687369061e-10,-1.96353222428967e-11,-6.789162267035468e-11,0.18947234104273444,-0.7635089224640937,0.8703387773951152,-0.026861407773841422,-0.640195328536059,0.7187697245563995,-0.26981195146644693
3.8,-1.0955843581683127,-1.7367315694945096,-1.4780141650629108,0.30719311004288063,1.3920823087693952,0.34827362129594386,-0.17436493362180944,0.014997367085264507,0.18556810716828032,0.3141592653590806,-0.060942457770661755,-0.2106293634762114,-5.6188083141396484e-11,4.832563419243997e-12,5.979343892045943e-11,1.0122729687369061e-10,-1.96353222428967e-11,-6.789162267035468e-11,0.17215508198107132,-0.7604972719952278,0.8863918978270927,-0.030746045997947915,-0.6204408363789039,0.7384983707488177,-0.2621602670319818
3.9,-1.113020851530491,-1.7352318327859835,-1.4594573543460858,0.3386090365787837,1.3859880629923298,0.32721068494832606,-0.17436493362180944,0.014997367085264507,0.18556810716828032,0.3141592653590806,-0.060942457770661755,-0.2106293634762114,-5.6188083141396484e-11,4.832563419243997e-12,5.979343892045943e-11,1.0122729687369061e-10,-1.96353222428967e-11,-6.789162267035468e-11,0.15480234253009575,-0.7567094678587658,0.9020675752767404,-0.03477837742998888,-0.6003031521301472,0.7576391723104413,-0.25379021767336885
4.0,-1.130457344892669,-1.7337320960774572,-1.4409005436292608,0.3700249631146866,1.3798938172152646,0.3061477486007085,-0.17436493362180944,0.014997367085264507,0.18556810716828032,0.3141592653590806,-0.060942457770661755,-0.2106293634762114,-5.6188083141396484e-11,4.832563419243997e-12,5.979343892045943e-11,1.0122729687369061e-10,-1.96353222428967e-11,-6.789162267035468e-11,0.13745190101430943,-0.7521587796003004,0.9173499301140935,-0.038953794254289756,-0.579796824817748,0.7761604480974401,-0.24473087801426485
4.1,-1.1478938382548396,-1.7322323593689317,-1.4223437329124438,0.40144088965057595,1.373799571438202,0.28508481225309984,-0.17436493362165487,0.014997367085251533,0.18556810716811542,0.3141592653588011,-0.06094245777060795,-0.21062936347602423,9.881448185227386e-11,-8.50031958678696e-12,-1.0519318823061318e-10,-1.780491084736453e-10,3.4542081714007044e-11,1.1936500979292358e-10,0.12014073437253646,-0.74686059329755,0.9322241993619067,-0.04326747679015265,-0.5589366237075151,0.7940320099004708,-0.23501264515782117
4.2,-1.1653303316170096,-1.730732622660406,-1.4037869221956267,0.43285681618646477,1.3677053256611396,0.26402187590549153,-0.17436493362165487,0.014997367085251533,0.18556810716811542,0.3141592653588011,-0.06094245777060795,-0.21062936347602423,9.881448185227386e-11,-8.50031958678696e-12,-1.0519318823061318e-10,-1.780491084736453e-10,3.4542081714007044e-11,1.1936500979292358e-10,0.10290489019862499,-0.7408323299075752,0.9466767687428284,-0.0477143983046421,-0.5377375265736437,0.8112252179864344,-0.2246671636259912
4.3,-1.18276682497918,-1.7292328859518804,-1.3852301114788101,0.46427274272235375,1.361611079884077,0.24295893955788322,-0.17436493362165487,0.014997367085251533,0.18556810716811542,0.3141592653588011,-0.06094245777060795,-0.21062936347602423,9.881448185227386e-11,-8.50031958678696e-12,-1.0519318823061318e-10,-1.780491084736453e-10,3.4542081714007044e-11,1.1936500979292358e-10,0.08577936456346867,-0.7340933553418925,0.9606952014841917,-0.05228933005442794,-0.5162147078545782,0.8277130328949844,-0.21372724798878126
4.4,-1.2002033183413507,-1.7277331492433547,-1.3666733007619931,0.49568866925824306,1.3555168341070145,0.22189600321027464,-0.17436493362165487,0.014997367085251533,0.18556810716811542,0.3141592653588011,-0.06094245777060795,-0.21062936347602423,9.881448185227386e-11,-8.50031958678696e-12,-1.0519318823061318e-10,-1.780491084736453e-10,3.4542081714007044e-11,1.1936500979292358e-10,0.06879798616887847,-0.7266648827228003,0.9742682637941154,-0.056986846551965356,-0.49438352670411234,0.8434700633945968,-0.20222680336884535
4.5,-1.217639811703521,-1.7262334125348293,-1.3481164900451765,0.5271045957941318,1.349422588329952,0.2008330668626664,-0.17436493362165487,0.014997367085251533,0.18556810716811542,0.3141592653588011,-0.06094245777060795,-0.21062936347602423,9.881448185227386e-11,-8.50031958678696e-12,-1.0519318823061318e-10,-1.780491084736453e-10,3.4542081714007044e-11,1.1936500979292358e-10,0.051993307351151714,-0.7185698673119907,0.9873859469320385,-0.061801331051040034,-0.4722595149478312,0.8584726105120135,-0.19020074401076276
4.6,-1.2350763050656917,-1.7247336758263037,-1.3295596793283597,0.5585205223300211,1.3433283425528895,0.1797701305150578,-0.17436493362165487,0.014997367085251533,0.18556810716811542,0.3141592653588011,-0.06094245777060795,-0.21062936347602423,9.881448185227386e-11,-8.50031958678696e-12,-1.0519318823061318e-10,-1.780491084736453e-10,3.4542081714007044e-11,1.1936500979292358e-10,0.03539650241675563,-0.7098328946377623,1.0000394858066664,-0.06672698124649352,-0.4498583649549649,0.8726987075582139,-0.17768491010774873
4.7,-1.2525127984278621,-1.7232339391177782,-1.311002868611543,0.5899364488659102,1.337234096775827,0.1587071941674494,-0.17436493362165487,0.014997367085251533,0.18556810716811542,0.3141592653588011,-0.06094245777060795,-0.21062936347602423,9.881448185227386e-11,-8.50031958678696e-12,-1.0519318823061318e-10,-1.780491084736453e-10,3.4542081714007044e-11,1.1936500979292358e-10,0.01903727375472932,-0.7004800623798293,1.0122213740442867,-0.07175781518272349,-0.427195917435782,0.8861281560834663,-0.16471598308154112
4.8,-1.2699492917900326,-1.7217342024092526,-1.2924460578947259,0.6213523754017992,1.3311398509987644,0.137644257819841,-0.17436493362165467,0.014997367085251517,0.18556810716811556,0.31415926535880073,-0.06094245777060789,-0.21062936347602415,9.900861639422332e-11,-8.517653028032447e-12,-1.0538732277256264e-10,-1.7843737755754422e-10,3.461141547898899e-11,1.1964234485285138e-10,0.0029437661303171043,-0.6905388566005735,1.0239253754806685,-0.0768876773653462,-0.40428814917464967,0.8987425577035493,-0.15133139951371952
4.9,-1.2866366911068243,-1.7202988963069652,-1.2746864714890398,0.6514186335720782,1.3253074218110728,0.11748621214425367,-0.15384059473885345,0.013232040548464172,0.1637250528437719,0.2771798619233205,-0.053768976098261936,-0.18583637130231712,0.2775104107708299,-0.023869051040616544,-0.2953408152463171,-0.49999999980704324,0.09699293394623518,0.33522704344589854,-0.012185013826896737,-0.6805002599468499,1.0346744368219332,-0.08188405746324481,-0.3821496505241723,0.9100364384303071,-0.13816774756320954
5.0,-1.3006466062001685,-1.7190938842949512,-1.2597764011471493,0.6766607768290156,1.3204108027420198,0.10056251402920004,-0.12608955365088192,0.010845135443465935,0.13419097130755225,0.22717986192299766,-0.04406968269983246,-0.15231366694457285,0.2775104109498844,-0.023869051056017034,-0.29534081543687435,-0.5000000001296463,0.09699293400882111,0.3352270436622053,-0.0246637327110836,-0.6716956346525396,1.0433549029315219,-0.08614019215054952,-0.363411522917979,0.9189205293212325,-0.12687392600013436
5.1,-1.3119806958957676,-1.7181377018659507,-1.247794471266662,0.6969081907326147,1.3164797061938827,0.08689021463671529,-0.10957148080485987,0.007278338955346284,0.10737509237536468,0.17747230361278887,-0.034815972817003,-0.13017081464728789,-0.3198467760385622,-0.0882650200725912,-0.1578938642722059,-0.499789789480925,0.07597423767580261,-0.2682573545665744,-0.03458117799615666,-0.6643959440925381,1.0500952354291981,-0.08959433602920351,-0.3482818115946437,0.9256605643150408,-0.11758041646379469
5.2,-1.3243634747418016,-1.7178298939700563,-1.23787525273325,0.7121804319294591,1.3133798971007804,0.07270459362235974,-0.13685622906075043,-0.0010419142496897597,0.09050252479474635,0.12748785648794023,-0.027052511101172662,-0.1522479939871977,-0.2300384471608028,-0.07859073499757149,-0.1785889324171744,-0.49988815245208224,0.07914589541253632,-0.1775205162133049,-0.04447521878300085,-0.6587112911826665,1.055256462843672,-0.09230629917474618,-0.3366042943919738,0.930991298507452,-0.10692192587562246
5.3,-1.3390585166913613,-1.718309270902573,-1.2297391771992732,0.7224538241789326,1.3110711240435173,0.05673176385555929,-0.15598041092344545,-0.008482938263755959,0.07175016220663534,0.07749596782421934,-0.01900111312338804,-0.16608040079243033,-0.15492193358263395,-0.07049628427648653,-0.19588647191854222,-0.4999444966849449,0.08179417505414832,-0.10163023459990808,-0.05520512612058607,-0.6546474041928498,1.0590088361229875,-0.09428327788875798,-0.3283694784047562,0.9351451652510513,-0.0937425680804815
5.4,-1.3553086764957063,-1.7194942452320061,-1.2235606035255167,0.7277277857569,1.3095800830584376,0.03973667138027147,-0.16801113882466706,-0.015159499567673032,0.05136469949311287,0.02749952062459957,-0.01069976398924653,-0.17274636830465964,-0.0871379046396209,-0.06319055972252503,-0.21148943747793728,-0.4999822157478006,0.0841816531491726,-0.0331494094839197,-0.06632669621466611,-0.6522051339835484,1.0613850781900218,-0.09549685481785021,-0.3236484650377764,0.9380441087602438,-0.07877354770980957
5.5,-1.3724319819137887,-1.7213113142310423,-1.2194965118742174,0.7280019384965324,1.30893079423056,0.022408298729072993,-0.17341647192283505,-0.021121879160089917,0.029454592653712936,-0.022499680341734295,-0.002165219071276467,-0.1727189366737004,-0.021652073167522722,-0.05612900182978472,-0.22654818855566483,-0.49998583011149783,0.086482456693397,0.033005990470698604,-0.07747203988967616,-0.6514059568713932,1.0623907400240542,-0.09592497692370071,-0.32249517391016885,0.9396086120101061,-0.06269703217281639
5.6,-1.3897702494088395,-1.7236895028763362,-1.2176982506415084,0.7232762541988327,1.3091463810066226,0.00541155823056572,-0.17221649810420128,-0.02637169068698917,0.006026838907725265,-0.07249649880004823,0.0066009198154915695,-0.16601896282181594,0.045659382608695724,-0.04886624752965046,-0.2420081000705012,-0.49994927068047706,0.08884037485668951,0.10100126045931071,-0.08830354211417273,-0.6522916332935408,1.062000236599292,-0.09555066182825679,-0.32494977499953,0.9397576049455619,-0.04618829612486395
5.7,-1.4066462939141025,-1.7265557455463185,-1.218321358667108,0.7135510902575587,1.3102505669747542,-0.010569484411469241,-0.1639923662454114,-0.0308635504994387,-0.019013942180644464,-0.12248893613334302,0.015613015967799732,-0.15222353493646865,0.1196836702677273,-0.04087777027703849,-0.2590036697086159,-0.49989583434482915,0.09143113463496652,0.17577610545629577,-0.09847434092888044,-0.6549236501106203,1.0601533737363011,-0.09436116135735928,-0.3310409541216522,0.9384086551545814,-0.029950857291345143
5.8,-1.4223141648395898,-1.7298295401200208,-1.2215370961276655,0.6988269980688615,1.3122694572426248,-0.02478131657852663,-0.14774804606871378,-0.03448976140612768,-0.04589553581761912,-0.17247433436163795,0.024905590897864243,-0.1303267364761054,0.20739729416634226,-0.031408899647002775,-0.27912897263381425,-0.49980387414941224,0.09449600674015965,0.264375943731488,-0.10758331192843315,-0.6593828883555306,1.0567513263796458,-0.0923472928222256,-0.3407878416287749,0.9354773353971471,-0.014757352901550225
5.9,-1.4361456781733382,-1.733443055771927,-1.2274895223067552,0.6791047945791102,1.315224974061253,-0.03658942478378055,-0.13994879680911104,-0.03904721776445394,-0.07092374542665392,-0.2226505925556111,0.033934838227315044,-0.11694035638555204,-0.3142789678304619,-0.08768720828948431,-0.15927140508226423,-0.500000000076189,0.0762064853342149,-0.2626095782210053,-0.11528436863284017,-0.6657481973186633,1.0516654818096327,-0.08950846825275913,-0.35418767775625665,0.9308800770614646,-0.0012669517420078088
6.0,-1.4516845956102027,-1.737778580669713,-1.2353643897556066,0.6543832588898132,1.31899285675457,-0.049573648902485584,-0.17137669358726487,-0.047815938592037796,-0.08685088593240085,-0.2726505925554466,0.041555486759550044,-0.14320131420356444,-0.3142789677268781,-0.08768720826058382,-0.15927140502977843,-0.4999999999114042,0.0762064853090961,-0.2626095781344495,-0.12400919151018518,-0.6737172605923647,1.0449618162182772,-0.08594216706939065,-0.3709919736537093,0.9245485584507334,0.013742724279168431
6.1,-1.470325506250411,-1.742979594995608,-1.2448112962736415,0.6247266280759041,1.3235129119562457,-0.06514987951910549,-0.19746729927258946,-0.055095497866784235,-0.10007317521136591,-0.3141592653587995,0.04788194688904874,-0.16500246431504675,1.1290310289660592e-10,3.150526280779767e-11,5.722808961610079e-11,1.796576518212265e-10,-2.73799037913717e-11,9.434938738743633e-11,-0.13484785191751814,-0.6830403723233336,1.0365817493624432,-0.08171394694481951,-0.3910079557938171,0.9162144643029404,0.03141122064988258
6.2,-1.4900722361776757,-1.7484891447822877,-1.2548186137947808,0.5933107015400153,1.3283011066451522,-0.08165012595061484,-0.19746729927258946,-0.055095497866784235,-0.10007317521136591,-0.3141592653587995,0.04788194688904874,-0.16500246431504675,1.1290310289660592e-10,3.150526280779767e-11,5.722808961610079e-11,1.796576518212265e-10,-2.73799037913717e-11,9.434938738743633e-11,-0.14676527134004194,-0.6926060965677373,1.0273031196992977,-0.07729827358245724,-0.4120305316478096,0.9065242803962136,0.04969453635282353
6.3,-1.5098189661049404,-1.753998694568968,-1.2648259313159205,0.5618947750041261,1.3330893013340583,-0.09815037238212436,-0.19746729927258924,-0.0550954978667841,-0.10007317521136583,-0.31415926535880007,0.0478819468890488,-0.165002464315047,1.1259803433068535e-10,3.1408195536822947e-11,5.706168858014411e-11,1.7910298170137093e-10,-2.7296703273393363e-11,9.407205232750854e-11,-0.15912165602463968,-0.7018207377059125,1.0176132677609353,-0.07295200451053649,-0.4328552254776698,0.8959678693403088,0.06749767347366512
6.4,-1.5295656960322048,-1.7595082443556478,-1.2748332488370597,0.5304788484682372,1.3378774960229647,-0.11465061881363373,-0.19746729927258924,-0.0550954978667841,-0.10007317521136583,-0.31415926535880007,0.0478819468890488,-0.165002464315047,1.1259803433068535e-10,3.1408195536822947e-11,5.706168858014411e-11,1.7910298170137093e-10,-2.7296703273393363e-11,9.407205232750854e-11,-0.17190565191563012,-0.7106523176071777,1.0075148649445158,-0.06867932389739279,-0.4534700184171069,0.884567314331455,0.08478655130516032
6.5,-1.5493124259594695,-1.765017794142328,-1.284840566358199,0.49906292193234836,1.3426656907118708,-0.13115086524514308,-0.19746729927258924,-0.0550954978667841,-0.10007317521136583,-0.31415926535880007,0.0478819468890488,-0.165002464315047,1.1259803433068535e-10,3.1408195536822947e-11,5.706168858014411e-11,1.7910298170137093e-10,-2.7296703273393363e-11,9.407205232750854e-11,-0.18510408871422288,-0.7190692938285782,0.9970114492006559,-0.06448431049598446,-0.4738629832559875,0.8723460830452433,0.10152811529431004
6.6,-1.569059155886734,-1.770527343929008,-1.2948478838793385,0.46764699539645904,1.347453885400777,-0.1476511116766526,-0.19746729927258924,-0.0550954978667841,-0.10007317521136583,-0.31415926535880007,0.0478819468890488,-0.165002464315047,1.1259803433068535e-10,3.1408195536822947e-11,5.706168858014411e-11,1.7910298170137093e-10,-2.7296703273393363e-11,9.407205232750854e-11,-0.19870199857486548,-0.7270406819111725,0.986107420761032,-0.06037093426908461,-0.49402229188643837,0.8593289805584953,0.1176903929258709
6.7,-1.5888058858139986,-1.776036893715688,-1.304855201400478,0.4362310688605703,1.3522420800896833,-0.16415135810816198,-0.19746729927258924,-0.0550954978667841,-0.10007317521136583,-0.31415926535880007,0.0478819468890488,-0.165002464315047,1.1259803433068535e-10,3.1408195536822947e-11,5.706168858014411e-11,1.7910298170137093e-10,-2.7296703273393363e-11,9.407205232750854e-11,-0.21268264276684049,-0.7345361765748515,0.9748080358555019,-0.056343053116499724,-0.513936222712572,0.8455421000139748,0.1332425474591438
6.8,-1.6085526157412633,-1.781546443502368,-1.3148625189216174,0.4048151423246811,1.3570302747785896,-0.1806516045396715,-0.19746729927258924,-0.0550954978667841,-0.10007317521136583,-0.31415926535880007,0.0478819468890488,-0.165002464315047,1.1259803433068535e-10,3.1408195536822947e-11,5.706168858014411e-11,1.7910298170137093e-10,-2.7296703273393363e-11,9.407205232750854e-11,-0.22702754622330246,-0.7415262712723604,0.9631193984352758,-0.052404409706854414,-0.5335931680189132,0.8310127711252743,0.1481549294269633
6.9,-1.6282993456685277,-1.7870559932890477,-1.3248698364427571,0.3733992157887922,1.3618184694674957,-0.19715185097118085,-0.19746729927258924,-0.0550954978667841,-0.10007317521136583,-0.31415926535880007,0.0478819468890488,-0.165002464315047,1.1259803433068535e-10,3.1408195536822947e-11,5.706168858014411e-11,1.7910298170137093e-10,-2.7296703273393363e-11,9.407205232750854e-11,-0.24171653986363886,-0.7479823755694621,0.9510484499233876,-0.04855862841639669,-0.552981641292602,0.8157695066228824,0.1623991258102011
7.0,-1.648046075595792,-1.7925655430757277,-1.3348771539638964,0.3419832892529038,1.3666066641564019,-0.21365209740268998,-0.1974672992725892,-0.05509549786678376,-0.10007317521136612,-0.31415926535879996,0.04788194688904879,-0.16500246431504692,1.1262576783667813e-10,3.142899566631753e-11,5.708942208613689e-11,1.7921391572534205e-10,-2.7310570026389753e-11,9.41275193394941e-11,-0.25672781053923704,-0.7538769298269267,0.9386029570183856,-0.04480921237718583,-0.5720902844944816,0.7998419467459063,0.17594800680564177
7.1,-1.6677928055230566,-1.7980750928624076,-1.3448844714850359,0.3105673627170146,1.3713948588453084,-0.2301523438341995,-0.1974672992725892,-0.05509549786678376,-0.10007317521136612,-0.31415926535879996,0.04788194688904879,-0.16500246431504692,1.1262576783667813e-10,3.142899566631753e-11,5.708942208613689e-11,1.7921391572534205e-10,-2.7310570026389753e-11,9.41275193394941e-11,-0.27203795841762696,-0.7591835166711765,0.925791497581749,-0.041159540636939086,-0.5909078752741803,0.7832608018871973,0.18877577010976437
7.2,-1.687539535450321,-1.8035846426490876,-1.3548917890061754,0.2791514361811257,1.3761830535342146,-0.24665259026570885,-0.1974672992725892,-0.05509549786678376,-0.10007317521136612,-0.31415926535879996,0.04788194688904879,-0.16500246431504692,1.1262576783667813e-10,3.142899566631753e-11,5.708942208613689e-11,1.7921391572534205e-10,-2.7310570026389753e-11,9.41275193394941e-11,-0.2876220615856941,-0.7638769687539418,0.9126234446440549,-0.03761286543271686,-0.609423334124316,0.7660577935026922,0.20085798264577195
7.3,-1.707286265377586,-1.8090941924357677,-1.3648991065273148,0.2477355096452365,1.380971248223121,-0.26315283669721834,-0.1974672992725892,-0.05509549786678376,-0.10007317521136612,-0.31415926535879996,0.04788194688904879,-0.16500246431504692,1.1262576783667813e-10,3.142899566631753e-11,5.708942208613689e-11,1.7921391572534205e-10,-2.7310570026389753e-11,9.41275193394941e-11,-0.3034537476194008,-0.7679334723171127,0.8991089485693343,-0.034172309580531426,-0.6276257314689948,0.7482655933986171,0.21217161966614922
7.4,-1.7270329953048504,-1.8146037422224475,-1.3749064240484543,0.21631958310934762,1.3857594429120268,-0.2796530831287277,-0.1974672992725892,-0.05509549786678376,-0.10007317521136612,-0.31415926535879996,0.04788194688904879,-0.16500246431504692,1.1262576783667813e-10,3.142899566631753e-11,5.708942208613689e-11,1.7921391572534205e-10,-2.7310570026389753e-11,9.41275193394941e-11,-0.3195052718353334,-0.7713306660970058,0.8852589174213711,-0.030840863982874497,-0.6455042946817697,0.72991776151285,0.2226951011680566
7.5,-1.7467797252321149,-1.8201132920091276,-1.3849137415695936,0.18490365657345875,1.3905476376009331,-0.2961533295602371,-0.1974672992725892,-0.05509549786678376,-0.10007317521136612,-0.31415926535879996,0.04788194688904879,-0.16500246431504692,1.1262576783667813e-10,3.142899566631753e-11,5.708942208613689e-11,1.7921391572534205e-10,-2.7310570026389753e-11,9.41275193394941e-11,-0.33574760190860814,-0.7740477351224803,0.8710849955798955,-0.027621385256053725,-0.6630484150282862,0.7110486823091233,0.23240832556402446
7.6,-1.7665264551593796,-1.8256228417958074,-1.394921059090733,0.15348773003756955,1.3953358322898395,-0.31265357599174665,-0.1974672992725892,-0.05509549786678376,-0.10007317521136612,-0.31415926535879996,0.04788194688904879,-0.16500246431504692,1.1262576783667813e-10,3.142899566631753e-11,5.708942208613689e-11,1.7921391572534205e-10,-2.7310570026389753e-11,9.41275193394941e-11,-0.3521505085123032,-0.7760654989835519,0.8565995406587132,-0.024516593479137767,-0.6802476545288513,0.6916934999049393,0.2412927005556349
7.7,-1.7862731850866438,-1.8311323915824873,-1.4049283766118725,0.12207180350168109,1.4001240269787456,-0.3291538224232557,-0.19746729927258913,-0.05509549786678407,-0.10007317521136609,-0.31415926535880007,0.04788194688904909,-0.16500246431504695,1.1259803433068535e-10,3.1408195536822947e-11,5.704782182714772e-11,1.7910298170137093e-10,-2.7296703273393363e-11,9.407205232750854e-11,-0.36868266160582874,-0.7773664941713567,0.8418155987817364,0.02152907006620117,0.6970917527362147,-0.6718880520560138,-0.24933117116319856
7.8,-1.8060199150139085,-1.8366419413691675,-1.414935694133012,0.09065587696579189,1.404912221667652,-0.34565406885476524,-0.19746729927258913,-0.05509549786678407,-0.10007317521136609,-0.31415926535880007,0.04788194688904909,-0.16500246431504695,1.1259803433068535e-10,3.1408195536822947e-11,5.704782182714772e-11,1.7910298170137093e-10,-2.7296703273393363e-11,9.407205232750854e-11,-0.38531173197359453,-0.7779350501162912,0.8267468782767019,0.01866125576346751,0.7135706334238864,-0.6516688031217754,-0.2565082448698221
7.9,-1.8257666449411731,-1.8421514911558472,-1.4249430116541513,0.05923995042990301,1.409700416356558,-0.3621543152862746,-0.19746729927258913,-0.05509549786678407,-0.10007317521136609,-0.31415926535880007,0.04788194688904909,-0.16500246431504695,1.1259803433068535e-10,3.1408195536822947e-11,5.704782182714772e-11,1.7910298170137093e-10,-2.7296703273393363e-11,9.407205232750854e-11,-0.4020044975911001,-0.7777573585788948,0.8114077218500002,0.015915448772842556,0.7296744111803471,-0.6310727761379386,-0.262810013843704
8.0,-1.8455133748684376,-1.8476610409425274,-1.434950329175291,0.027824023894014165,1.4144886110454644,-0.378654561717784,-0.19746729927258913,-0.05509549786678407,-0.10007317521136609,-0.31415926535880007,0.04788194688904909,-0.16500246431504695,1.1259803433068535e-10,3.1408195536822947e-11,5.704782182714772e-11,1.7910298170137093e-10,-2.7296703273393363e-11,9.407205232750854e-11,-0.4187269543733128,-0.7768215360773034,0.7958130773095343,0.01329380300322401,0.7453933979045795,-0.610137484123385,-0.26822417420799893
8.1,-1.8652601047957194,-1.8531705907292122,-1.4449576466964391,-0.003591902641902338,1.419276805734375,-0.3951548081493078,-0.19746729927293968,-0.05509549786688187,-0.10007317521154374,-0.31415926535935773,0.04788194688913409,-0.16500246431533985,-2.3767614635833246e-10,-6.631774620529318e-11,-1.204604832797453e-10,-3.781186207058932e-10,5.763022545304724e-11,-1.9859963641447127e-10,-0.43544443083996326,-0.7751176790658264,0.7799784669058409,0.010798326450874592,0.7607181091983808,-0.5889008607496008,-0.27274004233313465
8.2,-1.8850068347230016,-1.858680140515897,-1.4549649642175875,-0.03500782917781947,1.4240650004232855,-0.411655054580832,-0.19746729927293968,-0.05509549786688187,-0.10007317521154374,-0.31415926535935773,0.04788194688913409,-0.16500246431533985,-2.3767614635833246e-10,-6.631774620529318e-11,-1.204604832797453e-10,-3.781186207058932e-10,5.763022545304724e-11,-1.9859963641447127e-10,-0.45212170621420616,-0.7726379116112262,0.7639199553649229,0.00843087971004492,0.7756392706509206,-0.5674011905017585,-0.27634856813200565
8.3,-1.9047535646502836,-1.8641896903025819,-1.4649722817387358,-0.06642375571373627,1.428853195112196,-0.42815530101235605,-0.19746729927293968,-0.05509549786688187,-0.10007317521154374,-0.31415926535935773,0.04788194688913409,-0.16500246431533985,-2.3767614635833246e-10,-6.631774620529318e-11,-1.204604832797453e-10,-3.781186207058932e-10,5.763022545304724e-11,-1.9859963641447127e-10,-0.46872313145543143,-0.7693764253464116,0.7476541166890153,0.006193174614900211,0.7901478240112385,-0.5456770384607974,-0.2790423453441211
8.4,-1.9245002945775658,-1.8696992400892667,-1.4749795992598844,-0.09783968224965307,1.4336413898011067,-0.4446555474438801,-0.19746729927293974,-0.055095497866881886,-0.10007317521154345,-0.31415926535935784,0.04788194688913379,-0.1650024643153399,-2.3773161337031804e-10,-6.632467958179137e-11,-1.2047435003274169e-10,-3.782295547298644e-10,5.7644092206043644e-11,-1.9862736992046406e-10,-0.48521275271312914,-0.7653295115154175,0.7311979998045472,0.004086773013738078,0.8042349332441889,-0.5237671798364769,-0.2808156188002953
8.5,-1.9442470245048478,-1.8752087898759515,-1.4849869167810326,-0.1292556087855699,1.4384295844900172,-0.46115579387540406,-0.19746729927293974,-0.055095497866881886,-0.10007317521154345,-0.31415926535935784,0.04788194688913379,-0.1650024643153399,-2.3773161337031804e-10,-6.632467958179137e-11,-1.2047435003274169e-10,-3.782295547298644e-10,5.7644092206043644e-11,-1.9862736992046406e-10,-0.5015544366776703,-0.7604955849585252,0.7145690931389378,0.0021130856763463364,0.8178919904655899,-0.5017105293811615,-0.2816642886651308
8.6,-1.9639937544321298,-1.8807183396626366,-1.494994234302181,-0.1606715353214867,1.4432177791789276,-0.4776560403069281,-0.19746729927293974,-0.055095497866881886,-0.10007317521154345,-0.31415926535935784,0.04788194688913379,-0.1650024643153399,-2.3773161337031804e-10,-6.632467958179137e-11,-1.2047435003274169e-10,-3.782295547298644e-10,5.7644092206043644e-11,-1.9862736992046406e-10,-0.5177119972949488,-0.7548751999219935,0.6977852882103255,0.00027337133525231897,0.831110621752328,-0.4795460708139752,-0.28158591166010016
8.7,-1.9837404843594122,-1.8862278894493212,-1.5050015518233293,-0.19208746185740386,1.4480059738678381,-0.4941562867384523,-0.19746729927293974,-0.055095497866881886,-0.10007317521154345,-0.31415926535935784,0.04788194688913379,-0.1650024643153399,-2.3773161337031804e-10,-6.632467958179137e-11,-1.2047435003274169e-10,-3.782295547298644e-10,5.7644092206043644e-11,-1.9862736992046406e-10,-0.5336493233054183,-0.7484710576130443,0.6808648423164918,-0.001431264138491279,0.8438826928232445,-0.45731278638451717,-0.28057969927559717
8.8,-2.003487214286694,-1.8917374392360062,-1.5150088693444776,-0.22350338839332065,1.4527941685567485,-0.5106565331699763,-0.19746729927293974,-0.055095497866881886,-0.10007317521154345,-0.31415926535935784,0.04788194688913379,-0.1650024643153399,-2.3773161337031804e-10,-6.632467958179137e-11,-1.2047435003274169e-10,-3.782295547298644e-10,5.7644092206043644e-11,-1.9862736992046406e-10,-0.5493305060641097,-0.7412880054572039,0.6638263404111877,-0.002999868424455233,0.856200314586716,-0.43504958670462535,-0.2786465129858603
8.9,-2.023233944213976,-1.8972469890226913,-1.5250161868656258,-0.2549193149292375,1.4575823632456593,-0.5271567796015004,-0.19746729927293974,-0.055095497866881886,-0.10007317521154345,-0.31415926535935784,0.04788194688913379,-0.1650024643153399,-2.3773161337031804e-10,-6.632467958179137e-11,-1.2047435003274169e-10,-3.782295547298644e-10,5.7644092206043644e-11,-1.9862736992046406e-10,-0.5647199670967512,-0.7333330280517495,0.6466886562578369,-0.004431643306488293,0.8680558485508972,-0.41279524097577286,-0.27578885648615215
9.0,-2.042980674141258,-1.902756538809376,-1.5350235043867744,-0.28633524146515427,1.4623705579345696,-0.5436570260330243,-0.19746729927293974,-0.055095497866881886,-0.10007317521154345,-0.31415926535935784,0.04788194688913379,-0.1650024643153399,-2.3773161337031804e-10,-6.632467958179137e-11,-1.2047435003274169e-10,-3.782295547298644e-10,5.7644092206043644e-11,-1.9862736992046406e-10,-0.5797825848480977,-0.7246152298456559,0.6294709129520899,-0.005725945090567734,0.8794419120926904,-0.3905883077385057,-0.272010864977013
9.1,-2.06272740406854,-1.9082660885960607,-1.5450308219079225,-0.31775116800107106,1.46715875262348,-0.5601572724645484,-0.19746729927293977,-0.05509549786688158,-0.1000731752115438,-0.31415926535935756,0.047881946889133796,-0.1650024643153398,-2.3756521233436123e-10,-6.628307932280217e-11,-1.2040501626775968e-10,-3.7795221966993636e-10,5.7602491947054435e-11,-1.9851643589649284e-10,-0.5944838200820837,-0.7151458096128962,0.6121924429060303,-0.006882284886639239,0.8903513835815757,-0.3684670662689579,-0.2673182915257769
9.2,-2.0824741339958224,-1.9137756383827456,-1.5550381394290709,-0.34916709453698813,1.4719469473123905,-0.5766575188960726,-0.19746729927293977,-0.05509549786688158,-0.1000731752115438,-0.31415926535935756,0.047881946889133796,-0.1650024643153398,-2.3756521233436123e-10,-6.628307932280217e-11,-1.2040501626775968e-10,-3.7795221966993636e-10,5.7602491947054435e-11,-1.9851643589649284e-10,-0.6087898393993149,-0.7049380268220828,0.5948727473878936,-0.007900328754352514,0.900777407354528,-0.3464694487458539,-0.26171849054083257
9.3,-2.1022208639231046,-1.9192851881694306,-1.5650454569502195,-0.3805830210729053,1.476735142001301,-0.5931577653275968,-0.19746729927293977,-0.05509549786688158,-0.1000731752115438,-0.31415926535935756,0.047881946889133796,-0.1650024643153398,-2.3756521233436123e-10,-6.628307932280217e-11,-1.2040501626775968e-10,-3.7795221966993636e-10,5.7602491947054435e-11,-1.9851643589649284e-10,-0.6226676363457915,-0.6940071600410483,0.5775314557120268,-0.008779897712706305,0.9107133985383277,-0.32463297330956975,-0.255220398399328
9.4,-2.1219675938503864,-1.9247947379561152,-1.5750527744713678,-0.4119989476088218,1.4815233366902116,-0.6096580117591206,-0.19746729927293977,-0.05509549786688158,-0.1000731752115438,-0.31415926535935756,0.047881946889133796,-0.1650024643153398,-2.3756521233436123e-10,-6.628307932280217e-11,-1.2040501626775968e-10,-3.7795221966993636e-10,5.7602491947054435e-11,-1.9851643589649284e-10,-0.6360851495974684,-0.6823704575499299,0.5601882841744276,-0.009520967613732074,0.9201530477156652,-0.3029946781327692,-0.24783451127413758
9.5,-2.1417143237776686,-1.9303042877428003,-1.5850600919925157,-0.44341487414473824,1.4863115313791222,-0.6261582581906444,-0.19746729927293977,-0.05509549786688158,-0.1000731752115438,-0.31415926535935756,0.047881946889133796,-0.1650024643153398,-2.3756521233436123e-10,-6.628307932280217e-11,-1.2040501626775968e-10,-3.7795221966993636e-10,5.7602491947054435e-11,-1.9851643589649284e-10,-0.6490113777183241,-0.6700470803704238,0.5428629948295952,-0.010123668880445962,0.9290903254315358,-0.28159105661983963,-0.239572860210927
9.6,-2.161461053704951,-1.935813837529485,-1.5950674095136643,-0.47483080068065564,1.4910997260680325,-0.6426585046221688,-0.19746729927293977,-0.05509549786688158,-0.1000731752115438,-0.31415926535935756,0.047881946889133796,-0.1650024643153398,-2.3756521233436123e-10,-6.628307932280217e-11,-1.2040501626775968e-10,-3.7795221966993636e-10,5.7602491947054435e-11,-1.9851643589649284e-10,-0.6614164900049225,-0.6570580379520365,0.5255753542046101,-0.010588286109418229,0.9375194865365053,-0.2604579938498864,-0.2304489835110696
9.7,-2.181207783632233,-1.94132338731617,-1.6050747270348127,-0.5062467272165725,1.4958879207569429,-0.6591587510536928,-0.19746729927293977,-0.05509549786688158,-0.1000731752115438,-0.31415926535935756,0.047881946889133796,-0.1650024643153398,-2.3756521233436123e-10,-6.628307932280217e-11,-1.2040501626775968e-10,-3.7795221966993636e-10,5.7602491947054435e-11,-1.9851643589649284e-10,-0.6732719329479632,-0.6434261167881423,0.5083450920462647,-0.010915257538408185,0.9454350743635379,-0.2396307043753309,-0.2204778964809503
9.8,-2.2009545135595023,-1.9468329371028512,-1.6150820445559544,-0.5376626537524691,1.5006761154458506,-0.6756589974852062,-0.1974672992725269,-0.05509549786676671,-0.10007317521133456,-0.3141592653587011,0.04788194688903369,-0.16500246431499496,1.747765547666524e-10,4.875550353534988e-11,8.855308463502399e-11,2.7800066407186984e-10,-4.23767971570049e-11,1.460169090521144e-10,-0.6845505318609091,-0.6291758022654034,0.49119186019680605,-0.011105174379631903,0.9528319247351675,-0.219143671485283,-0.2096760586128621
9.9,-2.2207012434867632,-1.9523424868895303,-1.6250893620770923,-0.5690785802883527,1.505464310134756,-0.6921592439167129,-0.1974672992725269,-0.05509549786676671,-0.10007317521133456,-0.3141592653587011,0.04788194688903369,-0.16500246431499496,1.747765547666524e-10,4.875550353534988e-11,8.855308463502399e-11,2.7800066407186984e-10,-4.23767971570049e-11,1.460169090521144e-10,-0.6952265872474398,-0.6143331940793536,0.474135191693266,-0.011158780019327665,0.9597051697979209,-0.19903058803970786,-0.19806133826719516
10.0,-2.2404479734140246,-1.9578520366762096,-1.63509667959823,-0.6004945068242363,1.5102525048236615,-0.7086594903482195,-0.1974672992725269,-0.05509549786676671,-0.10007317521133456,-0.3141592653587011,0.04788194688903369,-0.16500246431499496,1.747765547666524e-10,4.875550353534988e-11,8.855308463502399e-11,2.7800066407186984e-10,-4.23767971570049e-11,1.460169090521144e-10,-0.7052759655029174,-0.5989259155768115,0.4571944601847328,-0.011076969084398125,0.9660502416809535,-0.17932429897727345,-0.18565297493006677
10.1,-2.260194703341287,-1.9633615864628886,-1.6451039971193684,-0.6319104333601213,1.515040699512567,-0.7251597367797267,-0.1974672992725269,-0.05509549786676671,-0.10007317521133456,-0.3141592653587011,0.04788194688903369,-0.16500246431499496,1.747765547666524e-10,4.875550353534988e-11,8.855308463502399e-11,2.7800066407186984e-10,-4.23767971570049e-11,1.460169090521144e-10,-0.7146761835704463,-0.5829830174117665,0.440388839760827,-0.010860786377015047,0.9718628759760255,-0.16005674559616478,-0.17247153912470864
10.2,-2.279941433268548,-1.9688711362495677,-1.655111314640506,-0.6633263598960049,1.5198288942014724,-0.7416599832112334,-0.1974672992725269,-0.05509549786676671,-0.10007317521133456,-0.3141592653587011,0.04788194688903369,-0.16500246431499496,1.747765547666524e-10,4.875550353534988e-11,8.855308463502399e-11,2.7800066407186984e-10,-4.23767971570049e-11,1.460169090521144e-10,-0.7234064871990771,-0.5665348759256986,0.42373726528349726,-0.010511425678173807,0.9771391150360293,-0.1412589117035667,-0.15853889005900607
10.3,-2.2996881631958095,-1.9743806860362467,-1.665118632161644,-0.6947422864318892,1.5246170888903778,-0.7581602296427402,-0.1974672992725269,-0.05509549786676671,-0.10007317521133456,-0.3141592653587011,0.04788194688903369,-0.16500246431499496,1.747765547666524e-10,4.875550353534988e-11,8.855308463502399e-11,2.7800066407186984e-10,-4.23767971570049e-11,1.460169090521144e-10,-0.7314479224802226,-0.5496130866856952,0.40725839331286245,-0.01003022842129231,0.9818753110893925,-0.12296077172574395,-0.14387813109550357
10.4,-2.3194348931230704,-1.9798902358229258,-1.6751259496827817,-0.7261582129677727,1.5294052835792835,-0.7746604760742468,-0.1974672992725269,-0.05509549786676671,-0.10007317521133456,-0.3141592653587011,0.04788194688903369,-0.16500246431499496,1.747765547666524e-10,4.875550353534988e-11,8.855308463502399e-11,2.7800066407186984e-10,-4.23767971570049e-11,1.460169090521144e-10,-0.7387834003683076,-0.5322503536341266,0.39097056371620775,-0.009418682237057675,0.9860681291677911,-0.1051912408666869,-0.1285135631339214
10.5,-2.3391816230503326,-1.985399785609605,-1.6851332672039199,-0.757574139503657,1.534193478268189,-0.7911607225057538,-0.19746729927252699,-0.05509549786676672,-0.10007317521133427,-0.31415926535870115,0.0478819468890337,-0.16500246431499502,1.74693354248674e-10,4.8748570158851676e-11,8.853921788202758e-11,2.7794519705988425e-10,-4.23629304040085e-11,1.459891755461216e-10,-0.7453977539229067,-0.5144803743219252,0.3748917620473951,-0.008678419370818799,0.9897145498447386,-0.08797812739915531,-0.11247063599975095
10.6,-2.358928352977594,-1.9909093353962841,-1.6951405847250578,-0.7889900660395412,1.5389816729570942,-0.8076609689372607,-0.19746729927252699,-0.05509549786676672,-0.10007317521133427,-0.31415926535870115,0.0478819468890337,-0.16500246431499502,1.74693354248674e-10,4.8748570158851676e-11,8.853921788202758e-11,2.7794519705988425e-10,-4.23629304040085e-11,1.459891755461216e-10,-0.7512777880419585,-0.4963377217136736,0.3590395827819418,-0.007811214973932974,0.9928118717827208,-0.07134808716773883,-0.09577589793588977
10.7,-2.3786750829048553,-1.9964188851829634,-1.7051479022461957,-0.820405992575425,1.543769867646,-0.8241612153687674,-0.19746729927252699,-0.05509549786676672,-0.10007317521133427,-0.31415926535870115,0.0478819468890337,-0.16500246431499502,1.74693354248674e-10,4.8748570158851676e-11,8.853921788202758e-11,2.7794519705988425e-10,-4.23629304040085e-11,1.459891755461216e-10,-0.7564123214889721,-0.4778577230665987,0.3434311934907838,-0.00681898527056694,0.9953577140866777,-0.05532658037913652,-0.0784569432974181
10.8,-2.3984218128321166,-2.001928434969642,-1.7151552197673334,-0.8518219191113092,1.5485580623349056,-0.8406614618002742,-0.19746729927252699,-0.05509549786676672,-0.10007317521133427,-0.31415926535870115,0.0478819468890337,-0.16500246431499502,1.74693354248674e-10,4.8748570158851676e-11,8.853921788202758e-11,2.7794519705988425e-10,-4.23629304040085e-11,1.459891755461216e-10,-0.7607922210512744,-0.45907633639720186,0.3280833000333323,-0.005703785601565411,0.9973500184617495,-0.03993783075037441,-0.06054235855261703
10.9,-2.417986087821991,-2.007387077868697,-1.725070072131027,-0.8829475701975276,1.553302015280222,-0.8570092500049951,-0.18668170686297791,-0.05208620171605565,-0.09460721460451389,-0.29700000000020776,0.045266652281656425,-0.15599008943961584,0.3142789676532164,0.08768720824003237,0.15927140499244985,0.49999999979416465,-0.07620648529123368,0.26260957807289886,-0.7643804994687061,-0.44020710924025663,0.3131500523280423,-0.004479774329244148,0.998776319453784,-0.025337848754274122,-0.042234923236786355
11.0,-2.435090519117548,-2.012159397951203,-1.7337383162212456,-0.9101597495810845,1.5574495043778,-0.8713016079035976,-0.15525381008476838,-0.043317480888456265,-0.07868007409873874,-0.24700000000028347,0.03764600374940791,-0.12972913162155683,0.31427896760539353,0.08768720822669582,0.15927140496820535,0.49999999971814213,-0.07620648527963879,0.2626095780329586,-0.766901185621857,-0.4235253918107331,0.30032890802690915,-0.003314298778301332,0.9995756360229163,-0.013117442490832337,-0.025797209063970587
11.1,-2.449052160735279,-2.016054845950949,-1.7408138462608842,-0.9323719289646413,1.560834928622152,-0.8829678700203901,-0.12382591330611831,-0.03454876006073397,-0.06275293359274033,-0.1969999999996583,0.030025355217052564,-0.10346817380312971,0.3142789679975628,0.08768720833611213,0.1592714051669438,0.5000000003420597,-0.0762064853747328,0.26260957836064625,-0.7685309195985599,-0.4097985167764452,0.2900329499901844,-0.0022981831134936998,0.9999179777331255,-0.0035283000884451777,-0.012095753757386583
11.2,-2.459871012675169,-2.0190734218679287,-1.7462966622499352,-0.9495841083481744,1.5634582880132744,-0.8920080363553604,-0.09239801652802039,-0.025780039233165727,-0.04682579308702173,-0.14699999999991162,0.02240470668483111,-0.07720721598516397,0.3142789678381486,0.08768720829163382,0.1592714050861612,0.5000000000884015,-0.07620648533607623,0.26260957822743336,-0.7695289962887194,-0.39910246132543403,0.2821629332148067,-0.0014713696251901043,0.9999913641606963,0.0036590746450000924,-0.0013106670812843516
11.3,-2.467547074937246,-2.0212151257021502,-1.7501867641884126,-0.9617962877317267,1.5653195825511736,-0.8984221069085309,-0.060970119749922495,-0.017011318405597494,-0.030898652581303143,-0.09700000000016494,0.014784058152609659,-0.050946258167198256,0.3142789676786998,0.08768720824714163,0.15927140500535084,0.4999999998347433,-0.07620648529741271,0.2626095780941858,-0.7700968948586152,-0.39148592971954466,0.27663787838259934,-0.0008641221261554083,0.99994175054635,0.008627920465563607,0.006427114102946892
11.4,-2.472080347521502,-2.022479957453612,-1.7524841520763121,-0.9690084671152865,1.566418812235848,-0.9022100816798954,-0.02954222297161354,-0.008242597577970369,-0.014971512075477596,-0.04700000000008248,0.007163409620337029,-0.02468530034905617,0.31427896772919817,0.08768720826123351,0.1592714050309446,0.4999999999150818,-0.076206485309658,0.26260957813638847,-0.7703776249588998,-0.38697808359317654,0.27339823897487736,-0.0004975346660002209,0.999872793927456,0.01151095368893985,0.011029341237374587
11.494243587,-2.4734760374463494,-2.02286936993639,-1.7531914647448121,-0.9712289305696098,1.5667572396671305,-0.9033763116221076,2.6443615665161147e-16,7.37805285146867e-17,1.3401188923076673e-16,4.207029164524896e-16,-6.412058125562384e-17,2.2096123085819924e-16,0.31427896736988886,0.08768720816098381,0.15927140484885216,0.49999999934344574,-0.07620648522253323,0.2626095778361529,-0.7704558873286157,-0.3855888577778697,0.27240434726496493,-0.0003834868550494887,0.9998456338757764,0.01239084108117278,0.012451040706704362
