mathias31415/primitives_from_planned_trajectory_python/data/saved_trajectories/trajectory_20250618_172406_executed.csv
timestamp,shoulder_lift_joint_pos,elbow_joint_pos,wrist_1_joint_pos,wrist_2_joint_pos,wrist_3_joint_pos,shoulder_pan_joint_pos,shoulder_lift_joint_vel,elbow_joint_vel,wrist_1_joint_vel,wrist_2_joint_vel,wrist_3_joint_vel,shoulder_pan_joint_vel,shoulder_lift_joint_eff,elbow_joint_eff,wrist_1_joint_eff,wrist_2_joint_eff,wrist_3_joint_eff,shoulder_pan_joint_eff
1750260258.0093906,-1.852021719150402,-2.0417902867867825,-0.8503065683687598,1.5860492263195054,-0.3394570435551145,-1.9092181433261715,0.0,0.0,0.0,0.0,0.0,0.0,4.530313635353423,3.2207005488581446,0.30000408458330424,0.0012585236422104976,0.0,2.4658779396757226e-16
1750260258.0113416,-1.852021719150402,-2.0417902867867825,-0.8503065683687598,1.5860492263195054,-0.3394570435551145,-1.9092181433261715,0.0,0.0,0.0,0.0,0.0,0.0,4.530313635353423,3.2207005488581446,0.30000408458330424,0.0012585236422104976,0.0,2.4658779396757226e-16
1750260258.0118005,-1.852021719150402,-2.0417902867867825,-0.8503065683687598,1.5860492263195054,-0.3394570435551145,-1.9092181433261715,0.0,0.0,0.0,0.0,0.0,0.0,4.530313635353423,3.2207005488581446,0.30000408458330424,0.0012585236422104976,0.0,2.4658779396757226e-16
1750260258.0120609,-1.852021719150402,-2.0417902867867825,-0.8503065683687598,1.5860492263195054,-0.3394570435551145,-1.9092181433261715,0.0,0.0,0.0,0.0,0.0,0.0,4.530313635353423,3.2207005488581446,0.30000408458330424,0.0012585236422104976,0.0,2.4658779396757226e-16
1750260258.012341,-1.852021719150402,-2.0417902867867825,-0.8503065683687598,1.5860492263195054,-0.3394570435551145,-1.9092181433261715,0.0,0.0,0.0,0.0,0.0,0.0,4.530313635353423,3.2207005488581446,0.30000408458330424,0.0012585236422104976,0.0,2.4658779396757226e-16
1750260258.0125697,-1.852021719150402,-2.0417902867867825,-0.8503065683687598,1.5860492263195054,-0.3394570435551145,-1.9092181433261715,0.0,0.0,0.0,0.0,0.0,0.0,4.530313635353423,3.2207005488581446,0.30000408458330424,0.0012585236422104976,0.0,2.4658779396757226e-16
1750260258.0134873,-1.852021719150402,-2.0417902867867825,-0.8503065683687598,1.5860492263195054,-0.3394570435551145,-1.9092181433261715,0.0,0.0,0.0,0.0,0.0,0.0,4.530313635353423,3.2207005488581446,0.30000408458330424,0.0012585236422104976,0.0,2.4658779396757226e-16
1750260258.0174744,-1.852021719150402,-2.0417902867867825,-0.8503065683687598,1.5860492263195054,-0.3394570435551145,-1.9092181433261715,0.0,0.0,0.0,0.0,0.0,0.0,4.530313635353423,3.2207005488581446,0.30000408458330424,0.0012585236422104976,0.0,2.4658779396757226e-16
1750260258.0181105,-1.852021719150402,-2.0417902867867825,-0.8503065683687598,1.5860492263195054,-0.3394570435551145,-1.9092181433261715,0.0,0.0,0.0,0.0,0.0,0.0,4.530313635353423,3.2207005488581446,0.30000408458330424,0.0012585236422104976,0.0,2.4658779396757226e-16
1750260258.02001,-1.852021719150402,-2.0417902867867825,-0.8503065683687598,1.5860492263195054,-0.3394570435551145,-1.9092181433261715,0.0,0.0,0.0,0.0,0.0,0.0,4.530313635353423,3.2207005488581446,0.30000408458330424,0.0012585236422104976,0.0,2.4658779396757226e-16
1750260258.0216217,-1.852021719150402,-2.0417902867867825,-0.8503065683687598,1.5860492263195054,-0.3394570435551145,-1.9092181433261715,0.0,0.0,0.0,0.0,0.0,0.0,4.530313635353423,3.2207005488581446,0.30000408458330424,0.0012585236422104976,0.0,2.4658779396757226e-16
1750260258.023554,-1.852021719150402,-2.0417902867867825,-0.8503065683687598,1.5860492263195054,-0.3394570435551145,-1.9092181433261715,0.0,0.0,0.0,0.0,0.0,0.0,4.530313635353423,3.2207005488581446,0.30000408458330424,0.0012585236422104976,0.0,2.4658779396757226e-16
1750260258.0253165,-1.852021719150402,-2.0417902867867825,-0.8503065683687598,1.5860492263195054,-0.3394570435551145,-1.9092181433261715,0.0,0.0,0.0,0.0,0.0,0.0,4.530313635353423,3.2207005488581446,0.30000408458330424,0.0012585236422104976,0.0,2.4658779396757226e-16
1750260258.027529,-1.852021719150402,-2.0417902867867825,-0.8503065683687598,1.5860492263195054,-0.3394570435551145,-1.9092181433261715,0.0,0.0,0.0,0.0,0.0,0.0,4.530313635353423,3.2207005488581446,0.30000408458330424,0.0012585236422104976,0.0,2.4658779396757226e-16
1750260258.0292976,-1.852021719150402,-2.0417902867867825,-0.8503065683687598,1.5860492263195054,-0.3394570435551145,-1.9092181433261715,0.0,0.0,0.0,0.0,0.0,0.0,4.530313635353423,3.2207005488581446,0.30000408458330424,0.0012585236422104976,0.0,2.4658779396757226e-16
1750260258.0320158,-1.852021719150402,-2.0417902867867825,-0.8503065683687598,1.5860492263195054,-0.3394570435551145,-1.9092181433261715,0.0,0.0,0.0,0.0,0.0,0.0,4.530313635353423,3.2207005488581446,0.30000408458330424,0.0012585236422104976,0.0,2.4658779396757226e-16
1750260258.0338018,-1.852021719150402,-2.0417902867867825,-0.8503065683687598,1.5860492263195054,-0.3394570435551145,-1.9092181433261715,0.0,0.0,0.0,0.0,0.0,0.0,4.530313635353423,3.2207005488581446,0.30000408458330424,0.0012585236422104976,0.0,2.4658779396757226e-16
1750260258.0354474,-1.852021719150402,-2.0417902867867825,-0.8503065683687598,1.5860492263195054,-0.3394570435551145,-1.9092181433261715,0.0,0.0,0.0,0.0,0.0,0.0,4.530313635353423,3.2207005488581446,0.30000408458330424,0.0012585236422104976,0.0,2.4658779396757226e-16
1750260258.0376182,-1.852021719150402,-2.0417902867867825,-0.8503065683687598,1.5860492263195054,-0.3394570435551145,-1.9092181433261715,0.0,0.0,0.0,0.0,0.0,0.0,4.530313635353423,3.2207005488581446,0.30000408458330424,0.0012585236422104976,0.0,2.4658779396757226e-16
1750260258.0397704,-1.852021719150402,-2.0417902867867825,-0.8503065683687598,1.5860492263195054,-0.3394570435551145,-1.9092181433261715,0.0,0.0,0.0,0.0,0.0,0.0,4.530313635353423,3.2207005488581446,0.30000408458330424,0.0012585236422104976,0.0,2.4658779396757226e-16
1750260258.045646,-1.852021719150402,-2.0417902867867825,-0.8503065683687598,1.5860492263195054,-0.3394570435551145,-1.9092181433261715,0.0,0.0,0.0,0.0,0.0,0.0,4.530313635353423,3.2207005488581446,0.30000408458330424,0.0012585236422104976,0.0,2.4658779396757226e-16
1750260258.0464416,-1.852021719150402,-2.0417902867867825,-0.8503065683687598,1.5860492263195054,-0.3394570435551145,-1.9092181433261715,0.0,0.0,0.0,0.0,0.0,0.0,4.530313635353423,3.2207005488581446,0.30000408458330424,0.0012585236422104976,0.0,2.4658779396757226e-16
1750260258.048119,-1.852021719150402,-2.0417902867867825,-0.8503065683687598,1.5860492263195054,-0.3394570435551145,-1.9092181433261715,0.0,0.0,0.0,0.0,0.0,0.0,4.530313635353423,3.2207005488581446,0.30000408458330424,0.0012585236422104976,0.0,2.4658779396757226e-16
1750260258.0495806,-1.852021719150402,-2.0417902867867825,-0.8503065683687598,1.5860492263195054,-0.3394570435551145,-1.9092181433261715,0.0,0.0,0.0,0.0,0.0,0.0,4.530313635353423,3.2207005488581446,0.30000408458330424,0.0012585236422104976,0.0,2.4658779396757226e-16
1750260258.051488,-1.852021719150402,-2.0417902867867825,-0.8503065683687598,1.5860492263195054,-0.3394570435551145,-1.9092181433261715,0.0,0.0,0.0,0.0,0.0,0.0,4.530313635353423,3.2207005488581446,0.30000408458330424,0.0012585236422104976,0.0,2.4658779396757226e-16
1750260258.0537605,-1.852021719150402,-2.0417902867867825,-0.8503065683687598,1.5860492263195054,-0.3394570435551145,-1.9092181433261715,0.0,0.0,0.0,0.0,0.0,0.0,4.530313635353423,3.2207005488581446,0.30000408458330424,0.0012585236422104976,0.0,2.4658779396757226e-16
1750260258.0558293,-1.852021719150402,-2.0417902867867825,-0.8503065683687598,1.5860492263195054,-0.3394570435551145,-1.9092181433261715,0.0,0.0,0.0,0.0,0.0,0.0,4.530313635353423,3.2207005488581446,0.30000408458330424,0.0012585236422104976,0.0,2.4658779396757226e-16
1750260258.0605521,-1.852021719150402,-2.0417902867867825,-0.8503065683687598,1.5860492263195054,-0.3394570435551145,-1.9092181433261715,0.0,0.0,0.0,0.0,0.0,0.0,4.530313635353423,3.2207005488581446,0.30000408458330424,0.0012585236422104976,0.0,2.4658779396757226e-16
1750260258.0611277,-1.852021719150402,-2.0417902867867825,-0.8503065683687598,1.5860492263195054,-0.3394570435551145,-1.9092181433261715,0.0,0.0,0.0,0.0,0.0,0.0,4.530313635353423,3.2207005488581446,0.30000408458330424,0.0012585236422104976,0.0,2.4658779396757226e-16
1750260258.0633345,-1.852021719150402,-2.0417902867867825,-0.8503065683687598,1.5860492263195054,-0.3394570435551145,-1.9092181433261715,0.0,0.0,0.0,0.0,0.0,0.0,4.530313635353423,3.2207005488581446,0.30000408458330424,0.0012585236422104976,0.0,2.4658779396757226e-16
1750260258.0641084,-1.852021719150402,-2.0417902867867825,-0.8503065683687598,1.5860492263195054,-0.3394570435551145,-1.9092181433261715,0.0,0.0,0.0,0.0,0.0,0.0,4.530313635353423,3.2207005488581446,0.30000408458330424,0.0012585236422104976,0.0,2.4658779396757226e-16
1750260258.065543,-1.852021719150402,-2.0417902867867825,-0.8503065683687598,1.5860492263195054,-0.3394570435551145,-1.9092181433261715,0.0,0.0,0.0,0.0,0.0,0.0,4.530313635353423,3.2207005488581446,0.30000408458330424,0.0012585236422104976,0.0,2.4658779396757226e-16
1750260258.067663,-1.852021719150402,-2.0417902867867825,-0.8503065683687598,1.5860492263195054,-0.3394570435551145,-1.9092181433261715,0.0,0.0,0.0,0.0,0.0,0.0,4.530313635353423,3.2207005488581446,0.30000408458330424,0.0012585236422104976,0.0,2.4658779396757226e-16
1750260258.0696497,-1.852021719150402,-2.0417902867867825,-0.8503065683687598,1.5860492263195054,-0.3394570435551145,-1.9092181433261715,0.0,0.0,0.0,0.0,0.0,0.0,4.530313635353423,3.2207005488581446,0.30000408458330424,0.0012585236422104976,0.0,2.4658779396757226e-16
1750260258.0714142,-1.852021719150402,-2.0417902867867825,-0.8503065683687598,1.5860492263195054,-0.3394570435551145,-1.9092181433261715,0.0,0.0,0.0,0.0,0.0,0.0,4.530313635353423,3.2207005488581446,0.30000408458330424,0.0012585236422104976,0.0,2.4658779396757226e-16
1750260258.0739276,-1.852021719150402,-2.0417902867867825,-0.8503065683687598,1.5860492263195054,-0.3394570435551145,-1.9092181433261715,0.0,0.0,0.0,0.0,0.0,0.0,4.530313635353423,3.2207005488581446,0.30000408458330424,0.0012585236422104976,0.0,2.4658779396757226e-16
1750260258.07575,-1.852021719150402,-2.0417902867867825,-0.8503065683687598,1.5860492263195054,-0.3394570435551145,-1.9092181433261715,0.0,0.0,0.0,0.0,0.0,0.0,4.530313635353423,3.2207005488581446,0.30000408458330424,0.0012585236422104976,0.0,2.4658779396757226e-16
1750260258.0799243,-1.852021719150402,-2.0417902867867825,-0.8503065683687598,1.5860492263195054,-0.3394570435551145,-1.9092181433261715,0.0,0.0,0.0,0.0,0.0,0.0,4.530313635353423,3.2207005488581446,0.30000408458330424,0.0012585236422104976,0.0,2.4658779396757226e-16
1750260258.0803099,-1.852021719150402,-2.0417902867867825,-0.8503065683687598,1.5860492263195054,-0.3394570435551145,-1.9092181433261715,0.0,0.0,0.0,0.0,0.0,0.0,4.530313635353423,3.2207005488581446,0.30000408458330424,0.0012585236422104976,0.0,2.4658779396757226e-16
1750260258.0845988,-1.852021719150402,-2.0417902867867825,-0.8503065683687598,1.5860492263195054,-0.3394570435551145,-1.9092181433261715,0.0,0.0,0.0,0.0,0.0,0.0,4.530313635353423,3.2207005488581446,0.30000408458330424,0.0012585236422104976,0.0,2.4658779396757226e-16
1750260258.0850136,-1.852021719150402,-2.0417902867867825,-0.8503065683687598,1.5860492263195054,-0.3394570435551145,-1.9092181433261715,0.0,0.0,0.0,0.0,0.0,0.0,4.530313635353423,3.2207005488581446,0.30000408458330424,0.0012585236422104976,0.0,2.4658779396757226e-16
1750260258.085349,-1.852021719150402,-2.0417902867867825,-0.8503065683687598,1.5860492263195054,-0.3394570435551145,-1.9092181433261715,0.0,0.0,0.0,0.0,0.0,0.0,4.530313635353423,3.2207005488581446,0.30000408458330424,0.0012585236422104976,0.0,2.4658779396757226e-16
1750260258.0893207,-1.852021719150402,-2.0417902867867825,-0.8503065683687598,1.5860492263195054,-0.3394570435551145,-1.9092181433261715,0.0,0.0,0.0,0.0,0.0,0.0,4.530313635353423,3.2207005488581446,0.30000408458330424,0.0012585236422104976,0.0,2.4658779396757226e-16
1750260258.089837,-1.852021719150402,-2.0417902867867825,-0.8503065683687598,1.5860492263195054,-0.3394570435551145,-1.9092181433261715,0.0,0.0,0.0,0.0,0.0,0.0,4.530313635353423,3.2207005488581446,0.30000408458330424,0.0012585236422104976,0.0,2.4658779396757226e-16
1750260258.0918047,-1.852021719150402,-2.0417902867867825,-0.8503065683687598,1.5860492263195054,-0.3394570435551145,-1.9092181433261715,0.0,0.0,0.0,0.0,0.0,0.0,4.530313635353423,3.2207005488581446,0.30000408458330424,0.0012585236422104976,0.0,2.4658779396757226e-16
1750260258.0957434,-1.852021719150402,-2.0417902867867825,-0.8503065683687598,1.5860492263195054,-0.3394570435551145,-1.9092181433261715,0.0,0.0,0.0,0.0,0.0,0.0,4.530313635353423,3.2207005488581446,0.30000408458330424,0.0012585236422104976,0.0,2.4658779396757226e-16
1750260258.0970309,-1.852021719150402,-2.0417902867867825,-0.8503065683687598,1.5860492263195054,-0.3394570435551145,-1.9092181433261715,0.0,0.0,0.0,0.0,0.0,0.0,4.530313635353423,3.2207005488581446,0.30000408458330424,0.0012585236422104976,0.0,2.4658779396757226e-16
1750260258.0983202,-1.852021719150402,-2.0417902867867825,-0.8503065683687598,1.5860492263195054,-0.3394570435551145,-1.9092181433261715,0.0,0.0,0.0,0.0,0.0,0.0,4.530313635353423,3.2207005488581446,0.30000408458330424,0.0012585236422104976,0.0,2.4658779396757226e-16
1750260258.1004999,-1.852021719150402,-2.0417902867867825,-0.8503065683687598,1.5860492263195054,-0.3394570435551145,-1.9092181433261715,0.0,0.0,0.0,0.0,0.0,0.0,4.530313635353423,3.2207005488581446,0.30000408458330424,0.0012585236422104976,0.0,2.4658779396757226e-16
1750260258.102266,-1.852021719150402,-2.0417902867867825,-0.8503065683687598,1.5860492263195054,-0.3394570435551145,-1.9092181433261715,0.0,0.0,0.0,0.0,0.0,0.0,4.530313635353423,3.2207005488581446,0.30000408458330424,0.0012585236422104976,0.0,2.4658779396757226e-16
1750260258.1039262,-1.852021719150402,-2.0417902867867825,-0.8503065683687598,1.5860492263195054,-0.3394570435551145,-1.9092181433261715,0.0,0.0,0.0,0.0,0.0,0.0,4.530313635353423,3.2207005488581446,0.30000408458330424,0.0012585236422104976,0.0,2.4658779396757226e-16
1750260258.1056252,-1.852021719150402,-2.0417902867867825,-0.8503065683687598,1.5860492263195054,-0.3394570435551145,-1.9092181433261715,0.0,0.0,0.0,0.0,0.0,0.0,4.530313635353423,3.2207005488581446,0.30000408458330424,0.0012585236422104976,0.0,2.4658779396757226e-16
1750260258.1085517,-1.852021719150402,-2.0417902867867825,-0.8503065683687598,1.5860492263195054,-0.3394570435551145,-1.9092181433261715,0.0,0.0,0.0,0.0,0.0,0.0,4.530313635353423,3.2207005488581446,0.30000408458330424,0.0012585236422104976,0.0,2.4658779396757226e-16
1750260258.1097229,-1.852021719150402,-2.0417902867867825,-0.8503065683687598,1.5860492263195054,-0.3394570435551145,-1.9092181433261715,0.0,0.0,0.0,0.0,0.0,0.0,4.530313635353423,3.2207005488581446,0.30000408458330424,0.0012585236422104976,0.0,2.4658779396757226e-16
1750260258.1116369,-1.852021719150402,-2.0417902867867825,-0.8503065683687598,1.5860492263195054,-0.3394570435551145,-1.9092181433261715,0.0,0.0,0.0,0.0,0.0,0.0,4.530313635353423,3.2207005488581446,0.30000408458330424,0.0012585236422104976,0.0,2.4658779396757226e-16
1750260258.113728,-1.852021719150402,-2.0417902867867825,-0.8503065683687598,1.5860492263195054,-0.3394570435551145,-1.9092181433261715,0.0,0.0,0.0,0.0,0.0,0.0,4.530313635353423,3.2207005488581446,0.30000408458330424,0.0012585236422104976,0.0,2.4658779396757226e-16
1750260258.1195288,-1.852021719150402,-2.0417902867867825,-0.8503065683687598,1.5860492263195054,-0.3394570435551145,-1.9092181433261715,0.0,0.0,0.0,0.0,0.0,0.0,4.530313635353423,3.2207005488581446,0.30000408458330424,0.0012585236422104976,0.0,2.4658779396757226e-16
1750260258.1199818,-1.852021719150402,-2.0417902867867825,-0.8503065683687598,1.5860492263195054,-0.3394570435551145,-1.9092181433261715,0.0,0.0,0.0,0.0,0.0,0.0,4.530313635353423,3.2207005488581446,0.30000408458330424,0.0012585236422104976,0.0,2.4658779396757226e-16
1750260258.1202736,-1.852021719150402,-2.0417902867867825,-0.8503065683687598,1.5860492263195054,-0.3394570435551145,-1.9092181433261715,0.0,0.0,0.0,0.0,0.0,0.0,4.530313635353423,3.2207005488581446,0.30000408458330424,0.0012585236422104976,0.0,2.4658779396757226e-16
1750260258.1215608,-1.852021719150402,-2.0417902867867825,-0.8503065683687598,1.5860492263195054,-0.3394570435551145,-1.9092181433261715,0.0,0.0,0.0,0.0,0.0,0.0,4.530313635353423,3.2207005488581446,0.30000408458330424,0.0012585236422104976,0.0,2.4658779396757226e-16
1750260258.1240616,-1.852021719150402,-2.0417902867867825,-0.8503065683687598,1.5860492263195054,-0.3394570435551145,-1.9092181433261715,0.0,0.0,0.0,0.0,0.0,0.0,4.530313635353423,3.2207005488581446,0.30000408458330424,0.0012585236422104976,0.0,2.4658779396757226e-16
1750260258.125832,-1.852021719150402,-2.0417902867867825,-0.8503065683687598,1.5860492263195054,-0.3394570435551145,-1.9092181433261715,0.0,0.0,0.0,0.0,0.0,0.0,4.530313635353423,3.2207005488581446,0.30000408458330424,0.0012585236422104976,0.0,2.4658779396757226e-16
1750260258.127918,-1.852021719150402,-2.0417902867867825,-0.8503065683687598,1.5860492263195054,-0.3394570435551145,-1.9092181433261715,0.0,0.0,0.0,0.0,0.0,0.0,4.530313635353423,3.2207005488581446,0.30000408458330424,0.0012585236422104976,0.0,2.4658779396757226e-16
1750260258.1296928,-1.852021719150402,-2.0417902867867825,-0.8503065683687598,1.5860492263195054,-0.3394570435551145,-1.9092181433261715,0.0,0.0,0.0,0.0,0.0,0.0,4.530313635353423,3.2207005488581446,0.30000408458330424,0.0012585236422104976,0.0,2.4658779396757226e-16
1750260258.1316686,-1.852021719150402,-2.0417902867867825,-0.8503065683687598,1.5860492263195054,-0.3394570435551145,-1.9092181433261715,0.0,0.0,0.0,0.0,0.0,0.0,4.530313635353423,3.2207005488581446,0.30000408458330424,0.0012585236422104976,0.0,2.4658779396757226e-16
1750260258.133609,-1.852021719150402,-2.0417902867867825,-0.8503065683687598,1.5860492263195054,-0.3394570435551145,-1.9092181433261715,0.0,0.0,0.0,0.0,0.0,0.0,4.530313635353423,3.2207005488581446,0.30000408458330424,0.0012585236422104976,0.0,2.4658779396757226e-16
1750260258.135602,-1.852021719150402,-2.0417902867867825,-0.8503065683687598,1.5860492263195054,-0.3394570435551145,-1.9092181433261715,0.0,0.0,0.0,0.0,0.0,0.0,4.530313635353423,3.2207005488581446,0.30000408458330424,0.0012585236422104976,0.0,2.4658779396757226e-16
1750260258.1376133,-1.852021719150402,-2.0417902867867825,-0.8503065683687598,1.5860492263195054,-0.3394570435551145,-1.9092181433261715,0.0,0.0,0.0,0.0,0.0,0.0,4.530313635353423,3.2207005488581446,0.30000408458330424,0.0012585236422104976,0.0,2.4658779396757226e-16
1750260258.144538,-1.852021719150402,-2.0417902867867825,-0.8503065683687598,1.5860492263195054,-0.3394570435551145,-1.9092181433261715,0.0,0.0,0.0,0.0,0.0,0.0,4.530313635353423,3.2207005488581446,0.30000408458330424,0.0012585236422104976,0.0,2.4658779396757226e-16
1750260258.1450875,-1.852021719150402,-2.0417902867867825,-0.8503065683687598,1.5860492263195054,-0.3394570435551145,-1.9092181433261715,0.0,0.0,0.0,0.0,0.0,0.0,4.530313635353423,3.2207005488581446,0.30000408458330424,0.0012585236422104976,0.0,2.4658779396757226e-16
1750260258.145705,-1.852021719150402,-2.0417902867867825,-0.8503065683687598,1.5860492263195054,-0.3394570435551145,-1.9092181433261715,0.0,0.0,0.0,0.0,0.0,0.0,4.530313635353423,3.2207005488581446,0.30000408458330424,0.0012585236422104976,0.0,2.4658779396757226e-16
1750260258.1478665,-1.852021719150402,-2.0417902867867825,-0.8503065683687598,1.5860492263195054,-0.3394570435551145,-1.9092181433261715,0.0,0.0,0.0,0.0,0.0,0.0,4.530313635353423,3.2207005488581446,0.30000408458330424,0.0012585236422104976,0.0,2.4658779396757226e-16
1750260258.1528249,-1.852021719150402,-2.0417902867867825,-0.8503065683687598,1.5860492263195054,-0.3394570435551145,-1.9092181433261715,0.0,0.0,0.0,0.0,0.0,0.0,4.530313635353423,3.2207005488581446,0.30000408458330424,0.0012585236422104976,0.0,2.4658779396757226e-16
1750260258.1533167,-1.852021719150402,-2.0417902867867825,-0.8503065683687598,1.5860492263195054,-0.3394570435551145,-1.9092181433261715,0.0,0.0,0.0,0.0,0.0,0.0,4.530313635353423,3.2207005488581446,0.30000408458330424,0.0012585236422104976,0.0,2.4658779396757226e-16
1750260258.1538272,-1.852021719150402,-2.0417902867867825,-0.8503065683687598,1.5860492263195054,-0.3394570435551145,-1.9092181433261715,0.0,0.0,0.0,0.0,0.0,0.0,4.530313635353423,3.2207005488581446,0.30000408458330424,0.0012585236422104976,0.0,2.4658779396757226e-16
1750260258.155906,-1.852021719150402,-2.0417902867867825,-0.8503065683687598,1.5860492263195054,-0.3394570435551145,-1.9092181433261715,0.0,0.0,0.0,0.0,0.0,0.0,4.530313635353423,3.2207005488581446,0.30000408458330424,0.0012585236422104976,0.0,2.4658779396757226e-16
1750260258.1598363,-1.852021719150402,-2.0417902867867825,-0.8503065683687598,1.5860492263195054,-0.3394570435551145,-1.9092181433261715,0.0,0.0,0.0,0.0,0.0,0.0,4.530313635353423,3.2207005488581446,0.30000408458330424,0.0012585236422104976,0.0,2.4658779396757226e-16
1750260258.1604846,-1.852021719150402,-2.0417902867867825,-0.8503065683687598,1.5860492263195054,-0.3394570435551145,-1.9092181433261715,0.0,0.0,0.0,0.0,0.0,0.0,4.530313635353423,3.2207005488581446,0.30000408458330424,0.0012585236422104976,0.0,2.4658779396757226e-16
1750260258.1620133,-1.852021719150402,-2.0417902867867825,-0.8503065683687598,1.5860492263195054,-0.3394570435551145,-1.9092181433261715,0.0,0.0,0.0,0.0,0.0,0.0,4.530313635353423,3.2207005488581446,0.30000408458330424,0.0012585236422104976,0.0,2.4658779396757226e-16
1750260258.165271,-1.852021719150402,-2.0417902867867825,-0.8503065683687598,1.5860492263195054,-0.3394570435551145,-1.9092181433261715,0.0,0.0,0.0,0.0,0.0,0.0,4.530313635353423,3.2207005488581446,0.30000408458330424,0.0012585236422104976,0.0,2.4658779396757226e-16
1750260258.1690395,-1.852021719150402,-2.0417902867867825,-0.8503065683687598,1.5860492263195054,-0.3394570435551145,-1.9092181433261715,0.0,0.0,0.0,0.0,0.0,0.0,4.530313635353423,3.2207005488581446,0.30000408458330424,0.0012585236422104976,0.0,2.4658779396757226e-16
1750260258.1695912,-1.852021719150402,-2.0417902867867825,-0.8503065683687598,1.5860492263195054,-0.3394570435551145,-1.9092181433261715,0.0,0.0,0.0,0.0,0.0,0.0,4.530313635353423,3.2207005488581446,0.30000408458330424,0.0012585236422104976,0.0,2.4658779396757226e-16
1750260258.169989,-1.852021719150402,-2.0417902867867825,-0.8503065683687598,1.5860492263195054,-0.3394570435551145,-1.9092181433261715,0.0,0.0,0.0,0.0,0.0,0.0,4.530313635353423,3.2207005488581446,0.30000408458330424,0.0012585236422104976,0.0,2.4658779396757226e-16
1750260258.1716769,-1.852021719150402,-2.0417902867867825,-0.8503065683687598,1.5860492263195054,-0.3394570435551145,-1.9092181433261715,0.0,0.0,0.0,0.0,0.0,0.0,4.530313635353423,3.2207005488581446,0.30000408458330424,0.0012585236422104976,0.0,2.4658779396757226e-16
1750260258.1736784,-1.852021719150402,-2.0417902867867825,-0.8503065683687598,1.5860492263195054,-0.3394570435551145,-1.9092181433261715,0.0,0.0,0.0,0.0,0.0,0.0,4.530313635353423,3.2207005488581446,0.30000408458330424,0.0012585236422104976,0.0,2.4658779396757226e-16
1750260258.175569,-1.852021719150402,-2.0417902867867825,-0.8503065683687598,1.5860492263195054,-0.3394570435551145,-1.9092181433261715,0.0,0.0,0.0,0.0,0.0,0.0,4.530313635353423,3.2207005488581446,0.30000408458330424,0.0012585236422104976,0.0,2.4658779396757226e-16
1750260258.1774724,-1.852021719150402,-2.0417902867867825,-0.8503065683687598,1.5860492263195054,-0.3394570435551145,-1.9092181433261715,0.0,0.0,0.0,0.0,0.0,0.0,4.530313635353423,3.2207005488581446,0.30000408458330424,0.0012585236422104976,0.0,2.4658779396757226e-16
1750260258.1797936,-1.852021719150402,-2.0417902867867825,-0.8503065683687598,1.5860492263195054,-0.3394570435551145,-1.9092181433261715,0.0,0.0,0.0,0.0,0.0,0.0,4.530313635353423,3.2207005488581446,0.30000408458330424,0.0012585236422104976,0.0,2.4658779396757226e-16
1750260258.1822925,-1.852021719150402,-2.0417902867867825,-0.8503065683687598,1.5860492263195054,-0.3394570435551145,-1.9092181433261715,0.0,0.0,0.0,0.0,0.0,0.0,4.530313635353423,3.2207005488581446,0.30000408458330424,0.0012585236422104976,0.0,2.4658779396757226e-16
1750260258.1854825,-1.852021719150402,-2.0417902867867825,-0.8503065683687598,1.5860492263195054,-0.3394570435551145,-1.9092181433261715,0.0,0.0,0.0,0.0,0.0,0.0,4.530313635353423,3.2207005488581446,0.30000408458330424,0.0012585236422104976,0.0,2.4658779396757226e-16
1750260258.1865737,-1.852021719150402,-2.0417902867867825,-0.8503065683687598,1.5860492263195054,-0.3394570435551145,-1.9092181433261715,0.0,0.0,0.0,0.0,0.0,0.0,4.530313635353423,3.2207005488581446,0.30000408458330424,0.0012585236422104976,0.0,2.4658779396757226e-16
1750260258.1876297,-1.852021719150402,-2.0417902867867825,-0.8503065683687598,1.5860492263195054,-0.3394570435551145,-1.9092181433261715,0.0,0.0,0.0,0.0,0.0,0.0,4.530313635353423,3.2207005488581446,0.30000408458330424,0.0012585236422104976,0.0,2.4658779396757226e-16
1750260258.1897423,-1.852021719150402,-2.0417902867867825,-0.8503065683687598,1.5860492263195054,-0.3394570435551145,-1.9092181433261715,0.0,0.0,0.0,0.0,0.0,0.0,4.530313635353423,3.2207005488581446,0.30000408458330424,0.0012585236422104976,0.0,2.4658779396757226e-16
1750260258.1916451,-1.852021719150402,-2.0417902867867825,-0.8503065683687598,1.5860492263195054,-0.3394570435551145,-1.9092181433261715,0.0,0.0,0.0,0.0,0.0,0.0,4.530313635353423,3.2207005488581446,0.30000408458330424,0.0012585236422104976,0.0,2.4658779396757226e-16
1750260258.1938517,-1.852021719150402,-2.0417902867867825,-0.8503065683687598,1.5860492263195054,-0.3394570435551145,-1.9092181433261715,0.0,0.0,0.0,0.0,0.0,0.0,4.530313635353423,3.2207005488581446,0.30000408458330424,0.0012585236422104976,0.0,2.4658779396757226e-16
1750260258.1959302,-1.852021719150402,-2.0417902867867825,-0.8503065683687598,1.5860492263195054,-0.3394570435551145,-1.9092181433261715,0.0,0.0,0.0,0.0,0.0,0.0,4.530313635353423,3.2207005488581446,0.30000408458330424,0.0012585236422104976,0.0,2.4658779396757226e-16
1750260258.1994176,-1.852021719150402,-2.0417902867867825,-0.8503065683687598,1.5860492263195054,-0.3394570435551145,-1.9092181433261715,0.0,0.0,0.0,0.0,0.0,0.0,4.530313635353423,3.2207005488581446,0.30000408458330424,0.0012585236422104976,0.0,2.4658779396757226e-16
1750260258.2009108,-1.852021719150402,-2.0417902867867825,-0.8503065683687598,1.5860492263195054,-0.3394570435551145,-1.9092181433261715,0.0,0.0,0.0,0.0,0.0,0.0,4.530313635353423,3.2207005488581446,0.30000408458330424,0.0012585236422104976,0.0,2.4658779396757226e-16
1750260258.2024863,-1.852021719150402,-2.0417902867867825,-0.8503065683687598,1.5860492263195054,-0.3394570435551145,-1.9092181433261715,0.0,0.0,0.0,0.0,0.0,0.0,4.530313635353423,3.2207005488581446,0.30000408458330424,0.0012585236422104976,0.0,2.4658779396757226e-16
1750260258.2043447,-1.852020829092206,-2.04178981344983,-0.850306825394993,1.5860487212218624,-0.33945580989187096,-1.9092174094080958,0.0008900570119628696,0.0004733382450457504,-0.0002570268568725747,-0.0005050987253129355,0.0012336629377809726,0.0007339180416293839,4.950208932231549,3.4125574268538204,0.30674102043364193,-0.010952768208671328,0.03476024750352836,0.27244905185734114
1750260258.2064638,-1.852018158931827,-2.0417883934234684,-0.8503075964811746,1.5860472059159454,-0.33945210890580846,-1.9092152076542774,0.0017800998143329544,0.0009466919912387348,-0.0005140611949495788,-0.0010102104385703704,0.0024673222085757297,0.0014678356745594825,4.950196272476503,3.412570457947452,0.30674110877368543,-0.010953263294772555,0.034760144230139484,0.27244889700712394
1750260258.2095737,-1.8520137087118949,-2.041786026661196,-0.8503088816497479,1.5860446803627908,-0.3394459406079262,-1.909211538065943,0.0026701141973504055,0.0014200767396019313,-0.0007711104953113286,-0.0015153481275778596,0.0037009741451721713,0.002201752490029554,4.9501732933909635,3.4125929680123277,0.3067411855477364,-0.010954212502863154,0.0347599376515621,0.272448793446804
1750260258.2103295,-1.8520137087118949,-2.041786026661196,-0.8503088816497479,1.5860446803627908,-0.3394459406079262,-1.909211538065943,0.0026701141973504055,0.0014200767396019313,-0.0007711104953113286,-0.0015153481275778596,0.0037009741451721713,0.002201752490029554,4.9501732933909635,3.4125929680123277,0.3067411855477364,-0.010954212502863154,0.0347599376515621,0.272448793446804
1750260258.2117064,-1.8520074785034577,-2.0417827130855084,-0.8503106809381178,1.5860411444974596,-0.33943730501656155,-1.909206400645135,0.0035600859509244656,0.0018935079909485053,-0.0010281822387692321,-0.0020205247798563974,0.00493461507994069,0.0029356680791589843,4.950139995167844,3.412624956874044,0.30674125075015984,-0.010955615830603203,0.03475962775603618,0.27244874119029183
1750260258.2139776,-1.8519994684059844,-2.041778452587897,-0.850312994398652,1.5860365982290379,-0.3394262021573864,-1.9091997953947164,0.004450000864446895,0.002367001245783685,-0.0012852839058485267,-0.002525753382502542,0.006168241344642044,0.0036695820328766903,4.950096378050341,3.4126664242784845,0.30674130436958774,-0.010957473274037543,0.03475921452638985,0.27244874024958277
1750260258.2159154,-1.8519896785473673,-2.041773245028856,-0.8503158220986773,1.5860310414406382,-0.339412632063409,-1.9091917223183668,0.005339844726641542,0.0028405720041540933,-0.001542422976587421,-0.0030310469220866452,0.007401849270173276,0.00440349394188356,4.950042442346002,3.41271736988523,0.30674134639432876,-0.010959784828585338,0.03475869793829273,0.27244879064598115
1750260258.217832,-1.8519781090839205,-2.0417670902378777,-0.8503191641204806,1.586024473989401,-0.3393965947749784,-1.9091821814205847,0.0062296033253970455,0.0033142357655752087,-0.0017996069303928659,-0.003536418384450675,0.008635435186391397,0.00513740339656643,4.949978188424833,3.412777793282675,0.30674137681125163,-0.010962550486313852,0.03475807796244828,0.272448892392899
1750260258.2201662,-1.8519647602003833,-2.0417599880134585,-0.8503230205613068,1.586016895706495,-0.3393780903397845,-1.9091711727066896,0.007119262447584944,0.003788008028905091,-0.002056843246008679,-0.004041880754640779,0.009868995421939059,0.005871309986952843,4.949903616706867,3.4128476939739887,0.3067413956017094,-0.010965770239669086,0.03475735456464958,0.272449045511094
1750260258.2216694,-1.8519496321099238,-2.0417519381230953,-0.8503273915333578,1.586008306397121,-0.3393571188128597,-1.9091586961828204,0.008008807878894849,0.004261904292259085,-0.0023141394013587637,-0.004547447016668561,0.011102526303868534,0.006605213302640877,4.949818727674589,3.412927071388811,0.30674140274590045,-0.010969444076654712,0.03475652770009465,0.27244925001953646
1750260258.2238567,-1.851932725054139,-2.0417429403032914,-0.8503322771637905,1.5859987058405118,-0.33933368025658783,-1.9091447518559361,0.008898225403686552,0.004735940052861384,-0.002571502873410853,-0.005053130153467694,0.01233602415768359,0.007339112932746792,4.949723521875968,3.413015924870068,0.3067413982217783,-0.01097357198635867,0.03475559732516474,0.2724495059403857
1750260258.2256918,-1.8519140393030584,-2.0417329942595552,-0.8503376775947133,1.585988093789936,-0.33930777474069895,-1.9091293397338207,0.009787500804792904,0.005210130806979639,-0.002828941138100834,-0.005558943146737563,0.013569485306958416,0.00807300846583728,4.949617999906943,3.413114253688311,0.3067413820035637,-0.010978153955772086,0.034754563385503846,0.27244981329594214
1750260258.22758,-1.851893575155148,-2.041722099666405,-0.8503435929831875,1.5859764699727004,-0.3392794023422816,-1.9091124598250788,0.01067661986336869,0.0056844920497673805,-0.003086461670116304,-0.006064898976717871,0.01480290607310197,0.008806899489873371,4.9495021624276925,3.4132220570257625,0.30674135406553055,-0.01098318996778334,0.03475342582011676,0.2724501721106845
1750260258.2325435,-1.8518713329373133,-2.0417102561673683,-0.8503500235012211,1.585963834090152,-0.339248563145782,-1.909094112139142,0.011565568358721329,0.006159039275219816,-0.0033440719429808606,-0.006571010622209486,0.01603628277533671,0.009540785592150098,4.949376010158938,3.4133393339976155,0.30674131437387947,-0.010988680008220616,0.03475218456741234,0.2724505824111445
1750260258.233067,-1.8518473130049031,-2.0416974633749874,-0.8503569693357678,1.585950185817683,-0.33921525724301205,-1.909074296686267,0.012454332068145403,0.006633787976007936,-0.003601779428723309,-0.007077291060232402,0.017269611730283983,0.010274666359228612,4.949239543879838,3.4134660836286597,0.30674126289808573,-0.010994624055512521,0.03475083955411639,0.27245104422200384
1750260258.2441554,-1.8516658848888863,-2.0416007458592205,-0.850409478341601,1.5858470145469659,-0.33896362706538863,-1.9089245815421947,0.017782237052586847,0.0094873785610085,-0.005150484041784066,-0.010119244802320656,0.02466837612917239,0.014677815663109309,4.948204203037787,3.4144254428378327,0.3067407043844426,-0.011039821276122817,0.034740585803667144,0.2724548985065052
1750260258.2447581,-1.8516658848888863,-2.0416007458592205,-0.850409478341601,1.5858470145469659,-0.33896362706538863,-1.9089245815421947,0.017782237052586847,0.0094873785610085,-0.005150484041784066,-0.010119244802320656,0.02466837612917239,0.014677815663109309,4.948204203037787,3.4144254428378327,0.3067407043844426,-0.011039821276122817,0.034740585803667144,0.2724548985065052
1750260258.247166,-1.8516294332944243,-2.041581294562344,-0.8504200378812028,1.5858262682765294,-0.33891305740921673,-1.9088944920776871,0.01866930882040214,0.009963971251768677,-0.00540908109240706,-0.010627069976418685,0.02590126746388837,0.015411647433658325,4.947995565470289,3.414618467196007,0.30674056927047827,-0.011048942725833094,0.03473851199196291,0.2724557217541609
1750260258.2476375,-1.851591207852712,-2.0415608897573083,-0.8504311147705872,1.585804506085372,-0.3388600220470863,-1.908862934958245,0.019556081928093855,0.010440889299326647,-0.005667835067702673,-0.01113516768262083,0.0271340814688202,0.016145470528011366,4.947776622262845,3.414820953577335,0.3067404220124364,-0.011058517975811631,0.03473633364122762,0.27245659678024464
1750260258.2545063,-1.8515512091753177,-2.041539530777925,-0.8504427093310589,1.5857817274154735,-0.33880452113737114,-1.908829910201641,0.02044254212733213,0.010918148179710515,-0.005926753421735899,-0.01164355087665908,0.02836681442861612,0.016879284523440567,4.94754737472994,3.4150329002829003,0.30674026255641673,-0.011068546993619777,0.03473405062922063,0.27245752361532966
1750260258.2549102,-1.8515094379023092,-2.041517216927053,-0.8504548218988282,1.5857579316829051,-0.3387465548458817,-1.9087954178265,0.021328675166120557,0.011395763366602035,-0.006185843606114353,-0.012152232511119155,0.029599462623234124,0.017613088995863935,4.947307824253583,3.41525430555224,0.3067400908401729,-0.011079029742157442,0.03473166282381617,0.27245850229205043
1750260258.2551825,-1.8514658947022635,-2.0414939474766065,-0.8504674528250034,1.5857331182778358,-0.33868612334587134,-1.9087594578522902,0.022214466788619748,0.011873750331170956,-0.006445113069748056,-0.012661225535420984,0.030832022327932255,0.01834688351983688,4.947057972266622,3.415485167533115,0.3067399068019135,-0.011089966185952824,0.03472917009261746,0.27245953286406427
1750260258.2554333,-1.8514658947022635,-2.0414939474766065,-0.8504674528250034,1.5857331182778358,-0.33868612334587134,-1.9087594578522902,0.022214466788619748,0.011873750331170956,-0.006445113069748056,-0.012661225535420984,0.030832022327932255,0.01834688351983688,4.947057972266622,3.415485167533115,0.3067399068019135,-0.011089966185952824,0.03472917009261746,0.27245953286406427
1750260258.2577477,-1.8514658947022635,-2.0414939474766065,-0.8504674528250034,1.5857331182778358,-0.33868612334587134,-1.9087594578522902,0.022214466788619748,0.011873750331170956,-0.006445113069748056,-0.012661225535420984,0.030832022327932255,0.01834688351983688,4.947057972266622,3.415485167533115,0.3067399068019135,-0.011089966185952824,0.03472917009261746,0.27245953286406427
1750260258.2603781,-1.8514658947022635,-2.0414939474766065,-0.8504674528250034,1.5857331182778358,-0.33868612334587134,-1.9087594578522902,0.022214466788619748,0.011873750331170956,-0.006445113069748056,-0.012661225535420984,0.030832022327932255,0.01834688351983688,4.947057972266622,3.415485167533115,0.3067399068019135,-0.011089966185952824,0.03472917009261746,0.27245953286406427
1750260258.2614908,-1.8513246406534458,-2.0414183977829214,-0.8505084594884602,1.5856525655409242,-0.338490039439141,-1.9086427725427733,0.024869650539108758,0.01331009656264943,-0.007224071581872199,-0.014190202390190174,0.03452913317794105,0.020548203124136168,4.946246622556582,3.4162344740248245,0.3067392801059295,-0.011125497292199105,0.03472106089177917,0.2724629363118823
1750260258.2636735,-1.8512740170014474,-2.0413912980346236,-0.8505231676571743,1.5856236748297385,-0.3384197489868388,-1.9086009423840995,0.025753933855706058,0.013789725295662638,-0.007484132593298807,-0.014700570398555527,0.03576130157153801,0.02128195356956826,4.945955580140431,3.4165031427418437,0.3067390461128085,-0.011138248112050728,0.03471814698012639,0.27246417485201824
1750260258.265612,-1.8512216251931957,-2.0413632385823437,-0.8505383961631523,1.5855937630086074,-0.3383469943043167,-1.908557644736561,0.026637804413608718,0.014269803120815536,-0.007744410083936971,-0.015211314490521571,0.03699336277189782,0.022015691916139526,4.9456542443209,3.4167812577114187,0.3067387994496946,-0.011151452416474061,0.034715127377404106,0.2724654654964312
1750260258.2676046,-1.8511674660684871,-2.041334218512443,-0.8505541454467833,1.585562829312436,-0.33827177560971844,-1.9085128796247908,0.027521247930557782,0.014750345491992453,-0.008004911484148473,-0.015722447593176134,0.038225313021036766,0.022749417728717077,4.945342616909337,3.4170688166085172,0.3067385400375357,-0.01116511015775524,0.034712001912463444,0.27246680828694897
1750260258.271654,-1.8511115404956922,-2.0413042368803787,-0.8505704159633138,1.585530872950279,-0.33819409312870974,-1.9084666470742935,0.028404250119316788,0.015231367859776338,-0.008265644220698505,-0.016233982629414175,0.039457148554752644,0.0234831305703523,4.94502069976881,3.4173658170123145,0.30673826779850283,-0.01117922128751156,0.0347087704101291,0.27246820327305443
1750260258.2721186,-1.8510538493717572,-2.0412732927107076,-0.850587208182839,1.5854978931053503,-0.33811394709448983,-1.908418947111449,0.02928679668753506,0.01571288567140003,-0.00852661571681063,-0.016745932517764572,0.04068886560238431,0.02421683000221347,4.944688494838117,3.4176722564350244,0.30673798264783086,-0.011193785754760611,0.03470543268845186,0.272469650502828
1750260258.2748399,-1.8509943936222202,-2.0412413849971003,-0.8506045225903005,1.5854638889350305,-0.33803133774780836,-1.9083697797635182,0.03016887333755317,0.016194914370590965,-0.0087878333919535,-0.0172583101722104,0.04192046038658975,0.02495051558350788,4.944346004100828,3.4179881322953376,0.3067376845002422,-0.01120880350576818,0.03470198855923096,0.27247115001882877
1750260258.2757938,-1.850933174201221,-2.0412085127023403,-0.8506223596854703,1.5854288595708776,-0.33794626533697514,-1.9083191450586439,0.031050465766280202,0.016677469397504783,-0.0090493046617555,-0.017771128502146488,0.04315192912317782,0.025684186871456065,4.9439932296216895,3.4183134419441674,0.3067373732677614,-0.01122427448780838,0.03469843782952447,0.27247270187774925
1750260258.2776432,-1.8508701920915085,-2.0411746747583344,-0.8506407199829518,1.5853928041186351,-0.33785873011787526,-1.908267043025858,0.03193155966502469,0.017160566188581035,-0.009311036937927855,-0.01828440041212605,0.04438326802088485,0.026417843421191203,4.943630173522114,3.4186481826412147,0.30673704885811953,-0.011240198643364428,0.03469478030009938,0.2724743061212711
1750260258.279381,-1.850805448304457,-2.0411398700661216,-0.850659604012165,1.5853557216582426,-0.3377687323539833,-1.9082134736950822,0.0328121407193169,0.01764422017643335,-0.009573037628021534,-0.018798138801844173,0.04561447328120248,0.027151484785741205,4.94325683797758,3.4189923515656804,0.3067367111801201,-0.011256575916644631,0.03469101576687105,0.27247596280917097
1750260258.2813501,-1.8507389438800743,-2.0411040974958787,-0.8506790123173422,1.585317611243845,-0.3376762723163793,-1.9081584370971374,0.03369219460877471,0.018128446789778915,-0.009835314135510226,-0.01931235656578786,0.04684554109814307,0.027885110515908373,4.942873225240321,3.4193459458228954,0.3067363601345285,-0.011273406244361028,0.03468714401914784,0.2724776719787461
1750260258.2835164,-1.850670679887016,-2.041067355886929,-0.850698945457518,1.5852784719038036,-0.3375813502837621,-1.9081019332637421,0.034571707006947755,0.018613261453269258,-0.01009787385946832,-0.019827066593336832,0.04807646765799806,0.028618720160281743,4.94247933762275,3.4197089624268986,0.30673599562519976,-0.011290689568209033,0.0346831648394288,0.27247943369548017
1750260258.2855742,-1.8506006574225955,-2.041029644047752,-0.8507194040065205,1.5852383026407064,-0.33748396654246626,-1.9080439622275227,0.03545066358114938,0.019098679587422066,-0.010360724194603042,-0.020342281768412265,0.049307249139196346,0.029352313265105213,4.942075177499228,3.4200813983157725,0.30673561754915535,-0.011308425822382034,0.03467907800622551,0.2724812479988092
1750260258.287581,-1.8505288776128,-2.0409909607559875,-0.8507403885529641,1.5851971024313791,-0.337384121386477,-1.9079845240220124,0.03632904999230504,0.0195847166085203,-0.010623872531120581,-0.02085801496948369,0.050537881712196836,0.03008588937427661,4.941660747309358,3.420463250349767,0.30673522580154033,-0.011326614943410567,0.034674883295023044,0.272483114952199
1750260258.289659,-1.8504553416122986,-2.040951304758451,-0.8507618997002364,1.5851548702268958,-0.33728181511744815,-1.9079236186816617,0.03720685189480473,0.020071387928448314,-0.010887326254518789,-0.02137427906931523,0.05176836153899008,0.03081944802923473,4.941236049559591,3.4208545152954217,0.3067348202771478,-0.011345256863048773,0.03467058046726406,0.27248503459825485
1750260258.2918496,-1.8504553416122986,-2.040951304758451,-0.8507618997002364,1.5851548702268958,-0.33728181511744815,-1.9079236186816617,0.03720685189480473,0.020071387928448314,-0.010887326254518789,-0.02137427906931523,0.05176836153899008,0.03081944802923473,4.941236049559591,3.4208545152954217,0.3067348202771478,-0.011345256863048773,0.03467058046726406,0.27248503459825485
1750260258.2936993,-1.8503800506044614,-2.040910674771137,-0.8507839380664937,1.5851116049525913,-0.33717704804471627,-1.907861246241839,0.03808405493634341,0.020558708954647415,-0.011151092745614594,-0.021891086934833142,0.0529986847732485,0.03155298876893233,4.9408010868208425,3.421255189851205,0.30673440086448467,-0.011364351511481517,0.03466616928862756,0.27248700699466377
1750260258.2978961,-1.8503030058013668,-2.0408690694792266,-0.8508065042846482,1.585067305508072,-0.3370698204853202,-1.9077974067388386,0.0389606447577764,0.021046695089960446,-0.011415179380316038,-0.022408451427066566,0.05422884755988673,0.03228651112976325,4.9403558617318275,3.4216652706248185,0.3067339674524742,-0.011383898819549605,0.03466164951240435,0.2724890321936628
1750260258.3015113,-1.8501436598013683,-2.0407829275683627,-0.8508532228820194,1.5849755995782477,-0.3368479852133035,-1.9076653266931327,0.04071192726858274,0.02202472427563896,-0.011944342559066781,-0.023444901705058935,0.05668867632527637,0.033753498847264925,4.939434635368459,3.4225136368439704,0.30673305816837043,-0.01142435111932917,0.03465228315990717,0.2724932412172766
1750260258.3042223,-1.849977313883704,-2.040692867891483,-0.8509020608504025,1.5848797431201822,-0.3366163119924135,-1.9075273788535858,0.042460584411379274,0.023005598612319836,-0.012474874696526824,-0.02448373266646721,0.05914781681336718,0.035220407419401266,4.938472392890843,3.423399585191446,0.30673209147193264,-0.011466613156447366,0.03464247934241921,0.2724976620971294
1750260258.3054643,-1.8498915192914103,-2.0406463652766593,-0.8509272763375053,1.584830255419069,-0.3364967870260802,-1.9074562046118322,0.04333389249487838,0.023497141167491416,-0.012740672509575406,-0.025004072988445692,0.060377119217814246,0.03595383083802416,4.937975897911039,3.423856643310409,0.30673158628568414,-0.01148842262783033,0.03463741271472226,0.27249995211757044
1750260258.3074281,-1.8498039787800753,-2.0405988788218643,-0.8509530237833012,1.5847797264057888,-0.3363748036380567,-1.9073835635443785,0.04420650105117923,0.023989441146325702,-0.013006834613214656,-0.025525046969746588,0.06160623785067015,0.03668723303900186,4.937469157793185,3.4243230855777966,0.306731066368101,-0.011510684292800841,0.034632235903206486,0.2725022952626575
1750260258.3093696,-1.8497146937631648,-2.0405504069968803,-0.8509793039237117,1.5847281548002068,-0.33625036219980586,-1.9073094556941435,0.04507839566901884,0.024482513916440105,-0.013273368346052361,-0.026046667425496866,0.06283516879049636,0.03742061353910535,4.936952175649508,3.424798908017525,0.3067305315925624,-0.01153339806589833,0.034626948624922334,0.2725046915858828
1750260258.3194473,-1.84943638624617,-2.0403990635377607,-0.851061348091835,1.58456717124404,-0.3358622934162421,-1.9070783318905056,0.04768965165767236,0.025966522568108382,-0.01407527261967137,-0.027615535682923457,0.066520796082402,0.039620619955832624,4.935339809144015,3.4262826154610098,0.30672883675148194,-0.011604251164124857,0.03461042107222514,0.27251220017133776
1750260258.3197985,-1.84943638624617,-2.0403990635377607,-0.851061348091835,1.58456717124404,-0.3358622934162421,-1.9070783318905056,0.04768965165767236,0.025966522568108382,-0.01407527261967137,-0.027615535682923457,0.066520796082402,0.039620619955832624,4.935339809144015,3.4262826154610098,0.30672883675148194,-0.011604251164124857,0.03461042107222514,0.27251220017133776
1750260258.3200417,-1.84943638624617,-2.0403990635377607,-0.851061348091835,1.58456717124404,-0.3358622934162421,-1.9070783318905056,0.04768965165767236,0.025966522568108382,-0.01407527261967137,-0.027615535682923457,0.066520796082402,0.039620619955832624,4.935339809144015,3.4262826154610098,0.30672883675148194,-0.011604251164124857,0.03461042107222514,0.27251220017133776
1750260258.320341,-1.8493401379184506,-2.040346634315436,-0.851089766663164,1.5845114159556564,-0.3357280236490867,-1.9069983573578053,0.048558546246091266,0.026462840068625235,-0.014343366139348385,-0.028139870042780884,0.06774893682758619,0.040353908758286545,4.934781891331999,3.4267959172557614,0.3067282411701883,-0.011628772487917643,0.03460468898081198,0.2725148097469212
1750260258.3218288,-1.8492421525852638,-2.0402932116111216,-0.8511187218285485,1.584454611290242,-0.3355912978072366,-1.906916916271582,0.04942665471627192,0.0269600071142954,-0.014611867893000704,-0.028664914842570614,0.06897687011466863,0.04108717339676542,4.934213748055202,3.427318578130288,0.3067276300332206,-0.011653745467159176,0.03459884492118947,0.27251747276441873
1750260258.3233771,-1.8491424318333056,-2.040238793710394,-0.8511482144117597,1.5843967558141459,-0.3354521163095905,-1.9068340086806632,0.05029396260658374,0.027458039038254018,-0.014880785183049734,-0.029190682852287448,0.07020459195769144,0.04182041336883595,4.93363538284822,3.4278505936200223,0.3067270031940201,-0.011679170006150964,0.03459288857727462,0.2725201892819333
1750260258.325357,-1.8490409772782046,-2.040183378868166,-0.8511782452511687,1.5843378480681847,-0.3353104795830335,-1.9067496346348873,0.051160455446492184,0.027956951167504424,-0.01515012530556506,-0.029717186833886744,0.0714320983592627,0.04255362816862859,4.933046799300999,3.4283919591711505,0.3067263605003498,-0.011705046006791297,0.03458681962696887,0.2725229593440747
1750260258.3274899,-1.8489377905645394,-2.0401269653087066,-0.8512088151997306,1.5842778865676597,-0.33516638806245425,-1.9066637941851088,0.05202611875643386,0.028456758822764865,-0.015419895549968511,-0.03024443954101958,0.07265938531030804,0.043286817286791505,4.932448001080243,3.428942670139538,0.30672570180263614,-0.011731373365652204,0.0345806377411731,0.2725257830003701
1750260258.3294904,-1.8488328733658577,-2.0400695512256473,-0.8512399251249718,1.584216869802373,-0.3350198421907731,-1.9065764873832034,0.05289093804768066,0.028957477318411542,-0.0156901031991317,-0.03077245371910175,0.07388644879001002,0.04401998021045727,4.931838991926573,3.4295027218077494,0.306725026942939,-0.011758151983471087,0.03457434258908454,0.27252866031107026
1750260258.3343685,-1.8487262273846934,-2.0400111347820005,-0.8512715759089806,1.5841547962366447,-0.3348708424189635,-1.9064877142820746,0.0537548988221994,0.029459121962313782,-0.01596075552904505,-0.0313012421049057,0.07511328476550437,0.0447531164231295,4.931219775651633,3.4300721093627033,0.30672433576670466,-0.011785381751763862,0.03456793383133973,0.2725315913152168
1750260258.3347025,-1.8486178543525842,-2.039951714110165,-0.8513037684483891,1.5840916643093295,-0.3347193892060769,-1.9063974749356642,0.05461798657251407,0.029961708055810336,-0.016231859809030552,-0.03183081742661475,0.07633988919171336,0.04548622540465247,4.9305903561410895,3.4306508279238686,0.3067236281078411,-0.011813062565775296,0.03456141112388346,0.2725345760642412
1750260258.3352394,-1.8485077560300969,-2.0398912873119475,-0.851336503654359,1.5840274724338346,-0.3345654830192668,-1.9063057693989593,0.05548018678156788,0.030465250893458216,-0.016503423301212974,-0.03236119240352775,0.0775662580111852,0.04621930663114033,4.929950737347717,3.4312388724979077,0.306722903808791,-0.01184119431461881,0.03455477411813551,0.27253761460353043
1750260258.3372276,-1.8483959342068363,-2.0398298524585705,-0.8513697824525721,1.583962218998138,-0.3344091243338161,-1.9062125977279951,0.056341484922611554,0.030969765763067487,-0.016775453260833045,-0.03289237974598981,0.078792387153868,0.04695235957493653,4.9293009233135,3.4318362380378167,0.30672216269826996,-0.011869776887632903,0.034548022459147155,0.2725407069872505
1750260258.339262,-1.8482823907014758,-2.0397674075906878,-0.8514036057832124,1.5838959023648058,-0.3342503136331576,-1.906117959979869,0.05720186645903523,0.031475267945472195,-0.017047956935787884,-0.03342439215519014,0.08001827253697058,0.04768538370450449,4.928640918135418,3.4324429193844663,0.3067214046113121,-0.011898810170793616,0.034541155788051905,0.2725438532491104
1750260258.341469,-1.8481671273617675,-2.0397039507183976,-0.8514379746009526,1.5838285208710112,-0.3340890514089052,-1.9060218562127433,0.058061316844268275,0.031981772714511726,-0.017320941566855146,-0.03395724232299916,0.08124391006473003,0.04841837848441291,4.927970726001577,3.4330589113146592,0.30672062937149835,-0.01192829404754905,0.03453417373943089,0.2725470534408857
1750260258.343221,-1.8480501460645709,-2.0396394798212603,-0.8514728898749393,1.583760072828553,-0.3339253381608751,-1.905924286485857,0.05891982152162894,0.03248929533681335,-0.017594414387196874,-0.034490942931845625,0.08246929562822558,0.049151343375248194,4.927290351163714,3.4336842084975054,0.3067198368101442,-0.011958228400177429,0.034527075942625,0.27255030760196164
1750260258.3458197,-1.8479314487158645,-2.0395739928483083,-0.8515083525887785,1.5836905565238746,-0.333759174397116,-1.9058252508595306,0.05977736592421679,0.03299785107178849,-0.017868382622629228,-0.03502550665455543,0.08369442510523498,0.049884277833565735,4.926599797962753,3.4343188055392044,0.30671902674577284,-0.011988613108571836,0.034519862022928234,0.272553615776661
1750260258.3474786,-1.847811037250775,-2.0395074877180637,-0.8515443637405191,1.5836199702180833,-0.3335905606339349,-1.9057247493951763,0.06063393547475004,0.033507455171458506,-0.018142853491322993,-0.035560946154161714,0.08491929436000148,0.050617181311816334,4.925899070798089,3.434962696944868,0.3067181989990088,-0.01201944804949537,0.03451253159907084,0.2725569780035187
1750260258.3496537,-1.8476889136335917,-2.03943996231855,-0.85158092434264,1.583548312146971,-0.3334194973959237,-1.9056227821553042,0.06148951558548524,0.03401812288033025,-0.018417834203651545,-0.03609727408378855,0.08614389924306101,0.051350053258297446,4.925188174166941,3.4356158771351413,0.30671735338947853,-0.012050733098601735,0.03450508428491348,0.27256039432329
1750260258.351435,-1.847565079857791,-2.039371414507311,-0.8516180354220317,1.5834755805210325,-0.3332459852159859,-1.9055193492035345,0.06234409165804771,0.03452986943533582,-0.018693331962278955,-0.03663450308636808,0.08736823559107619,0.05208289311705587,4.924467112626263,3.436278340450035,0.3067164897282487,-0.012082468125823144,0.0344975196896424,0.2725638647635546
1750260258.3534172,-1.847439537946057,-2.039301842111424,-0.8516556980199823,1.583401773525488,-0.33307002463536683,-1.9054144506046011,0.06319764908333973,0.03504271006564898,-0.0189693539617759,-0.03717264579474269,0.08859229922664483,0.05281570032789552,4.923735890822105,3.436950081133727,0.3067156078317219,-0.012114653006050058,0.03448983741704796,0.272567389375381
1750260258.3553276,-1.8473122899503025,-2.0392312429275172,-0.8516939131921637,1.5833268893203014,-0.3328916162036819,-1.9053080864243643,0.06405017324140463,0.035556659992648454,-0.01924590738885434,-0.03771171483116942,0.08981608595808915,0.05354847432623066,4.922994513477423,3.4376310933546663,0.30671470750383834,-0.012147287602514401,0.03448203706498384,0.27257096817686427
1750260258.3575633,-1.84718333795169,-2.0391596147217808,-0.8517326820086089,1.5832509260402032,-0.33271076047894166,-1.9052002567298176,0.06490164950130162,0.036071734429762914,-0.01952299942198636,-0.03825172280746361,0.09103959157936226,0.05428121454309603,4.9222429853905005,3.438321371188927,0.30671378855373216,-0.012180371784578904,0.034474118228668145,0.27257460121178445
1750260258.3595698,-1.8470526840606567,-2.039086955229987,-0.8517720055537028,1.5831738817947107,-0.33252745802758454,-1.9050909615890959,0.06575206322099042,0.03658794858234225,-0.019800637231420094,-0.038792682324594124,0.09226281186973301,0.05501392040503427,4.921481311441063,3.4390209086197916,0.30671285078397514,-0.012213905412433909,0.034466080494442185,0.272578288502214
1750260258.362759,-1.8469203304169355,-2.0390132621575088,-0.8518118849261604,1.5830957546681506,-0.33234170942450625,-1.9049802010714858,0.06660139974721907,0.037105317647563446,-0.020078827979034784,-0.039334605972733874,0.093485742593709,0.055746591334066904,4.920709496592999,3.4397296995492184,0.30671189399589666,-0.012247888349849323,0.03445792344647702,0.27258203008102666
1750260258.363333,-1.8467862791895735,-2.038938533179329,-0.8518523212390132,1.5830165427196796,-0.33215351525308723,-1.904867975247436,0.06744964441539987,0.037623856814330114,-0.02035757881823692,-0.0398775063308514,0.09470837950085256,0.056479226747593314,4.919927545890158,3.4404477377932934,0.3067109179880942,-0.01228232045127773,0.03444964666376232,0.27258582596473374
1750260258.3654556,-1.8466505325769624,-2.0388627659400633,-0.8518933156195914,1.5829362439833083,-0.3319628761052247,-1.9047542841885639,0.06829678254948,0.03814358126314301,-0.020636896893971118,-0.04042139596684049,0.0959307183254838,0.057211826058389634,4.919135464448028,3.441175017075458,0.30670992255267393,-0.012317201576922277,0.03444124971691802,0.27258967619121216
1750260258.3674233,-1.8465130928068563,-2.038785958053974,-0.8519348692095043,1.5828548564679226,-0.33176979258136097,-1.9046391279676653,0.06914279946185675,0.03866450616598232,-0.020916789342439644,-0.04096628743705527,0.09715275478671206,0.057944388674476606,4.918333257481579,3.4419115310331447,0.3067089074845443,-0.012352531576140004,0.03443273217745578,0.2725935807684109
1750260258.3694417,-1.8463739621363953,-2.0387081071049877,-0.8519769831646276,1.582772378157307,-0.33157426529051737,-1.9045225066587266,0.0699876804532453,0.03918664668618747,-0.021197263291077087,-0.04151219328639339,0.09837448458809339,0.058676913999107155,4.9175209302772975,3.442657273212687,0.306707872573266,-0.012388310302737664,0.034424093607234314,0.27259753972147105
1750260258.3714206,-1.8462331428521317,-2.0386292106467145,-0.8520196586550819,1.5826888070101686,-0.3313762948503225,-1.904404420336931,0.07083141081256053,0.03971001797838225,-0.02147832585854168,-0.042059126047964766,0.0995959034174409,0.05940940143068472,4.916698488204442,3.443412237079025,0.3067068176031,-0.012424537603338498,0.03441533356277019,0.27260155306666917
1750260258.373253,-1.8460906372700485,-2.0385492662024625,-0.8520628968652142,1.5826041409601592,-0.33117588188704694,-1.90428486907867,0.0716739758168365,0.04023463518829692,-0.02175998415440588,-0.04260709824301549,0.10081700694680554,0.06014185036269661,4.9158659367280855,3.4441764159982333,0.30670574236143966,-0.012461213324618858,0.03440645160004059,0.2726056208140697
1750260258.3752887,-1.8459464477355905,-2.0384682712652573,-0.8521066989935857,1.582518377915901,-0.3309730270356308,-1.9041638529615543,0.07251536073106929,0.04076051345271397,-0.022042245279291068,-0.04315612238071235,0.10203779083217862,0.06087426018365906,4.9150232813772,3.444949803255002,0.30670464662586083,-0.012498337309292127,0.03439744726664124,0.2726097429764281
1750260258.3809624,-1.8459464477355905,-2.0384682712652573,-0.8521066989935857,1.582518377915901,-0.3309730270356308,-1.9041638529615543,0.07251536073106929,0.04076051345271397,-0.022042245279291068,-0.04315612238071235,0.10203779083217862,0.06087426018365906,4.9150232813772,3.444949803255002,0.30670464662586083,-0.012498337309292127,0.03439744726664124,0.2726097429764281
1750260258.38139,-1.8456530263387556,-2.0383031197327934,-0.8521959998702187,1.5823435523541192,-0.3305599942516979,-1.9039174264673449,0.0741945312887874,0.04181611364656732,-0.022608604372330778,-0.04425737645949194,0.1044783822136918,0.0623389600212868,4.913307681675025,3.446524175463202,0.30670239279022027,-0.01257392942998891,0.03437906965613639,0.27261815057755817
1750260258.3834276,-1.8455037993147725,-2.0382189579723367,-0.8522415010864854,1.5822544855289074,-0.3303498176327153,-1.9037920162516517,0.0750322874012805,0.042345865803650067,-0.022892716495377358,-0.04480963135706371,0.10569818094007352,0.06307124878954802,4.912434748827594,3.447325146528624,0.30670123423840007,-0.01261239723903353,0.034369695451667584,0.2726224360221377
1750260258.3852885,-1.8453528980152516,-2.0381337353885716,-0.8522875711569595,1.5821643130941205,-0.3301372017527262,-1.9036651414999248,0.07586880436156157,0.042876939470304715,-0.023177459757085014,-0.04536298811001979,0.10691764248266332,0.06380349594985266,4.911551735142463,3.448135298170137,0.3067000542872673,-0.012651312658980668,0.03436019702226759,0.2726267758970058
1750260258.3872814,-1.8452003249332911,-2.038047449323388,-0.8523342113509749,1.5820730328335992,-0.3299221472905245,-1.9035368022960162,0.0767040673730086,0.043409349736690535,-0.02346284121109366,-0.04591745916466871,0.10813676241471068,0.06453570086491196,4.910658646588407,3.44895462321183,0.3066988527095258,-0.0126906755186587,0.034350573891338686,0.2726311701963941
1750260258.38967,-1.8450460825915975,-2.0379600970885043,-0.8523814229519617,1.5819806425063048,-0.32970465493377077,-1.9034069987250568,0.07753806162637483,0.04394311168333659,-0.023748867901507553,-0.046473056954269135,0.10935553629240354,0.06526786289208815,4.90975548923305,3.4497831144036666,0.3066976292657955,-0.012730485646261502,0.03434082557825208,0.2726356189131736
1750260258.391578,-1.844890173542506,-2.037871675965487,-0.8524292072574289,1.5818871398463452,-0.3294847253790314,-1.9032757308734718,0.07837077229968682,0.044478240380997146,-0.024035546862691118,-0.04702979389882001,0.11057395965481501,0.0659999813833244,4.908842269230856,3.4506207643989506,0.30669638371671376,-0.012770742866196193,0.034330951600880795,0.27264012203377896
1750260258.394038,-1.8447326003680082,-2.0377821832057723,-0.8524775655789432,1.5817925225630016,-0.32926235933181314,-1.903142998828983,0.07920218455814125,0.04501475089049029,-0.0243228851190025,-0.047587682404906156,0.11179202802343083,0.06673205568510567,4.907918992821144,3.4514675657513187,0.3066951158246536,-0.012811447000572745,0.03432095146377999,0.2726446795500162
1750260258.395279,-1.8447326003680082,-2.0377821832057723,-0.8524775655789432,1.5817925225630016,-0.32926235933181314,-1.903142998828983,0.07920218455814125,0.04501475089049029,-0.0243228851190025,-0.047587682404906156,0.11179202802343083,0.06673205568510567,4.907918992821144,3.4514675657513187,0.3066951158246536,-0.012811447000572745,0.03432095146377999,0.2726446795500162
1750260258.397962,-1.844412472119208,-2.037599971631453,-0.8525760095865591,1.581599934839317,-0.32881032062687243,-1.9028731425187715,0.08086105442655288,0.04609197753824364,-0.024899567565137323,-0.048706963659772916,0.11422708177797125,0.0681960690784136,4.906042296208666,3.4531885923378796,0.3066925120197621,-0.012894195284554075,0.034300570741974915,0.272653957675061
1750260258.4007041,-1.844085719095256,-2.0374134397751593,-0.852676765747769,1.5814028605140045,-0.32834854464312,-1.9025974305226718,0.08251455229312754,0.04717491191108803,-0.025478971234709023,-0.049830999696318656,0.1166606613747635,0.06965989773188265,4.904125451174388,3.4549461328300928,0.3066898158616265,-0.012978729017011567,0.03427967939849915,0.27266345309531986
1750260258.401304,-1.844085719095256,-2.0374134397751593,-0.852676765747769,1.5814028605140045,-0.32834854464312,-1.9025974305226718,0.08251455229312754,0.04717491191108803,-0.025478971234709023,-0.049830999696318656,0.1166606613747635,0.06965989773188265,4.904125451174388,3.4549461328300928,0.3066898158616265,-0.012978729017011567,0.03427967939849915,0.27266345309531986
1750260258.4044526,-1.8439198650634232,-2.0373185465502877,-0.8527280143136942,1.58130263488594,-0.3281140070314432,-1.902457378875872,0.08333924949980231,0.04771855703810304,-0.025769710981908566,-0.05039483162653949,0.11787688697864097,0.07039174108738713,4.903151989588099,3.455838576222317,0.3066884325151516,-0.013021664951471673,0.034269040971844654,0.2726682822144411
1750260258.405657,-1.8437523630223884,-2.037222564565698,-0.8527798450591835,1.5812012803703583,-0.3278770373500315,-1.9023158635904753,0.08416255900826974,0.04826367412777318,-0.026061151958543173,-0.05095988926601584,0.11909273034405468,0.07112353621374658,4.902168510983312,3.456740124423097,0.3066870253139966,-0.013065046671578491,0.03425827335245974,0.27267316555616655
1750260258.4074705,-1.8435832157624734,-2.0371254908624756,-0.8528322593936499,1.5810987945035309,-0.32763763636796206,-1.9021728847636314,0.08498446589139129,0.048810278168457184,-0.026353301117458473,-0.05152618492244104,0.12030818686633829,0.07185528241733478,4.901175022259663,3.457650769354815,0.3066855939927145,-0.013108873979467377,0.034247376019609976,0.2726781030770288
1750260258.4094958,-1.8434124261038667,-2.0370273224517383,-0.852885258740403,1.5809951747971283,-0.327395804863543,-1.9020284424938865,0.08580495520848945,0.04935838413765723,-0.026646165400675957,-0.05209373088866177,0.1215232519221568,0.07258697899854166,4.900171530405695,3.458570502837151,0.30668413829236507,-0.013153146673704107,0.034236348447393775,0.2726830947284071
1750260258.4115567,-1.8432399968966529,-2.036928056314661,-0.8529388445366237,1.5808904187382506,-0.3271515436243462,-1.9018825368811898,0.08662401200526294,0.04990800700196779,-0.026939751739667412,-0.05266253944249812,0.12273792086928248,0.07331862525171948,4.899158042505503,3.4594993166074977,0.30668265794061184,-0.013197864549832204,0.03422519010359747,0.27268814046183487
1750260258.413525,-1.8430659310208375,-2.0368276894024966,-0.8529930182333461,1.5807845237894578,-0.3269048534472452,-1.9017351680269066,0.08744162131371981,0.05045916171691811,-0.02723406705502942,-0.05323262284661827,0.12395218904656376,0.07405022046511443,4.898134565745992,3.4604372023038734,0.3066811526689568,-0.013243027401967812,0.03421390045513129,0.2726932402211087
1750260258.4155557,-1.8428902313863773,-2.0367262186365966,-0.8530477812954338,1.580677487388799,-0.32665573513845914,-1.9015863360338345,0.08825776815208995,0.05101186322686399,-0.027529118256460657,-0.053803993348263884,0.12516605177362233,0.07478176392078315,4.8971011074081465,3.4613841514706114,0.3066796222038496,-0.01328863501858194,0.034202478960372734,0.27269839393784756
1750260258.4176908,-1.842712900933206,-2.036623640908436,-0.8531031352015619,1.580569306949845,-0.32640418951358363,-1.9014360410062112,0.08907243752475402,0.05156612646487852,-0.027824912242711806,-0.05437666317918275,0.1263795043509033,0.07551325489457156,4.896057674872948,3.4623401555605935,0.30667806626771366,-0.013334687188224913,0.034190925079113095,0.2727036015551689
1750260258.4195035,-1.8425339426312615,-2.0365199530796367,-0.8531590814441872,1.5804599798617185,-0.3261502173976343,-1.9012842830497307,0.08988561442216943,0.052121966352621944,-0.028121455901380005,-0.05495064455528936,0.12759254205927728,0.07624469265600035,4.895004275622713,3.463305205929687,0.3066764845833304,-0.013381183692031172,0.03417923825993152,0.27270886299113467
1750260258.4216177,-1.8423533594805157,-2.036415151981985,-0.8532156215295332,1.5803495034891266,-0.3258938196250849,-1.9011310622715527,0.09069728382079137,0.052679397800253956,-0.028418756108980765,-0.055525949676649956,0.1288051601600131,0.07697607646824982,4.893940917236117,3.464279293844669,0.3066748768658914,-0.013428124312685192,0.03416741795064094,0.27271417817791144
1750260258.4236004,-1.8421711545110027,-2.0363092344174625,-0.8532727569775655,1.5802378751723922,-0.32563499703990484,-1.900976378780319,0.09150743068301473,0.05323843570626619,-0.02871681973067885,-0.056102590727178776,0.13001735389476304,0.07770740558806054,4.8928676073981405,3.4652624104681524,0.30667324283264213,-0.013475508826419104,0.03415546359864056,0.27271954702742324
1750260258.4317396,-1.8421711545110027,-2.0363092344174625,-0.8532727569775655,1.5802378751723922,-0.32563499703990484,-1.900976378780319,0.09150743068301473,0.05323843570626619,-0.02871681973067885,-0.056102590727178776,0.13001735389476304,0.07770740558806054,4.8928676073981405,3.4652624104681524,0.30667324283264213,-0.013475508826419104,0.03415546359864056,0.27271954702742324
1750260258.4321136,-1.8418018913862761,-2.0360940369468192,-0.853388820110121,1.580011151946062,-0.32511008085525894,-1.9006626241007218,0.09312309657708166,0.05436139042860356,-0.02931526462034495,-0.05725992926975748,0.13244044913280054,0.07916989674483713,4.890691164605612,3.467255694052079,0.30666989465986433,-0.013571608627793873,0.03413115051019096,0.27273044536674135
1750260258.4323633,-1.8418018913862761,-2.0360940369468192,-0.853388820110121,1.580011151946062,-0.32511008085525894,-1.9006626241007218,0.09312309657708166,0.05436139042860356,-0.02931526462034495,-0.05725992926975748,0.13244044913280054,0.07916989674483713,4.890691164605612,3.467255694052079,0.30666989465986433,-0.013571608627793873,0.03413115051019096,0.27273044536674135
1750260258.432598,-1.8416148394416902,-2.0359847504958264,-0.8534477509030776,1.5798960515954854,-0.32484398899157707,-1.900503553137157,0.09392858546277034,0.05492533698271012,-0.029615659561670084,-0.05784065104750204,0.13365134101907328,0.07990105726259161,4.8895880475326114,3.4682658428741644,0.30666817993383155,-0.01362032345517437,0.034118790640100746,0.2727359746632724
1750260258.4335098,-1.8414261780996437,-2.035874334488266,-0.8535072832755413,1.5797797884188716,-0.3245754757869159,-1.9003430199101583,0.09473249151962361,0.055490949470503904,-0.029916845263467273,-0.058422757325251505,0.13486178930514808,0.08063216004934269,4.888475010768659,3.4692849841238695,0.3066664377233894,-0.01366948125101906,0.03410629446006252,0.2727415572348985
1750260258.435523,-1.8412359105409033,-2.035762785577429,-0.8535674188158433,1.579662359635117,-0.32430454213332993,-1.9001810245359643,0.09553479963870182,0.056058242730582054,-0.03021882853343005,-0.059006260203671154,0.13607178913154036,0.08136320432875727,4.887352062509969,3.4703131085031025,0.30666466772210127,-0.013719081781352024,0.03409366138825663,0.27274719297952366
1750260258.4375293,-1.8410440399764632,-2.0356501003869445,-0.8536281591259183,1.579543762438934,-0.32403118893261507,-1.9000175671323705,0.09633549469664175,0.0566272315891337,-0.030521616167222272,-0.05959117176608573,0.13728133561826264,0.08209418931768227,4.886219211073656,3.4713502065952593,0.30666286963378314,-0.013769124801048464,0.03408089084711331,0.2727528817743052
1750260258.439523,-1.840850569647582,-2.0355362755107977,-0.8536895058212775,1.5794239940008856,-0.3237554170963497,-1.8998526478187472,0.09713456155554881,0.05719793085995968,-0.03082521494882791,-0.06017750407837838,0.13849042386455007,0.0828251142260811,4.885076464865104,3.4723962689099026,0.3066610431469591,-0.013819610064177151,0.03406798225132789,0.27275862349349045
1750260258.4414089,-1.8406555028258085,-2.035421307513362,-0.8537514605309928,1.5793030514674211,-0.3234772275459319,-1.899686266716051,0.09793198506298971,0.057770355344225324,-0.031129631650156808,-0.06076526918891042,0.13969904894864565,0.08355597825699954,4.883923832413107,3.473451285837547,0.30665918795567415,-0.013870537324502134,0.0340549350095438,0.2727644180131377
1750260258.4434226,-1.8404588428130086,-2.0353051929294192,-0.8538140248976651,1.5791809319609105,-0.3231966212126247,-1.89951842394684,0.0987277500519129,0.0583445198304514,-0.03143487303116743,-0.061354479128156336,0.14090720592780714,0.08428678060646742,4.882761322348861,3.4745152476914964,0.30665730374550504,-0.013921906327535996,0.03404174853060197,0.27277026519206704
1750260258.44601,-1.8402605929414007,-2.035187928264188,-0.8538772005774034,1.5790576325796808,-0.32291359903759886,-1.8993491196352865,0.09952184134059738,0.05892043909431981,-0.03174094583958231,-0.06194514590858104,0.1421148898381761,0.08501752046344577,4.881588943409455,3.475588144672314,0.3066553902042959,-0.013973716817317787,0.03402842221965432,0.2727761648854955
1750260258.4507546,-1.839859337102542,-2.034949934563067,-0.8540053925679043,1.5788074824663745,-0.3223403109768608,-1.8990061268900043,0.10110494201681887,0.06007760099298293,-0.0323556126686332,-0.06313089795204926,0.1445288184900418,0.08647880942013299,4.87921461443813,3.477760704360853,0.30665147384747515,-0.01407866122436029,0.0340013476888037,0.272788121224926
1750260258.4512458,-1.839859337102542,-2.034949934563067,-0.8540053925679043,1.5788074824663745,-0.3223403109768608,-1.8990061268900043,0.10110494201681887,0.06007760099298293,-0.0323556126686332,-0.06313089795204926,0.1445288184900418,0.08647880942013299,4.87921461443813,3.477760704360853,0.30665147384747515,-0.01407866122436029,0.0340013476888037,0.272788121224926
1750260258.4517016,-1.839859337102542,-2.034949934563067,-0.8540053925679043,1.5788074824663745,-0.3223403109768608,-1.8990061268900043,0.10110494201681887,0.06007760099298293,-0.0323556126686332,-0.06313089795204926,0.1445288184900418,0.08647880942013299,4.87921461443813,3.477760704360853,0.30665147384747515,-0.01407866122436029,0.0340013476888037,0.272788121224926
1750260258.4533768,-1.8396563379517321,-2.0348291983900246,-0.8540704122582055,1.5786806258110644,-0.32205004702340645,-1.8988324387128248,0.10189392096718414,0.06065887311404792,-0.03266422012341814,-0.06372600714825839,0.1457350531965129,0.08720935686186115,4.8780126824408905,3.478860346987631,0.30664947038907425,-0.01413179460825349,0.03398759825591237,0.27279417754170426
1750260258.4556525,-1.839451762575056,-2.034707297861444,-0.8541360500205952,1.5785525774346427,-0.32175737109283364,-1.8986572895064295,0.10268116534289397,0.061241958985068685,-0.03297368587380323,-0.06432262105184508,0.14694079476400376,0.08793983849504405,4.876800917648773,3.4799688845937125,0.30664743630596714,-0.014185368424499942,0.03397370656725626,0.2728002857354649
1750260258.4577062,-1.8392456144569138,-2.0345842293351115,-0.8542023075783547,1.578423334315772,-0.3214622841764907,-1.8984806794032814,0.10346665988824416,0.06182687331594969,-0.03328401660575916,-0.06492075158235382,0.14814603812060886,0.0886702534723517,4.875579329370562,3.4810863068973203,0.30664537126778724,-0.014239382396389923,0.033959672002874475,0.27280644562153383
1750260258.45962,-1.8390378971122363,-2.0344599891394086,-0.8542691866681222,1.5782928934092948,-0.3211647872758876,-1.8983026085375467,0.1042503893325938,0.06241363080302482,-0.03359521899247202,-0.06552041064019805,0.14935077817250758,0.08940060093900383,4.874347927014827,3.4822126035028833,0.30664327494554844,-0.014293836248197776,0.03394549394541377,0.27281265701312996
1750260258.4624705,-1.8388286140865082,-2.0343345735733394,-0.8543366890398687,1.578161251646272,-0.3208648814027466,-1.8981230770451072,0.10503233839036227,0.06300224612902346,-0.033907299694534154,-0.0661216101064455,0.15055500980381958,0.09013088003272413,4.8731067201236975,3.483347763934783,0.30664114700022505,-0.01434872970003669,0.03393117177344595,0.2728189197234287
1750260258.4647129,-1.8386177689557996,-2.0342079789065544,-0.854404816456876,1.578028405934022,-0.320562567579044,-1.897942085063577,0.10581249176096237,0.06359273396296339,-0.034220265359868995,-0.06672436184254679,0.1517587278764137,0.09086108988363106,4.8718557183425695,3.48449177761665,0.3066389870893442,-0.014404062466421876,0.033916704860158464,0.272825233541318
1750260258.4666882,-1.8384053653267989,-2.0340802013793793,-0.8544735706957072,1.5778943531561602,-0.3202578468370536,-1.8977596327323187,0.10659083412878433,0.0641851089599261,-0.03453412262329092,-0.06732867769017208,0.15296192722973861,0.09159122961420293,4.870594931437209,3.485644633853354,0.3066367948773885,-0.014459834259130572,0.03390209257396806,0.2728315982572881
1750260258.4672458,-1.8384053653267989,-2.0340802013793793,-0.8544735706957072,1.5778943531561602,-0.3202578468370536,-1.8977596327323187,0.10659083412878433,0.0641851089599261,-0.03453412262329092,-0.06732867769017208,0.15296192722973861,0.09159122961420293,4.870594931437209,3.485644633853354,0.3066367948773885,-0.014459834259130572,0.03390209257396806,0.2728315982572881
1750260258.4692457,-1.83819140683684,-2.033951237202845,-0.8545429535461828,1.5777590901726386,-0.31995072021939297,-1.8975757201924575,0.10736735016317808,0.06477938576105796,-0.034848878106949026,-0.06793456947110571,0.1541646026808752,0.09232129833922714,4.869324369299936,3.486806321872376,0.30663457001132205,-0.014516044788897857,0.03388733428476867,0.2728380136601384
1750260258.4711773,-1.8379758971539317,-2.0338210825587133,-0.8546129668113549,1.5776226138197855,-0.31964118877906866,-1.897390347586894,0.10814202451840443,0.0653755789933875,-0.035164538419834225,-0.068542048986789,0.15536674902419362,0.0930512951656905,4.868044041933344,3.4879768307877494,0.3066323121466867,-0.014572693755536771,0.03387242935279127,0.2728444795129649
1750260258.4737358,-1.837758839976793,-2.033689733599508,-0.854683612307479,1.577484920910347,-0.3193292535795198,-1.897203515060327,0.10891484183362175,0.06597370326970775,-0.03548111015786644,-0.06915112801847798,0.15656836103141403,0.0937812191927581,4.866753959463087,3.4891561496126613,0.3066300209311238,-0.014629780865231281,0.03385737713997975,0.27285099558620873
1750260258.4755926,-1.8375402390348743,-2.0335571864485393,-0.8547548918639913,1.5773460082335269,-0.3190149156946669,-1.8970152227592614,0.10968578673287194,0.0665737731885149,-0.03579859990390818,-0.06976181832673642,0.1577694334514284,0.09451106951169234,4.86545413214354,3.4903442672716714,0.306627696007126,-0.01468730581172729,0.03384217700325762,0.2728575616366033
1750260258.4775941,-1.8373200980883988,-2.033423437199936,-0.8548268073234802,1.5772058725550286,-0.31869817620895446,-1.89682547083203,0.1104548438250297,0.06717580333379089,-0.036117014227416075,-0.07037413165137646,0.15896996101014643,0.0952408452057804,4.864144570333503,3.491541172565405,0.306625337021009,-0.014745268289079044,0.03382682829520611,0.2728641774080226
1750260258.479538,-1.8373200980883988,-2.033423437199936,-0.8548268073234802,1.5772058725550286,-0.31869817620895446,-1.89682547083203,0.1104548438250297,0.06717580333379089,-0.036117014227416075,-0.07037413165137646,0.15896996101014643,0.0952408452057804,4.864144570333503,3.491541172565405,0.306625337021009,-0.014745268289079044,0.03382682829520611,0.2728641774080226
1750260258.4815218,-1.837098420928383,-2.0332884819186736,-0.8548993605416575,1.5770645106170975,-0.31837903621739816,-1.8966342594288044,0.11122199770382844,0.06777980827500618,-0.036436359684749973,-0.07098807971115623,0.1601699384104151,0.09597054535027677,4.862825284539652,3.4927468542200666,0.3066229436060581,-0.014803667984661656,0.03381133036614337,0.27287084263897765
1750260258.4836333,-1.8368752113766735,-2.033152316640603,-0.8549725533873369,1.576921919138562,-0.3180574968256318,-1.8964415887016166,0.11198723294779975,0.06838580256689354,-0.03675664281869342,-0.07160367420365238,0.16136936033182553,0.09670016901232684,4.86149628536903,3.493961300835594,0.30662051540313556,-0.014862504584215242,0.033795682560942966,0.2728775570537969
1750260258.4854414,-1.8366504732859728,-2.033014937372479,-0.8550463877424033,1.5767780948148766,-0.3177335591499517,-1.8962474588043712,0.11275053412030038,0.06899380074939954,-0.03707787015872637,-0.07222092680514416,0.16256822143084665,0.09742971525094805,4.860157583572744,3.4951845009259728,0.3066180520406666,-0.014921777771996197,0.033779884228248735,0.27288432038525345
1750260258.4873824,-1.8364242105398745,-2.0328763400919936,-0.855120865501787,1.5766330343181654,-0.31740722431736756,-1.8960518698928617,0.11351188576945984,0.06960381734750984,-0.03740004822061134,-0.07283984917015969,0.1637665163403864,0.09815918311689979,4.858809190010137,3.496416442888736,0.3066155531532206,-0.014981487221454705,0.03376393470433799,0.2728911323319428
1750260258.489624,-1.8361964270528883,-2.0327365207478048,-0.8551959885734357,1.5764867342972648,-0.317078493465643,-1.8958548221247895,0.11427127242822094,0.07021586687124416,-0.037723183506887914,-0.07346045293145281,0.16496423966984358,0.09888857165265327,4.85745111569182,3.497657115042905,0.30661301835676896,-0.0150416326072276,0.03374783332695301,0.27289799259619857
1750260258.49149,-1.835967126770476,-2.032595475259562,-0.8552717588782901,1.5763391913777678,-0.31674736774335077,-1.8956563156597817,0.11502867861427699,0.07082996381539651,-0.03804728250605756,-0.07408274969975599,0.16616138600503988,0.09961787989232826,4.856083371727767,3.498906505575472,0.3066104472846281,-0.015102213598833741,0.03373157943191782,0.27290490087112845
1750260258.4938412,-1.8357363136690772,-2.032453199517943,-0.8553481783502521,1.5761904021620683,-0.31641384830991104,-1.8954563506594004,0.11578408883011986,0.07144612265949976,-0.03837235169307758,-0.07470675106351327,0.16735794990815672,0.10034710686162816,4.854705969381505,3.5001646025868465,0.30660783955125,-0.015163229860103475,0.033715172353282294,0.2729118568395404
1750260258.496271,-1.835503991756144,-2.0323096893846806,-0.8554252489361618,1.5760403632294055,-0.3160779363356463,-1.8952549272871702,0.11653748756300365,0.07206435786765995,-0.03869839752892596,-0.07533246858875538,0.1685539259172755,0.10107625157774955,4.853318920031468,3.501431394063461,0.30660519477812187,-0.015224681053306398,0.03369861141213687,0.27291886016427885
1750260258.4974036,-1.835270165070166,-2.0321649406925975,-0.8555029725957652,1.5758890711359095,-0.3157396330018276,-1.895052045708586,0.11728885928496452,0.07268468388855176,-0.0390254264610335,-0.07595991381882577,0.1697493085467569,0.10180531304936329,4.851922235197496,3.502706867910727,0.3066025125697846,-0.015286566834674657,0.033681895940265605,0.2729259105173496
1750260258.4992673,-1.8350348376807064,-2.0320189492456295,-0.8555813513016925,1.5757365224146462,-0.3153989395007182,-1.8948477060911353,0.11803818845280346,0.07330711515516553,-0.039353444922664724,-0.07658909827411875,0.17094409228689478,0.10253429027648878,4.850515926520024,3.5039910119018294,0.30659979254263137,-0.015348886855058466,0.033665025259698,0.2729330075351424
1750260258.5013587,-1.8347980136884292,-2.0318717108188675,-0.8556603870394222,1.5755827135756642,-0.31505585703562833,-1.8946419086043154,0.11878545950811835,0.07393166608474151,-0.039682459333138194,-0.07722003345202891,0.17213827160369746,0.10326318225049143,4.849100005783758,3.50528381371745,0.30659703430200613,-0.015411640765589199,0.0336479986863018,0.2729401508676965
1750260258.5032845,-1.8345596972251315,-2.0317232211585807,-0.8557400818072614,1.57542764110604,-0.3147103868209573,-1.8944346534196468,0.11953065687729388,0.07455835107864955,-0.040012476097604596,-0.07785273082660392,0.17333184093905468,0.1039919879539857,4.847674484901268,3.506585260932409,0.3065942374545204,-0.015474828209478349,0.0336308155406501,0.2729473401426063
1750260258.506411,-1.8343198924537703,-2.0315734759822526,-0.8558204376163099,1.575271301469926,-0.31436253008224746,-1.8942259407106965,0.12027376497151758,0.07518718452231357,-0.040343501607228806,-0.07848720184828399,0.1745247947106684,0.10472070636074819,4.8462393759238935,3.507895341023278,0.3065914015965479,-0.015538448824457148,0.033613475141369066,0.27295457496838404
1750260258.5075238,-1.8340786035684973,-2.0314224709786117,-0.8559014564904386,1.5751136911085972,-0.3140122880562286,-1.8940157706530911,0.12101476818678453,0.0758181807850426,-0.04067554223895728,-0.07912345794384608,0.17571712731153605,0.10544933643570559,4.84479469103184,3.5092140413514916,0.3065885263257425,-0.015602502248394443,0.03359597679252029,0.27296185496258657
1750260258.5099263,-1.8340786035684973,-2.0314224709786117,-0.8559014564904386,1.5751136911085972,-0.3140122880562286,-1.8940157706530911,0.12101476818678453,0.0758181807850426,-0.04067554223895728,-0.07912345794384608,0.17571712731153605,0.10544933643570559,4.84479469103184,3.5092140413514916,0.3065885263257425,-0.015602502248394443,0.03359597679252029,0.27296185496258657
1750260258.5113509,-1.8338358347946881,-2.031270201807664,-0.8559831404662557,1.574954806440499,-0.3136596619908687,-1.8938041434245374,0.12175365090392246,0.07645135421995902,-0.04100860435553568,-0.07976151051603579,0.17690883311009936,0.10617787713482461,4.843340442550515,3.5105413491822204,0.3065856112345928,-0.015666988110660432,0.033578319802361555,0.27296917971452517
1750260258.5133352,-1.83359159038897,-2.0311166641007254,-0.8560654915930828,1.5747946438612954,-0.3133046531454262,-1.8935910592048382,0.12249039748862575,0.07708671916377628,-0.04134269430514597,-0.08040137094359495,0.17809990645055498,0.10690632740509612,4.841876642945343,3.511877251655904,0.3065826559205381,-0.015731906043139312,0.03356050348790696,0.27297654881896094
1750260258.515456,-1.8333458746392548,-2.0309618534604557,-0.856148511932922,1.574633199743918,-0.3129472627904928,-1.893376518175911,0.12322499229141838,0.07772428993686781,-0.041677818421891784,-0.08104305058037255,0.17929034165204633,0.10763468618435262,4.840403304804779,3.513221735836554,0.30657965996242886,-0.01579725565454067,0.03354252714339512,0.2729839618187556
1750260258.517454,-1.8330986918647678,-2.03080576546089,-0.8562322035604284,1.574470470438614,-0.3125874922080474,-1.8931605205218087,0.12395741964775815,0.0783640808429567,-0.04201398302522307,-0.08168656075625903,0.18048013300899335,0.10836295240139676,4.838920440881686,3.5145747886529675,0.30657662295039423,-0.015863036581537204,0.033524390072358426,0.2729914183134677
1750260258.5194764,-1.8328500464160804,-2.0306483956474706,-0.8563165685628835,1.5743064522729968,-0.31222534269150604,-1.8929430664287334,0.12468766387798673,0.079006106169135,-0.04235119442019209,-0.08233191277576518,0.18166927479112577,0.10909112497574913,4.837428064046561,3.5159363969451873,0.3065735444622029,-0.015929248422624328,0.03350609157926923,0.2729989178240734
1750260258.5213265,-1.8325999426751363,-2.030489739537086,-0.856401609040164,1.5741411415520952,-0.31186081554576894,-1.8927241560850607,0.12541570928740944,0.07965038018567874,-0.042689458897277384,-0.08297911791850308,0.18285776124287106,0.10981920281767744,4.835926187330083,3.517306547437556,0.3065704240757563,-0.015995890791594743,0.033487630951350385,0.2730064598924324
1750260258.5233862,-1.8323483850552842,-2.0303297926180983,-0.8564873271047118,1.573974534558404,-0.3114939120872746,-1.892503789681351,0.12614154016629991,0.08029691714598051,-0.043028782732376765,-0.08362818743878711,0.18404558658389258,0.11054718482812645,4.834414823897092,3.5186852267555473,0.30656726136433643,-0.01606296329269544,0.03346900749099287,0.2730140440482112
1750260258.5254512,-1.8320953780013074,-2.030168550350382,-0.8565737248815068,1.5738066275519351,-0.3111246336440443,-1.8922819674103746,0.12686514078994057,0.08094573128636631,-0.04336917218660956,-0.08427913256544683,0.18523274500865256,0.11127506989863327,4.8328939870576795,3.520072421403166,0.306564055901527,-0.016130465526715414,0.033450220488272425,0.2730216697996383
1750260258.528401,-1.8318409259894546,-2.030006008165353,-0.8566608045080351,1.5736374167702687,-0.31075298155573705,-1.8920586894671274,0.1275864954186597,0.081596836826056,-0.043710633506479246,-0.08493196450153488,0.18641923068639388,0.11200285691127043,4.831363690270785,3.5214681177918843,0.30656080725175977,-0.01619839708789521,0.03343126923275268,0.2730293366468645
1750260258.5292075,-1.8315850335274657,-2.029842161466009,-0.8567485681342646,1.5734668984286042,-0.31037895717370034,-1.8918339560488526,0.12830558829786762,0.0822502479670223,-0.04405317292379277,-0.08558669442402737,0.18760503776089954,0.11273054473856081,4.829823947139948,3.5228723022187522,0.30655751497659134,-0.016266757563790934,0.03341215300721763,0.27303704406928897
1750260258.5314603,-1.8313277051546084,-2.0296770056269606,-0.856837017922607,1.5732950687198137,-0.31000256186101627,-1.8916077673550546,0.12902240365809592,0.08290597889375384,-0.04439679665499427,-0.0862433334838622,0.1887901603509901,0.11345813224346525,4.828274771411631,3.5242849608519764,0.30655417865152224,-0.016335546544697294,0.033392871108473866,0.2730447915520727
1750260258.533491,-1.831068945441702,-2.029510535994465,-0.8569261560478951,1.5731219238144938,-0.3096237969925566,-1.891380123587524,0.1297369257150363,0.08356404377346846,-0.044741510902531256,-0.08690189280529159,0.1899745925497418,0.11418561827922562,4.826716176989942,3.5257060798087116,0.30655079780897276,-0.016404763604486665,0.03337342281129114,0.2730525785366276
1750260258.5355558,-1.8308087589911501,-2.0293427478864654,-0.8570159846973526,1.572947459861019,-0.3092426639550325,-1.8911510249503545,0.13044913866961322,0.08422445675559796,-0.045087321853252,-0.08756238348617727,0.19115832842486064,0.11491300168940721,4.825148177925757,3.5271356450261617,0.3065473720211446,-0.01647440832692829,0.033353807400984196,0.2730604044860541
1750260258.5376334,-1.830547150436967,-2.0291736365926205,-0.8571065060705587,1.5727716729855947,-0.3088591641470444,-1.8909204716499612,0.1311590267080078,0.0848872319718419,-0.04543423567881918,-0.08822481659751909,0.19234136201820917,0.11564028130778965,4.8235707884172765,3.5285736423630474,0.3065439008442206,-0.016544480284237162,0.03333402414953107,0.27306826883642904
1750260258.539603,-1.8302841244448143,-2.0290031973743456,-0.8571977223794232,1.5725945592923123,-0.3084732989791359,-1.8906884638951018,0.1318665740016847,0.08555238353626203,-0.045782258536716115,-0.08888920318274958,0.19352368734631414,0.11636745595821478,4.821984022809632,3.53002005760111,0.3065403838008204,-0.016614979030512636,0.03331407234321923,0.2730761709804846
1750260258.5412295,-1.8300196857120188,-2.028831425464846,-0.8572896358481552,1.5724161148632028,-0.3080850698738411,-1.890455001896898,0.13257176470751894,0.08621992554478293,-0.04613139656850253,-0.08955555425838599,0.1947052984000981,0.11709452445466793,4.820387895620691,3.5314748763509667,0.30653682045834885,-0.016685904139797644,0.0332939512607714,0.2730841103455503
1750260258.5432198,-1.8297538389676138,-2.0286583160691514,-0.8573822487132317,1.572236335758292,-0.30769447826574137,-1.89022008586885,0.13327458296778114,0.08688987207539406,-0.04648165590115477,-0.09022388081321288,0.1958861891442476,0.1178214856011327,4.818782421499362,3.5329380841631166,0.30653321034120123,-0.016757255164785035,0.03327366016310543,0.2730920863211708
1750260258.5452151,-1.829486588972359,-2.028483864364155,-0.8574755632233675,1.572055218015656,-0.3073015256015106,-1.8899837160268635,0.133975012910241,0.0875622371878241,-0.046833042646028084,-0.09089419380811763,0.19706635351779722,0.11854833819150477,4.817167615265924,3.5344096664428584,0.3065295529985697,-0.016829031655274874,0.03325319832759886,0.27310009827016696
1750260258.5472019,-1.8292179405187756,-2.028308065498651,-0.8575695816394884,1.5718727576514768,-0.3069062133399738,-1.8897458925892652,0.1346730386482037,0.08823703492360122,-0.047185562899660756,-0.09156650417604062,0.19824578543427196,0.11927508100959366,4.815543491886451,3.5358896085145557,0.3065258479520144,-0.01690123316118212,0.033232565035645534,0.27310814557007435
1750260258.5492308,-1.8289478984311698,-2.0281309145933637,-0.8576643062346934,1.5716889506600997,-0.30650854295215346,-1.889506615776824,0.13536864428059486,0.08891427930577304,-0.04753922274281946,-0.09224082282139244,0.19942447878057967,0.12000171282897386,4.813910066493466,3.5373778955632065,0.3065220947455892,-0.016973859217752747,0.03321175953742231,0.27311622754901943
1750260258.5514352,-1.8286764675656668,-2.0279524067409938,-0.85775973929423,1.5715037930140883,-0.3061085159213235,-1.8892658858127724,0.13606181389201646,0.08959398433887356,-0.047894028241151534,-0.09291716062049028,0.20060242741829457,0.1207282324130397,4.8122673543677505,3.5388745126744956,0.30651829289956406,-0.0170469093740563,0.033190781119281754,0.2731243435673777
1750260258.5535402,-1.828403652810235,-2.02777253700625,-0.8578558831154623,1.571317280664283,-0.30570613374306266,-1.8890237029228265,0.13675253155281566,0.09027616400900855,-0.04824998544562947,-0.0935955284206184,0.20177962518242595,0.12145463851482081,4.8106153709609085,3.5403794448603882,0.3065144419178935,-0.017120383154395215,0.033169629032875535,0.27313249292818753
1750260258.5552597,-1.8281294590847184,-2.027591300425888,-0.8579527400078399,1.5711294095398598,-0.30530139792530253,-1.8887800673352064,0.13744078131914203,0.09096083228328605,-0.04860710039058027,-0.09427593703938786,0.2029560658821484,0.12218092987685597,4.8089541318670745,3.541892676934505,0.3065105413544916,-0.017194280066669423,0.033148302550436694,0.2731406748906791
1750260258.5573163,-1.82785389134086,-2.0274086920087475,-0.858050312292864,1.5709401755483865,-0.30489430998838785,-1.8885349792806574,0.13812654723310075,0.09164800310994779,-0.04896537909502811,-0.09495839726638233,0.2041317433002154,0.1229071052314312,4.80728365287252,3.543414193651254,0.3065065907213788,-0.017268599666565493,0.033126800927668634,0.2731488888147131
1750260258.559883,-1.8275769545623355,-2.027224706735792,-0.8581486023040652,1.570749574575881,-0.30448487146511827,-1.8882884389924701,0.13880981332272513,0.09233769041891825,-0.049324827565308954,-0.09564291986178282,0.2053066511932154,0.12363316330032705,4.80560394990161,3.5449439797632927,0.30650258945225917,-0.017343341472736445,0.03310512342749297,0.27315713398555974
1750260258.566524,-1.8272986537647755,-2.027039339560143,-0.8582476123869629,1.5705576024868757,-0.304073083900807,-1.8880404467065057,0.13949056360205575,0.09302990812028367,-0.04968545178821119,-0.09632951555300165,0.20648078329376487,0.12435910279424366,4.803915039026154,3.5464820196513416,0.3064985371688707,-0.017418504910900818,0.03308326937465796,0.2731654094609568
1750260258.566903,-1.8272986537647755,-2.027039339560143,-0.8582476123869629,1.5705576024868757,-0.304073083900807,-1.8880404467065057,0.13949056360205575,0.09302990812028367,-0.04968545178821119,-0.09632951555300165,0.20648078329376487,0.12435910279424366,4.803915039026154,3.5464820196513416,0.3064985371688707,-0.017418504910900818,0.03308326937465796,0.2731654094609568
1750260258.5671637,-1.8272986537647755,-2.027039339560143,-0.8582476123869629,1.5705576024868757,-0.304073083900807,-1.8880404467065057,0.13949056360205575,0.09302990812028367,-0.04968545178821119,-0.09632951555300165,0.20648078329376487,0.12435910279424366,4.803915039026154,3.5464820196513416,0.3064985371688707,-0.017418504910900818,0.03308326937465796,0.2731654094609568
1750260258.5741117,-1.8270189939958001,-2.0268525854071218,-0.8583473448990322,1.5703642551244699,-0.3036589488533412,-1.88779100266121,0.1401687820714758,0.09372467010437982,-0.050047257733664745,-0.09701819504243772,0.20765413329902244,0.12508492241405944,4.802216936549062,3.5480282976446036,0.30649443341239674,-0.01749408962596626,0.03306123777014603,0.2731737147800695
1750260258.5744581,-1.8270189939958001,-2.0268525854071218,-0.8583473448990322,1.5703642551244699,-0.3036589488533412,-1.88779100266121,0.1401687820714758,0.09372467010437982,-0.050047257733664745,-0.09701819504243772,0.20765413329902244,0.12508492241405944,4.802216936549062,3.5480282976446036,0.30649443341239674,-0.01749408962596626,0.03306123777014603,0.2731737147800695
1750260258.5746856,-1.8264556178941636,-2.026474895731474,-0.8585489867002316,1.569973417845067,-0.3028236426036024,-1.8872877602594818,0.14151755951260672,0.09512188239143159,-0.050774438616152155,-0.0984018480619378,0.2099984617287834,0.12653619677918235,4.798793222578529,3.551145505753422,0.3064860690459736,-0.017646520613403556,0.03301663987158274,0.2731904112796319
1750260258.5749202,-1.8264556178941636,-2.026474895731474,-0.8585489867002316,1.569973417845067,-0.3028236426036024,-1.8872877602594818,0.14151755951260672,0.09512188239143159,-0.050774438616152155,-0.0984018480619378,0.2099984617287834,0.12653619677918235,4.798793222578529,3.551145505753422,0.3064860690459736,-0.017646520613403556,0.03301663987158274,0.2731904112796319
1750260258.5780306,-1.825886867279129,-2.026091596556851,-0.8587535468055556,1.5695770290561848,-0.301978965432256,-1.88677871374745,0.14285601737416717,0.09652943802232193,-0.05150641768530628,-0.09979396390674128,0.21233958558560057,0.12798697578322618,4.795332941403101,3.554295476929678,0.30647749246714945,-0.01780063034277523,0.03297132354247994,0.27320721698725214
1750260258.578348,-1.825886867279129,-2.026091596556851,-0.8587535468055556,1.5695770290561848,-0.301978965432256,-1.88677871374745,0.14285601737416717,0.09652943802232193,-0.05150641768530628,-0.09979396390674128,0.21233958558560057,0.12798697578322618,4.795332941403101,3.554295476929678,0.30647749246714945,-0.01780063034277523,0.03297132354247994,0.27320721698725214
1750260258.5792954,-1.8256004894887612,-2.0258978304264392,-0.8588569272421633,1.5693767422274822,-0.30155311678069285,-1.886522014574303,0.1435213363185752,0.09723712911254727,-0.0518742213049628,-0.10049322181283547,0.21350892977920818,0.12871217616096312,4.793589130545684,3.5558827085397837,0.3064731232964787,-0.017878313441018295,0.032948394147678105,0.27321565871788833
1750260258.5812204,-1.8253127836859173,-2.02570264628892,-0.8589610445022648,1.569175054737364,-0.3011249302600856,-1.8862638651280719,0.14418402716855586,0.09794744742422007,-0.05224324215802041,-0.1011946270720147,0.21467745355192427,0.12943724863980322,4.791836229159081,3.557478082461576,0.30646869954927597,-0.017956414678904915,0.032925282907824364,0.2732241252501569
1750260258.583386,-1.8250237551428787,-2.0255060388760917,-0.8590659010261934,1.5689719622806362,-0.300694407517752,-1.8860042656659264,0.14484407382992992,0.09866040671125492,-0.052613486107616896,-0.10189819016699518,0.2158451504229813,0.13016219184375086,4.790074254679333,3.5590815823586377,0.3064642206777961,-0.018034933499237495,0.03290198910418054,0.2732326156645453
1750260258.5853817,-1.8247334091641285,-2.0253080028922685,-0.859171499265992,1.5687674605311708,-0.3002615502139996,-1.8857432164478043,0.14550146019545315,0.09937602070742275,-0.05298495900075067,-0.10260392154894635,0.21701201388444713,0.130887004385682,4.788303224730692,3.5606931917175486,0.3064596861670673,-0.01811386937564575,0.03287851197150133,0.2732411290803901
1750260258.5875328,-1.8244417510863746,-2.025108533014314,-0.8592778416853797,1.568561545141969,-0.2998263600221769,-1.8854807177364243,0.14615617014492427,0.10009430312628066,-0.05335766666828804,-0.1033118316369363,0.21817803740173658,0.13161168486727073,4.786523157114107,3.5623128939175794,0.30645509549773764,-0.018193221767526205,0.032854850758960885,0.2732496645976452
1750260258.5894396,-1.824148786278581,-2.0249076238916857,-0.8593849307597248,1.5683542117452274,-0.29938883862872867,-1.8852167697973155,0.14680818754524583,0.1008152676612176,-0.053731614925611466,-0.10402193081729161,0.21934321441446908,0.13233623187881233,4.784734069789935,3.5639406722438363,0.3064504481272913,-0.018272990117889788,0.03283100473990899,0.27325822125877075
1750260258.591482,-1.8238545201419898,-2.024705270146476,-0.8594927689760086,1.5681454559524015,-0.2989489877332465,-1.8849513728988363,0.1474574962506054,0.10153892798526364,-0.05410680957227158,-0.10473422944396453,0.22050753833462985,0.1330606439992988,4.782935980919853,3.565576509857917,0.30644574351917747,-0.018353173881372056,0.03280697313586505,0.27326679813932736
1750260258.593858,-1.823558958110147,-2.02450146637345,-0.859601358832796,1.5679352733542729,-0.29850680904852744,-1.8846845273122002,0.14810408010254658,0.10226529775088077,-0.05448325639138507,-0.10544873783752522,0.22167100254778638,0.13378491979620563,4.781128908824893,3.567220389781368,0.30644098114896245,-0.018433772485813838,0.03278275520263771,0.27327539424016
1750260258.5956283,-1.8232621056489293,-2.0242962071400896,-0.8597107028402009,1.567723659521014,-0.2980623043006201,-1.8844162333114962,0.1487479229301276,0.10299439058998494,-0.054860961150387244,-0.10616546628592705,0.22283360041321598,0.1345090578256097,4.779312872019102,3.5688722949468645,0.30643616046682187,-0.01851478538190228,0.03275835019963005,0.2732840086139498
1750260258.5984616,-1.8229639682565644,-2.0240894869866333,-0.8598208035198587,1.5675106100022558,-0.2976154752288842,-1.8841464911737127,0.14938900855000797,0.10372622011384078,-0.055239929600753745,-0.10688442504307138,0.22399532526283572,0.13523305663191826,4.777487889188365,3.5705322081664073,0.30643128092641,-0.018596211981475683,0.03273375735608554,0.27329264021775007
1750260258.600405,-1.8226645514636637,-2.023881300426117,-0.8599316634048888,1.567296120327155,-0.2971663235860422,-1.8838753011787617,0.15002732076658193,0.1044607999128548,-0.05562016747765349,-0.107605624329389,0.2251561704022551,0.13595691474794175,4.775653979195631,3.5722001121185243,0.30642634198660673,-0.018678051714078263,0.03270897593091823,0.2733012880406187
1750260258.6027977,-1.8223638608332386,-2.023671641944418,-0.8600432850398665,1.5670801860044603,-0.29671485113822893,-1.8836026636095005,0.1506628433721579,0.1051981435565577,-0.056001680500406485,-0.10832907433147393,0.2263161291104291,0.13668063069481917,4.773811161111761,3.573875989383198,0.3064213430894534,-0.0187603040003315,0.03268400517326114,0.2733099510487594
1750260258.603534,-1.8223638608332386,-2.023671641944418,-0.8600432850398665,1.5670801860044603,-0.29671485113822893,-1.8836026636095005,0.1506628433721579,0.1051981435565577,-0.056001680500406485,-0.10832907433147393,0.2263161291104291,0.13668063069481917,4.773811161111761,3.573875989383198,0.3064213430894534,-0.0187603040003315,0.03268400517326114,0.2733099510487594
