mathias31415/primitives_from_planned_trajectory_python/data/saved_trajectories/trajectory_20250624_130125_executed.csv
timestamp,shoulder_lift_joint_pos,elbow_joint_pos,wrist_1_joint_pos,wrist_2_joint_pos,wrist_3_joint_pos,shoulder_pan_joint_pos,shoulder_lift_joint_vel,elbow_joint_vel,wrist_1_joint_vel,wrist_2_joint_vel,wrist_3_joint_vel,shoulder_pan_joint_vel,shoulder_lift_joint_eff,elbow_joint_eff,wrist_1_joint_eff,wrist_2_joint_eff,wrist_3_joint_eff,shoulder_pan_joint_eff
1750762890.8206332,-2.022914,-1.7532119999999995,-0.9714900000000002,1.566672,-0.9031580000000003,-2.473427,0.0,0.0,0.0,0.0,0.0,0.0,5.856537662296483,3.518140311393056,0.29967979123787336,-0.00034027241969481647,0.0,2.225031006133564e-17
1750762890.822491,-2.022914,-1.7532119999999995,-0.9714900000000002,1.566672,-0.9031580000000003,-2.473427,0.0,0.0,0.0,0.0,0.0,0.0,5.856537662296483,3.518140311393056,0.29967979123787336,-0.00034027241969481647,0.0,2.225031006133564e-17
1750762890.8245416,-2.022914,-1.7532119999999995,-0.9714900000000002,1.566672,-0.9031580000000003,-2.473427,0.0,0.0,0.0,0.0,0.0,0.0,5.856537662296483,3.518140311393056,0.29967979123787336,-0.00034027241969481647,0.0,2.225031006133564e-17
1750762890.8250518,-2.022914,-1.7532119999999995,-0.9714900000000002,1.566672,-0.9031580000000003,-2.473427,0.0,0.0,0.0,0.0,0.0,0.0,5.856537662296483,3.518140311393056,0.29967979123787336,-0.00034027241969481647,0.0,2.225031006133564e-17
1750762890.8256652,-2.022914,-1.7532119999999995,-0.9714900000000002,1.566672,-0.9031580000000003,-2.473427,0.0,0.0,0.0,0.0,0.0,0.0,5.856537662296483,3.518140311393056,0.29967979123787336,-0.00034027241969481647,0.0,2.225031006133564e-17
1750762890.8270319,-2.022914,-1.7532119999999995,-0.9714900000000002,1.566672,-0.9031580000000003,-2.473427,0.0,0.0,0.0,0.0,0.0,0.0,5.856537662296483,3.518140311393056,0.29967979123787336,-0.00034027241969481647,0.0,2.225031006133564e-17
1750762890.828787,-2.022914,-1.7532119999999995,-0.9714900000000002,1.566672,-0.9031580000000003,-2.473427,0.0,0.0,0.0,0.0,0.0,0.0,5.856537662296483,3.518140311393056,0.29967979123787336,-0.00034027241969481647,0.0,2.225031006133564e-17
1750762890.8310807,-2.0229138451966158,-1.7532129999999997,-0.9714891522018565,1.5666720222118116,-0.9031573668228265,-2.4734263659942024,0.00015480338476854134,-0.001,0.0008477981436477021,2.2211811553889772e-05,0.0006331771733083481,0.0006340057974409268,5.8346396668506895,3.3250261753480976,0.31702566927927506,0.002536510043889506,0.017836799271104705,0.275703873226023
1750762890.8328753,-2.022913380786461,-1.7532159999999992,-0.9714866088074254,1.5666720888472463,-0.9031554672913069,-2.4734244639768104,0.0003096067695370827,-0.002,0.0016955962872954042,4.4423623107779544e-05,0.0012663543466166962,0.0012680115948818535,5.834632788717301,3.325019970619723,0.3170256774632772,0.002536502329089517,0.017836799271080245,0.275702735958882
1750762890.834871,-2.0229126067695375,-1.753221,-0.971482369816707,1.566672199906304,-0.9031523014054406,-2.473421293947823,0.000464410154305624,-0.003,0.0025433944309431063,6.663543466166932e-05,0.0018995315199250443,0.0019020173923227804,5.8346213251184125,3.3250096293587807,0.3170256911038607,0.002536489470930315,0.017836799271039483,0.2757008405102237
1750762890.8372552,-2.0229115231458437,-1.753228,-0.9714764352297021,1.566672355388985,-0.9031478691652275,-2.473416855907241,0.0006192135390741654,-0.004,0.0033911925745908084,8.884724621555909e-05,0.0025327086932333924,0.002536023189763707,5.83460527598916,3.3249951514948086,0.3170257102018963,0.0025364714691731064,0.017836799270982417,0.2756981868749102
1750762890.840247,-2.022910129915381,-1.7532369999999995,-0.9714688050464089,1.566672555295289,-0.9031421705706677,-2.473411149855064,0.0007740169238427066,-0.005,0.004238990718238511,0.00011105905776944886,0.0031658858665417405,0.003170028987204634,5.8345846412387345,3.3249765369291446,0.3170257347586022,0.002536448323483548,0.017836799270909046,0.2756947750457538
1750762890.8413792,-2.022908427078148,-1.7532479999999993,-0.9714594792668292,1.566672799625216,-0.9031352056217612,-2.473404175791292,0.000928820308611248,-0.006,0.005086788861886213,0.00013327086932333863,0.0037990630398500886,0.0038040347846455607,5.834559420750378,3.3249537855349485,0.317025764775545,0.002536420033431801,0.017836799270819374,0.27569060501350917
1750762890.8439136,-2.0229064146341464,-1.7532609999999993,-0.9714484578909612,1.5666730883787663,-0.903126974318508,-2.4733959337159255,0.0010836236933797893,-0.007,0.005934587005533915,0.0001554826808772284,0.004432240213158437,0.004438040582086487,5.8345296143813945,3.324926897157187,0.3170258002546392,0.00253638659849249,0.017836799270713403,0.2756856767668822
1750762890.845402,-2.0229040925833743,-1.7532759999999996,-0.9714357409188068,1.5666734215559395,-0.9031174766609089,-2.473386423628964,0.0012384270781483307,-0.008,0.006782385149181617,0.00017769449243111818,0.005065417386466785,0.005072046379527414,5.834495221963134,3.324895871612651,0.3170258411981477,0.002536348018044744,0.017836799270591133,0.2756799902925253
1750762890.8472524,-2.0229014609258336,-1.7532929999999993,-0.971421328350365,1.5666737991567359,-0.9031067126489623,-2.4733756455304072,0.0013932304629168722,-0.009000000000000001,0.00763018329282932,0.00019990630398500798,0.005698594559775134,0.0057060521769683415,5.8344562433010205,3.324860708689945,0.31702588760868117,0.002536304291372211,0.01783679927045259,0.2756735455750417
1750762890.850207,-2.0228985196615232,-1.7533119999999993,-0.9714052201856358,1.5666742211811555,-0.9030946822826698,-2.473363599420256,0.0015480338476854137,-0.010000000000000002,0.008477981436477024,0.00022211811553889778,0.006331771733083482,0.006340057974409269,5.8344126781745205,3.324821408149495,0.3170259394891989,0.002536255417663013,0.017836799270297705,0.275666342596984
1750762890.851303,-2.0228952687904425,-1.7533329999999996,-0.9713874164246192,1.5666746876291981,-0.9030813855620297,-2.4733502852985096,0.001702837232453955,-0.011000000000000003,0.009325779580124725,0.0002443299270927876,0.006964948906391831,0.006974063771850197,5.8343645263371595,3.3247779697235456,0.3170259968430076,0.002536201396009777,0.01783679927012658,0.2756583813388585
1750762890.8534455,-2.0228952687904425,-1.7533329999999996,-0.9713874164246192,1.5666746876291981,-0.9030813855620297,-2.4733502852985096,0.001702837232453955,-0.011000000000000003,0.009325779580124725,0.0002443299270927876,0.006964948906391831,0.006974063771850197,5.8343645263371595,3.3247779697235456,0.3170259968430076,0.002536201396009777,0.01783679927012658,0.2756583813388585
1750762890.8550565,-2.022887838227974,-1.7533809999999992,-0.971346722113724,1.5666757537961526,-0.9030509930577111,-2.4733198530202327,0.002012444001991038,-0.013000000000000005,0.011021375867420132,0.0002887535502005671,0.008231303253008528,0.00824207536673205,5.834254461414302,3.3246786780032487,0.3170261279854672,0.002536077904764398,0.017836799269735394,0.27564018389419886
1750762890.857128,-2.0228836585365855,-1.7534079999999994,-0.9713238315638453,1.5666763535150647,-0.9030338972740317,-2.473302734863702,0.0021672473867595794,-0.014000000000000005,0.011869174011067834,0.0003109653617544569,0.008864480426316877,0.008876081164172978,5.83419254770616,3.324622824032519,0.3170262017824724,0.0025360084328802054,0.017836799269515417,0.27562994765845505
1750762890.8593655,-2.0228836585365855,-1.7534079999999994,-0.9713238315638453,1.5666763535150647,-0.9030338972740317,-2.473302734863702,0.0021672473867595794,-0.014000000000000005,0.011869174011067834,0.0003109653617544569,0.008864480426316877,0.008876081164172978,5.83419254770616,3.324622824032519,0.3170262017824724,0.0025360084328802054,0.017836799269515417,0.27562994765845505
1750762890.8610077,-2.0228791692384274,-1.753437,-0.9712992454176792,1.5666769976575996,-0.9030155351360056,-2.473284348695576,0.002322050771528121,-0.015000000000000006,0.012716972154715537,0.0003331771733083467,0.009497657599625226,0.009510086961613906,5.834126046041893,3.3245628308235333,0.3170262810694778,0.002535933808467831,0.017836799269279138,0.2756189530442263
1750762890.863978,-2.022874370333499,-1.7534679999999998,-0.9712729636752266,1.566677686223758,-0.9029959066436337,-2.473264694515855,0.0024768541562966624,-0.016000000000000007,0.01356477029836324,0.0003553889848622365,0.010130834772933575,0.010144092759054833,5.834054956045343,3.3244986979676834,0.3170263658515305,0.0025358540301426815,0.01783679926902659,0.27560720002180794
1750762890.8683167,-2.022874370333499,-1.7534679999999998,-0.9712729636752266,1.566677686223758,-0.9029959066436337,-2.473264694515855,0.0024768541562966624,-0.016000000000000007,0.01356477029836324,0.0003553889848622365,0.010130834772933575,0.010144092759054833,5.834054956045343,3.3244986979676834,0.3170263658515305,0.0025358540301426815,0.01783679926902659,0.27560720002180794
1750762890.869268,-2.0228638437033357,-1.7535359999999995,-0.9712153134014585,1.5666791966269435,-0.9029528505958488,-2.4732215821216292,0.0027864609258337453,-0.01800000000000001,0.015260366585658646,0.0003998126079700161,0.011397189119550271,0.011412104353936688,5.8338990094211045,3.3243580115401326,0.31702655192270757,0.002535679005738256,0.017836799268472633,0.2755814186234159
1750762890.8698273,-2.0228581159780985,-1.7535729999999994,-0.9711839448701429,1.566680018463971,-0.9029294230404359,-2.4731981239071237,0.002941264310602287,-0.01900000000000001,0.01610816472930635,0.0004220244195239059,0.01203036629285862,0.012046110151377616,5.833814151911432,3.324281457010421,0.3170266532236669,0.0025355837564126436,0.017836799268171347,0.27556739017786813
1750762890.8710728,-2.0228520786460926,-1.7536119999999995,-0.9711508807425409,1.5666808847246216,-0.9029047291306771,-2.4731733976810237,0.0030960676953708283,-0.02000000000000001,0.01695596287295405,0.0004442362310777957,0.012663543466166969,0.012680115948818542,5.833724704305537,3.324200760917818,0.31702676004334324,0.0025354833466815353,0.017836799267853757,0.2755526031849904
1750762890.8730319,-2.022845731707317,-1.753653,-0.9711161210186514,1.5666817954088954,-0.9028787688665716,-2.4731474034433285,0.0032508710801393698,-0.02100000000000001,0.017803761016601756,0.00046644804263168546,0.013296720639475318,0.013314121746259469,5.8336306660976005,3.3241159227129398,0.3170268723885237,0.002535377774683354,0.01783679926751992,0.2755370576049331
1750762890.8749442,-2.022839075161772,-1.7536959999999997,-0.9710796656984746,1.5666827505167922,-0.9028515422481194,-2.4731201411940384,0.0034056744649079112,-0.022000000000000013,0.018651559160249458,0.0004886598541855753,0.013929897812783667,0.013948127543700397,5.833532036755903,3.3240269418182664,0.3170269902663439,0.002535267038461116,0.017836799267169842,0.27552075339582255
1750762890.8770597,-2.0228321090094576,-1.7537409999999998,-0.9710415147820104,1.5666837500483122,-0.9028230492753204,-2.473091610933154,0.0035604778496764527,-0.023000000000000013,0.01949935730389716,0.0005108716657394651,0.014563074986092016,0.014582133341141324,5.8334288157227885,3.3239338176281397,0.3170271136842871,0.0025351511359625596,0.01783679926680353,0.2755036905137725
1750762890.8790865,-2.0228248332503735,-1.7537879999999992,-0.9710016682692588,1.5666847940034552,-0.9027932899481748,-2.4730618126606743,0.003715281234444994,-0.024000000000000014,0.020347155447544864,0.0005330834772933549,0.015196252159400363,0.015216139138582252,5.833321002414693,3.3238365495087647,0.31702724265018434,0.0025350300650400855,0.01783679926642094,0.27548586891288085
1750762890.881038,-2.02281724788452,-1.7538369999999999,-0.9709601261602208,1.5666858823822212,-0.9027622642666824,-2.4730307463765993,0.0038700846192135357,-0.025000000000000015,0.021194953591192566,0.0005552952888472447,0.015829429332708714,0.01585014493602318,5.833208596222129,3.323735136798222,0.31702737717221485,0.002534903823450825,0.017836799266022278,0.2754672885452385
1750762890.882855,-2.0228093529118967,-1.753888,-0.9709168884548944,1.5666870151846104,-0.9027299722308442,-2.47299841208093,0.004024888003982077,-0.026000000000000016,0.022042751734840268,0.0005775071004011345,0.016462606506017063,0.016484150733464105,5.833091596509699,3.3236295788064725,0.31702751725890543,0.0025347724088566627,0.017836799265607262,0.2754479493609294
1750762890.8847861,-2.022801148332504,-1.7539409999999993,-0.9708719551532807,1.5666881924106228,-0.9026964138406584,-2.4729648097736656,0.004179691388750619,-0.027000000000000017,0.022890549878487973,0.0005997189119550243,0.017095783679325408,0.017118156530905034,5.832970002616097,3.3235198748153656,0.3170276629191314,0.0025346358188242514,0.017836799265175982,0.2754278513080424
1750762890.8893363,-2.0227926341463416,-1.753995999999999,-0.9708253262553805,1.5666894140602583,-0.9026615890961267,-2.4729299394548065,0.00433449477351916,-0.028000000000000018,0.023738348022135675,0.000621930723508914,0.017728960852633757,0.01775216232834596,5.832843813854098,3.3234060240786265,0.31702781416211445,0.0025344940508249445,0.017836799264728708,0.2754069943326596
1750762890.8898764,-2.0227838103534097,-1.7540529999999999,-0.9707770017611921,1.566690680133517,-0.9026254979972483,-2.472893801124352,0.004489298158287702,-0.02900000000000002,0.024586146165783376,0.0006441425350628039,0.018362138025942106,0.01838616812578689,5.83271302951059,3.3232880258218933,0.31702797099742597,0.002534347102235026,0.017836799264265145,0.27538537837888516
1750762890.8914244,-2.0227838103534097,-1.7540529999999999,-0.9707770017611921,1.566690680133517,-0.9026254979972483,-2.472893801124352,0.004489298158287702,-0.02900000000000002,0.024586146165783376,0.0006441425350628039,0.018362138025942106,0.01838616812578689,5.83271302951059,3.3232880258218933,0.31702797099742597,0.002534347102235026,0.017836799264265145,0.27538537837888516
1750762890.8931007,-2.0227746769537083,-1.7541119999999992,-0.9707269816707171,1.5666919906303987,-0.9025881405440224,-2.472856394782303,0.004644101543056243,-0.03000000000000002,0.02543394430943108,0.0006663543466166937,0.018995315199250455,0.019020173923227815,5.832577648846544,3.323165879242703,0.317028133434984,0.0025341949703354873,0.0178367992637854,0.27536300338882297
1750762890.8949192,-2.022765233947238,-1.7541729999999998,-0.9706752659839548,1.5666933455509033,-0.9025495167364515,-2.4728177204286594,0.0047989049278247846,-0.03100000000000002,0.026281742453078783,0.0006885661581705834,0.019628492372558804,0.019654179720668744,5.83243767109704,3.3230395835104907,0.3170283014850541,0.002534037652312284,0.017836799263289484,0.2753398693026063
1750762890.897833,-2.0227554813339967,-1.7542359999999997,-0.9706218547009051,1.5666947448950312,-0.9025096265745329,-2.4727777780634206,0.004953708312593326,-0.03200000000000002,0.027129540596726485,0.0007107779697244731,0.020261669545867153,0.02028818551810967,5.832293095471254,3.3229091377666324,0.3170284751582509,0.0025338751452561796,0.017836799262777404,0.2753159760583811
1750762890.8998077,-2.0227454191139866,-1.7543009999999999,-0.970566747821568,1.5666961886627822,-0.9024684700582677,-2.472736567686587,0.0051085116973618675,-0.03300000000000002,0.02797733874037419,0.0007329897812783629,0.020894846719175502,0.0209221913155506,5.832143921152486,3.3227745411243985,0.3170286544655353,0.002533707446162924,0.017836799262249167,0.2752913235923328
1750762890.9010339,-2.022735047287208,-1.7543679999999995,-0.9705099453459436,1.5666976768541563,-0.9024260471876557,-2.4726940892981584,0.0052633150821304086,-0.03400000000000002,0.02882513688402189,0.0007552015928322527,0.02152802389248385,0.021556197112991525,5.83199014729814,3.3226357926690104,0.3170288394182166,0.002533534551933131,0.01783679926170479,0.27526591183866894
1750762890.903037,-2.0227243658536587,-1.7544369999999994,-0.9704514472740318,1.5666992094691536,-0.902382357962698,-2.472650342898135,0.0054181184668989505,-0.035000000000000024,0.029672935027669593,0.0007774134043861425,0.0221612010657922,0.02219020291043245,5.831831773039727,3.322492891457625,0.31702903002795196,0.002533356459372459,0.017836799261144277,0.2752397407296473
1750762890.9051425,-2.02271337481334,-1.7545079999999995,-0.9703912536058326,1.566700786507774,-0.9023374023833926,-2.472605328486517,0.0055729218516674915,-0.036000000000000025,0.0305207331713173,0.0007996252159400323,0.02279437823910055,0.02282420870787338,5.831668797482884,3.3223458365193386,0.3170292263067459,0.002533173165191518,0.01783679926056764,0.27521281019556565
1750762890.9071717,-2.0227020741662525,-1.754581,-0.9703293643413469,1.5667024079700174,-0.9022911804497413,-2.4725590460633033,0.005727725236436033,-0.037000000000000026,0.031368531314965004,0.0008218370274939221,0.023427555412408898,0.023458214505314306,5.831501219707383,3.3221946268552096,0.31702942826695013,0.0025329846660059304,0.01783679925997489,0.27518512016476915
1750762890.9092243,-2.0226904639123937,-1.7546559999999998,-0.9702657794805729,1.566704073855884,-0.9022436921617434,-2.4725114956284955,0.0058825286212045745,-0.03800000000000003,0.032216329458612705,0.0008440488390478119,0.024060732585717243,0.024092220302755235,5.8313290387670955,3.3220392614382592,0.317029635921265,0.0025327909583364896,0.017836799259365935,0.2751566705636716
1750762890.9112515,-2.022678544051767,-1.7547329999999999,-0.9702004990235125,1.5667057841653735,-0.9021949375193987,-2.4724626771820923,0.006037332005973116,-0.03900000000000003,0.03306412760226041,0.0008662606506017017,0.024693909759025592,0.02472622610019616,5.831152253690058,3.321879739213466,0.3170298492827369,0.002532592038608951,0.01783679925874109,0.275127461316736
1750762890.9128265,-2.02266631458437,-1.7548119999999994,-0.9701335229701638,1.5667075388984864,-0.9021449165227073,-2.4724125907240944,0.006192135390741657,-0.04000000000000003,0.03391192574590811,0.0008884724621555915,0.02532708693233394,0.02536023189763709,5.830970863478412,3.321716059097812,0.31703006836476166,0.002532387903154341,0.01783679925810007,0.27509749234651043
1750762890.9146311,-2.0226537755102036,-1.7548929999999991,-0.9700648513205286,1.5667093380552222,-0.9020936291716692,-2.472361236254502,0.006346938775510199,-0.04100000000000003,0.03475972388955581,0.0009106842737094813,0.02596026410564229,0.025994237695078016,5.830784867108452,3.321548219980245,0.3170302931810805,0.002532178548208724,0.017836799257442974,0.2750667635736057
1750762890.9166844,-2.0226409268292684,-1.7549759999999992,-0.969994484074606,1.5667111816355812,-0.9020410754662844,-2.4723086137733143,0.00650174216027874,-0.04200000000000003,0.03560752203320351,0.0009328960852633711,0.02659344127895064,0.026628243492518945,5.830594263530629,3.3213762207217243,0.31703052374578383,0.002531963969913496,0.017836799256769825,0.2750352749167291
1750762890.918706,-2.022627768541563,-1.7550609999999995,-0.9699224212323951,1.5667130696395632,-0.9019872554065529,-2.472254723280532,0.006656545545047282,-0.04300000000000003,0.03645532017685122,0.0009551078968172609,0.027226618452258988,0.02726224928995987,5.830399051669517,3.3212000601552174,0.31703076007330894,0.002531744164315166,0.017836799256080626,0.2750030262926661
1750762890.9209023,-2.0226143006470885,-1.7551479999999993,-0.9698486627938987,1.5667150020671683,-0.9019321689924755,-2.4721995647761545,0.006811348929815823,-0.04400000000000003,0.03730311832049892,0.0009773197083711507,0.027859795625567337,0.0278962550874008,5.830199230423866,3.3210197370856975,0.3170310021784392,0.00253151912736564,0.017836799255375402,0.27497001761631373
1750762890.9229147,-2.0226005231458437,-1.7552369999999993,-0.9697732087591131,1.5667169789183968,-0.9018758162240506,-2.472143138260182,0.006966152314584365,-0.04500000000000003,0.038150916464146624,0.0009995315199250404,0.028492972798875686,0.028530260884841726,5.829994798666574,3.3208352502901857,0.31703125007630795,0.002531288854922078,0.017836799254654156,0.27493624880066014
1750762890.9250398,-2.0225864360378303,-1.7553279999999996,-0.9696960591280419,1.566719000193248,-0.9018181971012798,-2.472085443732615,0.007120955699352906,-0.046000000000000034,0.038998714607794326,0.0010217433314789303,0.029126149972184035,0.02916426668228265,5.829785755244698,3.320646598517714,0.3170315037823933,0.002531053342747006,0.017836799253916905,0.27490171975681765
1750762890.933211,-2.0225720393230464,-1.7554209999999992,-0.9696172139006825,1.5667210658917226,-0.9017593116241622,-2.472026481193453,0.007275759084121448,-0.047000000000000035,0.03984651275144203,0.00104395514303282,0.029759327145492384,0.02979827247972358,5.829572098979479,3.3204537804893874,0.31703176331252214,0.002530812586508374,0.017836799253163664,0.27486643039401376
1750762890.9338534,-2.0225720393230464,-1.7554209999999992,-0.9696172139006825,1.5667210658917226,-0.9017593116241622,-2.472026481193453,0.007275759084121448,-0.047000000000000035,0.03984651275144203,0.00104395514303282,0.029759327145492384,0.02979827247972358,5.829572098979479,3.3204537804893874,0.31703176331252214,0.002530812586508374,0.017836799253163664,0.27486643039401376
1750762890.9343748,-2.0225720393230464,-1.7554209999999992,-0.9696172139006825,1.5667210658917226,-0.9017593116241622,-2.472026481193453,0.007275759084121448,-0.047000000000000035,0.03984651275144203,0.00104395514303282,0.029759327145492384,0.02979827247972358,5.829572098979479,3.3204537804893874,0.31703176331252214,0.002530812586508374,0.017836799253163664,0.27486643039401376
1750762890.9348254,-2.022542317073171,-1.7556129999999994,-0.9694544366571023,1.566725330559541,-0.901637741606887,-2.4719047520803445,0.007585365853658531,-0.04900000000000004,0.04154210903873744,0.0010883787661405996,0.031025681492109082,0.031066284074605436,5.829130943074792,3.3200556404098265,0.3170322999099521,0.002530315324039386,0.017836799251609255,0.2747935703390775
1750762890.9352984,-2.022511356396217,-1.7558129999999998,-0.9692848770283726,1.5667297729218517,-0.901511106172225,-2.471777950920856,0.007894972623195613,-0.05100000000000004,0.04323770532603284,0.0011328023892483792,0.03229203583872578,0.03233429566948729,5.828671321005933,3.3196408192616187,0.31703286000215264,0.0025297970309681493,0.017836799249991143,0.2747176678723883
1750762890.9370625,-2.0224954116475864,-1.7559159999999991,-0.9691975538195772,1.5667320607384418,-0.9014458889233747,-2.4717126483237197,0.008049776007964155,-0.05200000000000004,0.04408550346968054,0.0011550142008022691,0.032925213012034125,0.03296830146692822,5.8284345819387084,3.3194271497928245,0.3170331489020467,0.002529529986122653,0.01783679924915795,0.27467857548796787
1750762890.9388757,-2.022479157292185,-1.7560209999999996,-0.9691085350144935,1.566734392978655,-0.9013794053201769,-2.4716460777149885,0.008204579392732697,-0.05300000000000004,0.044933301613328244,0.0011772260123561588,0.03355839018534248,0.03360230726436914,5.828193222413355,3.3192093058083487,0.31703344372823344,0.002529257669236965,0.017836799248309256,0.2746387222009348
1750762890.9409642,-2.0224625933300153,-1.7561279999999995,-0.9690178206131232,1.5667367696424912,-0.9013116553626332,-2.4715782390946623,0.008359382777501239,-0.05400000000000004,0.045781099756975946,0.0011994378239100487,0.03419156735865082,0.034236313061810075,5.827947241070441,3.3189872858339258,0.3170337444989689,0.0025289800753180874,0.01783679924744427,0.2745981079075946
1750762890.9427128,-2.022445719761075,-1.7562369999999996,-0.9689254106154657,1.5667391907299506,-0.9012426390507429,-2.4715091324627414,0.00851418616226978,-0.05500000000000004,0.046628897900623655,0.0012216496354639384,0.034824744531959176,0.034870318859251,5.827696636524729,3.3187610883674377,0.31703405123285616,0.0025286971992786486,0.017836799246563808,0.27455673250242707
1750762890.944788,-2.022428536585366,-1.7563479999999991,-0.9688313050215207,1.566741656241033,-0.9011723563845049,-2.471438757819225,0.008668989547038321,-0.05600000000000004,0.047476696044271356,0.001243861447017828,0.03545792170526752,0.03550432465669193,5.827441407365232,3.3185307118789154,0.3170343639488451,0.0025284090359372472,0.01783679924566709,0.274514595878128
1750762890.9468813,-2.022428536585366,-1.7563479999999991,-0.9688313050215207,1.566741656241033,-0.9011723563845049,-2.471438757819225,0.008668989547038321,-0.05600000000000004,0.047476696044271356,0.001243861447017828,0.03545792170526752,0.03550432465669193,5.827441407365232,3.3185307118789154,0.3170343639488451,0.0025284090359372472,0.01783679924566709,0.274514595878128
1750762890.948794,-2.0224110438028866,-1.7564609999999998,-0.9687355038312884,1.5667441661757386,-0.9011008073639211,-2.4713671151641146,0.008823792931806863,-0.057000000000000044,0.04832449418791906,0.001266073258571718,0.03609109887857587,0.03613833045413285,5.8271815521551416,3.3182961548105476,0.3170346826662327,0.0025281155800182505,0.01783679924475473,0.2744716979255885
1750762890.9507554,-2.0223932414136385,-1.756575999999999,-0.9686380070447695,1.5667467205340673,-0.9010279919889914,-2.4712942044974087,0.008978596316575403,-0.058000000000000045,0.04917229233156676,0.0012882850701256077,0.03672427605188422,0.03677233625157378,5.826917069431931,3.3180574155767157,0.3170350074046629,0.002527816826151916,0.017836799243826747,0.27442803853392017
1750762890.9527173,-2.022375129417621,-1.7566929999999994,-0.9685388146619625,1.5667493193160191,-0.9009539102597142,-2.4712200258191084,0.009133399701343945,-0.059000000000000045,0.05002009047521446,0.0013104968816794976,0.037357453225192565,0.03740634204901471,5.826647957707279,3.3178144925639756,0.31703533818412555,0.0025275127688745556,0.017836799242882558,0.2743836175904626
1750762890.9550488,-2.022356707814833,-1.756812,-0.9684379266828689,1.566751962521594,-0.9008785621760902,-2.471144579129213,0.009288203086112487,-0.060000000000000046,0.05086788861886217,0.0013327086932333873,0.03799063039850092,0.03804034784645564,5.826374215467111,3.3175673841310984,0.31703567502495844,0.002527203402628321,0.017836799241922975,0.274338434980779
1750762890.9576957,-2.022337976605277,-1.756933,-0.968335343107487,1.566754650150792,-0.9008019477381204,-2.4710678644277224,0.009443006470881029,-0.06100000000000005,0.05171568676250987,0.0013549205047872772,0.03862380757180926,0.03867435364389656,5.826095841171625,3.3173160886090662,0.31703601794784425,0.00252688872176166,0.017836799240947224,0.27429249058870003
1750762890.9588735,-2.0223189357889497,-1.7570559999999995,-0.9682310639358187,1.5667573822036132,-0.900724066945803,-2.470989881714637,0.009597809855649569,-0.06200000000000005,0.05256348490615757,0.001377132316341167,0.039256984745117615,0.03930835944133749,5.825812833255249,3.3170606043011093,0.3170363669738147,0.0025265687205289628,0.017836799239956114,0.27424578429629837
1750762890.960731,-2.022299585365854,-1.7571809999999992,-0.9681250891678621,1.5667601586800575,-0.9006449197991397,-2.470910630989957,0.009752613240418111,-0.06300000000000004,0.05341128304980527,0.0013993441278950566,0.03989016191842596,0.039942365238778414,5.825525190126699,3.316800929482679,0.31703672212424566,0.0025262433930908997,0.01783679923894887,0.27419831598391875
1750762890.9632394,-2.0222799253359884,-1.757308,-0.968017418803619,1.5667629795801248,-0.9005645062981298,-2.470830112253682,0.009907416625186651,-0.06400000000000004,0.05425908119345297,0.0014215559394489463,0.040523339091734306,0.04057637103621934,5.825232910168942,3.3165370624015,0.31703708342086095,0.0025259127335143165,0.017836799237926106,0.27415008553018216
1750762890.9649394,-2.0222599556993526,-1.7574369999999995,-0.9679080528430886,1.5667658449038153,-0.9004828264427722,-2.470748325505812,0.010062220009955193,-0.06500000000000004,0.05510687933710068,0.0014437677510028362,0.04115651626504265,0.041210376833660266,5.824935991739242,3.3162690012775804,0.3170374508857305,0.0025255767357724025,0.01783679923688765,0.27410109281199946
1750762890.9668581,-2.022239676455948,-1.7575679999999991,-0.9677969912862707,1.5667687546511289,-0.9003998802330688,-2.4706652707463475,0.010217023394723735,-0.06600000000000004,0.05595467748074838,0.0014659795625567259,0.041789693438351004,0.0418443826311012,5.824634433169143,3.315996744303204,0.3170378245412696,0.0025252353937446612,0.017836799235833707,0.274051337704585
1750762890.9688659,-2.022219087605774,-1.757700999999999,-0.9676842341331655,1.5667717088220654,-0.9003156676690196,-2.4705809479752876,0.010371826779492277,-0.06700000000000005,0.05680247562439608,0.0014881913741106158,0.04242287061165935,0.042478388428542124,5.824328232764485,3.3157202896429707,0.3170382044102417,0.0025248887012169693,0.017836799234763705,0.2740008200814506
1750762890.9707355,-2.0221981891488303,-1.7578359999999993,-0.9675697813837729,1.5667747074166252,-0.9002301887506228,-2.4704953571926334,0.010526630164260817,-0.06800000000000005,0.05765027376804378,0.0015104031856645055,0.0430560477849677,0.04311239422598305,5.824017388805397,3.315439635433792,0.31703859051575517,0.0025245366518817933,0.017836799233678462,0.27394953981444903
1750762890.972731,-2.022176981085117,-1.7579729999999998,-0.9674536330380938,1.5667777504348082,-0.9001434434778792,-2.470408498398384,0.010681433549029359,-0.06900000000000005,0.058498071911691485,0.0015326149972183954,0.04368922495827605,0.043746400023423976,5.823701899546334,3.315154779784922,0.3170389828812651,0.0025241792393380607,0.0178367992325772,0.27389749677375486
1750762890.9749892,-2.0221554634146344,-1.7581119999999997,-0.9673357890961265,1.5667808378766142,-0.9000554318507898,-2.4703203715925395,0.010836236933797901,-0.07000000000000005,0.05934587005533919,0.001554826808772285,0.0443224021315844,0.0443804058208649,5.823381763216057,3.3148657207779704,0.3170393815305726,0.002523816457091259,0.017836799231460733,0.2738446908278925
1750762890.9766684,-2.022133636137382,-1.7582529999999998,-0.9672162495578718,1.5667839697420431,-0.8999661538693529,-2.4702309767751003,0.010991040318566443,-0.07100000000000005,0.060193668198986895,0.001577038620326175,0.044955579304892745,0.045014411618305834,5.823056978017654,3.314572456466903,0.3170397864878249,0.0025234482985536212,0.01783679923032829,0.2737911218437444
1750762890.978731,-2.02211149925336,-1.7583959999999994,-0.9670950144233306,1.5667871460310954,-0.89987560953357,-2.4701403139460663,0.011145843703334983,-0.07200000000000005,0.0610414663426346,0.0015992504318800647,0.0455887564782011,0.04564841741574676,5.822727542128541,3.314274984878081,0.31704019777751463,0.002523074757043976,0.01783679922918069,0.273736789686552
1750762890.9806857,-2.022089052762569,-1.7585409999999992,-0.966972083692502,1.5667903667437708,-0.8997837988434405,-2.4700483831054374,0.011300647088103525,-0.07300000000000005,0.0618892644862823,0.0016214622434339546,0.04622193365150944,0.046282423213187686,5.822393453700487,3.313973304010262,0.31704061542448175,0.0025226958257881164,0.017836799228017147,0.2736816942199565
1750762890.982814,-2.022066296665008,-1.7586879999999994,-0.9668474573653851,1.5667936318800693,-0.8996907217989634,-2.4699551842532137,0.011455450472872067,-0.07400000000000005,0.06273706262993001,0.0016436740549878443,0.046855110824817796,0.04691642901062861,5.822054710859593,3.313667411834622,0.3170410394539113,0.0025223114979185273,0.01783679922683849,0.27362583530598145
1750762890.984741,-2.0220432309606764,-1.7588369999999998,-0.9667211354419818,1.5667969414399907,-0.8995963784001404,-2.4698607173893947,0.011610253857640609,-0.07500000000000005,0.06358486077357771,0.0016658858665417342,0.04748828799812614,0.047550434808069544,5.821711311706326,3.313357306294778,0.3170414698913337,0.002521921766474726,0.017836799225643938,0.2735692128050623
1750762890.9910254,-2.022019855649577,-1.7589879999999996,-0.9665931179222911,1.5668002954235354,-0.8995007686469716,-2.4697649825139814,0.011765057242409149,-0.07600000000000005,0.06443265891722541,0.0016880976780956239,0.04812146517143449,0.04818444060551047,5.8213632543155285,3.313042985306784,0.3170419067626259,0.0025215266244030983,0.017836799224434114,0.273511826576043
1750762890.9917936,-2.0219961707317076,-1.7591409999999996,-0.966463404806313,1.566803693830703,-0.8994038925394552,-2.4696679796269727,0.01191986062717769,-0.07700000000000005,0.06528045706087311,0.0017103094896495138,0.04875464234474284,0.048818446402951396,5.821010536736399,3.3127244467591823,0.3170423500940105,0.00252112606455724,0.01783679922320904,0.27345367647621693
1750762890.9931872,-2.0219721762070684,-1.759295999999999,-0.9663319960940475,1.566807136661494,-0.8993057500775921,-2.4695697087283692,0.012074664011946233,-0.07800000000000006,0.06612825520452081,0.0017325213012034035,0.049387819518051185,0.04945245220039232,5.82065315699252,3.31240168851299,0.3170427999120552,0.00252072007969777,0.017836799221968135,0.2733947623613124
1750762890.9948368,-2.0219478720756596,-1.7594529999999997,-0.9661988917854947,1.5668106239159079,-0.8992063412613831,-2.4694701698181714,0.012229467396714773,-0.07900000000000006,0.06697605334816852,0.0017547331127572932,0.05002099669135954,0.050086457997833254,5.820291113081876,3.312074708401734,0.3170432562436737,0.002520308662492556,0.017836799220712227,0.27333508408552054
1750762890.9970884,-2.0219232583374813,-1.7596119999999997,-0.9660640918806553,1.566814155593945,-0.8991056660908265,-2.469369362896378,0.012384270781483315,-0.08000000000000006,0.06782385149181622,0.001776944924311183,0.05065417386466788,0.05072046379527418,5.819924402976852,3.31174350423147,0.31704371911612506,0.0025198918055166645,0.01783679921944054,0.27327464150149466
1750762890.9990911,-2.0218983349925335,-1.7597729999999991,-0.9659275963795277,1.5668177316956051,-0.8990037245659241,-2.46926728796299,0.012539074166251857,-0.08100000000000006,0.06867164963546392,0.0017991567358650728,0.051287351037976235,0.051354469592715106,5.819553024624235,3.3114080737807865,0.31704418855701394,0.002519469501252595,0.01783679921815389,0.2732134344603913
1750762891.0011108,-2.021873102040816,-1.7599359999999997,-0.9657894052821128,1.5668213522208885,-0.898900516686675,-2.4691639450180074,0.012693877551020399,-0.08200000000000006,0.06951944777911162,0.0018213685474189627,0.05192052821128458,0.05198847539015603,5.81917697594523,3.311068414800843,0.3170446645942904,0.002519041742090244,0.017836799216851513,0.27315146281185554
1750762891.002791,-2.02184755948233,-1.7601009999999997,-0.9656495185884113,1.5668250171697948,-0.8987960424530792,-2.4690593340614293,0.012848680935788939,-0.08300000000000006,0.07036724592275932,0.0018435803589728524,0.05255370538459293,0.05262248118759696,5.818796254835478,3.310724525015366,0.3170451472562489,0.002518608520326942,0.01783679921553422,0.27308872640404735
1750762891.0046632,-2.0218217073170734,-1.760268,-0.9655079362984225,1.5668287265423244,-0.8986903018651367,-2.468953455093257,0.01300348432055748,-0.08400000000000006,0.07121504406640702,0.0018657921705267423,0.05318688255790128,0.05325648698503789,5.818410859165051,3.3103764021206983,0.3170456365715305,0.0025181698281676965,0.017836799214201244,0.2730252250836596
1750762891.006655,-2.0217955455450474,-1.7604369999999996,-0.9653646584121454,1.566832480338477,-0.8985832949228474,-2.4688463081134895,0.013158287705326023,-0.08500000000000006,0.07206284221005473,0.001888003982080632,0.05382005973120963,0.053890492782478816,5.8180207867784715,3.310024043785791,0.3170461325691207,0.00251772565772498,0.01783679921285341,0.27296095869591347
1750762891.0086322,-2.0217690741662526,-1.7606079999999995,-0.9652196849295818,1.5668362785582526,-0.8984750216262114,-2.468737893122127,0.013313091090094565,-0.08600000000000006,0.07291064035370244,0.0019102157936345219,0.054453236904517976,0.05452449857991974,5.817626035494717,3.309667447652232,0.3170466352783501,0.002517276001019198,0.017836799211489934,0.2728959270846074
1750762891.012072,-2.0217422931806865,-1.7607809999999997,-0.9650730158507308,1.5668401212016514,-0.8983654819752296,-2.4686282101191694,0.013467894474863105,-0.08700000000000006,0.07375843849735014,0.0019324276051884116,0.05508641407782632,0.05515850437736067,5.817226603107224,3.309306611334276,0.3170471447288934,0.0025168208499784287,0.017836799210111453,0.2728301300920975
1750762891.0130978,-2.0217152025883527,-1.7609559999999993,-0.9649246511755925,1.5668440082686734,-0.8982546759699002,-2.4685172591046176,0.013622697859631647,-0.08800000000000006,0.07460623664099784,0.0019546394167423015,0.055719591251134674,0.0557925101748016,5.816822487383928,3.308941532418848,0.3170476609507718,0.0025163601964387156,0.017836799208717984,0.27276356755933245
1750762891.0150785,-2.0216878023892484,-1.7611329999999992,-0.9647745909041667,1.5668479397593185,-0.8981426036102249,-2.4684050400784705,0.013777501244400189,-0.08900000000000007,0.07545403478464555,0.0019768512282961914,0.05635276842444302,0.056426515972242526,5.81641368606722,3.308572208465577,0.3170481839743507,0.002515894032143899,0.017836799207308955,0.27269623932585063
1750762891.0169473,-2.0216600925833745,-1.7613119999999993,-0.9646228350364536,1.5668519156735865,-0.8980292648962029,-2.4682915530407286,0.01393230462916873,-0.09000000000000007,0.07630183292829325,0.001999063039850081,0.05698594559775137,0.05706052176968345,5.816000196874013,3.3081986370068153,0.3170487138303402,0.002515422348746046,0.017836799205885195,0.2726281452298253
1750762891.0187125,-2.021632073170732,-1.7614929999999998,-0.9644693835724532,1.5668559360114778,-0.8979146598278342,-2.468176797991392,0.01408710801393727,-0.09100000000000007,0.07714963107194095,0.0020212748514039708,0.05761912277105972,0.05769452756712438,5.815582017495709,3.307820815547642,0.3170492505497944,0.002514945137805307,0.017836799204445933,0.2725592851080495
1750762891.020717,-2.021603744151319,-1.7616759999999996,-0.9643142365121662,1.5668600007729923,-0.8977987884051188,-2.46806077493046,0.014241911398705813,-0.09200000000000007,0.07799742921558865,0.0020434866629578607,0.05825229994436807,0.0583285333645653,5.815159145598245,3.307438741565918,0.3170497941641132,0.0025144623907899775,0.017836799202991988,0.27248965879596615
1750762891.0227463,-2.0215751055251374,-1.7618609999999997,-0.964157393855591,1.5668641099581297,-0.8976816506280567,-2.4679434838579333,0.014396714783474355,-0.09300000000000007,0.07884522735923635,0.0020656984745117506,0.058885477117676416,0.058962539162006236,5.814731578822068,3.307052412512271,0.3170503447050402,0.0025139740990767013,0.017836799201522587,0.27241926612768635
1750762891.024707,-2.0215461572921853,-1.762048,-0.9639988556027292,1.5668682635668902,-0.8975632464966479,-2.467824924773812,0.014551518168242896,-0.09400000000000007,0.07969302550288405,0.00208791028606564,0.05951865429098477,0.05959654495944716,5.814299314782173,3.306661825810144,0.3170509022046636,0.0025134802539504,0.01783679920003857,0.2723481069359854
1750762891.026702,-2.0215168994524646,-1.7622369999999998,-0.9638386217535793,1.566872461599274,-0.8974435760108923,-2.467705097678096,0.014706321553011437,-0.09500000000000007,0.08054082364653176,0.00211012209761953,0.060151831464293114,0.06023055075688809,5.813862351068106,3.3062669788558,0.317051466695416,0.0025129808466046724,0.01783679919853915,0.27227618105235507
1750762891.0287085,-2.0214873320059734,-1.7624279999999999,-0.9636766923081428,1.5668767040552807,-0.8973226391707909,-2.4675840025707845,0.014861124937779979,-0.09600000000000007,0.08138862179017946,0.00213233390917342,0.060785008637601466,0.06086455655432901,5.8134206852439645,3.305867869018359,0.31705203821007427,0.0025124758681414603,0.01783679919702516,0.27220348830698604
1750762891.030751,-2.0214873320059734,-1.7624279999999999,-0.9636766923081428,1.5668767040552807,-0.8973226391707909,-2.4675840025707845,0.014861124937779979,-0.09600000000000007,0.08138862179017946,0.00213233390917342,0.060785008637601466,0.06086455655432901,5.8134206852439645,3.305867869018359,0.31705203821007427,0.0025124758681414603,0.01783679919702516,0.27220348830698604
1750762891.0327222,-2.0214574549527127,-1.7626209999999993,-0.9635130672664189,1.5668809909349106,-0.8972004359763419,-2.4674616394518782,0.01501592832254852,-0.09700000000000007,0.08223641993382717,0.0021545457207273093,0.06141818581090981,0.061498562351769946,5.812974314848424,3.305464493639808,0.31705261678175994,0.0025119653095714758,0.01783679919549583,0.27213002852880197
1750762891.0346875,-2.0214272682926833,-1.762815999999999,-0.9633477466284077,1.5668853222381636,-0.8970769664275471,-2.467338008321377,0.015170731707317062,-0.09800000000000007,0.08308421807747488,0.0021767575322811992,0.062051362984218164,0.06213256814921087,5.812523237394743,3.3050568500350206,0.3170532024439365,0.002511449161814063,0.017836799193951987,0.27205580154546
1750762891.0366757,-2.0213967720258834,-1.763012999999999,-0.9631807303941091,1.5668896979650397,-0.8969522305244055,-2.4672131091792817,0.015325535092085603,-0.09900000000000007,0.08393201622112258,0.002198969343835089,0.0626845401575265,0.0627665739466518,5.812067450370761,3.304644935491803,0.3170537952304143,0.0025109274156975138,0.01783679919239267,0.27198080718340006
1750762891.0423932,-2.021365966152315,-1.7632119999999993,-0.9630120185635231,1.566894118115539,-0.8968262282669173,-2.467086942025591,0.015480338476854144,-0.10000000000000007,0.08477981436477028,0.002221181155388979,0.06331771733083486,0.06340057974409273,5.811606951238948,3.3042287472708876,0.3170543951753459,0.0025104000619588607,0.017836799190819284,0.27190504526781617
1750762891.0428572,-2.021334850671977,-1.763413,-0.9628416111366498,1.5668985826896613,-0.8966989596550814,-2.466959506860305,0.015635141861622685,-0.10100000000000008,0.08562761250841798,0.0022433929669428685,0.06395089450414321,0.06403458554153366,5.811141737436362,3.303808282605981,0.3170550023132282,0.002509867091244321,0.017836799189230677,0.27182851562271976
1750762891.0438447,-2.0213034255848683,-1.7636159999999999,-0.9626695081134891,1.5669030916874067,-0.8965704246889006,-2.4668308036834246,0.015789945246391227,-0.10200000000000008,0.08647541065206568,0.0022656047784967584,0.06458407167745156,0.06466859133897458,5.810671806374704,3.303383538703775,0.3170556166789014,0.0025093284941091237,0.01783679918762728,0.2717512180709231
1750762891.0448737,-2.021271690890991,-1.763821,-0.9624957094940418,1.5669076451087753,-0.8964406233683722,-2.4667008324949493,0.01594474863115977,-0.10300000000000008,0.08732320879571338,0.0022878165900506483,0.0652172488507599,0.06530259713641551,5.81019715544032,3.302954512743966,0.31705623830754975,0.002508784261017681,0.017836799186008723,0.27167315243407136
1750762891.047045,-2.0212396465903435,-1.7640279999999997,-0.9623202152783064,1.566912242953767,-0.896309555693497,-2.466569593294879,0.01609955201592831,-0.10400000000000008,0.08817100693936109,0.0023100284016045382,0.06585042602406825,0.06593660293385643,5.809717781994189,3.302521201879296,0.3170568672347009,0.0025082343823437056,0.017836799184376216,0.27159431853265864
1750762891.0490746,-2.021207292682927,-1.7642369999999996,-0.9621430254662844,1.5669168852223816,-0.896177221664276,-2.466437086083214,0.016254355400696852,-0.10500000000000008,0.08901880508300879,0.0023322402131584277,0.0664836031973766,0.06657060873129736,5.809233683371975,3.3020836032355527,0.31705750349622536,0.0025076788483702874,0.01783679918272861,0.27151471618604545
1750762891.0509715,-2.0211746291687405,-1.7644479999999998,-0.9619641400579741,1.5669215719146197,-0.8960436212807075,-2.4663033108599537,0.016409158785465394,-0.10600000000000008,0.08986660322665649,0.0023544520247123176,0.06711678037068496,0.06720461452873829,5.808744856884001,3.301641713911625,0.3170581471283381,0.0025071176492900854,0.017836799181066336,0.2714343452124763
1750762891.0528579,-2.021141656047785,-1.7646609999999994,-0.9617835590533774,1.5669263030304805,-0.8959087545427931,-2.4661682676250987,0.016563962170233936,-0.10700000000000008,0.09071440137030419,0.0023766638362662075,0.0677499575439933,0.06783862032617921,5.808251299815295,3.301195530979498,0.31705879816759597,0.002506550775205177,0.01783679917938903,0.27135320542909797
1750762891.0547183,-2.021108373320059,-1.7648759999999992,-0.9616012824524933,1.5669310785699646,-0.8957726214505319,-2.4660319563786492,0.016718765555002478,-0.10800000000000008,0.09156219951395189,0.0023988756478200974,0.06838313471730165,0.06847262612362015,5.807753009425566,3.300745051484297,0.31705945665090035,0.0025059782161275077,0.017836799177697888,0.27127129665198446
1750762891.0565906,-2.0210747809855647,-1.7650929999999994,-0.9614173102553218,1.566935898533072,-0.8956352220039241,-2.4658943771206046,0.016873568939771016,-0.10900000000000008,0.09240999765759961,0.002421087459373987,0.06901631189061,0.06910663192106108,5.807249982949254,3.3002902724443026,0.31706012261549477,0.002505399961978541,0.017836799175991784,0.2711886186961245
1750762891.058648,-2.0210408790443006,-1.7653119999999998,-0.961231642461863,1.5669407629198022,-0.8954965562029695,-2.465755529850965,0.01702837232453956,-0.11000000000000008,0.09325779580124731,0.002443299270927877,0.06964948906391835,0.069740637718502,5.806742217595521,3.299831190850989,0.31706079609896487,0.0025048160025899564,0.01783679917427113,0.27110517137550205
1750762891.062486,-2.021006667496267,-1.7655329999999996,-0.9610442790721168,1.5669456717301555,-0.8953566240476682,-2.46561541456973,0.0171831757093081,-0.11100000000000008,0.09410559394489501,0.0024655110824817667,0.07028266623722669,0.07037464351594293,5.806229710548257,3.2993678036690346,0.3170614771392415,0.0025042263277031624,0.017836799172535573,0.27102095450305447
1750762891.062805,-2.020972146341464,-1.7657559999999997,-0.9608552200860832,1.566950624964132,-0.8952154255380202,-2.465474031276901,0.017337979094076642,-0.11200000000000009,0.09495339208854271,0.002487722894035656,0.07091584341053504,0.07100864931338385,5.805712458966114,3.2989001078363596,0.31706216577459606,0.002503630926969758,0.017836799170786316,0.27093596789072055
1750762891.064695,-2.020937315579891,-1.765981,-0.960664465503763,1.5669556226217316,-0.8950729606740264,-2.465331379972477,0.017492782478845184,-0.11300000000000009,0.09580119023219041,0.002509934705589546,0.0715490205838434,0.07164265511082478,5.805190459982506,3.298428100264145,0.31706286204364353,0.0025030297899515377,0.01783679916902222,0.27085021134945453
1750762891.066727,-2.020902175211548,-1.7662079999999998,-0.9604720153251547,1.5669606647029544,-0.894929229455685,-2.4651874606564577,0.017647585863613726,-0.11400000000000009,0.09664898837583812,0.002532146517143436,0.07218219775715173,0.0722766609082657,5.804663710705625,3.297951777836866,0.31706356598534147,0.002502422906120556,0.017836799167243317,0.2707636846892466
1750762891.06876,-2.020866725236436,-1.7664369999999998,-0.960277869550259,1.5669657512078004,-0.8947842318829977,-2.465042273328844,0.017802389248382268,-0.11500000000000009,0.09749678651948582,0.002554358328697326,0.07281537493046009,0.07291066670570663,5.804132208218454,3.2974711374123076,0.31706427763898903,0.0025018102648593013,0.017836799165450817,0.2706763877191415
1750762891.070641,-2.0208309656545547,-1.7666679999999992,-0.9600820281790767,1.5669708821362691,-0.8946379679559628,-2.464895817989635,0.017957192633150806,-0.11600000000000009,0.09834458466313352,0.0025765701402512154,0.07344855210376844,0.07354467250314756,5.803595949578785,3.2969861758216066,0.3170649970442283,0.002501191855460717,0.017836799163643578,0.2705883202472576
1750762891.0727808,-2.0207948964659037,-1.7669009999999998,-0.9598844912116071,1.5669760574883613,-0.8944904376745821,-2.464748094638831,0.01811199601791935,-0.11700000000000009,0.09919238280678122,0.0025987819518051053,0.07408172927707679,0.0741786783005885,5.803054931819223,3.29649688986927,0.3170657242410437,0.0025005676671285464,0.017836799161822025,0.27049948208081626
1750762891.0746207,-2.020758517670483,-1.7671359999999998,-0.9596852586478493,1.5669812772640763,-0.8943416410388547,-2.4645991032764325,0.01826679940268789,-0.11800000000000009,0.10004018095042892,0.0026209937633589952,0.07471490645038513,0.07481268409802942,5.8025091519472065,3.296003276333203,0.317066459269761,0.002499937688976896,0.017836799159985803,0.2704098730261262
1750762891.0767732,-2.020721829268293,-1.7673729999999992,-0.9594843304878049,1.5669865414634148,-0.8941915780487806,-2.464448843902439,0.018421602787456432,-0.11900000000000009,0.10088797909407662,0.002643205574912885,0.07534808362369348,0.07544668989547035,5.801958606945022,3.2955053319647423,0.3170672021710488,0.002499301910031158,0.01783679915813612,0.27031949288867063
1750762891.078625,-2.0206848312593326,-1.7676119999999997,-0.9592817067314732,1.566991850086376,-0.8940402487043606,-2.4642973165168507,0.018576406172224974,-0.12000000000000009,0.10173577723772434,0.0026654173864667746,0.07598126079700183,0.07608069569291127,5.8014032937698055,3.2950030534886725,0.3170679529859171,0.002498660319227347,0.017836799156271836,0.2702283414730623
1750762891.081014,-2.0206475236436034,-1.7678529999999997,-0.9590773873788541,1.5669972031329606,-0.893887653005593,-2.4641445211196675,0.018731209556993516,-0.1210000000000001,0.10258357538137204,0.0026876291980206645,0.07661443797031019,0.0767147014903522,5.8008432093535935,3.2944964376032706,0.31706871175571666,0.0024980129054127534,0.01783679915439338,0.2701364185830981
1750762891.0827625,-2.0206099064211056,-1.768096,-0.9588713724299476,1.567002600603168,-0.8937337909524787,-2.463990457710889,0.018886012941762058,-0.1220000000000001,0.10343137352501974,0.0027098410095745544,0.07724761514361853,0.07734870728779313,5.800278350603284,3.2939854809803153,0.3170694785221417,0.00249735965734566,0.017836799152500395,0.27004372402177074
1750762891.084788,-2.0205719795918373,-1.7683409999999995,-0.9586636618847537,1.5670080424969988,-0.8935786625450186,-2.4638351262905163,0.0190408163265306,-0.1230000000000001,0.10427917166866744,0.0027320528211284443,0.07788079231692688,0.07798271308523405,5.799708714400685,3.2934701802651447,0.3170702533272268,0.0024967005636957846,0.017836799150594093,0.26995025759129193
1750762891.0867221,-2.0205719795918373,-1.7683409999999995,-0.9586636618847537,1.5670080424969988,-0.8935786625450186,-2.4638351262905163,0.0190408163265306,-0.1230000000000001,0.10427917166866744,0.0027320528211284443,0.07788079231692688,0.07798271308523405,5.799708714400685,3.2934701802651447,0.3170702533272268,0.0024967005636957846,0.017836799150594093,0.26995025759129193
1750762891.0935059,-2.0205337431557986,-1.7685879999999994,-0.9584542557432734,1.5670135288144527,-0.8934222677832109,-2.463678526858548,0.019195619711299138,-0.1240000000000001,0.10512696981231515,0.002754264632682334,0.07851396949023523,0.07861671888267498,5.799134297602521,3.2929505320766537,0.3170710362133479,0.0024960356130441894,0.01783679914867333,0.2698560190931136
1750762891.0938132,-2.0204171762070686,-1.7693409999999998,-0.9578158637411063,1.5670302543085528,-0.89294548537171,-2.4632011204930753,0.01966002986560476,-0.12700000000000009,0.10767036424325824,0.002820900067344003,0.08041350101016026,0.08051873627499775,5.797382331826029,3.291365468464404,0.3170734337868083,0.0024940055035635057,0.017836799142826633,0.2695686691959445
1750762891.0940301,-2.0204171762070686,-1.7693409999999998,-0.9578158637411063,1.5670302543085528,-0.89294548537171,-2.4632011204930753,0.01966002986560476,-0.12700000000000009,0.10767036424325824,0.002820900067344003,0.08041350101016026,0.08051873627499775,5.797382331826029,3.291365468464404,0.3170734337868083,0.0024940055035635057,0.017836799142826633,0.2695686691959445
1750762891.0947878,-2.0204171762070686,-1.7693409999999998,-0.9578158637411063,1.5670302543085528,-0.89294548537171,-2.4632011204930753,0.01966002986560476,-0.12700000000000009,0.10767036424325824,0.002820900067344003,0.08041350101016026,0.08051873627499775,5.797382331826029,3.291365468464404,0.3170734337868083,0.0024940055035635057,0.017836799142826633,0.2695686691959445
1750762891.0968428,-2.0203777013439517,-1.769596,-0.9575996752144764,1.567035918320499,-0.8927840251925163,-2.463039449014728,0.019814833250373302,-0.12800000000000009,0.10851816238690594,0.0028431118788978926,0.08104667818346861,0.08115274207243868,5.796788760711766,3.2908283960440605,0.3170742494276588,0.0024933170089480867,0.017836799140850373,0.2694713404270326
1750762891.0987916,-2.020337916874067,-1.7698529999999995,-0.9573817910915583,1.5670416267560683,-0.8926212986589759,-2.4628765095247855,0.019969636635141844,-0.1290000000000001,0.10936596053055364,0.0028653236904517825,0.08167985535677696,0.0817867478698796,5.796190392909862,3.290286958849484,0.31707507336654234,0.0024926225989116277,0.017836799138859837,0.26937323858703216
1750762891.100744,-2.0202978227974118,-1.7701119999999992,-0.9571622113723537,1.5670473796152609,-0.8924573057710896,-2.4627123020232484,0.020124440019910386,-0.1300000000000001,0.11021375867420136,0.0028875355020056724,0.0823130325300853,0.08242075366732053,5.795587225126853,3.2897411533416285,0.3170759056478811,0.002491922261506108,0.017836799136855073,0.26927436347328915
1750762891.1027462,-2.020257419113987,-1.7703729999999993,-0.9569409360568617,1.5670531768980764,-0.8922920465288557,-2.4625468265101165,0.020279243404678928,-0.1310000000000001,0.11106155681784906,0.0029097473135595623,0.08294620970339366,0.08305475946476146,5.794979254044311,3.2891909759552305,0.31707674631643645,0.0024912159846957878,0.017836799134837288,0.26917471488254485
1750762891.104655,-2.0202167058237936,-1.7706359999999997,-0.9567179651450823,1.567059018604515,-0.892125520932276,-2.4623800829853892,0.02043404678944747,-0.1320000000000001,0.11190935496149676,0.0029319591251134518,0.08357938687670201,0.0836887652622024,5.7943664763188405,3.288636423098827,0.31707759541731145,0.0024905037563573438,0.017836799132805347,0.26907429261096244
1750762891.1067896,-2.02017568292683,-1.7709009999999994,-0.9564932986370156,1.5670649047345768,-0.8919577289813487,-2.4622120714490676,0.020588850174216012,-0.1330000000000001,0.11275715310514446,0.0029541709366673417,0.08421256405001036,0.08432277105964332,5.793748888582097,3.288077491154817,0.31707845299594933,0.0024897855642798186,0.01783679913075968,0.26897309645411754
1750762891.110309,-2.0201343504230955,-1.7711679999999994,-0.9562669365326624,1.5670708352882616,-0.8917886706760756,-2.4620427919011507,0.020743653558984554,-0.1340000000000001,0.11360495124879216,0.0029763827482212316,0.0848457412233187,0.08495677685708425,5.793126487440806,3.2875141764794655,0.31707931909813253,0.002489061396165063,0.017836799128699937,0.26887112620708803
1750762891.1108198,-2.0200927083125935,-1.7714369999999997,-0.9560388788320209,1.5670768102655697,-0.8916183460164557,-2.461872244341639,0.020898456943753092,-0.1350000000000001,0.11445274939243986,0.0029985945597751215,0.08547891839662705,0.08559078265452517,5.792499269476793,3.286946475402945,0.31708019376998414,0.002488331239627569,0.017836799126627327,0.2687683816644118
1750762891.1130621,-2.020050756595321,-1.7717079999999994,-0.955809125535092,1.567082829666501,-0.8914467550024892,-2.461700428770533,0.021053260328521634,-0.1360000000000001,0.11530054753608757,0.003020806371329011,0.0861120955699354,0.0862247884519661,5.791867231246966,3.2863743842293753,0.3170810770579668,0.002487595082194712,0.01783679912454072,0.2686648626201412
1750762891.1148627,-2.020008495271279,-1.7719809999999994,-0.9555776766418766,1.567088893491055,-0.8912738976341759,-2.4615273451878315,0.021208063713290176,-0.1370000000000001,0.11614834567973527,0.003043018182882901,0.08674527274324376,0.08685879424940703,5.791230369283365,3.2857978992368477,0.317081969008883,0.0024868529113068884,0.017836799122440548,0.2685605688678609
1750762891.116808,-2.019965924340468,-1.7722559999999996,-0.955344532152373,1.5670950017392324,-0.8910997739115158,-2.461352993593535,0.021362867098058718,-0.1380000000000001,0.11699614382338297,0.0030652299944367908,0.0873784499165521,0.08749280004684795,5.790588680093161,3.2852170166774552,0.3170828696698747,0.0024861047143176535,0.017836799120326458,0.26845550020071385
1750762891.1187625,-2.019923043802887,-1.7725329999999992,-0.9551096920665829,1.5671011544110327,-0.89092438383451,-2.4611773739876437,0.02151767048282726,-0.1390000000000001,0.11784394196703067,0.0030874418059906807,0.08801162708986045,0.08812680584428888,5.789942160158668,3.284631732777338,0.31708377908842306,0.00248535047849377,0.017836799118199662,0.2683496564114211
1750762891.1207733,-2.019879853658537,-1.772812,-0.9548731563845054,1.5671073515064564,-0.8907477274031566,-2.461000486370158,0.021672473867595802,-0.1400000000000001,0.11869174011067837,0.00310965361754457,0.0886448042631688,0.0887608116417298,5.789290805937381,3.284042043736696,0.317084697312349,0.0024845901910154856,0.017836799116059034,0.26824303729230914
1750762891.122823,-2.019836353907417,-1.7730929999999994,-0.9546349251061406,1.567113593025503,-0.8905698046174573,-2.460822330741077,0.021827277252364344,-0.1410000000000001,0.11953953825432607,0.00313186542909846,0.08927798143647714,0.08939481743917074,5.78863461386197,3.283447945729853,0.31708562438981197,0.002483823838976581,0.017836799113904612,0.26813564263533957
1750762891.124766,-2.019792544549527,-1.7733759999999998,-0.9543949982314874,1.5671198789681726,-0.8903906154774113,-2.460642907100401,0.021982080637132886,-0.1420000000000001,0.12038733639797379,0.00315407724065235,0.08991115860978549,0.09002882323661167,5.787973580340315,3.28284943490526,0.3170865603693117,0.0024830514093843225,0.01783679911173761,0.2680274722321019
1750762891.1267893,-2.0197484255848686,-1.7736609999999997,-0.9541533757605478,1.5671262093344656,-0.8902101599830177,-2.4604622154481306,0.022136884021901424,-0.1430000000000001,0.12123513454162149,0.0031762890522062394,0.09054433578309384,0.0906628290340526,5.787307701755516,3.2822465073855436,0.31708750529968394,0.0024822728891600804,0.017836799109556895,0.2679185258739024
1750762891.1287272,-2.0197039970134396,-1.7739479999999999,-0.9539100576933217,1.5671325841243815,-0.8900284381342782,-2.460280255784265,0.022291687406669966,-0.1440000000000001,0.1220829326852692,0.0031985008637601293,0.0911775129564022,0.09129683483149352,5.786636974465895,3.281639159267544,0.31708845923010653,0.002481488265138989,0.017836799107362904,0.26780880335172297
1750762891.1308515,-2.019659258835242,-1.7742369999999994,-0.9536650440298073,1.5671390033379207,-0.8898454499311921,-2.4600970281088044,0.022446490791438508,-0.1450000000000001,0.1229307308289169,0.0032207126753140193,0.09181069012971053,0.09193084062893445,5.785961394805048,3.2810273866223367,0.3170894222100939,0.0024806975240702803,0.017836799105155288,0.26769830445628157
1750762891.1327899,-2.019614211050274,-1.774528,-0.9534183347700056,1.5671454669750828,-0.8896611953737592,-2.459912532421749,0.02260129417620705,-0.1460000000000001,0.1237785289725646,0.003242924486867909,0.09244386730301889,0.09256484642637537,5.785280959081818,3.280411185495281,0.31709039428949914,0.002479900652617415,0.01783679910293526,0.2675870289780488
1750762891.1347897,-2.019568853658537,-1.7748209999999993,-0.9531699299139174,1.567151975035868,-0.8894756744619805,-2.4597267687230993,0.022756097560975592,-0.1470000000000001,0.1246263271162123,0.0032651362984217986,0.09307704447632724,0.0931988522238163,5.784595663580362,3.279790551906047,0.3170913755185137,0.002479097637358214,0.017836799100701694,0.2674749767072737
1750762891.1368475,-2.01952318666003,-1.7751159999999997,-0.9529198294615409,1.5671585275202764,-0.8892888871958542,-2.4595397370128538,0.022910900945744134,-0.1480000000000001,0.12547412525986001,0.0032873481099756885,0.09371022164963559,0.09383285802125722,5.783905504560125,3.279165481848657,0.3170923659476678,0.002478288464785059,0.017836799098455022,0.2673621474340092
1750762891.140511,-2.0194772100547542,-1.7754129999999995,-0.9526680334128779,1.567165124428308,-0.889100833575382,-2.459351437291014,0.023065704330512676,-0.1490000000000001,0.1263219234035077,0.0033095599215295785,0.09434339882294393,0.09446686381869816,5.783210478255892,3.2785359712915065,0.31709336562782703,0.002477473121304942,0.0178367990961949,0.26724854094814454
1750762891.1424963,-2.019430923842708,-1.7757119999999995,-0.9524145417679266,1.5671717657599626,-0.8889115136005623,-2.459161869557579,0.023220507715281218,-0.1500000000000001,0.12716972154715542,0.0033317717330834684,0.09497657599625228,0.09510086961613909,5.782510580877777,3.277902016177427,0.3170943746101998,0.0024766515932394713,0.017836799093922537,0.2671341570394008
1750762891.142816,-2.019384328023893,-1.7760129999999998,-0.9521593545266889,1.5671784515152403,-0.8887209272713967,-2.4589710338125497,0.023375311100049756,-0.1510000000000001,0.1280175196908031,0.003353983544637358,0.09560975316956064,0.09573487541358001,5.78180580861126,3.2772636124236856,0.31709539294632505,0.0024758238668254775,0.017836799091636813,0.26701899549741653
1750762891.1449068,-2.0193374225983076,-1.7763159999999996,-0.9519024716891638,1.5671851816941411,-0.8885290745878844,-2.458778930055925,0.023530114484818298,-0.1520000000000001,0.12886531783445082,0.0033761953561912477,0.09624293034286897,0.09636888121102094,5.7810961576172115,3.276620755922072,0.3170964206880875,0.0024749899282147407,0.017836799089337767,0.26690305611171616
1750762891.1468737,-2.0192902075659536,-1.7766209999999996,-0.9516438932553513,1.567191956296665,-0.8883359555500254,-2.458585558287705,0.02368491786958684,-0.1530000000000001,0.1297131159780985,0.0033984071677451376,0.09687610751617733,0.09700288700846187,5.780381624031882,3.2759734425388682,0.3170974578877005,0.0024741497634742024,0.01783679908702662,0.2667863386717623
1750762891.148771,-2.01924268292683,-1.7769279999999998,-0.9513836192252514,1.567198775322812,-0.8881415701578197,-2.458390918507891,0.02383972125435538,-0.1540000000000001,0.13056091412174622,0.0034206189792990276,0.09750928468948568,0.09763689280590279,5.779662203966951,3.275321668114953,0.3170985045977228,0.0024733033585862623,0.017836799084702242,0.26666884296698246
1750762891.150898,-2.01924268292683,-1.7769279999999998,-0.9513836192252514,1.567198775322812,-0.8881415701578197,-2.458390918507891,0.02383972125435538,-0.1540000000000001,0.13056091412174622,0.0034206189792990276,0.09750928468948568,0.09763689280590279,5.779662203966951,3.275321668114953,0.3170985045977228,0.0024733033585862623,0.017836799084702242,0.26666884296698246
1750762891.1527333,-2.019194848680936,-1.7772369999999995,-0.9511216495988641,1.5672056387725823,-0.8879459184112672,-2.458195010716482,0.023994524639123924,-0.1550000000000001,0.1314087122653939,0.003442830790852917,0.09814246186279403,0.09827089860334372,5.778937893509528,3.274665428465797,0.31709956087104263,0.002472450699448799,0.01783679908236507,0.26655056878678945
1750762891.1547472,-2.019146704828273,-1.7775479999999995,-0.9508579843761895,1.5672125466459754,-0.8877490003103681,-2.4579978349134777,0.024149328023892466,-0.1560000000000001,0.13225651040904163,0.003465042602406807,0.09877563903610237,0.09890490440078464,5.77820868872218,3.274004719381508,0.3171006267608919,0.0024715917718753757,0.01783679908001476,0.26643151592061426
1750762891.156735,-2.01909825136884,-1.7778609999999997,-0.9505926235572275,1.567219498942992,-0.8875508158551231,-2.4577993910988787,0.024304131408661007,-0.1570000000000001,0.13310430855268932,0.003487254413960697,0.09940881620941072,0.09953891019822557,5.777474585642943,3.27333953662688,0.3171017023208325,0.0024707265615953908,0.01783679907765253,0.26631168415792733
1750762891.1596117,-2.019049488302638,-1.7781759999999993,-0.950325567141979,1.5672264956636315,-0.8873513650455305,-2.457599679272685,0.024458934793429546,-0.1580000000000001,0.13395210669633703,0.0035094662255145863,0.10004199338271907,0.10017291599566651,5.776735580285359,3.2726698759414217,0.3171027876047695,0.002469855054254216,0.017836799075277257,0.26619107328827946
1750762891.1610389,-2.019000415629667,-1.7784929999999992,-0.9500568151304423,1.567233536807894,-0.887150647881592,-2.4573986994348958,0.024613738178198088,-0.1590000000000001,0.13479990483998475,0.0035316780370684762,0.10067517055602743,0.10080692179310743,5.775991668638474,3.271995733039394,0.31710388266693845,0.0024689772354132265,0.017836799072889372,0.26606968310128853
1750762891.1626654,-2.018951033349925,-1.7788119999999994,-0.949786367522619,1.5672406223757795,-0.8869486643633069,-2.4571964515855123,0.02476854156296663,-0.16000000000000011,0.13564770298363243,0.003553889848622366,0.10130834772933577,0.10144092759054836,5.775242846666852,3.271317103609856,0.3171049875619135,0.002468093090550297,0.017836799070488536,0.2659475133867423
1750762891.1647851,-2.0189013414634154,-1.7791329999999999,-0.9495142243185084,1.5672477523672885,-0.886745414490675,-2.456992935724534,0.02492334494773517,-0.16100000000000012,0.13649550112728015,0.003576101660176256,0.10194152490264412,0.10207493338798929,5.774489110310641,3.2706339833166944,0.3171061023446072,0.002467202605059633,0.017836799068075965,0.26582456393455123
1750762891.1666815,-2.0188513399701344,-1.7794559999999997,-0.9492403855181095,1.5672549267824203,-0.8865408982636964,-2.4567881518519603,0.025078148332503714,-0.16200000000000012,0.13734329927092784,0.0035983134717301455,0.10257470207595247,0.10270893918543021,5.773730455485526,3.2699463677986804,0.3171072270702624,0.002466305764251966,0.017836799065650537,0.265700834534816
1750762891.168785,-2.018801028870085,-1.7797809999999998,-0.9489648511214241,1.5672621456211753,-0.8863351156823711,-2.456582099967792,0.025232951717272255,-0.16300000000000012,0.13819109741457555,0.0036205252832840354,0.10320787924926081,0.10334294498287114,5.772966878082812,3.2692542526694828,0.3171083617944636,0.00246540255335492,0.017836799063212304,0.2655763249778475
1750762891.170728,-2.0187504081632657,-1.7801079999999994,-0.9486876211284514,1.5672694088835535,-0.8861280667466991,-2.456374780072029,0.025387755102040797,-0.16400000000000012,0.13903889555822324,0.0036427370948379253,0.10384105642256916,0.10397695078031206,5.772198373969395,3.268557633517721,0.31710950657312464,0.0024644929575129183,0.017836799060762475,0.2654510350541933
1750762891.1728346,-2.018699477849676,-1.7804369999999992,-0.9484086955391913,1.5672767165695547,-0.8859197514566803,-2.456166192164671,0.02554255848680934,-0.16500000000000012,0.13988669370187096,0.0036649489063918152,0.10447423359587751,0.10461095657775299,5.7714249389878205,3.2678565059070244,0.3171106614625013,0.002463576961787486,0.017836799058299935,0.26532496455466975
1750762891.1747513,-2.018648237929318,-1.7807680000000001,-0.9481280743536438,1.5672840686791791,-0.8857101698123158,-2.455956336245718,0.025697361871577878,-0.16600000000000012,0.14073449184551864,0.0036871607179457047,0.10510741076918587,0.10524496237519392,5.770646568956266,3.2671508653760197,0.31711182651917663,0.0024626545511573935,0.017836799055825123,0.2651981132703881
1750762891.1768444,-2.018596688402191,-1.7811009999999996,-0.9478457575718089,1.5672914652124266,-0.8854993218136036,-2.45574521231517,0.02585216525634642,-0.16700000000000012,0.14158228998916636,0.0037093725294995946,0.1057405879424942,0.10587896817263485,5.769863259668621,3.2664407074384445,0.31711300180007734,0.002461725710518866,0.017836799053337696,0.26507048099279146
1750762891.1787987,-2.0185448292682926,-1.7814359999999994,-0.9475617451936875,1.567298906169297,-0.8852872074605456,-2.455532820373027,0.02600696864111496,-0.16800000000000012,0.14243008813281405,0.0037315843410534845,0.10637376511580256,0.10651297397007578,5.769075006894414,3.265726027583126,0.31711418736245633,0.002460790424685439,0.01783679905083887,0.2649420675136506
1750762891.1808245,-2.0184926605276257,-1.7817729999999994,-0.9472760372192779,1.5673063915497907,-0.8850738267531408,-2.4553191604192897,0.026161772025883503,-0.16900000000000012,0.14327788627646176,0.0037537961526073744,0.10700694228911091,0.1071469797675167,5.768281806378931,3.265006821274044,0.31711538326390853,0.0024598486783887225,0.017836799048327533,0.2648128726251593
1750762891.1826725,-2.018440182180189,-1.7821119999999997,-0.9469886336485818,1.5673139213539076,-0.8848591796913894,-2.4551042324539574,0.026316575410652045,-0.17000000000000012,0.14412568442010945,0.003776007964161264,0.10764011946241926,0.10778098556495763,5.767483653843178,3.264283083950378,0.31711658956235605,0.0024589004562779867,0.01783679904580412,0.2646828961198982
1750762891.1847703,-2.018387394225983,-1.7824529999999994,-0.9466995344815974,1.5673214955816475,-0.8846432662752912,-2.45488803647703,0.026471378795420587,-0.17100000000000012,0.14497348256375717,0.003798219775715154,0.1082732966357276,0.10841499136239856,5.766680544983924,3.2635548110265518,0.31711780631606284,0.0024579457429206287,0.01783679904326829,0.2645521377908986
1750762891.1884203,-2.0183342966650075,-1.7827959999999994,-0.9464087397183265,1.5673291142330104,-0.8844260865048463,-2.454670572488508,0.02662618218018913,-0.17200000000000013,0.14582128070740488,0.0038204315872690437,0.10890647380903595,0.10904899715983948,5.7658724754737065,3.2628219978922535,0.3171190335836195,0.0024569845228022157,0.017836799040721264,0.26442059743166374
1750762891.1901836,-2.0183342966650075,-1.7827959999999994,-0.9464087397183265,1.5673291142330104,-0.8844260865048463,-2.454670572488508,0.02662618218018913,-0.17200000000000013,0.14582128070740488,0.0038204315872690437,0.10890647380903595,0.10904899715983948,5.7658724754737065,3.2628219978922535,0.3171190335836195,0.0024569845228022157,0.017836799040721264,0.26442059743166374
1750762891.1907613,-2.0182271727227477,-1.7834879999999993,-0.9458220634029226,1.5673444848066056,-0.8839879279009164,-2.4542318404766785,0.02693578894972621,-0.17400000000000013,0.14751687699470029,0.003864855210376823,0.11017282815565264,0.11031700875472134,5.7642414370696,3.2613427324276714,0.3171215198963297,0.002455042499816844,0.01783679903559032,0.2641551697990452
1750762891.1927361,-2.0181731463414634,-1.7838370000000001,-0.9455261818507896,1.567352236728838,-0.8837669490674323,-2.4540105724533716,0.02709059233449475,-0.17500000000000013,0.14836467513834797,0.003887067021930713,0.110806005328961,0.11095101455216226,5.763418459399888,3.260596270753548,0.31712277906033837,0.0024540616655137383,0.017836799033007677,0.2640212821153062
1750762891.1947424,-2.0181188103534096,-1.7841879999999994,-0.9452286047023692,1.5673600330746933,-0.8835447038796005,-2.45378803641847,0.027245395719263293,-0.17600000000000013,0.1492124732819957,0.003909278833484603,0.11143918250226935,0.1115850203496032,5.762590503527616,3.259845250181369,0.31712404897591095,0.002453074261577686,0.017836799030412874,0.26388661158068577
1750762891.1967618,-2.018064164758586,-1.784540999999999,-0.9449293319576615,1.5673678738441719,-0.8833211923374229,-2.4535642323719733,0.027400199104031835,-0.17700000000000013,0.15006027142564338,0.003931490645038492,0.1120723596755777,0.11221902614704413,5.76175756500455,3.2590896659778528,0.3171253297033045,0.002452080272087825,0.01783679902780635,0.26375115799149046
1750762891.1986563,-2.0180092095569933,-1.7848959999999998,-0.9446283636166664,1.5673757590372734,-0.8830964144408986,-2.453339160313882,0.027555002488800377,-0.17800000000000013,0.1509080695692911,0.003953702456592383,0.11270553684888604,0.11285303194448505,5.760919639358359,3.2583295133852563,0.31712662130311586,0.002451079681042867,0.017836799025187772,0.26361492114471696
1750762891.2007139,-2.0179539447486317,-1.785252999999999,-0.9443256996793838,1.5673836886539982,-0.8828703701900276,-2.453112820244195,0.02770980587356892,-0.17900000000000013,0.15175586771293878,0.003975914268146272,0.11333871402219439,0.11348703774192598,5.760076722092659,3.2575647876214244,0.31712792383626803,0.0024500724723606655,0.017836799022558362,0.2634779008380299
1750762891.2027411,-2.0178983703334996,-1.7856119999999995,-0.9440213401458148,1.567391662694346,-0.8826430595848098,-2.452885212162914,0.02786460925833746,-0.18000000000000013,0.1526036658565865,0.003998126079700162,0.11397189119550274,0.1141210435393669,5.759228808687002,3.2567954838798148,0.3171292373640223,0.002449058629878845,0.017836799019917002,0.26334009686981613
1750762891.2047265,-2.017842486311598,-1.7859729999999994,-0.9437152850159576,1.567399681158317,-0.8824144826252454,-2.4526563360700377,0.028019412643106003,-0.18100000000000013,0.15345146400023418,0.004020337891254052,0.1146050683688111,0.11475504933680783,5.758375894596935,3.256021597329562,0.31713056194796635,0.00244803813735479,0.01783679901726413,0.2632015090392128
1750762891.2067325,-2.017786292682927,-1.7863359999999995,-0.9434075342898138,1.567407744045911,-0.8821846393113351,-2.4524261919655665,0.02817421602787454,-0.18200000000000013,0.1542992621438819,0.0040425497028079415,0.11523824554211944,0.11538905513424876,5.757517975253999,3.255243123115506,0.3171318976500257,0.0024470109784657354,0.01783679901459942,0.2630621371461424
1750762891.2101443,-2.017729789447486,-1.7867009999999999,-0.9430980879673818,1.5674158513571284,-0.8819535296430772,-2.452194779849501,0.028329019412643083,-0.18300000000000013,0.15514706028752961,0.004064761514361831,0.11587142271542779,0.11602306093168968,5.756655046065767,3.2544600563582438,0.31713324453245245,0.0024459771368092503,0.017836799011924087,0.26292198099133984
1750762891.2108428,-2.017729789447486,-1.7867009999999999,-0.9430980879673818,1.5674158513571284,-0.8819535296430772,-2.452194779849501,0.028329019412643083,-0.18300000000000013,0.15514706028752961,0.004064761514361831,0.11587142271542779,0.11602306093168968,5.756655046065767,3.2544600563582438,0.31713324453245245,0.0024459771368092503,0.017836799011924087,0.26292198099133984
1750762891.2127068,-2.017672976605276,-1.7870679999999997,-0.9427869460486633,1.5674240030919686,-0.8817211536204725,-2.45196209972184,0.028483822797411625,-0.18400000000000014,0.1559948584311773,0.004086973325915721,0.11650459988873614,0.1166570667291306,5.75578710241584,3.253672392154178,0.3171346026578319,0.0024449365959031233,0.01783679900923702,0.2627810403763871
1750762891.2147124,-2.017615854156297,-1.7874369999999997,-0.9424741085336574,1.5674321992504319,-0.8814875112435221,-2.4517281515825844,0.028638626182180167,-0.18500000000000014,0.15684265657482502,0.004109185137469611,0.11713777706204449,0.11729107252657155,5.754914139663914,3.252880125575556,0.31713597208908356,0.0024438893391856465,0.01783679900653866,0.2626393151037528
1750762891.2167232,-2.0175584221005476,-1.787808,-0.9421595754223642,1.5674404398325184,-0.8812526025122249,-2.451492935431734,0.02879342956694871,-0.18600000000000014,0.1576904547184727,0.004131396949023501,0.11777095423535283,0.11792507832401247,5.754036153145758,3.252083251670524,0.31713735288945283,0.002442835350015809,0.017836799003828674,0.2624968049767901
1750762891.218808,-2.0175006804380295,-1.7881809999999998,-0.9418433467147835,1.567448724838228,-0.881016427426581,-2.451256451269288,0.02894823295171725,-0.18700000000000014,0.15853825286212042,0.004153608760577391,0.11840413140866118,0.1185590841214534,5.753153138173275,3.2512817654631645,0.31713874512252166,0.0024417746116735576,0.017836799001108287,0.26235350979983607
1750762891.2207458,-2.017442629168741,-1.7885559999999998,-0.9415254224109155,1.5674570542675608,-0.8807789859865904,-2.451018699095248,0.029103036336485793,-0.18800000000000014,0.1593860510057681,0.00417582057213128,0.11903730858196954,0.11919308991889432,5.752265090034498,3.250475661953542,0.3171401488521964,0.002440707107359864,0.017836798998376382,0.262209429378179
1750762891.2227886,-2.017384268292683,-1.788933,-0.9412058025107601,1.5674654281205165,-0.8805402781922531,-2.450779678909613,0.02925783972125433,-0.18900000000000014,0.16023384914941582,0.00419803238368517,0.11967048575527788,0.11982709571633525,5.751372003993634,3.249664936117762,0.3171415641427205,0.00243963282019696,0.017836798995633018,0.26206456351812407
1750762891.224736,-2.0173255978098563,-1.7893119999999998,-0.9408844870143183,1.5674738463970954,-0.8803003040435691,-2.4505393907123825,0.029412643106022873,-0.19000000000000014,0.1610816472930635,0.00422024419523906,0.12030366292858623,0.12046110151377618,5.750473875291091,3.2488495829080044,0.3171429910586612,0.0024385517332284586,0.017836798992879422,0.2619189120270195
1750762891.226771,-2.0172666177202583,-1.7896929999999998,-0.9405614759215881,1.5674823090972976,-0.8800590635405383,-2.4502978345035578,0.029567446490791415,-0.19100000000000014,0.16192944543671123,0.004242456006792949,0.12093684010189458,0.1210951073112171,5.749570699143453,3.248029597252578,0.3171444296649221,0.002437463829419743,0.017836798990114474,0.2617724747132909
1750762891.2287416,-2.0172073280238925,-1.7900759999999991,-0.9402367692325715,1.5674908162211227,-0.8798165566831617,-2.4500550102831378,0.029722249875559957,-0.19200000000000014,0.16277724358035892,0.00426466781834684,0.12157001727520293,0.12172911310865803,5.748662470743596,3.247204974055959,0.3171458800267298,0.0024363690916579385,0.01783679898733862,0.2616252513864753
1750762891.230736,-2.017147728720756,-1.7904609999999996,-0.9399103669472666,1.567499367768571,-0.8795727834714375,-2.449810918051123,0.0298770532603285,-0.19300000000000014,0.16362504172400663,0.004286879629900729,0.12220319444851127,0.12236311890609895,5.747749185260613,3.2463757081988507,0.31714734220964697,0.0024352675027521234,0.017836798984551535,0.26147724185725224
1750762891.2327282,-2.0170878198108513,-1.7908479999999996,-0.9395822690656752,1.5675079637396423,-0.8793277439053675,-2.4495655578075133,0.03003185664509704,-0.19400000000000014,0.16447283986765435,0.004309091441454619,0.12283637162181962,0.12299712470353989,5.746830837839918,3.2455417945382314,0.31714881627956054,0.0024341590454338177,0.017836798981754443,0.2613284459374887
1750762891.2383811,-2.017027601294176,-1.7912369999999997,-0.9392524755877965,1.5675166041343367,-0.8790814379849508,-2.449318929552309,0.030186660029865583,-0.19500000000000015,0.16532063801130203,0.004331303253008509,0.12346954879512798,0.12363113050098082,5.74590742360322,3.2447032279073875,0.3171503023026878,0.0024330437023566426,0.017836798978946224,0.2611788634402365
1750762891.238857,-2.0169062354405174,-1.792021,-0.9385878018431768,1.567534018194595,-0.8785850270810762,-2.4488218690071153,0.030496266799402663,-0.19700000000000015,0.16701623429859744,0.004375726876116289,0.12473590314174467,0.12489914209586267,5.744045375050401,3.2430121149500795,0.31715331047510464,0.002430792289154354,0.01783679897329744,0.2608773379718752
1750762891.2407725,-2.0168450881035342,-1.7924159999999993,-0.9382529215764359,1.5675427918601588,-0.8783349220976202,-2.448571436717126,0.030651070184171205,-0.19800000000000015,0.16786403244224515,0.004397938687670178,0.125369080315053,0.1255331478933036,5.743106730859517,3.2421595581722307,0.3171548327584733,0.0024296561839506382,0.017836798970457375,0.2607253946332831
1750762891.2429059,-2.0167836311597807,-1.7928129999999998,-0.9379163457134077,1.5675516099493456,-0.8780835507598166,-2.448319736415542,0.030805873568939747,-0.19900000000000015,0.16871183058589284,0.004420150499224068,0.12600225748836136,0.12616715369074452,5.742163000103135,3.241302327521482,0.3171563672632127,0.0024285131228311964,0.017836798967607207,0.26057266398230006
1750762891.2447143,-2.0167218646092584,-1.7932119999999996,-0.937578074254092,1.5675604724621557,-0.8778309130676663,-2.448066768102363,0.03096067695370829,-0.20000000000000015,0.16955962872954056,0.004442362310777958,0.1266354346616697,0.12680115948818546,5.741214177784924,3.2404404177134483,0.3171579140571859,0.0024273630880651924,0.0178367989647462,0.260419145838625
1750762891.2468724,-2.0166597884519657,-1.7936129999999997,-0.937238107198489,1.5675693793985888,-0.8775770090211701,-2.447812531777589,0.03111548033847683,-0.20100000000000015,0.17040742687318824,0.004464574122331848,0.12726861183497806,0.12743516528562637,5.7402602588850185,3.2395738234403657,0.317159473208577,0.002426206061844563,0.01783679896187482,0.26026484002328293
1750762891.2487082,-2.0165974026879043,-1.7940159999999992,-0.9368964445465995,1.567578330758645,-0.8773218386203263,-2.4475570274412206,0.03127028372324537,-0.20200000000000015,0.17125522501683596,0.004486785933885737,0.12790178900828642,0.1280691710830673,5.739301238360045,3.2387025393711264,0.31716104478590373,0.002425042026286012,0.017836798958993115,0.26010974635885803
1750762891.2506537,-2.0165347073170734,-1.7944209999999998,-0.9365530862984217,1.5675873265423244,-0.8770654018651367,-2.447300255093257,0.031425087108013915,-0.20300000000000015,0.17210302316048365,0.004508997745439627,0.12853496618159477,0.12870317688050822,5.738337111143161,3.2378265601513414,0.3171626288580049,0.002423870963429377,0.01783679895610115,0.25995386466932424
1750762891.2536669,-2.0165347073170734,-1.7944209999999998,-0.9365530862984217,1.5675873265423244,-0.8770654018651367,-2.447300255093257,0.031425087108013915,-0.20300000000000015,0.17210302316048365,0.004508997745439627,0.12853496618159477,0.12870317688050822,5.738337111143161,3.2378265601513414,0.3171626288580049,0.002423870963429377,0.01783679895610115,0.25995386466932424
1750762891.2550077,-2.016471702339473,-1.7948279999999999,-0.9362080324539575,1.5675963667496267,-0.8768076987556004,-2.4470422147336985,0.03157989049278245,-0.20400000000000015,0.17295082130413136,0.004531209556993517,0.12916814335490312,0.12933718267794916,5.737367872144038,3.2369458804033857,0.31716422549405193,0.002422692855239434,0.01783679895319898,0.2597971947802864
1750762891.2568095,-2.016408387755102,-1.7952369999999993,-0.9358612830132058,1.5676054513805522,-0.8765487292917173,-2.4467829063625453,0.031734693877551,-0.20500000000000015,0.17379861944777905,0.004553421368547406,0.12980132052821147,0.12997118847539008,5.736393516248966,3.2360604947264613,0.31716583476353755,0.0024215076836047855,0.017836798950286673,0.2596397365188128
1750762891.2588198,-2.0163447635639624,-1.795648,-0.9355128379761659,1.567614580435101,-0.8762884934734876,-2.4465223299797967,0.03188949726231954,-0.20600000000000016,0.17464641759142677,0.004575633180101297,0.1304344977015198,0.13060519427283102,5.735414038320789,3.235170397696615,0.3171674567362859,0.0024203154303393437,0.0178367989473635,0.2594814897136736
1750762891.260883,-2.0162808297660533,-1.796061,-0.9351626973428395,1.5676237539132727,-0.8760269913009111,-2.4462604855854537,0.03204430064708808,-0.20700000000000016,0.17549421573507448,0.004597844991655186,0.13106767487482815,0.13123920007027196,5.734429433199028,3.234275583866844,0.3171690914824428,0.0024191160771811155,0.01783679894443187,0.25932245419518685
1750762891.262925,-2.0162165863613737,-1.7964759999999993,-0.9348108611132258,1.5676329718150674,-0.8757642227739879,-2.445997373179516,0.03219910403185662,-0.20800000000000016,0.17634201387872217,0.0046200568032090765,0.1317008520481365,0.13187320586771287,5.733439695699808,3.2333760477670976,0.31717073907248156,0.0024179096057936333,0.017836798941489502,0.2591626297953834
1750762891.264939,-2.0161520333499254,-1.7968929999999999,-0.9344573292873246,1.5676422341404854,-0.875500187892718,-2.445732992761983,0.03235390741662516,-0.20900000000000016,0.17718981202236989,0.004642268614762966,0.13233402922144485,0.1325072116651538,5.732444820615973,3.232471783904354,0.3171723995772036,0.002416695997765819,0.017836798938537235,0.2590020163480415
1750762891.2667727,-2.0160871707317076,-1.7973119999999998,-0.9341021018651361,1.5676515408895266,-0.8752348866571023,-2.445467344332855,0.032508710801393705,-0.21000000000000016,0.17803761016601757,0.0046644804263168554,0.1329672063947532,0.13314121746259472,5.731444802717064,3.2315627867626717,0.3171740730677304,0.0024154752346115605,0.017836798935575136,0.25884061368859795
1750762891.2688587,-2.0160219985067194,-1.7977329999999991,-0.9337451788466611,1.5676608920621908,-0.8749683190671398,-2.4452004278921327,0.03266351418616224,-0.21100000000000016,0.1788854083096653,0.004686692237870746,0.13360038356806156,0.13377522326003566,5.730439636749343,3.2306490508032453,0.3171757596155148,0.0024142472977711224,0.017836798932603256,0.2586784216543778
1750762891.2707784,-2.0159565166749633,-1.7981559999999996,-0.9333865602318978,1.567670287658478,-0.8747004851228297,-2.444932243439815,0.03281831757093079,-0.21200000000000016,0.17973320645331298,0.004708904049424635,0.1342335607413699,0.13440922905747657,5.7294293174358755,3.2297305704644295,0.31717745929232727,0.0024130121686098617,0.017836798929621672,0.258515440084423
1750762891.272844,-2.015890725236436,-1.7985809999999995,-0.9330262460208472,1.5676797276783885,-0.8744313848241738,-2.4446627909759027,0.03297312095569933,-0.21300000000000016,0.1805810045969607,0.004731115860978525,0.13486673791467824,0.1350432348549175,5.728413839476467,3.2288073401618513,0.3171791721702704,0.002411769828420205,0.017836798926629652,0.25835166881973876
1750762891.2747731,-2.01582462419114,-1.7990079999999997,-0.93266423621351,1.567689212121922,-0.8741610181711712,-2.4443920705003954,0.03312792434046787,-0.21400000000000016,0.18142880274060838,0.004753327672532415,0.1354999150879866,0.13567724065235842,5.7273931975478005,3.2278793542884,0.3171808983217637,0.002410520258420053,0.017836798923629615,0.2581871077031247
1750762891.2768652,-2.0157582135390744,-1.7994369999999993,-0.9323005308098846,1.5676987409890786,-0.8738893851638219,-2.4441200820132933,0.03328272772523641,-0.21500000000000016,0.1822766008842561,0.0047755394840863045,0.13613309226129494,0.13631124644979936,5.7263673863033615,3.2269466072143276,0.3171826378195576,0.0024092634397546134,0.017836798920619273,0.25802175657941845
1750762891.282527,-2.0156244634146336,-1.8003009999999993,-0.9315680332137735,1.5677179319942611,-0.873342320086083,-2.4435723010043042,0.033592334494773494,-0.21700000000000016,0.1839721971715515,0.004819963107194084,0.13739944660791165,0.1375792580446812,5.724300234365641,3.2250668068323334,0.31718615714664583,0.0024067279806408667,0.017836798914570278,0.25768868369965453
1750762891.2828615,-2.0155571239422603,-1.8007359999999997,-0.9311992410212868,1.567727594132287,-0.8730668880156944,-2.443296508482417,0.03374713787954203,-0.21800000000000017,0.18481999531519921,0.004842174918747974,0.13803262378122,0.13821326384212215,5.723258882863878,3.2241197421521197,0.31718793712305227,0.002405449302117443,0.017836798911531754,0.25752096164322474
1750762891.284984,-2.0154894748631165,-1.8011729999999995,-0.9308287532325128,1.5677373006939361,-0.8727901895909582,-2.4430194479489358,0.03390194126431058,-0.21900000000000017,0.1856677934588469,0.004864386730301864,0.13866580095452835,0.13884726963956306,5.722212340429451,3.223167893526812,0.3171897307399788,0.002404163298778109,0.017836798908483963,0.2573524489789046
1750762891.2867706,-2.015421516177202,-1.8016119999999995,-0.9304565698474514,1.5677470516792082,-0.8725122248118762,-2.442741119403859,0.03405674464907912,-0.22000000000000017,0.18651559160249462,0.004886598541855754,0.1392989781278367,0.139481275437004,5.721160601600526,3.2222112552141966,0.31719153807179024,0.002402869951404248,0.017836798905426967,0.2571831455617796
1750762891.288782,-2.015421516177202,-1.8016119999999995,-0.9304565698474514,1.5677470516792082,-0.8725122248118762,-2.442741119403859,0.03405674464907912,-0.22000000000000017,0.18651559160249462,0.004886598541855754,0.1392989781278367,0.139481275437004,5.721160601600526,3.2222112552141966,0.31719153807179024,0.002402869951404248,0.017836798905426967,0.2571831455617796
1750762891.2907326,-2.0153532478845193,-1.802053,-0.9300826908661026,1.5677568470881036,-0.8722329936784474,-2.4424615228471875,0.03421154803384766,-0.22100000000000017,0.1873633897461423,0.004908810353409643,0.13993215530114503,0.14011528123444492,5.7201036608923435,3.221249821449742,0.3171933591931681,0.002401569240704579,0.01783679890236006,0.25701305124899776
1750762891.292823,-2.0152846699850677,-1.8024959999999997,-0.9297071162884665,1.567766686920622,-0.8719524961906719,-2.442180658278921,0.0343663514186162,-0.22200000000000017,0.18821118788979002,0.0049310221649635335,0.14056533247445338,0.14074928703188586,5.719041512797146,3.2202835864466532,0.31719519417912234,0.002400261147316629,0.01783679889928564,0.2568421659000162
1750762891.2947996,-2.0152157824788457,-1.8029409999999997,-0.9293298461145438,1.5677765711767635,-0.8716707323485497,-2.44189852569906,0.034521154803384746,-0.22300000000000017,0.1890589860334377,0.004953233976517423,0.14119850964776173,0.14138329282932677,5.717974151784297,3.2193125443959207,0.3171970431049784,0.002398945651805499,0.017836798896201437,0.2566704893764311
1750762891.2966502,-2.0151465853658532,-1.803388,-0.9289508803443329,1.567786499856528,-0.8713877021520808,-2.441615125107604,0.034675958188153284,-0.22400000000000017,0.18990678417708542,0.004975445788071312,0.14183168682107009,0.1420172986267677,5.71690157230023,3.218336689466382,0.3171989060463892,0.0023976227346657825,0.017836798893108293,0.25649802154222795
1750762891.300321,-2.015077078646092,-1.8038369999999997,-0.9285702189778355,1.5677964729599156,-0.8711034056012652,-2.441330456504553,0.03483076157292182,-0.22500000000000017,0.1907545823207331,0.004997657599625203,0.14246486399437844,0.14265130442420865,5.715823768768585,3.2173560158047763,0.31720078307932253,0.0023962923763201933,0.017836798890006278,0.2563247622636242
1750762891.3007014,-2.0150072623195623,-1.8042879999999997,-0.9281878620150499,1.5678064904869264,-0.8708178426961029,-2.4410445198899073,0.03498556495769037,-0.22600000000000017,0.19160238046438083,0.005019869411179092,0.1430980411676868,0.14328531022164956,5.714740735590126,3.2163705175357973,0.31720267428007315,0.002394954557120752,0.017836798886895454,0.2561507114092396
1750762891.3027377,-2.014937136386262,-1.804741,-0.9278038094559777,1.5678165524375605,-0.8705310134365947,-2.4407573152636663,0.03514036834245891,-0.22700000000000017,0.19245017860802852,0.005042081222732983,0.14373121834099514,0.1439193160190905,5.713652467142825,3.215380188762172,0.31720457972524996,0.0023936092573492375,0.017836798883775894,0.2559758688501359
1750762891.3047495,-2.0148667008461922,-1.8051959999999996,-0.9274180613006182,1.5678266588118175,-0.8702429178227389,-2.440468842625831,0.03529517172722745,-0.22800000000000017,0.19329797675167623,0.005064293034286872,0.14436439551430347,0.1445533218165314,5.712558957781919,3.2143850235646907,0.3172064994917889,0.0023922564572160963,0.017836798880646876,0.25580023445972844
1750762891.3068497,-2.014795955699353,-1.8056529999999995,-0.9270306175489713,1.5678368096096975,-0.8699535558545373,-2.4401791019764003,0.03544997511199599,-0.22900000000000018,0.19414577489532395,0.0050865048458407615,0.14499757268761182,0.14518732761397235,5.711460201839875,3.2133850160022823,0.31720843365693946,0.002390896136862519,0.01783679887751082,0.2556238081140194
1750762891.3088534,-2.014724900945744,-1.8061119999999997,-0.926641478201037,1.5678470048312008,-0.8696629275319889,-2.439888093315375,0.035604778496764536,-0.23000000000000018,0.19499357303897163,0.005108716657394652,0.14563074986092017,0.14582133341141326,5.7103561936264935,3.2123801601120663,0.3172103822982735,0.0023895282763589103,0.017836798874365442,0.2554465896914331
1750762891.3107889,-2.0146535365853655,-1.8065729999999993,-0.9262506432568154,1.5678572444763272,-0.8693710328550939,-2.4395958166427545,0.035759581881533074,-0.23100000000000018,0.19584137118261935,0.005130928468948541,0.14626392703422852,0.1464553392088542,5.709246927428869,3.2113704499094196,0.3172123454936845,0.0023881528557066116,0.017836798871211597,0.25526857907306283
1750762891.3127725,-2.0145818626182184,-1.807036,-0.9258581127163064,1.5678675285450767,-0.8690778718238521,-2.4393022719585398,0.03591438526630161,-0.23200000000000018,0.19668916932626704,0.005153140280502431,0.14689710420753688,0.1470893450062951,5.708132397511483,3.210355879388014,0.31721432332137856,0.002386769854836845,0.017836798868049352,0.25508977614250333
1750762891.3147511,-2.014509879044301,-1.8075009999999994,-0.92546388657951,1.5678778570374492,-0.8687834444382636,-2.4390074592627293,0.03606918865107016,-0.23300000000000018,0.19753696746991475,0.005175352092056321,0.14753028138084523,0.14772335080373605,5.707012598116201,3.2093364425199273,0.3172163158598888,0.0023853792536123017,0.01783679886487877,0.25491018078610217
1750762891.3167598,-2.0144375858636137,-1.8079679999999998,-0.9250679648464262,1.567888229953445,-0.8684877506983284,-2.4387113785553245,0.0362239920358387,-0.23400000000000018,0.19838476561356244,0.005197563903610211,0.14816345855415358,0.148357356601177,5.70588752346229,3.2083121332556233,0.3172183231880575,0.0023839810318259445,0.017836798861699928,0.2547297928928049
1750762891.3190813,-2.014364983076158,-1.8084369999999996,-0.9246703475170559,1.5678986472930636,-0.8681907906040465,-2.438414029836325,0.03637879542060724,-0.23500000000000018,0.19923256375721016,0.0052197757151641,0.1487966357274619,0.1489913623986179,5.704757167746523,3.2072829455240885,0.3172203453850534,0.002382575169202384,0.017836798858512113,0.25454861235432624
1750762891.3207116,-2.0142920706819316,-1.8089079999999997,-0.9242710345913974,1.5679091090563055,-0.8678925641554187,-2.4381154131057303,0.03653359880537578,-0.23600000000000018,0.20008036190085784,0.0052419875267179904,0.14942981290077026,0.14962536819605884,5.703621525143095,3.206248873232849,0.3172223825303552,0.002381161645397976,0.017836798855317734,0.25436663906519125
1750762891.322708,-2.014218848680936,-1.8093810000000001,-0.9238700260694523,1.5679196152431705,-0.8675930713524433,-2.4378155283635405,0.036688402190144326,-0.23700000000000018,0.20092816004450556,0.00526419933827188,0.1500629900740786,0.15025937399349976,5.702480589803784,3.2052099102680467,0.31722443470376654,0.0023797404400000416,0.01783679885211452,0.2541838729226501
1750762891.3287225,-2.0141453170731705,-1.809856,-0.9234673219512199,1.5679301658536586,-0.8672923121951222,-2.437514375609756,0.036843205574912864,-0.23800000000000018,0.20177595818815325,0.00528641114982577,0.15069616724738696,0.1508933797909407,5.701334355857876,3.20416605049449,0.3172265019854002,0.0023783115325288675,0.01783679884890332,0.25400031382691146
1750762891.3290577,-2.0141453170731705,-1.809856,-0.9234673219512199,1.5679301658536586,-0.8672923121951222,-2.437514375609756,0.036843205574912864,-0.23800000000000018,0.20177595818815325,0.00528641114982577,0.15069616724738696,0.1508933797909407,5.701334355857876,3.20416605049449,0.3172265019854002,0.0023783115325288675,0.01783679884890332,0.25400031382691146
1750762891.329246,-2.013997325037332,-1.8108119999999994,-0.9226568269258921,1.5679514003455042,-0.8666869948174396,-2.4369082660674026,0.03715281234444995,-0.24000000000000019,0.20347155447544868,0.005330834772933549,0.15196252159400367,0.15216139138582255,5.6990259685514735,3.2020636158741005,0.31723068219539347,0.002375430529106426,0.01783679884245725,0.2536308163908989
1750762891.3307807,-2.013922864609258,-1.8112929999999992,-0.9222490360187976,1.5679620842268616,-0.8663824365970783,-2.4366033092788335,0.037307615729218487,-0.2410000000000002,0.20431935261909637,0.0053530465844874395,0.15259569876731202,0.15279539718326346,5.697863803337637,3.2010050286508123,0.3172327952855656,0.0023739783918570556,0.017836798839222522,0.25344487786560244
1750762891.332778,-2.0138480945744153,-1.811776,-0.9218395495154166,1.5679728125318422,-0.8660766120223702,-2.4362970844786696,0.03746241911398703,-0.2420000000000002,0.20516715076274408,0.005375258396041329,0.15322887594062037,0.1534294029807044,5.696696315810618,3.1999415198659804,0.3172349238075938,0.0023725184699385014,0.01783679883598009,0.2532581460171448
1750762891.334699,-2.013773014932802,-1.8122609999999995,-0.9214283674157473,1.5679835852604458,-0.8657695210933154,-2.4359895916669108,0.03761722249875557,-0.2430000000000002,0.20601494890639177,0.0053974702075952185,0.1538620531139287,0.15406340877814534,5.695523499987962,3.1988730832787153,0.31723706784317146,0.0023710507425341054,0.01783679883272925,0.2530706207605649
1750762891.3367696,-2.0136976256844203,-1.8127479999999991,-0.9210154897197906,1.5679944024126724,-0.8654611638099148,-2.435680830843557,0.037772025883524116,-0.2440000000000002,0.20686274705003949,0.005419682019149109,0.15449523028723705,0.15469741457558625,5.694345349865001,3.1977997126271602,0.3172392274743134,0.002369575188760952,0.01783679882947242,0.2528823020140493
1750762891.338662,-2.013621926829268,-1.813236999999999,-0.9206009164275466,1.5680052639885222,-0.8651515401721666,-2.4353708020086082,0.037926829268292654,-0.2450000000000002,0.20771054519368717,0.005441893830702998,0.1551284074605454,0.1553314203730272,5.693161859414822,3.196721401628581,0.3172414027833428,0.002368091787670147,0.017836798826207315,0.25269318969897947
1750762891.3406646,-2.013545918367347,-1.8137279999999993,-0.9201846475390161,1.5680161699879953,-0.8648406501800725,-2.435059505162065,0.0380816326530612,-0.2460000000000002,0.2085583433373349,0.005464105642256889,0.15576158463385376,0.1559654261704681,5.691973022588365,3.195638143979405,0.31724359385290274,0.002366600518246327,0.0178367988229348,0.25250328373984743
1750762891.3426578,-2.013469600298656,-1.8142209999999999,-0.9197666830541973,1.5680271204110914,-0.8645284938336317,-2.4347469403039264,0.03823643603782974,-0.2470000000000002,0.20940614148098258,0.005486317453810778,0.1563947618071621,0.15659943196790904,5.690778833314383,3.1945499333553036,0.31724580076594505,0.0023651013594089883,0.017836798819654946,0.2523125840644908
1750762891.345321,-2.013392972623196,-1.8147159999999998,-0.919347022973092,1.5680381152578104,-0.8642150711328433,-2.4344331074341934,0.038391239422598276,-0.2480000000000002,0.2102539396246303,0.005508529265364668,0.15702793898047046,0.15723343776534995,5.689579285499567,3.193456763411247,0.3172480236057403,0.0023635942900116246,0.017836798816367825,0.2521210906039304
1750762891.3472168,-2.013392972623196,-1.8147159999999998,-0.919347022973092,1.5680381152578104,-0.8642150711328433,-2.4344331074341934,0.038391239422598276,-0.2480000000000002,0.2102539396246303,0.005508529265364668,0.15702793898047046,0.15723343776534995,5.689579285499567,3.193456763411247,0.3172480236057403,0.0023635942900116246,0.017836798816367825,0.2521210906039304
1750762891.348946,-2.0133160353409654,-1.815213,-0.9189256672956994,1.5680491545281527,-0.8639003820777091,-2.434118006552865,0.03854604280736682,-0.2490000000000002,0.21110173776827798,0.005530741076918558,0.1576611161537788,0.1578674435627909,5.688374373028496,3.1923586277815716,0.3172502624558666,0.0023620792888432744,0.01783679881307351,0.2519288032926202
1750762891.3508599,-2.0132387884519662,-1.8157119999999995,-0.9185026160220184,1.5680602382221183,-0.8635844266682282,-2.433801637659942,0.03870084619213536,-0.25000000000000017,0.21194953591192567,0.0055529528884724465,0.15829429332708714,0.1585014493602318,5.687164089763718,3.1912555200800456,0.31725251740022065,0.0023605563346272072,0.017836798809771293,0.25173572206829137
1750762891.3530927,-2.0131612319561967,-1.8162129999999994,-0.918077869152051,1.5680713663397068,-0.8632672049044015,-2.433484000755424,0.0388556495769039,-0.25100000000000017,0.21279733405557338,0.005575164700026337,0.1589274705003955,0.15913545515767272,5.685948429545775,3.1901474338999143,0.3172547885230079,0.002359025406022977,0.017836798806463595,0.25154184687217634
1750762891.3548505,-2.0130833658536584,-1.8167159999999996,-0.9176514266857962,1.5680825388809183,-0.8629487167862271,-2.4331650958393114,0.039010452961672444,-0.25200000000000017,0.21364513219922107,0.005597376511580226,0.15956064767370384,0.15976946095511366,5.684727386193247,3.189034362814014,0.31725707590874486,0.0023574864816251723,0.017836798803148143,0.2513471776489396
