mathias31415/primitives_from_planned_trajectory_python/data/saved_trajectories/trajectory_20250624_145005_executed.csv
timestamp,shoulder_lift_joint_pos,elbow_joint_pos,wrist_1_joint_pos,wrist_2_joint_pos,wrist_3_joint_pos,shoulder_pan_joint_pos,shoulder_lift_joint_vel,elbow_joint_vel,wrist_1_joint_vel,wrist_2_joint_vel,wrist_3_joint_vel,shoulder_pan_joint_vel,shoulder_lift_joint_eff,elbow_joint_eff,wrist_1_joint_eff,wrist_2_joint_eff,wrist_3_joint_eff,shoulder_pan_joint_eff
1750769427.7508833,-1.9171740000000002,-2.4362719999999998,-0.3923930000000002,1.5818439999999998,-0.47065999999999963,-2.0403629999999993,0.0,0.0,0.0,0.0,0.0,0.0,3.7177848617216847,1.7195953793261127,0.2998450206654899,0.0009115141970061146,0.0,4.883487140201687e-17
1750769427.7524273,-1.9171740000000002,-2.4362719999999998,-0.3923930000000002,1.5818439999999998,-0.47065999999999963,-2.0403629999999993,0.0,0.0,0.0,0.0,0.0,0.0,3.7177848617216847,1.7195953793261127,0.2998450206654899,0.0009115141970061146,0.0,4.883487140201687e-17
1750769427.753304,-1.9171740000000002,-2.4362719999999998,-0.3923930000000002,1.5818439999999998,-0.47065999999999963,-2.0403629999999993,0.0,0.0,0.0,0.0,0.0,0.0,3.7177848617216847,1.7195953793261127,0.2998450206654899,0.0009115141970061146,0.0,4.883487140201687e-17
1750769427.7549229,-1.9171740000000002,-2.4362719999999998,-0.3923930000000002,1.5818439999999998,-0.47065999999999963,-2.0403629999999993,0.0,0.0,0.0,0.0,0.0,0.0,3.7177848617216847,1.7195953793261127,0.2998450206654899,0.0009115141970061146,0.0,4.883487140201687e-17
1750769427.756967,-1.9171740000000002,-2.4362719999999998,-0.3923930000000002,1.5818439999999998,-0.47065999999999963,-2.0403629999999993,0.0,0.0,0.0,0.0,0.0,0.0,3.7177848617216847,1.7195953793261127,0.2998450206654899,0.0009115141970061146,0.0,4.883487140201687e-17
1750769427.7589307,-1.9171740000000002,-2.4362719999999998,-0.3923930000000002,1.5818439999999998,-0.47065999999999963,-2.0403629999999993,0.0,0.0,0.0,0.0,0.0,0.0,3.7177848617216847,1.7195953793261127,0.2998450206654899,0.0009115141970061146,0.0,4.883487140201687e-17
1750769427.7631981,-1.9171740000000002,-2.4362719999999998,-0.3923930000000002,1.5818439999999998,-0.47065999999999963,-2.0403629999999993,0.0,0.0,0.0,0.0,0.0,0.0,3.7177848617216847,1.7195953793261127,0.2998450206654899,0.0009115141970061146,0.0,4.883487140201687e-17
1750769427.7640293,-1.917174126851049,-2.4362709999999996,-0.39239387520088176,1.5818439882232678,-0.47066034251495203,-2.0403633425574395,-0.0001268510488339476,0.001,-0.0008752008817553132,-1.1776731956881816e-05,-0.00034251495210079196,-0.00034255744031031475,3.697598880618617,1.9238161796701572,0.27972775246255294,-0.00016605139782028752,-0.009648759324111652,-0.09276830303770324
1750769427.7653751,-1.9171745074041953,-2.4362679999999997,-0.3923965008035273,1.581843952893072,-0.47066137005980835,-2.04036437022976,-0.0002537020976678952,0.002,-0.0017504017635106264,-2.3553463913763632e-05,-0.0006850299042015839,-0.0006851148806206295,3.6976098045721075,1.9238258554526324,0.2797277983281528,-0.00016606532694468266,-0.009648759324112088,-0.0927688233364121
1750769427.767073,-1.91717514165944,-2.436263,-0.3924008768079359,1.5818438940094122,-0.4706630826345686,-2.040366083016962,-0.00038055314650184283,0.003,-0.0026256026452659395,-3.533019587064545e-05,-0.0010275448563023758,-0.0010276723209309442,3.6976280111489443,1.9238419817341967,0.27972787477042166,-0.00016608854211446074,-0.009648759324112813,-0.09276969050684228
1750769427.768985,-1.9171760296167815,-2.4362559999999998,-0.3924070032141085,1.5818438115722886,-0.4706654802392336,-2.040368480919044,-0.0005074041953357904,0.004,-0.003500803527021253,-4.7106927827527264e-05,-0.0013700598084031678,-0.001370229761241259,3.6976535003306346,1.9238645584810208,0.2797279817887643,-0.00016612104327330836,-0.009648759324113835,-0.09277090455786695
1750769427.7710094,-1.9171771712762213,-2.436247,-0.39241488002204417,1.581843705581701,-0.47066856287380254,-2.0403715639360076,-0.000634255244169738,0.005,-0.004376004408776566,-5.888365978440908e-05,-0.0017125747605039598,-0.001712787201551574,3.697686272091313,1.9238935856457222,0.27972811938234654,-0.00016616283034240356,-0.009648759324115144,-0.09277246550190683
1750769427.7753627,-1.9171785666377579,-2.4362359999999996,-0.39242450723174294,1.5818435760376495,-0.4706723305382754,-2.0403753320678506,-0.0007611062930036857,0.006,-0.005251205290531879,-7.06603917412909e-05,-0.0020550897126047516,-0.0020553446418618885,3.6977263263977,1.9239290631673998,0.27972828755009616,-0.00016621390322035486,-0.009648759324116738,-0.09277437335493331
1750769427.7760532,-1.9171802157013929,-2.4362229999999996,-0.3924358848432066,1.581843422940134,-0.47067678323265216,-2.040379785314574,-0.0008879573418376332,0.007,-0.006126406172287192,-8.243712369817271e-05,-0.002397604664705544,-0.0023979020821722034,3.6977736632091376,1.9239709909715939,0.27972848629070257,-0.0001662742617832763,-0.009648759324118645,-0.09277662813646473
1750769427.7773077,-1.9171802157013929,-2.4362229999999996,-0.3924358848432066,1.581843422940134,-0.47067678323265216,-2.040379785314574,-0.0008879573418376332,0.007,-0.006126406172287192,-8.243712369817271e-05,-0.002397604664705544,-0.0023979020821722034,3.6977736632091376,1.9239709909715939,0.27972848629070257,-0.0001662742617832763,-0.009648759324118645,-0.09277662813646473
1750769427.7791195,-1.9171821184671254,-2.4362079999999997,-0.3924490128564324,1.5818432462891545,-0.47068192095693373,-2.0403849236761786,-0.0010148083906715809,0.008,-0.007001607054042506,-9.421385565505453e-05,-0.0027401196168063357,-0.002740459522482518,3.697828282477557,1.9240193689703202,0.27972871560261653,-0.00016634390588470091,-0.009648759324120817,-0.09277922986956726
1750769427.7810817,-1.9171842749349555,-2.4361909999999996,-0.3924638912714222,1.5818430460847113,-0.4706877437111201,-2.0403907471526646,-0.0011416594395055285,0.009000000000000001,-0.007876807935797819,-0.00010599058761193636,-0.003082634568907128,-0.0030830169627928334,3.6978901841474974,1.9240741970620525,0.2797289754840514,-0.0001664228353556444,-0.009648759324123306,-0.09278217858085569
1750769427.7831626,-1.917186685104884,-2.4361719999999996,-0.392480520088176,1.5818428223268042,-0.4706942514952095,-2.040397255744031,-0.0012685104883394763,0.010000000000000002,-0.008752008817553133,-0.00011776731956881817,-0.0034251495210079206,-0.0034255744031031483,3.6979593681560936,1.9241354751317057,0.2797292659329808,-0.00016651105000456035,-0.009648759324126087,-0.09278547430048979
1750769427.785,-1.9171893489769092,-2.4361509999999997,-0.3924988993066929,1.581842575015433,-0.4707014443092037,-2.0404044494502767,-0.001395361537173424,0.011000000000000003,-0.009627209699308447,-0.0001295440515257,-0.003767664473108713,-0.0037681318434134633,3.6980358344330733,1.9242032030506697,0.27972958694714095,-0.00016660854961737646,-0.00964875932412914,-0.09278911706217696
1750769427.7867482,-1.917192266551032,-2.4361279999999996,-0.3925190289269729,1.581842304150598,-0.4707093221531018,-2.0404123282714037,-0.0015222125860073718,0.012000000000000004,-0.010502410581063762,-0.00014132078348258183,-0.004110179425209505,-0.004110689283723779,3.6981195829007665,1.9242773806767737,0.27972993852402933,-0.0001667153339574112,-0.009648759324132495,-0.0927931069031704
1750769427.7888305,-1.917195437827253,-2.4361029999999997,-0.39254090894901683,1.5818420097322992,-0.4707178850269047,-2.040420892207411,-0.0016490636348413194,0.013000000000000005,-0.011377611462819076,-0.00015309751543946367,-0.004452694377310297,-0.004453246724034093,3.6982106134740875,1.9243580078542895,0.2797303206609049,-0.00016683140276542785,-0.009648759324136133,-0.09279744386426657
1750769427.7909195,-1.9171988628055718,-2.436076,-0.3925645393728239,1.5818416917605362,-0.4707271329306115,-2.0404301412583,-0.0017759146836752672,0.014000000000000005,-0.01225281234457439,-0.00016487424739634548,-0.0047952093294110895,-0.004795804164344409,3.6983089260605393,1.9244450844139431,0.2797307333547879,-0.0001669567557596333,-0.009648759324140102,-0.09280212798980782
1750769427.7929876,-1.9172025414859881,-2.436047,-0.3925899201983949,1.5818413502353095,-0.47073706586422226,-2.040440075424069,-0.0019027657325092148,0.015000000000000006,-0.013128013226329704,-0.0001766509793532273,-0.005137724281511882,-0.005138361604654724,3.698414520560207,1.9245386101729018,0.2797311766024605,-0.000167091392635596,-0.009648759324144343,-0.09280715932767737
1750769427.7950904,-1.917206473868502,-2.436016,-0.3926170514257299,1.5818409851566189,-0.4707476838277378,-2.0404506947047185,-0.0020296167813431626,0.016000000000000007,-0.014003214108085017,-0.00018842771131010914,-0.005480239233612674,-0.0054809190449650385,3.698527396865759,1.924638584934765,0.2797316504004658,-0.0001672353130663043,-0.009648759324148857,-0.09281253792930247
1750769427.7968721,-1.9172106599531133,-2.435983,-0.3926459330548271,1.5818405965244642,-0.47075898682115636,-2.0404619991002484,-0.0021564678301771102,0.017000000000000008,-0.01487841498984033,-0.00020020444326699095,-0.005822754185713467,-0.005823476485275354,3.6986475548624345,1.9247450084895692,0.2797321547451082,-0.00016738851670215345,-0.009648759324153714,-0.09281826384965011
1750769427.7988815,-1.9172150997398223,-2.435948,-0.39267656508568916,1.5818401843388459,-0.4707709748444806,-2.0404739886106604,-0.002283318879011058,0.01800000000000001,-0.015753615871595645,-0.0002119811752238728,-0.006165269137814258,-0.0061660339255856685,3.6987749944280504,1.9248578806137764,0.2797326896324539,-0.00016755100317084677,-0.009648759324158823,-0.09282433714722693
1750769427.8112514,-1.9172247404195337,-2.435872,-0.39274308035270256,1.581839289307217,-0.47079700598083996,-2.040500022976124,-0.0025370209766789535,0.02000000000000001,-0.017504017635106273,-0.00023553463913763645,-0.006850299042015843,-0.006851148806206299,3.6990517177401845,1.9251029696083704,0.27973385101832426,-0.00016790382300465478,-0.009648759324169979,-0.09283752612579092
1750769427.811721,-1.9172353959076354,-2.4357879999999996,-0.3928165972267701,1.5818383000617326,-0.47082577723681673,-2.040528797801109,-0.0027907230743468487,0.022000000000000013,-0.0192544193986169,-0.0002590881030514001,-0.007535328946217427,-0.007536263686826929,3.69935756567592,1.9253738498586543,0.27973513452182724,-0.0001682937691365997,-0.009648759324182339,-0.09285210540379875
1750769427.812037,-1.9172411042048338,-2.435743,-0.3928559812664485,1.5818377701087947,-0.47084119040966055,-2.040544212885923,-0.0029175741231807963,0.023000000000000013,-0.020129620280372216,-0.0002708648350082819,-0.007877843898318219,-0.007878821127137245,3.6995214109931043,1.9255189610014936,0.27973582205531733,-0.00016850266339291193,-0.00964875932418897,-0.0928599165889362
1750769427.8136632,-1.917247066204128,-2.4356959999999996,-0.3928971157078909,1.5818372166023926,-0.47085728861241005,-2.040560313085618,-0.0030444251720147444,0.024000000000000014,-0.02100482116212753,-0.00028264156696516376,-0.008220358850419012,-0.008221378567447559,3.6996925369898293,1.9256705190872525,0.2797365401028894,-0.00016872083777260755,-0.009648759324195929,-0.09286807557660919
1750769427.8152251,-1.9172532819055217,-2.435647,-0.39294000055109723,1.5818366395425267,-0.4708740718450626,-2.0405770984001936,-0.003171276220848692,0.025000000000000015,-0.021880022043882844,-0.00029441829892204555,-0.008562873802519804,-0.008563936007757874,3.699870943491772,1.9258285237972297,0.2797372886589361,-0.0001689482917446066,-0.009648759324203168,-0.09287658245006605
1750769427.8176715,-1.917259751309012,-2.435596,-0.3929846357960667,1.581836038929197,-0.4708915401076199,-2.0405945688296487,-0.0032981272696826396,0.026000000000000016,-0.02275522292563816,-0.0003061950308789274,-0.008905388754620597,-0.00890649344806819,3.700056630317118,1.9259929747991398,0.2797380677176115,-0.00016918502475509858,-0.009648759324210712,-0.09288543729608263
1750769427.819616,-1.9172664744145997,-2.4355429999999996,-0.3930310214428001,1.5818354147624032,-0.47090969340008115,-2.040612724373986,-0.003424978318516587,0.027000000000000017,-0.023630423807393473,-0.00031797176283580923,-0.00924790370672139,-0.009249050888378504,3.7002495972765876,1.9261638717470573,0.27973887727282987,-0.00016943103622749168,-0.009648759324218563,-0.09289464020496041
1750769427.8213415,-1.917273451222286,-2.435488,-0.3930791574912966,1.5818347670421455,-0.4709285317224463,-2.0406315650332028,-0.0035518293673505352,0.028000000000000018,-0.024505624689148783,-0.000329748494792691,-0.00959041865882218,-0.009591608328688819,3.700449844173408,1.9263412142814234,0.27973971731826613,-0.00016968632556238952,-0.009648759324226673,-0.0929041912705267
1750769427.8232865,-1.9172806817320698,-2.435431,-0.39312904394155623,1.581834095768424,-0.47094805507471627,-2.0406510908073,-0.003678680416184483,0.02900000000000002,-0.025380825570904098,-0.00034152522674957286,-0.009932933610922973,-0.009934165768999135,3.700657370803309,1.9265250020290525,0.27974058784735567,-0.00016995089213758897,-0.009648759324235189,-0.09291409059013127
1750769427.8253965,-1.9172881659439511,-2.4353719999999996,-0.3931806807935798,1.5818334009412387,-0.47096826345689013,-2.0406713016962783,-0.0038055314650184305,0.03000000000000002,-0.02625602645265941,-0.0003533019587064547,-0.010275448563023766,-0.01027672320930945,3.700872176954524,1.9267152346031065,0.2797414888532943,-0.0001702247353080274,-0.009648759324243967,-0.09292433826464164
1750769427.827,-1.91729590385793,-2.4353109999999996,-0.3932340680473674,1.5818326825605893,-0.4709891568689688,-2.040692197700137,-0.003932382513852378,0.03100000000000002,-0.027131227334414726,-0.00036507869066333654,-0.010617963515124559,-0.010619280649619764,3.701094262407763,1.9269119116030922,0.279742420329038,-0.0001705078544058268,-0.009648759324253055,-0.09293493439844756
1750769427.8288739,-1.9173038954740065,-2.4352479999999996,-0.39328920570291803,1.581831940626476,-0.4710107353109505,-2.040713778818877,-0.004059233562686326,0.03200000000000002,-0.02800642821617004,-0.00037685542262021833,-0.01096047846722535,-0.01096183808993008,3.701323626936231,1.9271150326148547,0.279743382267303,-0.00017080024874017137,-0.00964875932426241,-0.09294587909945264
1750769427.8311143,-1.9173121407921805,-2.435183,-0.3933460937602318,1.5818311751388987,-0.471032998782837,-2.0407360450524976,-0.004186084611520273,0.03300000000000002,-0.028881629097925354,-0.00038863215457710017,-0.011302993419326142,-0.011304395530240395,3.7015602703055985,1.9273245972105684,0.2797443746605655,-0.00017110191759736663,-0.009648759324272175,-0.09295717247907298
1750769427.8327532,-1.917320639812452,-2.435116,-0.3934047322193095,1.5818303860978578,-0.4710559472846283,-2.0407589964009976,-0.004312935660354221,0.03400000000000002,-0.02975682997968067,-0.000400408886533982,-0.011645508371426935,-0.01164695297055071,3.701804192273998,1.9275406049487274,0.27974539750106175,-0.00017141286024074042,-0.009648759324282207,-0.09296881465223981
1750769427.834978,-1.917329392534822,-2.435047,-0.3934651210801503,1.5818295735033525,-0.4710795808163235,-2.0407826328643797,-0.004439786709188169,0.035000000000000024,-0.030632030861435983,-0.0004121856184908638,-0.011988023323527728,-0.011989510410861026,3.7020553925920248,1.9277630553741296,0.2797464507807875,-0.00017173307591074455,-0.009648759324292558,-0.09298080573739213
1750769427.8369138,-1.9173383989592887,-2.434976,-0.3935272603427551,1.5818287373553837,-0.47110389937792263,-2.0408069544426413,-0.0045666377580221166,0.036000000000000025,-0.0315072317431913,-0.00042396235044774564,-0.01233053827562852,-0.01233206785117134,3.702313871002706,1.9279919480178898,0.27974753449149886,-0.00017206256382472308,-0.009648759324303226,-0.09299314585647342
1750769427.8389008,-1.9173476590858538,-2.434903,-0.39359115000712297,1.581827877653951,-0.47112890296942567,-2.040831961135784,-0.004693488806856065,0.037000000000000026,-0.03238243262494661,-0.0004357390824046275,-0.012673053227729311,-0.012674625291481655,3.7025796272415152,1.9282272823973945,0.27974864862471094,-0.00017240132317709127,-0.009648759324314169,-0.09300583513493471
1750769427.8409855,-1.9173571729145165,-2.4348279999999995,-0.3936567900732548,1.5818269943990542,-0.4711545915908335,-2.0408576529438074,-0.004820339855690012,0.03800000000000003,-0.033257633506701925,-0.0004475158143615093,-0.013015568179830104,-0.01301718273179197,3.7028526610363444,1.9284690580163244,0.27974979317169846,-0.00017274935313921027,-0.009648759324325528,-0.09301887370172753
1750769427.844598,-1.9173571729145165,-2.4348279999999995,-0.3936567900732548,1.5818269943990542,-0.4711545915908335,-2.0408576529438074,-0.004820339855690012,0.03800000000000003,-0.033257633506701925,-0.0004475158143615093,-0.013015568179830104,-0.01301718273179197,3.7028526610363444,1.9284690580163244,0.27974979317169846,-0.00017274935313921027,-0.009648759324325528,-0.09301887370172753
1750769427.8452919,-1.9173669404452767,-2.434751,-0.39372418054114977,1.5818260875906933,-0.47118096524214526,-2.040884029866712,-0.00494719090452396,0.03900000000000003,-0.03413283438845724,-0.0004592925463183911,-0.013358083131930897,-0.013359740172102286,3.703132972107502,1.928717274364624,0.27975096812349565,-0.0001731066528593525,-0.009648759324337165,-0.09303226168930138
1750769427.8473048,-1.9173769616781344,-2.434672,-0.3937933214108087,1.5818251572288689,-0.4712080239233609,-2.040911091904496,-0.005074041953357908,0.04000000000000003,-0.035008035270212554,-0.00047106927827527295,-0.01370059808403169,-0.0137022976124126,3.703420560167701,1.928971930918505,0.27975217347089587,-0.0001734732214626397,-0.009648759324349129,-0.09304599923360071
1750769427.8490489,-1.9173872366130897,-2.4345909999999997,-0.3938642126822307,1.5818242033135803,-0.4712357676344814,-2.0409388390571603,-0.005200893002191855,0.04100000000000003,-0.03588323615196787,-0.0004828460102321548,-0.01404311303613248,-0.014044855052722915,3.7037154249220534,1.9292330271404219,0.2797534092044517,-0.00017384905805114666,-0.009648759324361371,-0.09306008647406717
1750769427.8511224,-1.9173977652501435,-2.4345079999999997,-0.3939368543554167,1.581823225844828,-0.47126419637550576,-2.040967271324707,-0.005327744051025803,0.04200000000000003,-0.03675843703372318,-0.0004946227421890366,-0.014385627988233273,-0.014387412493033231,3.7040175660680434,1.9295005624790624,0.27975467531447396,-0.00017423416170371658,-0.009648759324374038,-0.09307452355363058
1750769427.8528771,-1.917408547589294,-2.434423,-0.3940112464303658,1.5818222248226115,-0.47129331014643405,-2.040996388707133,-0.005454595099859751,0.04300000000000003,-0.037633637915478496,-0.0005063994741459184,-0.014728142940334065,-0.014729969933343546,3.7043269832955303,1.9297745363693573,0.27975597179103373,-0.00017462853147602356,-0.00964875932438699,-0.0930893106187057
1750769427.8547413,-1.9174195836305428,-2.4343359999999996,-0.39408738890707884,1.5818212002469312,-0.47132310894726714,-2.0410261912044394,-0.005581446148693698,0.04400000000000003,-0.03850883879723381,-0.0005181762061028003,-0.015070657892434858,-0.01507252737365386,3.7046436762867385,1.9300549482324327,0.279757298623959,-0.00017503216640048715,-0.009648759324400274,-0.09310444781919643
1750769427.85671,-1.9174308733738892,-2.4342469999999996,-0.394165281785555,1.581820152117787,-0.47135359277800415,-2.041056678816627,-0.005708297197527646,0.04500000000000003,-0.039384039678989124,-0.0005299529380596821,-0.01541317284453565,-0.015415084813964176,3.7049676447162305,1.930341797475628,0.2797586558028375,-0.00017544506548626966,-0.009648759324413895,-0.0931199353084847
1750769427.858982,-1.9174424168193323,-2.4341559999999998,-0.3942449250657942,1.581819080435179,-0.47138476163864507,-2.041087851543696,-0.0058351482463615935,0.046000000000000034,-0.04025924056074444,-0.000541729670016564,-0.01575568779663644,-0.01575764225427449,3.705298888250908,1.9306350834924761,0.27976004331701526,-0.00017586722771921712,-0.009648759324427806,-0.09313577324342866
1750769427.861142,-1.9174542139668747,-2.4340629999999996,-0.39432631874779744,1.581817985199107,-0.4714166155291899,-2.0411197093856446,-0.005961999295195542,0.047000000000000035,-0.04113444144249975,-0.0005535064019734458,-0.016098202748737234,-0.016100199694584805,3.7056374065499997,1.9309348056626698,0.2797614611555955,-0.00017629865206189653,-0.00964875932444215,-0.09315196178436762
1750769427.8628747,-1.9174662648165137,-2.4339679999999997,-0.39440946283156464,1.581816866409571,-0.47144915444963953,-2.0411522523424743,-0.00608885034402949,0.048000000000000036,-0.04200964232425507,-0.0005652831339303275,-0.016440717700838027,-0.01644275713489512,3.705983199265036,1.9312409633520877,0.27976290930744063,-0.00017673933745341122,-0.00964875932445679,-0.09316850109510495
1750769427.8649986,-1.9174662648165137,-2.4339679999999997,-0.39440946283156464,1.581816866409571,-0.47144915444963953,-2.0411522523424743,-0.00608885034402949,0.048000000000000036,-0.04200964232425507,-0.0005652831339303275,-0.016440717700838027,-0.01644275713489512,3.705983199265036,1.9312409633520877,0.27976290930744063,-0.00017673933745341122,-0.00964875932445679,-0.09316850109510495
1750769427.8670273,-1.9174785693682503,-2.433871,-0.3944943573170949,1.5818157240665713,-0.47148237839999396,-2.0411854804141845,-0.006215701392863437,0.04900000000000004,-0.04288484320601038,-0.0005770598658872094,-0.01678323265293882,-0.016785314575205434,3.706336266039844,1.9315535559127472,0.27976438776117046,-0.00017718928280950662,-0.00964875932447177,-0.09318539134291395
1750769427.8687317,-1.9174911276220854,-2.433772,-0.3945810022043883,1.5818145581701075,-0.4715162873802514,-2.041219393600775,-0.006342552441697385,0.05000000000000004,-0.043760044087765695,-0.0005888365978440912,-0.017125747605039612,-0.01712787201551575,3.706696606510549,1.9318725826828045,0.2797658965051626,-0.00017764848702250113,-0.0096487593244871,-0.0932026326985379
1750769427.8707206,-1.9175039395780171,-2.433671,-0.39466939749344565,1.5818133687201799,-0.4715508813904137,-2.0412539919022468,-0.006469403490531332,0.05100000000000004,-0.044635244969521,-0.000600613329800973,-0.017468262557140405,-0.017470429455826067,3.7070642203055253,1.9321980429865493,0.2797674355275525,-0.00017811694896115217,-0.009648759324502779,-0.0932202253361712
1750769427.8728118,-1.9175170052360473,-2.4335679999999997,-0.394759543184267,1.5818121557167883,-0.47158616043047985,-2.041289275318599,-0.00659625453936528,0.05200000000000004,-0.04551044585127632,-0.0006123900617578549,-0.017810777509241194,-0.01781298689613638,3.7074391070454182,1.9325299361343635,0.27976900481623174,-0.00017859466747073013,-0.009648759324518712,-0.09323816943347102
1750769427.8747587,-1.917530324596175,-2.4334629999999997,-0.3948514392768505,1.581810919159933,-0.4716221245004508,-2.0413252438498315,-0.006723105588199228,0.05300000000000004,-0.04638564673303163,-0.0006241667937147367,-0.018153292461341987,-0.018155544336446696,3.7078212663431027,1.932868261422741,0.2797706043588508,-0.00017908164137295696,-0.00964875932453519,-0.09325646517154955
1750769427.8770354,-1.9175438976584003,-2.433356,-0.3949450857711989,1.5818096590496136,-0.4716587736003257,-2.0413618974959444,-0.006849956637033175,0.05400000000000004,-0.047260847614786945,-0.0006359435256716185,-0.01849580741344278,-0.018498101776757012,3.7082106978036915,1.9332130181342484,0.2797722341428163,-0.00017957786946591294,-0.009648759324551927,-0.09327511273496354
1750769427.8813732,-1.917557724422723,-2.4332469999999997,-0.3950404826673104,1.5818083753858303,-0.4716961077301045,-2.0413992362569378,-0.006976807685867123,0.05500000000000004,-0.04813604849654226,-0.0006477202576285003,-0.018838322365543572,-0.018840659217067325,3.708607401024505,1.933564205537524,0.27977389415529197,-0.0001800833505240269,-0.009648759324569023,-0.09329411231171696
1750769427.8829465,-1.9175718048891435,-2.4331359999999997,-0.395137629965185,1.581807068168583,-0.4717341268897881,-2.0414372601328123,-0.007103658734701071,0.05600000000000004,-0.049011249378297574,-0.0006594969895853821,-0.019180837317644365,-0.01918321665737764,3.7090113755950567,1.9339218228872495,0.2797755843831978,-0.00018059808329807183,-0.009648759324586479,-0.09331346409325955
1750769427.8834002,-1.9175718048891435,-2.4331359999999997,-0.395137629965185,1.581807068168583,-0.4717341268897881,-2.0414372601328123,-0.007103658734701071,0.05600000000000004,-0.049011249378297574,-0.0006594969895853821,-0.019180837317644365,-0.01918321665737764,3.7090113755950567,1.9339218228872495,0.2797755843831978,-0.00018059808329807183,-0.009648759324586479,-0.09331346409325955
1750769427.8847785,-1.9176007269282778,-2.432908,-0.3953371757662252,1.5818043830736968,-0.47181222029886705,-2.0415153632292036,-0.007357360832368967,0.058000000000000045,-0.0507616511418082,-0.0006830504534991458,-0.01986586722184595,-0.01986833153799827,3.7098411371043536,1.9346563443749643,0.2797790554317638,-0.00018165529887806178,-0.009648759324622483,-0.09335322505367001
1750769427.8866887,-1.9176155685009908,-2.432791,-0.3954395742693908,1.5818030051960579,-0.4718522945482624,-2.0415554424497193,-0.007484211881202914,0.059000000000000045,-0.051636852023563516,-0.0006948271854560277,-0.020208382173946743,-0.020210888978308587,3.7102669231829744,1.9350332469524396,0.2797808362250461,-0.00018219777906663815,-0.009648759324641034,-0.09337363463260552
1750769427.8888817,-1.9176306637758023,-2.4326719999999997,-0.3955437231743195,1.581801603764955,-0.4718930538275625,-2.0415962067851163,-0.007611062930036862,0.060000000000000046,-0.05251205290531883,-0.0007066039174129095,-0.020550897126047536,-0.020553446418618903,3.710699978891072,1.935416576355306,0.2797826471790027,-0.0001827495057362489,-0.009648759324659958,-0.0933943972164454
1750769427.8907137,-1.9176306637758023,-2.4326719999999997,-0.3955437231743195,1.581801603764955,-0.4718930538275625,-2.0415962067851163,-0.007611062930036862,0.060000000000000046,-0.05251205290531883,-0.0007066039174129095,-0.020550897126047536,-0.020553446418618903,3.710699978891072,1.935416576355306,0.2797826471790027,-0.0001827495057362489,-0.009648759324659958,-0.0933943972164454
1750769427.8926957,-1.9176460127527113,-2.4325509999999997,-0.3956496224810113,1.5818001787803881,-0.4719344981367666,-2.0416376562353937,-0.00773791397887081,0.06100000000000005,-0.053387253787074145,-0.0007183806493697912,-0.020893412078148325,-0.020896003858929216,3.7111403037789112,1.9358063317682674,0.27978448827933416,-0.00018331047751846407,-0.009648759324679162,-0.09341551301378156
1750769427.8947809,-1.9176616154317179,-2.432428,-0.395757272189468,1.5817987302423575,-0.47197662747587543,-2.0416797908005524,-0.007864765027704758,0.06200000000000005,-0.05426245466882946,-0.0007301573813266731,-0.021235927030249117,-0.021238561299239532,3.7115878973888576,1.936202512361981,0.2797863595114966,-0.00018388069302093817,-0.009648759324698932,-0.09343698223662597
1750769427.896691,-1.917677471812822,-2.4323029999999997,-0.39586667229968686,1.581797258150863,-0.4720194418448873,-2.0417226104805906,-0.007991616076538704,0.06300000000000004,-0.055137655550584766,-0.0007419341132835548,-0.02157844198234991,-0.021581118739549845,3.7120427592553726,1.9366051172930427,0.27978826086070196,-0.00018446015082723333,-0.009648759324718988,-0.0934588051003939
1750769427.898717,-1.9176935818960237,-2.4321759999999997,-0.3959778228116697,1.5817957625059045,-0.4720629412438049,-2.041766115275511,-0.008118467125372652,0.06400000000000004,-0.05601285643234008,-0.0007537108452404367,-0.0219209569344507,-0.02192367617986016,3.712504888904967,1.937014145703968,0.27979019231191593,-0.0001850488494969468,-0.009648759324739327,-0.0934809818239157
1750769427.9007003,-1.9177099456813238,-2.432047,-0.39609072372541654,1.581794243307482,-0.47210712567262547,-2.04181030518531,-0.0082453181742066,0.06500000000000004,-0.056888057314095394,-0.0007654875771973185,-0.022263471886551492,-0.022266233620170474,3.7129742858562165,1.937429596723163,0.2797921538498604,-0.00018564678756543876,-0.009648759324760245,-0.0935035126294169
1750769427.902861,-1.9177265631687206,-2.4319159999999997,-0.39620537504092646,1.5817927005555956,-0.47215199513135087,-2.041855180209991,-0.008372169223040547,0.06600000000000004,-0.05776325819585071,-0.0007772643091542003,-0.022605986838652285,-0.02260879106048079,3.7134509496197214,1.9378514694649398,0.27979414545901166,-0.00018625396354401207,-0.009648759324781455,-0.09352639774252872
1750769427.9052396,-1.9177434343582158,-2.431783,-0.39632177675819946,1.5817911342502453,-0.4721975496199802,-2.0419007403495524,-0.008499020271874495,0.06700000000000005,-0.05863845907760602,-0.0007890410411110822,-0.022948501790753077,-0.022951348500791106,3.7139348796980896,1.9382797630294506,0.27979616712359934,-0.00018687037591965617,-0.009648759324803058,-0.09354963739226704
1750769427.9071968,-1.9177605592498086,-2.4316479999999996,-0.39643992887723645,1.5817895443914312,-0.4722437891385134,-2.0419469856039942,-0.008625871320708443,0.06800000000000005,-0.05951365995936134,-0.000800817773067964,-0.02329101674285387,-0.02329390594110142,3.7144260755859357,1.9387144765027138,0.2797982188276086,-0.00018749602315512812,-0.009648759324825052,-0.09357323181103952
1750769427.9087787,-1.917777937843498,-2.431511,-0.3965598313980374,1.5817879309791532,-0.4722907136869514,-2.0419939159733165,-0.00875272236954239,0.06900000000000005,-0.06038886084111665,-0.0008125945050248459,-0.023633531694954663,-0.023636463381411735,3.7149245367698356,1.939155608956568,0.2798003005547776,-0.00018813090368888173,-0.009648759324847446,-0.0935971812346404
1750769427.9108598,-1.9177955701392868,-2.4313719999999996,-0.39668148432060146,1.581786294013411,-0.47233832326529335,-2.04204153145752,-0.008879573418376339,0.07000000000000005,-0.061264061722871965,-0.0008243712369817276,-0.023976046647055455,-0.02397902082172205,3.7154302627283444,1.9396031594486565,0.2798024122885987,-0.000188775015934962,-0.009648759324870238,-0.0936214859022338
1750769427.9127977,-1.9178134561371722,-2.431231,-0.3968048876449286,1.5817846334942052,-0.4723866178735401,-2.042089832056604,-0.009006424467210285,0.07100000000000005,-0.06213926260462728,-0.0008361479689386094,-0.024318561599156248,-0.024321578262032365,3.7159432529319303,1.9400571270224238,0.27980455401231763,-0.0001894283582829748,-0.009648759324893437,-0.09364614605636155
1750769427.9148273,-1.9178315958371552,-2.431088,-0.3969300413710197,1.5817829494215354,-0.47243559751168984,-2.0421388177705673,-0.009133275516044233,0.07200000000000005,-0.0630144634863826,-0.0008479247008954913,-0.02466107655125704,-0.02466413570234268,3.716463506842991,1.940517510707074,0.27980672570893317,-0.00019009092909806125,-0.00964875932491704,-0.09367116194293575
1750769427.9168067,-1.9178499892392367,-2.4309429999999996,-0.39705694549887394,1.5817812417954016,-0.4724852621797444,-2.042188488599413,-0.009260126564878181,0.07300000000000005,-0.06388966436813791,-0.0008597014328523731,-0.02500359150335783,-0.025006693142652994,3.7169910239158295,1.940984309517565,0.27980892736119745,-0.00019076272672079102,-0.00964875932494096,-0.09369653381122242
1750769427.918799,-1.9178686363434148,-2.430796,-0.3971856000284921,1.581779510615804,-0.47253561187770377,-2.0422388445431388,-0.00938697761371213,0.07400000000000005,-0.06476486524989322,-0.000871478164809255,-0.025346106455458622,-0.02534925058296331,3.717525803596614,1.9414575224545845,0.2798111589516151,-0.0001914437494671495,-0.009648759324965483,-0.09372226191385415
1750769427.9208183,-1.9178875371496913,-2.4306469999999996,-0.3973160049598743,1.5817777558827424,-0.47258664660556704,-2.042289885601745,-0.009513828662546077,0.07500000000000005,-0.06564006613164854,-0.0008832548967661368,-0.025688621407559415,-0.025691808023273626,3.718067845323379,1.9419371485045276,0.2798134204624431,-0.00019213399562842827,-0.00964875932499033,-0.09374834650680672
1750769427.9228232,-1.9179066916580645,-2.4304959999999998,-0.39744816029301866,1.5817759775962168,-0.47263836636333423,-2.0423416117752318,-0.009640679711380024,0.07600000000000005,-0.06651526701340385,-0.0008950316287230187,-0.026031136359660208,-0.02603436546358394,3.71861714852599,1.9424231866394814,0.27981571187569126,-0.0001928334634712355,-0.009648759325015594,-0.09377478784940468
1750769427.9249122,-1.9179260998685361,-2.4303429999999997,-0.3975820660279279,1.5817741757562274,-0.47269077115100533,-2.042394023063599,-0.009767530760213972,0.07700000000000005,-0.06739046789515916,-0.0009068083606799004,-0.026373651311761,-0.026376922903894255,3.719173712626141,1.9429156358171953,0.2798180331731206,-0.00019354215123738318,-0.009648759325041284,-0.09380158620431804
1750769427.9269745,-1.9179457617811062,-2.430188,-0.39771772216459933,1.581772350362774,-0.47274386096858123,-2.042447119466847,-0.00989438180904792,0.07800000000000006,-0.06826566877691448,-0.0009185850926367822,-0.026716166263861793,-0.02671948034420457,3.7197375370373087,1.9434144949810643,0.2798203843362445,-0.0001942600571438269,-0.009648759325067402,-0.09382874183754289
1750769427.9287941,-1.917965677395773,-2.4300309999999996,-0.39785512870303474,1.581770501415857,-0.47279763581606105,-2.042500900984976,-0.010021232857881868,0.07900000000000006,-0.06914086965866979,-0.0009303618245936641,-0.027058681215962586,-0.027062037784514884,3.720308621164747,1.9439197630601186,0.27982276534632766,-0.00019498717938262446,-0.00964875932509395,-0.09385625501840773
1750769427.930838,-1.9179858467125372,-2.4298719999999996,-0.39799428564323414,1.5817686289154758,-0.4728520956934448,-2.042555367617985,-0.010148083906715816,0.08000000000000006,-0.07001607054042511,-0.0009421385565505459,-0.02740119616806338,-0.0274045952248252,3.720886964405459,1.9444314389689767,0.2798251761843855,-0.00019572351612092247,-0.009648759325120933,-0.09388412601956929
1750769427.9375412,-1.9179858467125372,-2.4298719999999996,-0.39799428564323414,1.5817686289154758,-0.4728520956934448,-2.042555367617985,-0.010148083906715816,0.08000000000000006,-0.07001607054042511,-0.0009421385565505459,-0.02740119616806338,-0.0274045952248252,3.720886964405459,1.9444314389689767,0.2798251761843855,-0.00019572351612092247,-0.009648759325120933,-0.09388412601956929
1750769427.9379654,-1.9180062697314,-2.4297109999999997,-0.3981351929851966,1.5817667328616307,-0.4729072406007333,-2.0426105193658755,-0.010274934955549764,0.08100000000000006,-0.07089127142218042,-0.0009539152885074278,-0.02774371112016417,-0.027747152665135517,3.7214725661481913,1.944949521607844,0.27982761683118534,-0.00019646906550075383,-0.009648759325148354,-0.09391235511699195
1750769427.9382243,-1.9180269464523594,-2.4295479999999996,-0.3982778507289231,1.5817648132543218,-0.47296307053792574,-2.0426663562286453,-0.01040178600438371,0.08200000000000006,-0.07176647230393574,-0.0009656920204643096,-0.02808622607226496,-0.02808971010544583,3.7220654257733767,1.9454740098624874,0.27983008726724407,-0.00019722382563910388,-0.009648759325176122,-0.09394094258995639
1750769427.938608,-1.9180269464523594,-2.4295479999999996,-0.3982778507289231,1.5817648132543218,-0.47296307053792574,-2.0426663562286453,-0.01040178600438371,0.08200000000000006,-0.07176647230393574,-0.0009656920204643096,-0.02808622607226496,-0.02808971010544583,3.7220654257733767,1.9454740098624874,0.27983008726724407,-0.00019722382563910388,-0.009648759325176122,-0.09394094258995639
1750769427.9407573,-1.9180478768754172,-2.4293829999999996,-0.3984222588744126,1.5817628700935489,-0.4730195855050221,-2.0427228782062965,-0.010528637053217658,0.08300000000000006,-0.07264167318569105,-0.0009774687524211913,-0.028428741024365753,-0.028432267545756146,3.7226655426531514,1.9460049026041977,0.2798325874728298,-0.0001979877946278403,-0.009648759325204528,-0.09396988872105136
1750769427.942869,-1.9180690610005726,-2.429216,-0.39856841742166615,1.581760903379312,-0.47307678550202326,-2.042780085298829,-0.010655488102051606,0.08400000000000006,-0.07351687406744636,-0.0009892454843780732,-0.028771255976466546,-0.028774824986066462,3.7232729161513047,1.946542198689787,0.2798351174279602,-0.0001987609705335372,-0.009648759325233286,-0.0939991937961572
1750769427.9446144,-1.9180904988278256,-2.4290469999999997,-0.39871632637068277,1.5817589131116114,-0.4731346705289283,-2.0428379775062417,-0.010782339150885554,0.08500000000000006,-0.07439207494920168,-0.001001022216334955,-0.029113770928567338,-0.029117382426376775,3.723887545623263,1.947085896961555,0.2798376771124032,-0.00019954335139751075,-0.009648759325262499,-0.09402885810445111
1750769427.9466703,-1.918112190357176,-2.428876,-0.3988659857214625,1.5817568992904467,-0.4731932405857373,-2.042896554828534,-0.010909190199719502,0.08600000000000006,-0.07526727583095699,-0.0010127989482918368,-0.02945628588066813,-0.02945993986668709,3.724509430416072,1.9476359962472625,0.279840266505676,-0.00020033493523577295,-0.009648759325292168,-0.09405888193839929
1750769427.948778,-1.9181341355886241,-2.4287029999999996,-0.39901739547400616,1.5817548619158182,-0.4732524956724502,-2.0429558172657085,-0.011036041248553449,0.08700000000000006,-0.0761424767127123,-0.0010245756802487187,-0.029798800832768924,-0.029802497306997407,3.7251385698683706,1.9481924953601166,0.2798428855870451,-0.00020113572003883158,-0.009648759325322298,-0.09408926559374121
1750769427.9507475,-1.9181563345221697,-2.4285279999999996,-0.39917055562831294,1.5817528009877257,-0.4733124357890679,-2.0430157648177625,-0.011162892297387397,0.08800000000000006,-0.07701767759446762,-0.0010363524122056005,-0.030141315784869716,-0.03014505474730772,3.7257749633103594,1.948755393098736,0.279845534335526,-0.00020194570377174583,-0.009648759325352895,-0.09412000936949297
1750769427.9527442,-1.9181787871578138,-2.4283509999999997,-0.3993254661843837,1.5817507165061693,-0.4733730609355904,-2.043076397484697,-0.011289743346221345,0.08900000000000007,-0.07789287847622293,-0.0010481291441624824,-0.03048383073697051,-0.030487612187618036,3.7264186100637873,1.94932468824713,0.2798482127298824,-0.0002027648843740598,-0.009648759325383961,-0.09415111356794165
1750769427.9547474,-1.9182014934955554,-2.4281719999999996,-0.3994821271422184,1.581748608471149,-0.4734343711120159,-2.0431377152665124,-0.011416594395055293,0.09000000000000007,-0.07876807935797825,-0.0010599058761193642,-0.0308263456890713,-0.030830169627928353,3.727069509441924,1.9499003795746888,0.2798509207486273,-0.00020359325975960376,-0.009648759325415498,-0.09418257849462706
1750769427.9580271,-1.9182014934955554,-2.4281719999999996,-0.3994821271422184,1.581748608471149,-0.4734343711120159,-2.0431377152665124,-0.011416594395055293,0.09000000000000007,-0.07876807935797825,-0.0010599058761193642,-0.0308263456890713,-0.030830169627928353,3.727069509441924,1.9499003795746888,0.2798509207486273,-0.00020359325975960376,-0.009648759325415498,-0.09418257849462706
1750769427.95886,-1.9182476672773312,-2.4278079999999997,-0.39980070026317716,1.5817443217407168,-0.4735590465545805,-2.0432624061747857,-0.011670296492723187,0.09200000000000007,-0.08051848112148888,-0.001083459340033128,-0.03151137559327288,-0.03151528450854898,3.7283930632828133,1.9510709457715059,0.27985642557207147,-0.00020527758640733143,-0.009648759325480014,-0.09424659177114332
1750769427.960822,-1.9182711347213655,-2.4276229999999996,-0.39996261242630204,1.5817421430453047,-0.4736224118207195,-2.0433257793012434,-0.011797147541557135,0.09300000000000007,-0.08139368200324419,-0.0010952360719900097,-0.03185389054537368,-0.031857841948859295,3.7290657163294685,1.951665818106143,0.2798592223325347,-0.0002061335333685154,-0.009648759325513099,-0.0942791407483038
1750769427.962835,-1.9182948558674973,-2.4274359999999997,-0.40012627499119,1.5817399407964288,-0.47368646211676246,-2.0433898375425814,-0.011923998590391083,0.09400000000000007,-0.0822688828849995,-0.0011070128039468916,-0.03219640549747447,-0.03220039938916961,3.729745619168579,1.9522670815506447,0.2798620486289136,-0.00020699866651071957,-0.009648759325546376,-0.09431205170834063
1750769427.9647357,-1.9183188307157266,-2.427247,-0.400291687957842,1.581737714994089,-0.4737511974427093,-2.0434545808988,-0.012050849639225031,0.09500000000000007,-0.08314408376675482,-0.0011187895359037732,-0.03253892044957526,-0.03254295682947993,3.730432771070621,1.9528747348008515,0.2798649044384577,-0.00020787298361860205,-0.009648759325580345,-0.09434532497299664
1750769427.966846,-1.9183430592660535,-2.427056,-0.400458851326257,1.5817354656382852,-0.4738166177985601,-2.0435200093698995,-0.01217770068805898,0.09600000000000007,-0.08401928464851013,-0.001130566267860655,-0.032881435401676054,-0.03288551426979024,3.7311271712974445,1.9534887765378217,0.27986778973816306,-0.00020875648245079513,-0.009648759325615009,-0.09437896086723273
1750769427.9687812,-1.9183675415184789,-2.4268629999999995,-0.40062776509643605,1.5817331927290175,-0.4738827231843157,-2.0435861229558796,-0.012304551736892926,0.09700000000000007,-0.08489448553026545,-0.0011423429998175369,-0.03322395035377684,-0.03322807171010056,3.7318288191022373,1.954109205427793,0.2798707045047717,-0.0002096491607397155,-0.009648759325649783,-0.09441295971922045
1750769427.97079,-1.9183922774730018,-2.426668,-0.40079842926837816,1.581730896266286,-0.47394951359997606,-2.04365292165674,-0.012431402785726874,0.09800000000000007,-0.08576968641202076,-0.0011541197317744187,-0.03356646530587764,-0.03357062915041087,3.7325377137294904,1.954736020122171,0.2798736487147721,-0.00021055101619159135,-0.009648759325685458,-0.09444732186033361
1750769427.9727087,-1.9184172671296214,-2.426471,-0.40097084384208426,1.5817285762500903,-0.47401698904553946,-2.043720405472481,-0.012558253834560822,0.09900000000000007,-0.08664488729377608,-0.0011658964637313006,-0.03390898025797843,-0.033913186590721185,3.7332538544149854,1.9553692192574947,0.279876622344398,-0.00021146204648643492,-0.009648759325721254,-0.09448204762515205
1750769427.974705,-1.9184425104883394,-2.4262719999999995,-0.40114500881755344,1.5817262326804309,-0.47408514952100766,-2.043788574403102,-0.01268510488339477,0.10000000000000007,-0.08752008817553139,-0.0011776731956881824,-0.034251495210079225,-0.0342557440310315,3.733977240385768,1.9560088014554018,0.2798796253696277,-0.00021238224927775743,-0.009648759325757955,-0.09451713735143057
1750769427.9768841,-1.918468007549155,-2.426071,-0.4013209241947866,1.5817238655573076,-0.4741539950263798,-2.0438574284486046,-0.012811955932228718,0.10100000000000008,-0.0883952890572867,-0.0011894499276450643,-0.034594010162180014,-0.03459830147134182,3.734707870860104,1.9566547653226125,0.27988265776618515,-0.0002133116221926991,-0.009648759325794789,-0.09455259138011553
1750769427.9788182,-1.918493758312069,-2.425868,-0.40149858997378285,1.5817214748807205,-0.4742235255616567,-2.0439269676089875,-0.012938806981062664,0.10200000000000008,-0.089270489939042,-0.001201226659601946,-0.03493652511428081,-0.034940858911652134,3.7354457450474676,1.9573071094508974,0.2798857195095389,-0.00021425016283186063,-0.009648759325832538,-0.09458841005532423
1750769427.9807916,-1.918493758312069,-2.425868,-0.40149858997378285,1.5817214748807205,-0.4742235255616567,-2.0439269676089875,-0.012938806981062664,0.10200000000000008,-0.089270489939042,-0.001201226659601946,-0.03493652511428081,-0.034940858911652134,3.7354457450474676,1.9573071094508974,0.2798857195095389,-0.00021425016283186063,-0.009648759325832538,-0.09458841005532423
1750769427.982773,-1.9185197627770796,-2.4256629999999997,-0.4016780061545422,1.5817190606506693,-0.47429374112683664,-2.0439971918842517,-0.013065658029896612,0.10300000000000008,-0.09014569082079732,-0.001213003391558828,-0.0352790400663816,-0.03528341635196245,3.736190862148497,1.9579658324170524,0.2798888105748999,-0.00021519786876925113,-0.009648759325870428,-0.09462459372434125
1750769427.9893696,-1.9185725328133945,-2.4252469999999997,-0.4020420897213528,1.581714161530175,-0.47443622734691093,-2.044139695779421,-0.013319360127564508,0.10500000000000008,-0.09189609258430795,-0.0012365568554725916,-0.035964069970583185,-0.035968531232583076,3.7377028218498514,1.9593024090950648,0.2798950805712155,-0.00021712076670111065,-0.009648759325948405,-0.09469805744872045
1750769427.990843,-1.9186263176581004,-2.424823,-0.40241317489521666,1.5817091681958255,-0.47458145368660176,-2.044284940134112,-0.013573062225232404,0.10700000000000008,-0.09364649434781858,-0.0012601103193863553,-0.03664909987478477,-0.03665364611320371,3.739243743391709,1.960664483670323,0.27990146755170014,-0.0002190802960449044,-0.009648759326028366,-0.09477298539455543
1750769427.992919,-1.9186535906335997,-2.4246079999999997,-0.4026013430847941,1.5817066361984546,-0.47465509440130305,-2.044358589983778,-0.01369991327406635,0.10800000000000008,-0.09452169522957389,-0.001271887051343237,-0.03699161482688556,-0.036996203553514025,3.740025062759846,1.9613550789514345,0.27990470484630864,-0.00022007379114622914,-0.009648759326068979,-0.09481099935214674
1750769427.9947562,-1.9186811173111966,-2.424391,-0.40279126167613555,1.5817040806476201,-0.47472942014590913,-2.0444329249483264,-0.013826764322900299,0.10900000000000008,-0.0953968961113292,-0.0012836637833001188,-0.037334129778986355,-0.03733876099382434,3.7408136200585522,1.9620520442149987,0.2799079713088066,-0.00022107643642633868,-0.009648759326110545,-0.09484938045330159
1750769427.996764,-1.918708897690891,-2.4241719999999995,-0.4029829306692392,1.5817015015433216,-0.47480443092041913,-2.044507945027754,-0.013953615371734247,0.11000000000000008,-0.09627209699308452,-0.0012954405152570006,-0.037676644731087144,-0.03768131843413465,3.7416094144258887,1.9627553779321507,0.27991126691260637,-0.00022208822927065946,-0.009648759326152284,-0.09488812906724396
1750769427.998763,-1.918736931772683,-2.4239509999999997,-0.4031763500641077,1.5816988988855591,-0.47488012672483393,-2.0445836502220622,-0.014080466420568195,0.11100000000000008,-0.09714729787483983,-0.0013072172472138825,-0.03801915968318794,-0.038023875874444966,3.742412444990831,1.963465078558798,0.27991459163086024,-0.0002231091670373712,-0.009648759326194982,-0.0949272455663074
1750769428.0005903,-1.9187652195565734,-2.4237279999999997,-0.40337151986073927,1.5816962726743327,-0.47495650755915175,-2.0446600405312516,-0.014207317469402143,0.11200000000000009,-0.09802249875659515,-0.0013189939791707643,-0.03836167463528873,-0.03836643331475528,3.743222710873284,1.9641811445356108,0.27991794543646237,-0.00022413924705722571,-0.009648759326237865,-0.09496673032590532
1750769428.002674,-1.9187937610425614,-2.4235029999999997,-0.40356844005913395,1.5816936229096423,-0.4750335734233744,-2.0447371159553214,-0.014334168518236089,0.11300000000000009,-0.09889769963835046,-0.0013307707111276461,-0.03870418958738952,-0.0387089907550656,3.7440402111840116,1.9649035742879843,0.27992132830204725,-0.00022517846663354962,-0.009648759326281524,-0.09500658372454493
1750769428.004663,-1.918822556230646,-2.4232759999999995,-0.4037671106592926,1.5816909495914881,-0.4751113243175018,-2.0448148764942715,-0.014461019567070037,0.11400000000000009,-0.09977290052010578,-0.001342547443084528,-0.039046704539490315,-0.039051548195375915,3.744864945024626,1.9656323662260062,0.27992474019998914,-0.00022622682304212976,-0.009648759326325963,-0.09504680614380694
1750769428.0066736,-1.918851605120829,-2.423047,-0.40396753166121435,1.5816882527198701,-0.47518976024153226,-2.044893322148104,-0.014587870615903985,0.11500000000000009,-0.10064810140186109,-0.0013543241750414098,-0.039389219491591104,-0.03939410563568623,3.745696911487562,1.9663675187444145,0.2799281811024024,-0.00022728431353112209,-0.0096487593263706,-0.09508739796833968
1750769428.0086517,-1.9188809077131097,-2.4228159999999996,-0.4041697030649001,1.581685532294788,-0.4752688811954675,-2.0449724529168147,-0.014714721664737933,0.11600000000000009,-0.1015233022836164,-0.0013661009069982917,-0.0397317344436919,-0.03973666307599654,3.7465361096560312,1.9671090302225926,0.2799316509811412,-0.00022835093532096672,-0.009648759326416227,-0.09512835958584684
1750769428.0106487,-1.9189104640074879,-2.422583,-0.4043736248703489,1.581682788316242,-0.47534868717930756,-2.045052268800408,-0.014841572713571881,0.11700000000000009,-0.10239850316537172,-0.0013778776389551735,-0.04007424939579269,-0.04007922051630686,3.747382538603988,1.9678568990245067,0.279935149807798,-0.00022942668560431328,-0.009648759326462062,-0.09516969138709137
1750769428.0144944,-1.9189402740039636,-2.422348,-0.4045792970775608,1.581680020784232,-0.4754291781930515,-2.0451327697988795,-0.014968423762405828,0.11800000000000009,-0.10327370404712703,-0.0013896543709120553,-0.040416764347893486,-0.04042177795661717,3.748236197396116,1.968611123498698,0.2799386775537045,-0.00023051156154585485,-0.009648759326508894,-0.09521139376586317
1750769428.0149996,-1.9189703377025378,-2.4221109999999997,-0.40478671968653757,1.5816772296987585,-0.4755103542366985,-2.0452139559122333,-0.015095274811239776,0.11900000000000009,-0.10414890492888235,-0.0014014311028689372,-0.040759279299994275,-0.04076433539692749,3.7490970850877767,1.9693717019782302,0.2799422341899303,-0.00023160556028229274,-0.009648759326555947,-0.09525346711899067
1750769428.0168183,-1.9190006551032095,-2.4218719999999996,-0.40499589269727654,1.5816744150598208,-0.4755922153102512,-2.0452958271404675,-0.015222125860073724,0.12000000000000009,-0.10502410581063766,-0.001413207834825819,-0.04110179425209507,-0.041106892837237806,3.7499652007249846,1.970138632780674,0.2799458196872831,-0.00023270867892229797,-0.009648759326604008,-0.09529591184632494
1750769428.0187802,-1.9190312262059779,-2.4216309999999996,-0.4052068161097795,1.581671576867419,-0.4756747614137069,-2.045378383483582,-0.015348976908907672,0.1210000000000001,-0.10589930669239297,-0.0014249845667827009,-0.04144430920419586,-0.041449450277548115,3.750840543344365,1.970911914208064,0.2799494340163078,-0.00023382091454630425,-0.0096487593266523,-0.0953387283507264
1750769428.0207496,-1.9190312262059779,-2.4216309999999996,-0.4052068161097795,1.581671576867419,-0.4756747614137069,-2.045378383483582,-0.015348976908907672,0.1210000000000001,-0.10589930669239297,-0.0014249845667827009,-0.04144430920419586,-0.041449450277548115,3.750840543344365,1.970911914208064,0.2799494340163078,-0.00023382091454630425,-0.0096487593266523,-0.0953387283507264
1750769428.022725,-1.9190620510108447,-2.421388,-0.4054194899240464,1.5816687151215536,-0.4757579925470683,-2.045461624941578,-0.01547582795774162,0.1220000000000001,-0.10677450757414829,-0.0014367612987395825,-0.04178682415629665,-0.04179200771785843,3.7517231119731442,1.9716915445468601,0.27995307714728657,-0.00023494226420648577,-0.009648759326701417,-0.09538191703806831
1750769428.0248754,-1.919093129517809,-2.421143,-0.40563391414007643,1.5816658298222241,-0.4758419087103327,-2.0455455515144543,-0.015602679006575566,0.1230000000000001,-0.1076497084559036,-0.0014485380306964643,-0.042129339108397446,-0.04213456515816875,3.752612905629089,1.9724775220679303,0.279956749050238,-0.00023607272492664978,-0.009648759326751364,-0.09542547831720474
1750769428.0267794,-1.919124461726871,-2.420896,-0.40585008875786954,1.5816629209694308,-0.47592650990350105,-2.04563016320221,-0.015729530055409516,0.1240000000000001,-0.10852490933765892,-0.0014603147626533462,-0.042471854060498235,-0.042477122598479064,3.7535099233204803,1.9732698450265012,0.27996044969491723,-0.0002372122937020982,-0.009648759326801558,-0.09546941259998319
1750769428.0287821,-1.9191560476380305,-2.4206469999999998,-0.40606801377742663,1.5816599885631735,-0.4760117961265742,-2.045715460004848,-0.01585638110424346,0.12500000000000008,-0.10940011021941422,-0.001472091494610228,-0.042814369012599024,-0.04281968003878937,3.7544141640460937,1.9740685116621317,0.27996417905081533,-0.00023836096749959939,-0.009648759326852592,-0.0955137203012213
1750769428.0307508,-1.9191878872512884,-2.4203959999999998,-0.4062876891987477,1.5816570326034523,-0.4760977673795521,-2.0458014419223662,-0.01598323215307741,0.12600000000000008,-0.11027531110116953,-0.0014838682265671096,-0.04315688396469982,-0.04316223747909969,3.7553256267951443,1.9748735201986778,0.2799679370871573,-0.0002395187432572652,-0.009648759326904474,-0.09555840183871163
1750769428.0327199,-1.919219980566643,-2.420143,-0.40650911502183185,1.5816540530902672,-0.4761844236624331,-2.045888108954765,-0.016110083201911356,0.12700000000000009,-0.11115051198292485,-0.0014956449585239915,-0.04349939891680061,-0.043504794919410006,3.7562443105472587,1.9756848688442528,0.2799717237729056,-0.00024068561788439437,-0.009648759326956621,-0.0956034576331898
1750769428.034647,-1.9192523275840951,-2.419888,-0.4067322912466791,1.5816510500236183,-0.47627176497521884,-2.045975461102044,-0.016236934250745304,0.12800000000000009,-0.11202571286468016,-0.0015074216904808733,-0.0438419138689014,-0.04384735235972032,3.7571702142724477,1.976502555791198,0.2799755390767553,-0.00024186158826144675,-0.009648759327009626,-0.09564888810834485
1750769428.0367675,-1.9192849283036457,-2.419631,-0.4069572178732903,1.5816480234035053,-0.4763597913179085,-2.0460634983642034,-0.016363785299579253,0.1290000000000001,-0.11290091374643547,-0.0015191984224377552,-0.044184428821002195,-0.04418990980003063,3.7581033369310655,1.9773265792160404,0.27997938296713654,-0.0002430466512399271,-0.009648759327063494,-0.09569469369079646
1750769428.0423381,-1.9193177827252939,-2.4193719999999996,-0.4071838949016646,1.5816449732299285,-0.476448502690503,-2.0461522207412433,-0.0164906363484132,0.1300000000000001,-0.11377611462819079,-0.001530975154394637,-0.044526943773102984,-0.04453246724034095,3.7590436774737706,1.9781569372794694,0.279983255412213,-0.0002442408036422962,-0.009648759327117645,-0.09574087481010195
1750769428.0431464,-1.9193177827252939,-2.4193719999999996,-0.4071838949016646,1.5816449732299285,-0.476448502690503,-2.0461522207412433,-0.0164906363484132,0.1300000000000001,-0.11377611462819079,-0.001530975154394637,-0.044526943773102984,-0.04453246724034095,3.7590436774737706,1.9781569372794694,0.279983255412213,-0.0002442408036422962,-0.009648759327117645,-0.09574087481010195
1750769428.0452673,-1.9193508908490395,-2.4191109999999996,-0.4074123223318029,1.5816418995028878,-0.47653789909300137,-2.0462416282331652,-0.016617487397247145,0.1310000000000001,-0.1146513155099461,-0.0015427518863515188,-0.04486945872520378,-0.044875024680651264,3.759991234841487,1.978993628126288,0.2799871563798811,-0.00024544404226177057,-0.00964875932717287,-0.09578743189871632
1750769428.046716,-1.9194517374328628,-2.418316,-0.408108107032799,1.581632537000982,-0.4768101984799218,-2.0465139613982117,-0.01699804054374899,0.1340000000000001,-0.11727691815521205,-0.0015780820822221644,-0.045897003581506154,-0.04590269700158221,3.762877197157323,1.9815416785761417,0.2799990300933958,-0.0002491082429159355,-0.0096487593273419,-0.09592936334859405
1750769428.0488439,-1.9194858603649987,-2.4180469999999996,-0.4083435360699905,1.5816293690600856,-0.4769023350020367,-2.0466061093496553,-0.017124891592582937,0.1350000000000001,-0.11815211903696736,-0.0015898588141790462,-0.04623951853360695,-0.04624525444189252,3.7638536110385394,1.9824036816856685,0.2800030448250509,-0.0002503477937495907,-0.009648759327399906,-0.09597742869704873
1750769428.0507464,-1.919520236999233,-2.417776,-0.4085807155089469,1.5816261775657252,-0.47699515655405555,-2.046698942415979,-0.017251742641416885,0.1360000000000001,-0.11902731991872267,-0.001601635546135928,-0.04658203348570774,-0.04658781188220284,3.764837236302205,1.9832720080631066,0.28000708791476586,-0.00025159641432558153,-0.00964875932745823,-0.09602587222051337
1750769428.052809,-1.919520236999233,-2.417776,-0.4085807155089469,1.5816261775657252,-0.47699515655405555,-2.046698942415979,-0.017251742641416885,0.1360000000000001,-0.11902731991872267,-0.001601635546135928,-0.04658203348570774,-0.04658781188220284,3.764837236302205,1.9832720080631066,0.28000708791476586,-0.00025159641432558153,-0.00964875932745823,-0.09602587222051337
1750769428.0547636,-1.919554867335565,-2.417503,-0.40881964534966553,1.581622962517901,-0.4770886631359792,-2.0467924605971834,-0.017378593690250833,0.1370000000000001,-0.11990252080047799,-0.00161341227809281,-0.04692454843780853,-0.046930369322513155,3.765828071830108,1.9841466557572105,0.28001115932882853,-0.00025285410125993875,-0.009648759327517468,-0.09607469436872054
1750769428.056638,-1.9195897513739943,-2.4172279999999997,-0.4090603255921481,1.581619723916613,-0.47718285474780675,-2.046886663893269,-0.01750544473908478,0.1380000000000001,-0.1207777216822333,-0.0016251890100496917,-0.047267063389909325,-0.04727292676282347,3.7668261164940438,1.9850276228005892,0.2800152590332563,-0.000254120851138851,-0.009648759327577625,-0.0961238955942546
1750769428.0588627,-1.9196248891145213,-2.4169509999999996,-0.40930275623639467,1.5816164617618609,-0.4772777313895391,-2.046981552304235,-0.01763229578791873,0.1390000000000001,-0.12165292256398862,-0.0016369657420065736,-0.047609578342010114,-0.04761548420313379,3.767831369155778,1.9859149072096693,0.28001938699379625,-0.00025539666051850065,-0.009648759327638118,-0.09617347635252826
1750769428.060749,-1.9196602805571459,-2.4166719999999997,-0.4095469372824043,1.581613176053645,-0.4773732930611754,-2.0470771258300813,-0.017759146836752678,0.1400000000000001,-0.12252812344574393,-0.0016487424739634552,-0.04795209329411091,-0.0479580416434441,3.7688438286670163,1.986808506984664,0.280023543175925,-0.00025668152592490766,-0.00964875932769974,-0.09622343710177395
1750769428.0627496,-1.919695925701868,-2.416391,-0.40979286873017795,1.5816098667919651,-0.47746953976271556,-2.047173384470808,-0.017885997885586626,0.1410000000000001,-0.12340332432749924,-0.001660519205920337,-0.0482946082462117,-0.04830059908375441,3.7698634938693596,1.9877084201095299,0.28002772754484795,-0.00025797544385389187,-0.009648759327761715,-0.09627377830303178
1750769428.0655348,-1.9197318245486876,-2.416108,-0.41004055057971467,1.5816065339768213,-0.47756647149415965,-2.047270328226416,-0.01801284893442057,0.1420000000000001,-0.12427852520925456,-0.0016722959378772189,-0.048637123198312496,-0.04864315652406473,3.770890363594267,1.9886146445519335,0.28003194006549836,-0.00025927841077097766,-0.009648759327824828,-0.09632450042015009
1750769428.0668561,-1.9197679770976057,-2.4158229999999996,-0.4102899828310145,1.5816031776082136,-0.47766408825550855,-2.0473679570969043,-0.018139699983254518,0.1430000000000001,-0.12515372609100986,-0.0016840726698341007,-0.048979638150413285,-0.048985713964375045,3.7719244366630162,1.9895271782632054,0.28003618070253883,-0.0002605904231111349,-0.009648759327888305,-0.09637560391974703
1750769428.0687733,-1.9198043833486214,-2.415536,-0.41054116548407826,1.581599797686142,-0.47776239004676135,-2.047466271082274,-0.018266551032088466,0.1440000000000001,-0.1260289269727652,-0.0016958494017909826,-0.04932215310251408,-0.04932827140468536,3.772965711886655,1.9904460191783,0.2800404494203561,-0.0002619114772788462,-0.009648759327952937,-0.09642708927122863
1750769428.0707095,-1.9198410433017337,-2.415247,-0.410794098538906,1.5815963942106064,-0.47786137686791896,-2.047565270182524,-0.018393402080922414,0.1450000000000001,-0.1269041278545205,-0.0017076261337478644,-0.04966466805461487,-0.04967082884499568,3.7740141880659763,1.9913711652157728,0.2800447461830691,-0.0002632415696479233,-0.009648759328017946,-0.09647895694676141
1750769428.072777,-1.9198779569569444,-2.4149559999999997,-0.4110487819954969,1.581592967181607,-0.4779610487189805,-2.0476649543976535,-0.018520253129756362,0.1460000000000001,-0.12777932873627582,-0.0017194028657047463,-0.05000718300671566,-0.05001338628530599,3.775069863991472,1.9923026142777096,0.28004907095451664,-0.00026458069656133833,-0.009648759328083923,-0.09653120742126133
1750769428.0747747,-1.9199151243142527,-2.4146629999999996,-0.4113052158538508,1.5815895165991436,-0.4780614055999459,-2.047765323727665,-0.01864710417859031,0.1470000000000001,-0.12865452961803112,-0.001731179597661628,-0.050349697958816456,-0.0503559437256163,3.7761327384432892,1.9932403642497163,0.2800534236982707,-0.00026592885433124243,-0.00964875932815088,-0.09658384117239606
1750769428.0768163,-1.9199525453736594,-2.4143679999999996,-0.41156340011396875,1.5815860424632162,-0.47816244751081527,-2.0478663781725563,-0.01877395522742426,0.1480000000000001,-0.12952973049978644,-0.00174295632961851,-0.050692212910917245,-0.05069850116592662,3.7772028101911923,1.994184413000857,0.28005780437762107,-0.0002672860392386963,-0.009648759328218235,-0.0966368586805476
1750769428.0788074,-1.9199902201351629,-2.414071,-0.41182333477584976,1.581582544773825,-0.4782641744515894,-2.047968117732329,-0.018900806276258206,0.1490000000000001,-0.13040493138154174,-0.0017547330615753918,-0.05103472786301804,-0.051041058606236936,3.7782800779945216,1.9951347583836374,0.28006221295559036,-0.00026865224753365387,-0.009648759328286776,-0.09669026042882509
1750769428.080826,-1.9200281485987638,-2.413772,-0.41208501983949475,1.58157902353097,-0.4783665864222675,-2.0480705424069807,-0.019027657325092154,0.1500000000000001,-0.13128013226329707,-0.0017665097935322736,-0.05137724281511883,-0.05138361604654725,3.7793645406021503,1.9960913982339366,0.28006664939491827,-0.00027002747543482513,-0.00964875932835573,-0.09674404690303973
1750769428.0829587,-1.9200663307644632,-2.413471,-0.41234845530490283,1.581575478734651,-0.47846968342284946,-2.048173652196515,-0.019154508373926103,0.1510000000000001,-0.13215533314505237,-0.0017782865254891555,-0.051719757767219626,-0.05172617348685757,3.7804561967524526,1.9970543303709767,0.2800711136580756,-0.0002714117191295536,-0.009648759328425882,-0.09679821859169814
1750769428.0847995,-1.9201047666322602,-2.4131679999999998,-0.4126136411720749,1.581571910384868,-0.47857346545333623,-2.0482774471009293,-0.019281359422760047,0.1520000000000001,-0.1330305340268077,-0.0017900632574460373,-0.052062272719320415,-0.05206873092716788,3.781555045173248,1.9980235525972911,0.28007560570724954,-0.000272804974773704,-0.009648759328496459,-0.09685277598598437
1750769428.0869036,-1.9201434562021538,-2.4128629999999998,-0.41288057744101003,1.5815683184816212,-0.4786779325137269,-2.0483819271202233,-0.019408210471593995,0.1530000000000001,-0.133905734908563,-0.0018018399894029191,-0.05240478767142121,-0.052411288367478194,3.7826610845817603,1.9989990626986731,0.2800801255043576,-0.00027420723849156347,-0.009648759328568252,-0.09690771957976237
1750769428.0887966,-1.9201823994741458,-2.412556,-0.41314926411170916,1.5815647030249105,-0.4787830846040224,-2.0484870922543985,-0.019535061520427943,0.1540000000000001,-0.13478093579031833,-0.0018136167213598008,-0.052747302623522,-0.05275384580778851,3.783774313684594,1.999980858444125,0.28008467301103246,-0.000275618506375619,-0.009648759328640483,-0.0969630498695379
1750769428.09115,-1.9202215964482354,-2.412247,-0.4134197011841714,1.5815610640147357,-0.47888892172422093,-2.048592942503454,-0.01966191256926189,0.1550000000000001,-0.13565613667207363,-0.0018253934533166826,-0.05308981757562279,-0.05309640324809883,3.784894731177673,2.000968937585841,0.2800892481886364,-0.0002770387744866204,-0.009648759328713747,-0.0970187673544719
1750769428.0974946,-1.9202610471244235,-2.411936,-0.41369188865839757,1.5815574014510971,-0.47899544387432424,-2.048699477867391,-0.01978876361809584,0.1560000000000001,-0.13653133755382896,-0.0018371701852735645,-0.053432332527723586,-0.05343896068840914,3.7860223357461975,2.001963297859136,0.2800938509982454,-0.0002784680388532676,-0.009648759328788052,-0.09707487253635352
1750769428.0987716,-1.9203809213655711,-2.4109909999999997,-0.41451895349165646,1.5815462724393978,-0.47931912050405945,-2.049023194648484,-0.020169316764597683,0.1590000000000001,-0.1391569401990949,-0.00187250038114421,-0.05445987738402596,-0.054466633009340085,3.7894482585947977,2.0049840425678473,0.2801078248257289,-0.0002828097692925338,-0.00964875932901532,-0.09724551932080666
1750769428.1007693,-1.9204213868501494,-2.410672,-0.4147981425729359,1.5815425156619036,-0.4794283827737802,-2.0491324704719434,-0.02029616781343163,0.16000000000000011,-0.14003214108085021,-0.0018842771131010918,-0.05480239233612676,-0.0548091904496504,3.7906045981012633,2.0060035043818663,0.28011253776857764,-0.00028427497832566245,-0.009648759329093074,-0.09730318036058357
1750769428.102904,-1.9204621060368252,-2.410351,-0.4150790820559793,1.5815387353309456,-0.47953833007340396,-2.049242431410283,-0.02042301886226558,0.16100000000000012,-0.14090734196260551,-0.0018960538450579737,-0.055144907288227546,-0.05515174788996072,3.791768117946901,2.007029235749583,0.2801172781446394,-0.0002857491632744151,-0.009648759329171317,-0.09736123164529813
1750769428.104741,-1.9205030789255986,-2.4100279999999996,-0.4153617719407867,1.5815349314465235,-0.47964896240293253,-2.049353077463503,-0.020549869911099528,0.16200000000000012,-0.14178254284436084,-0.0019078305770148555,-0.05548742224032834,-0.05549430533027103,3.792938816751692,2.0080612343042175,0.2801220459133093,-0.00028723231997319725,-0.00964875932925084,-0.09741967369226584
1750769428.1069274,-1.9205443055164695,-2.409703,-0.4156462122273572,1.5815311040086375,-0.4797602797623659,-2.0494644086316036,-0.020676720959933472,0.16300000000000012,-0.14265774372611614,-0.0019196073089717373,-0.05582993719242913,-0.05583686277058135,3.7941166931245855,2.009099497661813,0.2801268410337065,-0.00028872444422354653,-0.009648759329330866,-0.09747850702134564
1750769428.1089103,-1.9205443055164695,-2.409703,-0.4156462122273572,1.5815311040086375,-0.4797602797623659,-2.0494644086316036,-0.020676720959933472,0.16300000000000012,-0.14265774372611614,-0.0019196073089717373,-0.05582993719242913,-0.05583686277058135,3.7941166931245855,2.009099497661813,0.2801268410337065,-0.00028872444422354653,-0.009648759329330866,-0.09747850702134564
1750769428.1108656,-1.920585785809438,-2.4093759999999995,-0.4159324029156908,1.5815272530172875,-0.4798722821517023,-2.0495764249145854,-0.02080357200876742,0.16400000000000012,-0.14353294460787147,-0.0019313840409286192,-0.05617245214452992,-0.05617942021089166,3.7953017456634615,2.0101440234212076,0.28013166346466156,-0.0002902255317940689,-0.009648759329411992,-0.09753773215492124
1750769428.1128514,-1.9206275198045049,-2.4090469999999997,-0.41622034400578833,1.5815233784724736,-0.4799849695709435,-2.0496891263124475,-0.020930423057601368,0.16500000000000012,-0.14440814548962677,-0.001943160772885501,-0.05651496709663072,-0.056521977651201975,3.796493972955093,2.0111948091639666,0.2801365131647278,-0.00029173557842031034,-0.009648759329494223,-0.09759734961790262
1750769428.1148238,-1.9206695075016684,-2.4087159999999996,-0.41651003549764987,1.5815194803741959,-0.4800983420200886,-2.04980251282519,-0.021057274106435316,0.16600000000000012,-0.1452833463713821,-0.0019549375048423826,-0.056857482048731506,-0.05686453509151229,3.797693373575077,2.012251852454368,0.28014139009216876,-0.0002932545798045252,-0.009648759329576982,-0.09765735993768672
1750769428.1166353,-1.9207117489009304,-2.4083829999999997,-0.4168014773912745,1.5815155587224543,-0.4802123994991385,-2.0499165844528138,-0.021184125155269264,0.16700000000000012,-0.1461585472531374,-0.0019667142367992647,-0.0571999970008323,-0.05720709253182261,3.7988999460878095,2.013315150839317,0.28014629420497006,-0.0002947825316157199,-0.009648759329661059,-0.09771776364416888
1750769428.1202888,-1.9207542440022891,-2.4080479999999995,-0.4170946696866622,1.5815116135172487,-0.48032714200809234,-2.050031341195318,-0.021310976204103212,0.16800000000000012,-0.14703374813489273,-0.0019784909687561463,-0.05754251195293309,-0.057549649972132924,3.8001136890464324,2.0143847018483423,0.2801512254608261,-0.0002963194294893681,-0.009648759329745675,-0.09777856126971861
1750769428.1207185,-1.9207969928057462,-2.407711,-0.4173896123838139,1.5815076447585794,-0.4804425695469501,-2.0501467830527016,-0.02143782725293716,0.16900000000000012,-0.14790894901664803,-0.0019902677007130284,-0.05788502690503389,-0.05789220741244324,3.801334600992788,2.0154605029935126,0.2801561838171521,-0.00029786526902737554,-0.009648759329831625,-0.09783975334916378
1750769428.1229758,-1.920839995311301,-2.4073719999999996,-0.41768630548272867,1.5815036524464459,-0.4805586821157126,-2.0502629100249674,-0.02156467830177111,0.17000000000000012,-0.14878414989840336,-0.00200204443266991,-0.058227541857134676,-0.05823476485275355,3.802562680457369,2.0165425517694247,0.28016116923107176,-0.0002994200457978984,-0.009648759329918133,-0.09790134041977887
1750769428.124862,-1.9208832515189531,-2.407031,-0.41798474898340743,1.5814996365808487,-0.4806754797143791,-2.0503797221121136,-0.021691529350605056,0.17100000000000012,-0.14965935078015866,-0.002013821164626792,-0.05857005680923547,-0.058577322293063866,3.8037979259592727,2.017630845653125,0.280166181659428,-0.00030098375533527463,-0.00964875933000599,-0.09796332302128155
1750769428.1267886,-1.9209267614287038,-2.406688,-0.4182849428858493,1.5814955971617874,-0.48079296234294944,-2.05049721931414,-0.021818380399439005,0.17200000000000013,-0.15053455166191398,-0.0020255978965836737,-0.05891257176133626,-0.05891987973337418,3.805040336006161,2.018725382104085,0.2801712210587705,-0.00030255639313974964,-0.009648759330094419,-0.09802570169579365
1750769428.1287699,-1.920970525040551,-2.4063429999999997,-0.4185868871900551,1.5814915341892624,-0.4809111300014246,-2.050615401631047,-0.02194523144827295,0.17300000000000013,-0.15140975254366928,-0.0020373746285405558,-0.05925508671343705,-0.0592624371736845,3.8062899090941986,2.0198261585641566,0.2801762873853686,-0.00030413795467754026,-0.009648759330184015,-0.09808847698785216
1750769428.1308136,-1.9210145423544969,-2.4059959999999996,-0.418890581896024,1.5814874476632732,-0.4810299826898028,-2.0507342690628345,-0.022072082497106897,0.17400000000000013,-0.1522849534254246,-0.0020491513604974374,-0.05959760166553785,-0.059604994613994815,3.807546643708019,2.020933172457497,0.2801813805951958,-0.00030572843538052396,-0.009648759330274788,-0.09815164944438312
1750769428.1327906,-1.9210588133705393,-2.4056469999999996,-0.4191960270037569,1.5814833375838202,-0.4811495204080867,-2.0508538216095022,-0.022198933545940845,0.17500000000000013,-0.1531601543071799,-0.002060928092454319,-0.059940116617638636,-0.05994755205430513,3.8088105383206674,2.022046421190555,0.28018650064394446,-0.00030732783064622615,-0.009648759330366158,-0.09821521961468803
1750769428.1347609,-1.921103338088681,-2.405296,-0.4195032225132529,1.5814792039509034,-0.4812697431562736,-2.050974059271052,-0.022325784594774793,0.17600000000000013,-0.15403535518893524,-0.002072704824411201,-0.06028263156973943,-0.06029010949461544,3.8100815913935646,2.023165902151993,0.2801916474870106,-0.0003089361358376048,-0.009648759330458917,-0.09827918805042904
1750769428.1368184,-1.9211481165089186,-2.404943,-0.41981216842451285,1.5814750467645227,-0.4813906509343653,-2.0510949820474806,-0.02245263564360874,0.17700000000000013,-0.15491055607069054,-0.0020844815563680827,-0.06062514652184022,-0.06063266693492576,3.8113598013764314,2.0242916127126804,0.28019682107950794,-0.0003105533462829693,-0.009648759330552288,-0.09834355530562529
1750769428.1388328,-1.9211481165089186,-2.404943,-0.41981216842451285,1.5814750467645227,-0.4813906509343653,-2.0510949820474806,-0.02245263564360874,0.17700000000000013,-0.15491055607069054,-0.0020844815563680827,-0.06062514652184022,-0.06063266693492576,3.8113598013764314,2.0242916127126804,0.28019682107950794,-0.0003105533462829693,-0.009648759330552288,-0.09834355530562529
1750769428.140817,-1.9211931486312555,-2.4045879999999995,-0.4201228647375359,1.581470866024678,-0.4815122437423609,-2.0512165899387913,-0.02257948669244269,0.17800000000000013,-0.15578575695244587,-0.0020962582883249647,-0.06096766147394102,-0.06097522437523607,3.812645166707284,2.0254235502255877,0.28020202137625205,-0.00031217945727583405,-0.009648759330647063,-0.09840832193661514
1750769428.1429217,-1.921238434455689,-2.404231,-0.42043531145232205,1.5814666617313693,-0.4816345215802613,-2.0513388829449823,-0.022706337741276637,0.17900000000000013,-0.15666095783420117,-0.0021080350202818464,-0.06131017642604181,-0.06131778181554639,3.8139376858123275,2.026561712025791,0.28020724833177496,-0.0003138144640746896,-0.009648759330742468,-0.09847348850206272
1750769428.144834,-1.92128397398222,-2.403872,-0.42074950856887217,1.5814624338845968,-0.48175748444806565,-2.0514618610660538,-0.022833188790110585,0.18000000000000013,-0.1575361587159565,-0.0021198117522387284,-0.0616526913781426,-0.061660339255856705,3.8152373571059655,2.0277060954303967,0.28021250190031044,-0.00031545836190304634,-0.009648759330839293,-0.09853905556293535
1750769428.1506865,-1.9213297672108496,-2.4035109999999995,-0.42106545608718626,1.5814581824843603,-0.4818811323457739,-2.0515855243020056,-0.022960039838944533,0.18100000000000013,-0.1584113595977118,-0.00213158848419561,-0.06199520633024339,-0.062002896696167015,3.816544178990711,2.028856697738492,0.2802177820358067,-0.00031711114594909105,-0.009648759330936764,-0.09860502368248496
1750769428.151224,-1.9214221147744004,-2.402783,-0.4217026023291037,1.5814496090234957,-0.482130483230903,-2.0518349061185512,-0.02321374193661243,0.18300000000000013,-0.16016176136122243,-0.0021551419481093737,-0.06268023623444498,-0.06268801157678765,3.819179268083873,2.0311765481711603,0.28022842182199187,-0.00032044335327035406,-0.009648759331135438,-0.09873816536200053
1750769428.1516259,-1.9214221147744004,-2.402783,-0.4217026023291037,1.5814496090234957,-0.482130483230903,-2.0518349061185512,-0.02321374193661243,0.18300000000000013,-0.16016176136122243,-0.0021551419481093737,-0.06268023623444498,-0.06268801157678765,3.819179268083873,2.0311765481711603,0.28022842182199187,-0.00032044335327035406,-0.009648759331135438,-0.09873816536200053
1750769428.1526895,-1.9214686691093226,-2.4024159999999997,-0.422023801052708,1.5814452869628677,-0.4822561862183239,-2.051960624699145,-0.023340592985446374,0.18400000000000014,-0.16103696224297775,-0.002166918680066256,-0.06302275118654577,-0.06303056901709796,3.820507532037473,2.0323457908034017,0.2802337813791051,-0.00032212276674460665,-0.009648759331236071,-0.09880534005977461
1750769428.1549647,-1.9215154771463423,-2.4020469999999996,-0.4223467501780762,1.5814409413487756,-0.48238257423564956,-2.05208702839462,-0.023467444034280322,0.18500000000000014,-0.16191216312473306,-0.0021786954120231374,-0.06336526613864656,-0.06337312645740828,3.821842940072438,2.0335212413543746,0.2802391673160269,-0.0003238110468344864,-0.00964875933133797,-0.0988729180918343
1750769428.156859,-1.9215625388854596,-2.4016759999999997,-0.42267144970520754,1.5814365721812196,-0.48250964728287826,-2.052214117204975,-0.02359429508311427,0.18600000000000014,-0.16278736400648838,-0.0021904721439800195,-0.06370778109074736,-0.06371568389771859,3.823185490531131,2.0347028970323584,0.28024457958522986,-0.0003255081885499082,-0.009648759331441341,-0.09894090003263217
1750769428.1588027,-1.9216098543266744,-2.4013029999999995,-0.42299789963410195,1.5814321794601995,-0.48263740536001265,-2.0523418911302107,-0.023721146131948218,0.18700000000000014,-0.16366256488824368,-0.002202248875936901,-0.06405029604284815,-0.06405824133802891,3.8245351817437365,2.0358907550273195,0.2802500181388979,-0.0003272141868648852,-0.009648759331545017,-0.09900928645885196
1750769428.1607037,-1.9216574234699877,-2.4009279999999995,-0.42332609996476034,1.5814277631857159,-0.48276584846705006,-2.052470350170327,-0.023847997180782166,0.18800000000000014,-0.164537765769999,-0.002214025607893783,-0.06439281099494894,-0.06440079877833922,3.8258920120281994,2.0370848125108574,0.28025548292891184,-0.00032892903671699966,-0.009648759331650181,-0.09907807794931936
1750769428.162738,-1.9217052463153976,-2.4005509999999997,-0.4236560506971818,1.5814233233577681,-0.4828949766039923,-2.0525994943253245,-0.023974848229616114,0.18900000000000014,-0.1654129666517543,-0.002225802339850665,-0.06473532594704973,-0.06474335621864954,3.827255979690179,2.0382850666361656,0.2802609739068624,-0.00033065273300769655,-0.009648759331756449,-0.09914727508506413
1750769428.164739,-1.9217533228629051,-2.4001719999999995,-0.4239877518313673,1.5814188599763563,-0.4830247897708384,-2.0527293235952015,-0.024101699278450062,0.19000000000000014,-0.16628816753350964,-0.0022375790718075464,-0.06507784089915052,-0.06508591365895985,3.828627083022995,2.0394915145379655,0.2802664910240362,-0.0003323852706017066,-0.009648759331863831,-0.09921687844922625
1750769428.166722,-1.921801653112512,-2.3997909999999996,-0.4243212033673158,1.5814143730414807,-0.48315528796758844,-2.05285983797996,-0.02422855032728401,0.19100000000000014,-0.16716336841526494,-0.0022493558037644285,-0.06542035585125132,-0.06542847109927016,3.8300053203075852,2.0407041533324515,0.28027203423142866,-0.00033412664432726485,-0.009648759331972727,-0.0992868886271117
1750769428.168675,-1.9218502370642145,-2.3994079999999998,-0.42465640530502835,1.5814098625531414,-0.4832864711942433,-2.0529910374795985,-0.02435540137611796,0.19200000000000014,-0.16803856929702027,-0.00226113253572131,-0.06576287080335211,-0.06577102853958049,3.831390689812429,2.041922980117274,0.28027760347973035,-0.00033587684897567024,-0.009648759332081971,-0.0993573062061297
1750769428.1706903,-1.9218990747180156,-2.3990229999999997,-0.42499335764450397,1.5814053285113379,-0.48341833945080204,-2.0531229220941185,-0.024482252424951906,0.19300000000000014,-0.16891377017877557,-0.002272909267678192,-0.0661053857554529,-0.0661135859798908,3.832783189793523,2.043147991971438,0.2802831987193382,-0.0003376358793013345,-0.009648759332192749,-0.09942813177577517
1750769428.1741476,-1.9219481660739142,-2.3986359999999998,-0.42533206038574356,1.5814007709160707,-0.4835508927372647,-2.053255491823519,-0.02460910347378585,0.19400000000000014,-0.1697889710605309,-0.0022846859996350738,-0.06644790070755369,-0.06645614342020112,3.834182818494308,2.0443791859552842,0.2802888199003441,-0.00033940373002157574,-0.009648759332304673,-0.09949936592766156
1750769428.1750023,-1.9219975111319112,-2.3982469999999996,-0.42567251352874624,1.5813961897673394,-0.48368413105363217,-2.0533887466677996,-0.0247359545226198,0.19500000000000015,-0.1706641719422862,-0.002296462731591956,-0.06679041565965449,-0.06679870086051143,3.8355895741456214,2.0456165591104267,0.2802944669725448,-0.00034118039581640126,-0.009648759332418147,-0.09957100925542972
1750769428.176975,-1.922047109892005,-2.3978559999999995,-0.426014717073512,1.5813915850651443,-0.48381805439990355,-2.0535226866269607,-0.024862805571453747,0.19600000000000015,-0.17153937282404152,-0.0023082394635488375,-0.06713293061175528,-0.06714125830082174,3.837003454965642,2.0468601084597045,0.28030013988543057,-0.00034296587132847945,-0.009648759332532007,-0.09964306235480827
1750769428.178832,-1.922096962354197,-2.3974629999999997,-0.42635867102004177,1.5813869568094852,-0.48395266277607973,-2.053657311701002,-0.024989656620287695,0.19700000000000015,-0.17241457370579683,-0.0023200161955057195,-0.06747544556385607,-0.06748381574113206,3.8384244591598446,2.048109831007117,0.2803058385881958,-0.00034476015116296794,-0.009648759332647432,-0.09971552582354268
1750769428.1808844,-1.9221470685184858,-2.3970679999999995,-0.4267043753683355,1.5813823050003621,-0.48408795618215894,-2.053792621889925,-0.025116507669121643,0.19800000000000015,-0.17328977458755215,-0.002331792927462601,-0.06781796051595686,-0.06782637318144237,3.83985258492093,2.049365723737789,0.2803115630297265,-0.00034656322988709074,-0.009648759332764044,-0.0997884002613842
1750769428.1827688,-1.922197428384873,-2.3966709999999996,-0.4270518301183923,1.5813776296377753,-0.48422393461814295,-2.053928617193728,-0.02524335871795559,0.19900000000000015,-0.17416497546930745,-0.002343569659419483,-0.06816047546805765,-0.0681689306217527,3.841287830428791,2.050627783617894,0.2803173131586123,-0.00034837510203054915,-0.009648759332881849,-0.09986168627011774
1750769428.1847885,-1.9222480419533579,-2.3962719999999997,-0.4274010352702131,1.5813729307217246,-0.48436059808403087,-2.0540652976124125,-0.02537020976678954,0.20000000000000015,-0.17504017635106278,-0.002355346391376365,-0.06850299042015845,-0.068511488062063,3.8427301938504277,2.0518960075946215,0.28032308892313224,-0.0003501957620846863,-0.009648759333001248,-0.09993538445347354
1750769428.1868417,-1.9222480419533579,-2.3962719999999997,-0.4274010352702131,1.5813729307217246,-0.48436059808403087,-2.0540652976124125,-0.02537020976678954,0.20000000000000015,-0.17504017635106278,-0.002355346391376365,-0.06850299042015845,-0.068511488062063,3.8427301938504277,2.0518960075946215,0.28032308892313224,-0.0003501957620846863,-0.009648759333001248,-0.09993538445347354
1750769428.1888666,-1.9222989092239402,-2.3958709999999996,-0.427751990823797,1.5813682082522098,-0.4844979465798236,-2.0542026631459764,-0.025497060815623487,0.20100000000000015,-0.17591537723281808,-0.002367123123333247,-0.06884550537225924,-0.06885404550237333,3.844179673339933,2.0531703925961153,0.2803288902712687,-0.00035202520450304845,-0.009648759333121076,-0.10000949541718729
1750769428.1910431,-1.92235003019662,-2.3954679999999997,-0.428104696779144,1.5813634622292312,-0.4846359801055202,-2.0543407137944207,-0.025623911864457435,0.20200000000000015,-0.1767905781145734,-0.0023788998552901285,-0.06918802032436003,-0.06919660294268364,3.8456362670383952,2.0544509355314147,0.2803347171506918,-0.0003538634237004763,-0.009648759333242518,-0.10008401976890546
1750769428.1927824,-1.9224014048713984,-2.3950629999999995,-0.42845915313625493,1.5813586926527887,-0.48477469866112166,-2.054479449557747,-0.025750762913291383,0.20300000000000015,-0.1776657789963287,-0.00239067658724701,-0.06953053527646082,-0.06953916038299394,3.8470999730738775,2.055737633290406,0.2803405695087735,-0.0003557104140536621,-0.009648759333365191,-0.10015895811824088
1750769428.1949189,-1.9224530332482734,-2.394656,-0.428815359895129,1.5813538995228822,-0.4849141022466261,-2.054618870435953,-0.025877613962125328,0.20400000000000015,-0.178540979878084,-0.002402453319203892,-0.06987305022856162,-0.06988171782330427,3.84857078956133,2.0570304827437638,0.2803464472925732,-0.0003575661699005554,-0.009648759333489495,-0.10023431107670651
1750769428.1968138,-1.9225049153272469,-2.3942469999999996,-0.429173317055767,1.5813490828395118,-0.4850541908620354,-2.0547589764290404,-0.026004465010959276,0.20500000000000015,-0.17941618075983934,-0.002414230051160774,-0.07021556518066241,-0.07022427526361458,3.8500487146025653,2.0583294807429007,0.280352350448847,-0.0003594306855401513,-0.009648759333614266,-0.10031007925769825
1750769428.198724,-1.9225570511083179,-2.393836,-0.429533024618169,1.5813442426026776,-0.48519496450734856,-2.054899767537008,-0.026131316059793224,0.20600000000000016,-0.18029138164159464,-0.002426006783117656,-0.0705580801327632,-0.0705668327039249,3.8515337462861794,2.0596346241199077,0.2803582789240454,-0.0003613039552328257,-0.009648759333740688,-0.10038626327652438
1750769428.2008135,-1.9226094405914864,-2.393423,-0.4298944825823341,1.5813393788123793,-0.48533642318256653,-2.055041243759856,-0.026258167108627172,0.20700000000000016,-0.18116658252334997,-0.0024377835150745375,-0.07090059508486399,-0.07090939014423521,3.853025882687503,2.0609459096875025,0.2803642326643056,-0.00036318597319952214,-0.009648759333868377,-0.10046286375031765
1750769428.2069228,-1.9226620837767516,-2.3930079999999996,-0.4302576909482623,1.5813344914686174,-0.4854785668876884,-2.0551834050975852,-0.02638501815746112,0.20800000000000016,-0.18204178340510527,-0.0024495602470314196,-0.07124311003696478,-0.07125194758454552,3.854525121868542,2.0622633342389727,0.2803702116154626,-0.0003650767336221858,-0.009648759333997345,-0.1005398812980888
1750769428.2074528,-1.9226620837767516,-2.3930079999999996,-0.4302576909482623,1.5813344914686174,-0.4854785668876884,-2.0551834050975852,-0.02638501815746112,0.20800000000000016,-0.18204178340510527,-0.0024495602470314196,-0.07124311003696478,-0.07125194758454552,3.854525121868542,2.0622633342389727,0.2803702116154626,-0.0003650767336221858,-0.009648759333997345,-0.1005398812980888
1750769428.2089443,-1.9227681312535774,-2.3921719999999995,-0.4309893588854097,1.5813246461207013,-0.4857649093876448,-2.055469783117684,-0.026638720255129016,0.21000000000000016,-0.1837921851686159,-0.0024731137109451832,-0.07192813994116637,-0.07193706246516615,3.8575449007508658,2.064916587369168,0.2803822449322402,-0.00036888445836543387,-0.009648759334259155,-0.10069517010064152
1750769428.2108386,-1.9228215355451361,-2.3917509999999997,-0.4313578184566289,1.5813196881165474,-0.48590910818247934,-2.0556139998000553,-0.026765571303962964,0.21100000000000016,-0.18466738605037122,-0.002484890442902065,-0.07227065489326716,-0.07227961990547647,3.8590654365090256,2.0662524094368058,0.2803882991879748,-0.00037080141085197053,-0.009648759334392012,-0.10077344260247639
1750769428.2128205,-1.9228751935387933,-2.3913279999999997,-0.4317280284296112,1.5813147065589297,-0.48605399200721777,-2.055758901597306,-0.026892422352796912,0.21200000000000016,-0.18554258693212652,-0.002496667174858947,-0.07261316984536795,-0.07262217734578678,3.860593067160571,2.0675943574660227,0.2803943784348344,-0.0003727270821259546,-0.009648759334526188,-0.10085213467233348
1750769428.2147717,-1.922929105234548,-2.390903,-0.4320999888043566,1.581309701447848,-0.4861995608618601,-2.0559044885094373,-0.02701927340163086,0.21300000000000016,-0.18641778781388185,-0.0025084439068158285,-0.07295568479746875,-0.0729647347860971,3.8621277907000207,2.0689424281521,0.28040048261709344,-0.00037466146617056497,-0.009648759334662083,-0.10093124693817128
1750769428.216766,-1.9229832706323995,-2.3904759999999996,-0.4324736995808669,1.5813046727833024,-0.48634581474640726,-2.0560507605364506,-0.02714612445046481,0.21400000000000016,-0.18729298869563715,-0.0025202206387727106,-0.07329819974956954,-0.07330729222640742,3.8636696051082384,2.0702966181705595,0.280406611678722,-0.0003766045569287757,-0.009648759334798529,-0.10101078002966576
1750769428.2187316,-1.9230376897323493,-2.3900469999999996,-0.4328491607591394,1.581299620565293,-0.4864927536608583,-2.0561977176783435,-0.027272975499298753,0.21500000000000016,-0.18816818957739248,-0.0025319973707295922,-0.07364071470167033,-0.07364984966671773,3.865218508352361,2.071656924177083,0.28041276556336997,-0.0003785563483029382,-0.009648759334936712,-0.10109073457819634
1750769428.2207499,-1.9230923625343967,-2.3896159999999997,-0.4332263723391758,1.5812945447938196,-0.48664037760521417,-2.0563453599351167,-0.0273998265481327,0.21600000000000016,-0.18904339045914778,-0.002543774102686474,-0.07398322965377112,-0.07399240710702805,3.8667744983857237,2.07302334280747,0.2804189442143793,-0.0003805168341551771,-0.009648759335076253,-0.10117111121687143
1750769428.2227566,-1.9231472890385417,-2.3891829999999996,-0.43360533432097625,1.5812894454688822,-0.48678868657947394,-2.056493687306771,-0.02752667759696665,0.21700000000000016,-0.1899185913409031,-0.002555550834643356,-0.07432574460587191,-0.07433496454733836,3.868337573147829,2.074395870677585,0.28042514757477177,-0.00038248600830662446,-0.009648759335217158,-0.10125191058043943
1750769428.2247639,-1.923202469244785,-2.3887479999999996,-0.4339860467045398,1.581284322590481,-0.4869376805836376,-2.056642699793306,-0.027653528645800597,0.21800000000000017,-0.1907937922226584,-0.0025673275666002375,-0.07466825955797271,-0.07467752198764868,3.8699077305642704,2.0757745043832787,0.28043137558726017,-0.00038446386453770497,-0.00964875933535983,-0.10133313330534598
1750769428.2266936,-1.9232579031531252,-2.388311,-0.4343685094898664,1.5812791761586158,-0.4870873596177061,-2.056792397394722,-0.027780379694634545,0.21900000000000017,-0.19166899310441374,-0.0025791042985571196,-0.0750107745100735,-0.07502007942795899,3.8714849685466555,2.0771592405003543,0.28043762819423446,-0.00038645039658764525,-0.009648759335503104,-0.10141478002963747
1750769428.228713,-1.9233135907635628,-2.3878719999999998,-0.43475272267695786,1.5812740061732866,-0.4872377236816776,-2.0569427801110187,-0.027907230743468493,0.22000000000000017,-0.19254419398616904,-0.0025908810305140012,-0.07535328946217429,-0.0753626368682693,3.8730692849925905,2.07855007558449,0.280443905337775,-0.0003884455981545919,-0.009648759335648167,-0.10149685139301583
1750769428.2318745,-1.9233135907635628,-2.3878719999999998,-0.43475272267695786,1.5812740061732866,-0.4872377236816776,-2.0569427801110187,-0.027907230743468493,0.22000000000000017,-0.19254419398616904,-0.0025908810305140012,-0.07535328946217429,-0.0753626368682693,3.8730692849925905,2.07855007558449,0.280443905337775,-0.0003884455981545919,-0.009648759335648167,-0.10149685139301583
1750769428.2328386,-1.9233695320760988,-2.387431,-0.43513868626581154,1.5812688126344938,-0.4873887727755548,-2.0570938479421947,-0.02803408179230244,0.22100000000000017,-0.19341939486792437,-0.0026026577624708833,-0.07569580441427508,-0.07570519430857962,3.8746606777855823,2.07994700617118,0.2804502069596382,-0.00039044946289525513,-0.009648759335794635,-0.10157934803676813
1750769428.2346954,-1.9234257270907325,-2.3869879999999997,-0.4355264002564292,1.581263595542237,-0.48754050689933504,-2.057245600888253,-0.02816093284113639,0.22200000000000017,-0.19429459574967967,-0.002614434494427765,-0.07603831936637588,-0.07604775174888993,3.876259144794988,2.0813500287756987,0.28045653300126944,-0.00039246198442466866,-0.009648759335942909,-0.10166227060374931
1750769428.23711,-1.9234821758074636,-2.3865429999999996,-0.43591586464880994,1.581258354896516,-0.48769292605302006,-2.0573980389491915,-0.028287783889970337,0.22300000000000017,-0.195169796631435,-0.002626211226384647,-0.07638083431847667,-0.07639030918920026,3.8778646838759587,2.0827591398930103,0.2804628834037881,-0.0003944831563164267,-0.009648759336091828,-0.10174561973841041
1750769428.238904,-1.9235388782262923,-2.3860959999999998,-0.43630707944295466,1.5812530906973312,-0.487846030236609,-2.0575511621250095,-0.028414634938804285,0.22400000000000017,-0.1960449975131903,-0.0026379879583415286,-0.07672334927057746,-0.07673286662951057,3.8794772928693706,2.0841743359977327,0.28046925810800194,-0.0003965129721018584,-0.009648759336242575,-0.10182939608670465
1750769428.2409494,-1.9235958343472186,-2.3856469999999996,-0.43670004463886336,1.5812478029446826,-0.48799981945010185,-2.057704970415709,-0.02854148598763823,0.22500000000000017,-0.19692019839494562,-0.0026497646902984106,-0.07706586422267825,-0.07707542406982087,3.881096969601777,2.0855956135440676,0.28047565705439126,-0.00039855142527056667,-0.009648759336394768,-0.10191360029614333
1750769428.2426403,-1.9236530441702424,-2.3851959999999996,-0.43709476023653426,1.5812424916385701,-0.4881542936934995,-2.0578594638212895,-0.028668337036472178,0.22600000000000017,-0.19779539927670092,-0.0026615414222552923,-0.07740837917477904,-0.0774179815101312,3.8827237118853257,2.0870229689657367,0.280482080183123,-0.00040059850926972747,-0.009648759336548417,-0.1019982330157252
1750769428.2447345,-1.9237105076953647,-2.384743,-0.43749122623597003,1.5812371567789936,-0.48830945296680106,-2.0580146423417496,-0.028795188085306126,0.22700000000000017,-0.19867060015845625,-0.0026733181542121743,-0.07775089412687984,-0.07776053895044151,3.8843575175177225,2.0884563986759286,0.2804885274340354,-0.0004026542175041283,-0.009648759336703927,-0.10208329489591561
1750769428.2467923,-1.9237682249225845,-2.3842879999999997,-0.4378894426371689,1.5812317983659532,-0.4884652972700074,-2.05817050597709,-0.028922039134140074,0.22800000000000017,-0.19954580104021155,-0.002685094886169056,-0.07809340907898063,-0.07810309639075183,3.885998384282146,2.089895899067242,0.280494998746652,-0.00040471854333606677,-0.00964875933686013,-0.10216878658867856
1750769428.2487671,-1.923826195851901,-2.383831,-0.43828940944013084,1.581226416399449,-0.4886218266031177,-2.0583270547273127,-0.029048890182974022,0.22900000000000018,-0.20042100192196688,-0.002696871618125938,-0.07843592403108142,-0.07844565383106214,3.8876463099471907,2.0913414665116163,0.28050149406016656,-0.0004067914800849485,-0.009648759337018215,-0.10225470874737855
1750769428.2507215,-1.9238844204833159,-2.3833719999999996,-0.43869112664485677,1.5812210108794809,-0.4887790409661319,-2.058484288592415,-0.02917574123180797,0.23000000000000018,-0.20129620280372218,-0.0027086483500828196,-0.07877843898318221,-0.07878821127137246,3.8893012922668215,2.0927930973602686,0.28050801331345626,-0.00040887302102740803,-0.009648759337177796,-0.10234106202684178
1750769428.2527413,-1.9239428988168283,-2.3829109999999996,-0.4390945942513458,1.5812155818060487,-0.48893694035905,-2.0586422075723974,-0.029302592280641918,0.23100000000000018,-0.2021714036854775,-0.0027204250820397013,-0.07912095393528301,-0.07913076871168277,3.890963328980284,2.0942507879436465,0.28051455644506706,-0.0004109631593968298,-0.00964875933733928,-0.10242784708325572
1750769428.2549355,-1.9240016308524384,-2.3824479999999997,-0.4394998122595979,1.5812101291791525,-0.4890955247818729,-2.058800811667261,-0.029429443329475866,0.23200000000000018,-0.2030466045672328,-0.0027322018139965833,-0.0794634688873838,-0.07947332615199308,3.8926324178120613,2.0957145345713486,0.2805211233932275,-0.00041306188838348824,-0.0096487593375015,-0.10251506457422437
1750769428.2567751,-1.9240606165901468,-2.3819829999999995,-0.43990678066961486,1.5812046529987926,-0.4892547942345997,-2.0589601008770053,-0.029556294378309814,0.23300000000000018,-0.20392180544898814,-0.002743978545953465,-0.07980598383948459,-0.0798158835923034,3.8943085564718047,2.097184333532077,0.2805277140958332,-0.0004151692011340376,-0.009648759337665644,-0.1026027151586933
1750769428.2618291,-1.924119856029952,-2.3815159999999995,-0.44031549948139403,1.5811991532649687,-0.48941474871723045,-2.0591200752016308,-0.029683145427143762,0.23400000000000018,-0.20479700633074344,-0.002755755277910347,-0.08014849879158538,-0.08015844103261371,3.89599174265426,2.0986601810935763,0.2805343284904606,-0.0004172850907515661,-0.009648759337831327,-0.10269079949693437
1750769428.264358,-1.924119856029952,-2.3815159999999995,-0.44031549948139403,1.5811991532649687,-0.48941474871723045,-2.0591200752016308,-0.029683145427143762,0.23400000000000018,-0.20479700633074344,-0.002755755277910347,-0.08014849879158538,-0.08015844103261371,3.89599174265426,2.0986601810935763,0.2805343284904606,-0.0004172850907515661,-0.009648759337831327,-0.10269079949693437
1750769428.264966,-1.9242390960158557,-2.3805759999999996,-0.4411381883102443,1.5811880831369294,-0.48973671277220543,-2.059442079195523,-0.029936847524811655,0.23600000000000018,-0.20654740809425406,-0.0027793087418241107,-0.08083352869578697,-0.08084355591323435,3.899379248291449,2.1016300069846396,0.2805476281044302,-0.0004215425727808505,-0.009648759338167754,-0.10286827208247934
1750769428.2668035,-1.9242990965619544,-2.3801029999999996,-0.44155215832731454,1.5811825127427137,-0.4898987223445488,-2.0596041088647894,-0.030063698573645603,0.23700000000000018,-0.2074226089760094,-0.0027910854737809923,-0.08117604364788776,-0.08118611335354466,3.9010835630606184,2.1031239777443043,0.2805543131972807,-0.0004236841511790484,-0.009648759338337734,-0.10295766165685308
1750769428.2687988,-1.9243593508101497,-2.379628,-0.44196787874614785,1.5811769187950342,-0.49006141694679695,-2.0597668236489373,-0.03019054962247955,0.23800000000000018,-0.2082978098577647,-0.0028028622057378744,-0.08151855859998855,-0.08152867079385498,3.9027949159812505,2.1046239819648163,0.2805610217291683,-0.00042583427841685645,-0.009648759338509692,-0.10304748763911876
1750769428.2706268,-1.9244198587604444,-2.379151,-0.44238534956674513,1.5811713012938908,-0.490224796578949,-2.0599302235479646,-0.0303174006713135,0.23900000000000018,-0.20917301073952002,-0.002814638937694756,-0.08186107355208934,-0.08187122823416529,3.9045133046726517,2.106130015808155,0.2805677536360208,-0.0004279929473764129,-0.009648759338683244,-0.10313775069592228
1750769428.2727208,-1.9244806204128357,-2.378672,-0.4428045707891064,1.5811656602392834,-0.490388861241005,-2.0600943085618733,-0.030444251720147447,0.24000000000000019,-0.21004821162127532,-0.002826415669651638,-0.08220358850419014,-0.08221378567447561,3.906238726738826,2.1076420754149767,0.280574508853442,-0.00043016015089549696,-0.009648759338858795,-0.10322845149515374
1750769428.2746434,-1.9245416357673246,-2.3781909999999997,-0.44322554241323076,1.5811599956312121,-0.4905536109329658,-2.060259078690663,-0.030571102768981395,0.2410000000000002,-0.21092341250303065,-0.0028381924016085197,-0.08254610345629093,-0.08255634311478592,3.907971179768436,2.109160156904522,0.2805812873166979,-0.00043233588176661215,-0.009648759339035182,-0.10331959070585371
1750769428.276619,-1.924602904823912,-2.3777079999999997,-0.4436482644391182,1.581154307469677,-0.4907190456548305,-2.0604245339343326,-0.030697953817815343,0.2420000000000002,-0.21179861338478595,-0.0028499691335654017,-0.08288861840839172,-0.08289890055509623,3.909710661334738,2.110684256374567,0.2805880889607297,-0.00043452013273753763,-0.009648759339213588,-0.10341116899826366
1750769428.2786567,-1.924664427582596,-2.377223,-0.4440727368667696,1.5811485957546778,-0.4908851654065991,-2.0605906742928832,-0.03082480486664929,0.2430000000000002,-0.21267381426654128,-0.0028617458655222834,-0.08323113336049251,-0.08324145799540655,3.9114571689954847,2.112214369901365,0.280594913720138,-0.00043671289651063175,-0.009648759339393633,-0.10350318704375358
1750769428.2806418,-1.9247262040433784,-2.3767359999999997,-0.444498959696185,1.581142860486215,-0.4910519701882725,-2.0607574997663143,-0.03095165591548324,0.2440000000000002,-0.21354901514829658,-0.002873522597479165,-0.0835736483125933,-0.08358401543571686,3.913210700292892,2.1137504935395666,0.2806017615291981,-0.0004389141657427546,-0.00964875933957533,-0.10359564551480395
1750769428.2827053,-1.9247882342062574,-2.3762469999999998,-0.44492693292736263,1.581137101664288,-0.49121945999984984,-2.0609250103546257,-0.031078506964317187,0.2450000000000002,-0.2144242160300519,-0.002885299329436047,-0.0839161632646941,-0.08392657287602719,3.914971252753552,2.1152926233221683,0.28060863232184347,-0.00044112393304543526,-0.00964875933975908,-0.10368854508502913
1750769428.284657,-1.924850518071235,-2.3757559999999995,-0.4453566565603051,1.5811313192888972,-0.4913876348413311,-2.0610932060578184,-0.031205358013151132,0.2460000000000002,-0.2152994169118072,-0.0028970760613929287,-0.08425867821679489,-0.0842691303163375,3.9167388238883882,2.116840755260442,0.28061552603167983,-0.00044334219098399706,-0.00964875933994372,-0.10378188642908044
1750769428.2876496,-1.92491305563831,-2.3752629999999995,-0.44578813059501066,1.5811255133600424,-0.4915564947127171,-2.0612620868758906,-0.031332209061985083,0.2470000000000002,-0.21617461779356253,-0.0029088527933498107,-0.08460119316889568,-0.08461168775664782,3.918513411192551,2.1183948853438674,0.28062244259197033,-0.0004455689320782173,-0.00964875934013044,-0.10387567022270679
