mathias31415/primitives_from_planned_trajectory_python/data/saved_trajectories/trajectory_20250618_094405_planned.csv
time_from_start,shoulder_pan_joint_pos,shoulder_lift_joint_pos,elbow_joint_pos,wrist_1_joint_pos,wrist_2_joint_pos,wrist_3_joint_pos,shoulder_pan_joint_vel,shoulder_lift_joint_vel,elbow_joint_vel,wrist_1_joint_vel,wrist_2_joint_vel,wrist_3_joint_vel,shoulder_pan_joint_acc,shoulder_lift_joint_acc,elbow_joint_acc,wrist_1_joint_acc,wrist_2_joint_acc,wrist_3_joint_acc,fk_x,fk_y,fk_z,fk_qx,fk_qy,fk_qz,fk_qw
0.0,-2.298301407542481,-2.3370264607189424,-1.4160823928592485,-3.9097671594195678,0.37903784990902534,-1.024358794718804,0.00033064849000690176,0.00040250721787189205,2.9600736473977622e-05,0.0005000000000000001,4.348173573115705e-05,-0.00013506850878596083,0.3306484900069018,0.40250721787189203,0.02960073647397762,0.5000000000000001,0.043481735731157045,-0.13506850878596083,-0.720970999176356,-0.3849870007329539,0.3136129999171942,-0.5642112716013125,-0.004522172632980528,0.5686458249152848,0.5985708953491828
0.1,-2.2966481650924466,-2.335013924629583,-1.4159343891768787,-3.907267159419568,0.3792552585876811,-1.0250341372627338,0.03306484900069027,0.04025072178718932,0.0029600736473977705,0.05000000000000015,0.0043481735731157175,-0.01350685087859612,0.330648490006982,0.40250721787198734,0.02960073647398492,0.5000000000001179,0.043481735731167516,-0.13506850878599272,-0.7201433674299493,-0.38597826121581497,0.3149152968474419,-0.5642791791456632,-0.003242806501824476,0.5698507495811693,0.597368073628368
0.2,-2.291688437742343,-2.3289763163615045,-1.415490378129769,-3.899767159419568,0.3799074846236485,-1.0270601648945232,0.06612969800137995,0.08050144357437793,0.005920147294795489,0.09999999999999942,0.008696347146231357,-0.027013701757192,0.3306484900064824,0.40250721787138366,0.02960073647394025,0.4999999999993616,0.04348173573110073,-0.1350685087857863,-0.7176471489450544,-0.38893572350259903,0.31881786664871736,-0.5644874433532316,0.0005960299300022875,0.5734385938943435,0.5937354209387653
0.30000000000000004,-2.2834222254921706,-2.3189136359147073,-1.4147503597179194,-3.8872671594195674,0.38099452801692735,-1.0304368776141721,0.09919454700206727,0.12075216536156365,0.008880220942192995,0.1499999999999951,0.013044520719346687,-0.04052055263578692,0.3306484900035958,0.4025072178678726,0.029600736473681777,0.499999999995004,0.04348173573072256,-0.13506850878461363,-0.7134429787009164,-0.3938101752483973,0.3253079320400007,-0.5648497628969431,0.006996109297175594,0.5793279467065223,0.5876009955529121
0.4,-2.271849528341929,-2.304825883289191,-1.4137143339413303,-3.8697671594195677,0.38251638876751787,-1.0351642754216808,0.1322593960027624,0.16100288714875888,0.0118402945895912,0.2000000000000026,0.017392694292463044,-0.05402740351438502,0.3306484900085502,0.40250721787388166,0.02960073647412413,0.5000000000024702,0.04348173573137308,-0.13506850878663285,-0.7074672495302587,-0.40051875366110656,0.3343648251464786,-0.5653891974432816,0.015958908370389633,0.5873810787868409,0.5788469892305513
0.5,-2.2569703462916184,-2.286713058484956,-1.4123823008000014,-3.8472671594195678,0.38447306687541993,-1.041242358317049,0.16532424500345133,0.20125360893594654,0.014800368236988852,0.2500000000000007,0.02174086786557858,-0.0675342543929806,0.3306484900072734,0.40250721787232735,0.029600736474011374,0.5000000000005551,0.04348173573120308,-0.13506850878611243,-0.6996350642896068,-0.40894370443237216,0.3459609562629785,-0.5661384471032852,0.027483371840745716,0.5974009819245155,0.5673129557654829
0.6000000000000001,-2.2398338886604905,-2.2658523919652303,-1.410848188950811,-3.8213537526612757,0.3867265866845361,-1.0482425287338621,0.1720487353607218,0.20943951023933616,0.015402366652234031,0.2601686391447464,0.022625168025653244,-0.0702811802443073,1.3642633788709734e-11,1.6609629348449452e-11,1.2218059986077695e-12,2.0630324265853743e-11,1.7954482475995025e-12,-5.587379488668722e-12,-0.6904154638830411,-0.4183638474996976,0.35925164125975045,-0.5670797406964195,0.04075078837127073,0.6084666411453061,0.5536499684386796
0.7000000000000001,-2.222629015124419,-2.2449084409412974,-1.4093079522855878,-3.795336888746802,0.38898910348710125,-1.0552706467582926,0.1720487353607218,0.20943951023933616,0.015402366652234031,0.2601686391447464,0.022625168025653244,-0.0702811802443073,1.3642633788709734e-11,1.6609629348449452e-11,1.2218059986077695e-12,2.0630324265853743e-11,1.7954482475995025e-12,-5.587379488668722e-12,-0.6809548510091444,-0.42751252910658016,0.3725293090822724,-0.5681098902139403,0.054057299249796506,0.6190555876577335,0.5395360418254378
0.8,-2.2054241415883475,-2.223964489917365,-1.4077677156203643,-3.7693200248323286,0.39125162028966654,-1.0622987647827231,0.1720487353607218,0.20943951023933616,0.015402366652234031,0.2601686391447464,0.022625168025653244,-0.0702811802443073,1.3642633788709734e-11,1.6609629348449452e-11,1.2218059986077695e-12,2.0630324265853743e-11,1.7954482475995025e-12,-5.587379488668722e-12,-0.6713003147191324,-0.43634696328897193,0.38574454851234563,-0.5692257802596022,0.06734138565736408,0.6291124634938732,0.5250377673484671
0.9,-2.188219268052276,-2.203020538893432,-1.4062274789551408,-3.743303160917855,0.39351413709223176,-1.0693268828071534,0.1720487353607218,0.20943951023933616,0.015402366652234031,0.2601686391447464,0.022625168025653244,-0.0702811802443073,1.3642633788709734e-11,1.6609629348449452e-11,1.2218059986077695e-12,2.0630324265853743e-11,1.7954482475995025e-12,-5.587379488668722e-12,-0.6614624048896367,-0.4448625924029971,0.3989011781127377,-0.5704276202327024,0.08059447090137559,0.6386275636813703,0.5101683018790761
1.0,-2.1710143945162055,-2.1820765878695005,-1.4046872422899177,-3.717286297003383,0.3957766538947968,-1.0763550008315834,0.17204873536073506,0.20943951023935234,0.01540236665223522,0.2601686391447665,0.02262516802565499,-0.07028118024431272,2.689706255091445e-11,3.2775595809464826e-11,2.4089508341347347e-12,4.070606992241486e-11,3.5389047505777902e-12,-1.1008385394549522e-11,-0.6514515377609426,-0.45305484859393785,0.4120030239086542,-0.5717153522530632,0.09380794600071987,0.6475916422399995,0.49494109767343253
1.1,-2.1538095209801336,-2.161132636845567,-1.4031470056246942,-3.6912694330889084,0.39803917069736217,-1.0833831188560143,0.17204873536073506,0.20943951023935234,0.01540236665223522,0.2601686391447665,0.02262516802565499,-0.07028118024431272,2.689706255091445e-11,3.2775595809464826e-11,2.4089508341347347e-12,4.070606992241486e-11,3.5389047505777902e-12,-1.1008385394549522e-11,-0.641278015911076,-0.4609191362534116,0.4250538956232517,-0.5730886488947177,0.10697318086204476,0.6559959203591328,0.47936989012291714
1.2,-2.136604647444061,-2.140188685821633,-1.401606768959471,-3.6652525691744335,0.40030168749992745,-1.090411236880445,0.1720487353607351,0.20943951023935323,0.015402366652235265,0.2601686391447668,0.022625168025654993,-0.07028118024431293,2.7645743673465676e-11,3.366292158434035e-11,2.474807043988778e-12,4.1759769280079545e-11,3.6324898908966935e-12,-1.1285674699198124e-11,-0.6309520498234498,-0.4684508167806363,0.4380575629379609,-0.574546911343032,0.12008153557367578,0.6638320941745655,0.46346868526822893
1.3,-2.1193997739079893,-2.1192447347976997,-1.4000665322942474,-3.639235705259959,0.4025642043024928,-1.0974393549048758,0.1720487353607351,0.20943951023935323,0.015402366652235265,0.2601686391447668,0.022625168025654993,-0.07028118024431293,2.7645743673465676e-11,3.366292158434035e-11,2.474807043988778e-12,4.1759769280079545e-11,3.6324898908966935e-12,-1.1285674699198124e-11,-0.6204837808677911,-0.4756451957617774,0.45101773183638955,-0.5760892679808371,0.13312437180064854,0.6710923421379995,0.4472517470885053
1.4,-2.102194900371917,-2.098300783773766,-1.398526295629024,-3.6132188413454847,0.4048267211050581,-1.1044674729293065,0.1720487353607351,0.20943951023935323,0.015402366652235265,0.2601686391447668,0.022625168025654993,-0.07028118024431293,2.7645743673465676e-11,3.366292158434035e-11,2.474807043988778e-12,4.1759769280079545e-11,3.6324898908966935e-12,-1.1285674699198124e-11,-0.6098833055062982,-0.4824975126682995,0.46393802109050786,-0.5777145734085176,0.1460930642640281,0.6777693319728119,0.43073358457692756
1.5,-2.084990026835845,-2.077356832749832,-1.3969860589638006,-3.5872019774310098,0.4070892379076234,-1.1114955909537372,0.1720487353607351,0.20943951023935323,0.015402366652235265,0.2601686391447668,0.022625168025654993,-0.07028118024431293,2.7645743673465676e-11,3.366292158434035e-11,2.474807043988778e-12,4.1759769280079545e-11,3.6324898908966935e-12,-1.1285674699198124e-11,-0.5991607005300483,-0.48900293316169513,0.4768219389476999,-0.5794214079023509,0.15897901228749645,0.6838562272101053,0.41392893861448066
1.6,-2.0677851532997735,-2.0564128817258993,-1.3954458222985773,-3.5611851135165358,0.4093517547101887,-1.1185237089781677,0.17204873536070853,0.20943951023932092,0.015402366652232888,0.26016863914472665,0.022625168025651503,-0.07028118024430209,1.1091572185941642e-12,1.3864465232427053e-12,1.0051737293509613e-13,1.6637358278912464e-12,1.4557688494048406e-13,-4.575273526700927e-13,-0.5883260491246791,-0.4951565440779457,0.4896728600769768,-0.5812080773147154,0.17177365139396764,0.6893466932994139,0.39685276865366464
1.7000000000000002,-2.0505802797637025,-2.035468930701967,-1.393905585633354,-3.5351682496020636,0.41161427151275387,-1.125551827002598,0.17204873536070853,0.20943951023932092,0.015402366652232888,0.26016863914472665,0.022625168025651503,-0.07028118024430209,1.1091572185941642e-12,1.3864465232427053e-12,1.0051737293509613e-13,1.6637358278912464e-12,1.4557688494048406e-13,-4.575273526700927e-13,-0.5773894675593391,-0.5009533511506649,0.5024940028322379,-0.5830726134191414,0.1844684649348469,0.6942349032887867,0.3795202392241587
1.8,-2.0333754062276315,-2.0145249796780353,-1.3923653489681307,-3.5091513856875904,0.41387678831531893,-1.1325799450270282,0.17204873536070853,0.20943951023932092,0.015402366652232888,0.26016863914472665,0.022625168025651503,-0.07028118024430209,1.1091572185941642e-12,1.3864465232427053e-12,1.0051737293509613e-13,1.6637358278912464e-12,1.4557688494048406e-13,-4.575273526700927e-13,-0.5663611322888099,-0.5063882795171355,0.5152884068899267,-0.5850127747024729,0.19705499573437,0.6985155430693655,0.3619467062725541
1.9,-2.016170532691561,-1.993581028654103,-1.3908251123029074,-3.483134521773118,0.4161393051178841,-1.1396080630514582,0.17204873536070853,0.20943951023932092,0.015402366652232888,0.26016863914472665,0.022625168025651503,-0.07028118024430209,1.1091572185941642e-12,1.3864465232427053e-12,1.0051737293509613e-13,1.6637358278912464e-12,1.4557688494048406e-13,-4.575273526700927e-13,-0.5552513072556531,-0.5114561770364567,0.5280589113177651,-0.5870260476057483,0.20952485773136278,0.7021838161799366,0.3441477033484415
2.0,-1.99896565915549,-1.9726370776301712,-1.389284875637684,-3.4571176578586456,0.4184018219204492,-1.1466361810758885,0.17204873536070853,0.20943951023932092,0.015402366652232888,0.26016863914472665,0.022625168025651503,-0.07028118024430209,1.1091572185941642e-12,1.3864465232427053e-12,1.0051737293509613e-13,1.6637358278912464e-12,1.4557688494048406e-13,-4.575273526700927e-13,-0.5440703711771478,-0.5161518204338187,0.5408081331304374,-0.5891096482147028,0.221869747600659,0.7052354481673316,0.32613892764923325
2.1,-1.981760785619423,-1.9516931266062438,-1.3877446389724613,-3.431100793944179,0.4206643387230139,-1.153664299100317,0.1720487353606323,0.20943951023922747,0.01540236665222602,0.2601686391446111,0.022625168025641476,-0.07028118024427048,-7.553360658624583e-11,-9.194913342143582e-11,-6.7623929171147945e-12,-1.1424319351517358e-10,-9.93388933903178e-12,3.0862299607375776e-11,-0.5328288446007721,-0.5204699242695818,0.5535384463872017,-0.5912605244001062,0.23408145633635005,0.7076666904989273,0.3079362259362484
2.2,-1.9645559120833558,-1.9307491755823163,-1.3862044023072382,-3.4050839300297118,0.4229268555255785,-1.1606924171247457,0.1720487353606323,0.20943951023922747,0.01540236665222602,0.2601686391446111,0.022625168025641476,-0.07028118024427048,-7.553360658624583e-11,-9.194913342143582e-11,-6.7623929171147945e-12,-1.1424319351517358e-10,-9.93388933903178e-12,3.0862299607375776e-11,-0.5215374165119462,-0.5244051527164667,0.5662519618853327,-0.5934753584074559,0.24615188077900949,0.7094743240238933,0.2895555803346531
2.3,-1.9473510385472887,-1.9098052245583887,-1.3846641656420153,-3.379067066115245,0.42518937232814324,-1.1677205351491742,0.1720487353606323,0.20943951023922747,0.01540236665222602,0.2601686391446111,0.022625168025641476,-0.07028118024427048,-7.553360658624583e-11,-9.194913342143582e-11,-6.7623929171147945e-12,-1.1424319351517358e-10,-9.93388933903178e-12,3.0862299607375776e-11,-0.5102069702788444,-0.5279521341127417,0.5789505075021186,-0.5957505698948308,0.25807303506898716,0.7106556619802202,0.2710130940300134
2.4,-1.9301461650112217,-1.8888612735344616,-1.3831239289767923,-3.353050202200778,0.42745188913070786,-1.1747486531736029,0.1720487353606323,0.20943951023922747,0.01540236665222602,0.2601686391446111,0.022625168025641476,-0.07028118024427048,-7.553360658624583e-11,-9.194913342143582e-11,-6.7623929171147945e-12,-1.1424319351517358e-10,-9.93388933903178e-12,3.0862299607375776e-11,-0.4988486087210873,-0.5311054782440044,0.5916356092368849,-0.5980823194170297,0.26983706200794433,0.71120855254496,0.25232497687420846
2.5,-1.912941291475155,-1.867917322510534,-1.3815836923115694,-3.3270333382863115,0.4297144059332725,-1.1817767711980314,0.1720487353606323,0.20943951023922747,0.01540236665222602,0.2601686391446111,0.022625168025641476,-0.07028118024427048,-7.553360658624583e-11,-9.194913342143582e-11,-6.7623929171147945e-12,-1.1424319351517358e-10,-9.93388933903178e-12,3.0862299607375776e-11,-0.48747367809228276,-0.5338597962909644,0.6043084730030563,-0.6004665123533975,0.28143624431079095,0.711131380925508,0.23350753091359575
2.6,-1.8957364179390879,-1.8469733714866068,-1.3800434556463466,-3.3010164743718446,0.4319769227358371,-1.18880488922246,0.1720487353606323,0.20943951023922747,0.01540236665222602,0.2601686391446111,0.022625168025641476,-0.07028118024427048,-7.553360658624583e-11,-9.194913342143582e-11,-6.7623929171147945e-12,-1.1424319351517358e-10,-9.93388933903178e-12,3.0862299607375776e-11,-0.4760937907704881,-0.5362097233656704,0.6169699672187685,-0.6028988032760496,0.292863015730282,0.7104230709901502,0.2145771358523457
2.7,-1.8785315444030208,-1.8260294204626795,-1.3785032189811235,-3.2749996104573773,0.4342394395384018,-1.1958330072468888,0.1720487353606323,0.20943951023922747,0.01540236665222602,0.2601686391446111,0.022625168025641476,-0.07028118024427048,-7.553360658624583e-11,-9.194913342143582e-11,-6.7623929171147945e-12,-1.1424319351517358e-10,-9.93388933903178e-12,3.0862299607375776e-11,-0.4647208464558058,-0.5381499435439386,0.6296206062428847,-0.6053746007545031,0.3041099720366243,0.7090830864365014,0.19555023446392106
2.8,-1.8613266708669538,-1.8050854694387521,-1.3769629823159006,-3.2489827465429113,0.43650195634096645,-1.2028611252713173,0.1720487353606323,0.20943951023922747,0.01540236665222602,0.2601686391446111,0.022625168025641476,-0.07028118024427048,-7.553360658624583e-11,-9.194913342143582e-11,-6.7623929171147945e-12,-1.1424319351517358e-10,-9.93388933903178e-12,3.0862299607375776e-11,-0.4533670516804557,-0.5396752172873946,0.6422605347015214,-0.6078890725920303,0.31516988183456823,0.707111431496863,0.17644331796371024
2.9,-1.8441217973308868,-1.7841415184148248,-1.3754227456506778,-3.2229658826284444,0.4387644731435311,-1.2098892432957458,0.1720487353606323,0.20943951023922747,0.01540236665222602,0.2601686391446111,0.022625168025641476,-0.07028118024427048,-7.553360658624583e-11,-9.194913342143582e-11,-6.7623929171147945e-12,-1.1424319351517358e-10,-9.93388933903178e-12,3.0862299607375776e-11,-0.4420449374437588,-0.5407804111346022,0.6548895127483304,-0.610437151488346,0.3260356972006202,0.7045086511799241,0.157272911355845
3.0,-1.82691692379482,-1.7631975673908975,-1.3738825089854547,-3.1969490187139775,0.44102698994609574,-1.2169173613201745,0.1720487353606322,0.20943951023922772,0.015402366652226055,0.26016863914461125,0.02262516802564147,-0.07028118024427091,-7.536723300345674e-11,-9.172730197771703e-11,-6.745062335574265e-12,-1.139104463495954e-10,-9.906160408566932e-12,3.077911281598123e-11,-0.43076737479250976,-0.5414605295272923,0.6675069022998108,-0.613013541122567,0.33670056412317495,0.701275831048644,0.1380555587672606
3.1,-1.809712050258753,-1.7422536163669702,-1.3723422723202319,-3.1709321547995106,0.44328950674866036,-1.2239454793446032,0.1720487353606322,0.20943951023922772,0.015402366652226055,0.26016863914461125,0.02262516802564147,-0.07028118024427091,-7.536723300345674e-11,-9.172730197771703e-11,-6.745062335574265e-12,-1.139104463495954e-10,-9.906160408566932e-12,3.077911281598123e-11,-0.41954758817615695,-0.5417107486247771,0.6801116542848689,-0.6156127226496859,0.34715783272860123,0.6974145965345383,0.11880780878203459
3.2,-1.792507176722686,-1.7213096653430424,-1.3708020356550088,-3.1449152908850437,0.445552023551225,-1.2309735973690317,0.1720487353606322,0.20943951023922772,0.015402366652226055,0.26016863914461125,0.02262516802564147,-0.07028118024427091,-7.536723300345674e-11,-9.172730197771703e-11,-6.745062335574265e-12,-1.139104463495954e-10,-9.906160408566932e-12,3.077911281598123e-11,-0.4083991664160424,-0.5415264519473008,0.69270229694568,-0.6182289616031401,0.35740106727652426,0.692927111789012,0.09954619978905603
3.3,-1.7753023031866189,-1.7003657143191155,-1.3692617989897862,-3.118898426970577,0.4478145403537897,-1.2380017153934604,0.1720487353606322,0.20943951023922772,0.015402366652226055,0.26016863914461125,0.02262516802564147,-0.07028118024427091,-7.536723300345674e-11,-9.172730197771703e-11,-6.745062335574265e-12,-1.139104463495954e-10,-9.906160408566932e-12,3.077911281598123e-11,-0.39733607113860553,-0.5409032676774067,0.7052769252246517,-0.6208563151953749,0.3674240559078245,0.6878160780727687,0.080287245356036
3.4,-1.7580974296505518,-1.679421763295188,-1.3677215623245629,-3.0928815630561095,0.45007705715635427,-1.245029833417889,0.1720487353606322,0.20943951023922772,0.015402366652226055,0.26016863914461125,0.02262516802564147,-0.07028118024427091,-7.536723300345674e-11,-9.172730197771703e-11,-6.745062335574265e-12,-1.139104463495954e-10,-9.906160408566932e-12,3.077911281598123e-11,-0.3863726425339165,-0.5398371074374181,0.7178331912699637,-0.6234886400076595,0.3772208201291586,0.6820847316847334,0.061047419642843596
3.5,-1.7408925561144848,-1.6584778122712607,-1.36618132565934,-3.066864699141643,0.45233957395891894,-1.2520579514423176,0.1720487353606322,0.20943951023922772,0.015402366652226055,0.26016863914461125,0.02262516802564147,-0.07028118024427091,-7.536723300345674e-11,-9.172730197771703e-11,-6.745062335574265e-12,-1.139104463495954e-10,-9.906160408566932e-12,3.077911281598123e-11,-0.37552360231310583,-0.5383242063509399,0.7303682960897144,-0.6261196000597531,0.3867856240181159,0.6757368414323239,0.041843142867118245
3.6,-1.723687682578418,-1.6375338612473334,-1.3646410889941172,-3.040847835227176,0.4546020907614836,-1.2590860694667463,0.1720487353606322,0.20943951023922772,0.015402366652226055,0.26016863914461125,0.02262516802564147,-0.07028118024427091,-7.536723300345674e-11,-9.172730197771703e-11,-6.745062335574265e-12,-1.139104463495954e-10,-9.906160408566932e-12,3.077911281598123e-11,-0.3648040537511581,-0.5363611641868755,0.7428789823822435,-0.6287426752493903,0.39611298313347554,0.6687767056452975,0.022690766835026535
3.7,-1.706482809042351,-1.616589910223406,-1.363100852328894,-3.0148309713127093,0.45686460756404823,-1.2661141874911748,0.1720487353606322,0.20943951023922772,0.015402366652226055,0.26016863914461125,0.02262516802564147,-0.07028118024427091,-7.536723300345674e-11,-9.172730197771703e-11,-6.745062335574265e-12,-1.139104463495954e-10,-9.906160408566932e-12,3.077911281598123e-11,-0.3542294787150859,-0.5339449873759243,0.7553615285675942,-0.6313511701509327,0.4051976731153823,0.6612091487358045,0.003606560549994329
3.8,-1.689277935506284,-1.5956459591994785,-1.3615606156636713,-2.9888141073982424,0.45912712436661285,-1.2731423055156035,0.1720487353606322,0.20943951023922772,0.015402366652226055,0.26016863914461125,0.02262516802564147,-0.07028118024427091,-7.536723300345674e-11,-9.172730197771703e-11,-6.745062335574265e-12,-1.139104463495954e-10,-9.906160408566932e-12,3.077911281598123e-11,-0.34381573159163464,-0.5310731316818851,0.7678117440424749,-0.6339382231619152,0.4140347379606568,0.6530395173076611,-0.015393304087852768
3.9,-1.6720730619702169,-1.5747020081755512,-1.3600203789984482,-2.962797243483776,0.4613896411691775,-1.2801704235400322,0.1720487353606321,0.20943951023922747,0.01540236665222625,0.26016863914461125,0.02262516802564145,-0.07028118024427064,-7.553360658624583e-11,-9.194913342143582e-11,-6.7623929171147945e-12,-1.1424319351517358e-10,-9.93388933903178e-12,3.0862299607375776e-11,-0.3335790300433376,-0.5277435453033918,0.7802249656783661,-0.6364968159856339,0.42261949795887266,0.6442736758182538,-0.03429276647889604
4.0,-1.6548681884341498,-1.5537580571516239,-1.3584801423332253,-2.936780379569309,0.4636521579717421,-1.2871985415644607,0.1720487353606321,0.20943951023922747,0.01540236665222625,0.26016863914461125,0.02262516802564145,-0.07028118024427064,-7.553360658624583e-11,-9.194913342143582e-11,-6.7623929171147945e-12,-1.1424319351517358e-10,-9.93388933903178e-12,3.0862299607375776e-11,-0.323535942536873,-0.5239547121759858,0.7925960555796763,0.6390197834373276,-0.43094755727526296,-0.634918001796866,0.053075891405326196
4.1,-1.6376633148980753,-1.5328141061276872,-1.3569399056680016,-2.9107635156548306,0.4659146747743077,-1.2942266595888925,0.17204873536078474,0.2094395102394133,0.015402366652239916,0.2601686391448421,0.022625168025661523,-0.070281180244333,7.697551097045208e-11,9.369605604076281e-11,6.890639220517774e-12,1.1640605009148335e-10,1.0121059619673994e-11,-3.14307426819191e-11,-0.31370337260321807,-0.5197056952397123,0.804919400116053,0.6414998235609518,-0.43901481116698976,-0.6249793806236034,0.07172688298411638
4.2,-1.6204584413620007,-1.5118701551037508,-1.3553996690027779,-2.884746651740352,0.46817719157687343,-1.301254777613324,0.17204873536078474,0.2094395102394133,0.015402366652239916,0.2601686391448421,0.022625168025661523,-0.070281180244333,7.697551097045208e-11,9.369605604076281e-11,6.890639220517774e-12,1.1640605009148335e-10,1.0121059619673994e-11,-3.14307426819191e-11,-0.30409853980499457,-0.5149961794337646,0.8171889102400824,0.6439295080429899,-0.44681745281977464,-0.6144651998734951,0.09023009847931716
4.3,-1.6032535678259263,-1.4909262040798141,-1.3538594323375543,-2.858729787825874,0.47043970837943905,-1.3082828956377557,0.17204873536078474,0.2094395102394133,0.015402366652239916,0.2601686391448421,0.022625168025661523,-0.070281180244333,7.697551097045208e-11,9.369605604076281e-11,6.890639220517774e-12,1.1640605009148335e-10,1.0121059619673994e-11,-3.14307426819191e-11,-0.29473895740249495,-0.5098265141770397,0.8293980230988097,0.6463012929092261,-0.4543519797924439,-0.6033833432306603,0.10857006196157656
4.4,-1.5860486942898517,-1.4699822530558775,-1.3523191956723306,-2.8327129239113953,0.4727022251820047,-1.3153110136621875,0.17204873536078474,0.2094395102394133,0.015402366652239916,0.2601686391448421,0.022625168025661523,-0.070281180244333,7.697551097045208e-11,9.369605604076281e-11,6.890639220517774e-12,1.1640605009148335e-10,1.0121059619673994e-11,-3.14307426819191e-11,-0.28564240672631674,-0.504197755091968,0.8415397049444918,0.6486075294898879,-0.4616152000574004,-0.5917421839778838,0.12673147780277286
4.5,-1.568843820753777,-1.4490383020319408,-1.350778959007107,-2.806696059996917,0.47496474198457034,-1.3223391316866193,0.17204873536078474,0.2094395102394133,0.015402366652239916,0.2601686391448421,0.022625168025661523,-0.070281180244333,7.697551097045208e-11,9.369605604076281e-11,6.890639220517774e-12,1.1640605009148335e-10,1.0121059619673994e-11,-3.14307426819191e-11,-0.2768269082809622,-0.49811170472849814,0.8536064553471445,0.6508404756380743,-0.4686042376256366,-0.579550578067254,0.14469924399392362
4.6,-1.5516389472177021,-1.428094351008004,-1.3492387223418834,-2.780679196082439,0.477227258787136,-1.3293672497110511,0.17204873536078474,0.2094395102394133,0.015402366652239916,0.2601686391448421,0.022625168025661523,-0.070281180244333,7.697551097045208e-11,9.369605604076281e-11,6.890639220517774e-12,1.1640605009148335e-10,1.0121059619673994e-11,-3.14307426819191e-11,-0.26831068962032917,-0.491570952045769,0.8655903127084491,0.6529923071859262,-0.4753165377454496,-0.5668178567778918,0.162458465274657
4.7,-1.5344340736816275,-1.4071503999840675,-1.3476984856766596,-2.754662332167961,0.47948977558970163,-1.336395367735483,0.17204873536078474,0.2094395102394133,0.015402366652239916,0.2601686391448421,0.022625168025661523,-0.070281180244333,7.697551097045208e-11,9.369605604076281e-11,6.890639220517774e-12,1.1640605009148335e-10,1.0121059619673994e-11,-3.14307426819191e-11,-0.26011215005256083,-0.4845789104107635,0.877482861073635,0.655055129622541,-0.4817498716646111,-0.5535538189671593,0.1799944660627104
4.8,-1.517229200145553,-1.3862064489601307,-1.346158249011436,-2.728645468253482,0.4817522923922673,-1.3434234857599145,0.172048735360785,0.20943951023941346,0.015402366652239713,0.26016863914484195,0.02262516802566159,-0.07028118024433322,7.705869776184665e-11,9.383470069308711e-11,6.899304511288043e-12,1.1657242367427253e-10,1.0131457968598316e-11,-3.147233607761639e-11,-0.2522498222481769,-0.47713985387607877,0.8892752382349716,0.6570209899772067,-0.487902340946346,-0.5397687229220844,0.19729280317210934
4.9,-1.5000243266094782,-1.365262497936194,-1.3446180123462126,-2.7026286043390035,0.4840148091948329,-1.3504516037843461,0.172048735360785,0.20943951023941346,0.015402366652239713,0.26016863914484195,0.02262516802566159,-0.07028118024433322,7.705869776184665e-11,9.383470069308711e-11,6.899304511288043e-12,1.1657242367427253e-10,1.0131457968598316e-11,-3.147233607761639e-11,-0.24474233084170827,-0.4692589515029316,0.9009581451175352,0.658881888891134,-0.49377238133010437,-0.525473277818082,0.21433927830887667
5.0,-1.482819453073404,-1.3443185469122576,-1.3430777756809889,-2.6766117404245255,0.48627732599739865,-1.3574797218087782,0.172048735360785,0.20943951023941346,0.015402366652239713,0.26016863914484195,0.02262516802566159,-0.07028118024433322,7.705869776184665e-11,9.383470069308711e-11,6.899304511288043e-12,1.1657242367427253e-10,1.0131457968598316e-11,-3.147233607761639e-11,-0.23760834813313542,-0.4609422995005534,0.9125218564349602,0.6606297928604803,-0.4993587661287478,-0.5106786347923827,0.23111995033333207
5.1,-1.465614579537329,-1.3233745958883207,-1.3415375390157651,-2.6505948765100467,0.4885398427999643,-1.3645078398332098,0.172048735360785,0.20943951023941346,0.015402366652239713,0.26016863914484195,0.02262516802566159,-0.07028118024433322,7.705869776184665e-11,9.383470069308711e-11,6.899304511288043e-12,1.1657242367427253e-10,1.0131457968598316e-11,-3.147233607761639e-11,-0.2308665470111971,-0.45219695095927226,0.9239562325999231,0.6622566466331089,-0.5046606091544193,-0.4953963776399275,0.24762114727825305
5.2,-1.4484097060012546,-1.3024306448643843,-1.3399973023505418,-2.6245780125955687,0.4908023596025299,-1.3715359578576414,0.172048735360785,0.20943951023941346,0.015402366652239713,0.26016863914484195,0.02262516802566159,-0.07028118024433322,7.705869776184665e-11,9.383470069308711e-11,6.899304511288043e-12,1.1657242367427253e-10,1.0131457968598316e-11,-3.147233607761639e-11,-0.2245355512360539,-0.44303094296177514,0.9352507328711824,0.6637543857411958,-0.5096773671660505,-0.4796385131397964,0.2638294781123903
5.3,-1.4312048324651798,-1.2814866938404477,-1.338457065685318,-2.5985611486810902,0.49306487640509555,-1.3785640758820732,0.172048735360785,0.20943951023941346,0.015402366652239713,0.26016863914484195,0.02262516802566159,-0.07028118024433322,7.705869776184665e-11,9.383470069308711e-11,6.899304511288043e-12,1.1657242367427253e-10,1.0131457968598316e-11,-3.147233607761639e-11,-0.21863388323373847,-0.43345332086527144,0.9463944297161092,0.6651149491514908,-0.5144088418321313,-0.4634174610205542,0.27973184423908193
5.4,-1.4139999589291052,-1.260542742816511,-1.3369168290200943,-2.572544284766612,0.49532739320766117,-1.385592193906505,0.172048735360785,0.20943951023941346,0.015402366652239713,0.26016863914484195,0.02262516802566159,-0.07028118024433322,7.705869776184665e-11,9.383470069308711e-11,6.899304511288043e-12,1.1657242367427253e-10,1.0131457968598316e-11,-3.147233607761639e-11,-0.2131799095692984,-0.42347415955653256,0.9573760243647532,0.6663302920147648,-0.5188551812030694,-0.4467460435732285,0.2953154507199298
5.5,-1.3967950853930327,-1.2395987917925768,-1.3353765923548708,-2.5465274208521365,0.49758991001022657,-1.392620311930936,0.1720487353605858,0.20943951023917093,0.015402366652221878,0.2601686391445407,0.022625168025635394,-0.07028118024425184,-1.219518361844554e-10,-1.484606937088618e-10,-1.0918266370538725e-11,-1.843973875913207e-10,-1.6037720157613552e-11,4.982888804535388e-11,-0.20819178427940707,-0.41310458149199913,0.9681838635286797,0.6673923984957222,-0.5230168806881723,-0.42963747492090526,0.31056781721377635
5.6,-1.379590211856968,-1.2186548407686524,-1.3338363556896482,-2.5205105569376736,0.4998524268127909,-1.3996484299553635,0.172048735360586,0.20943951023917112,0.015402366652221876,0.26016863914454064,0.02262516802563539,-0.07028118024425183,-1.218131915321311e-10,-1.482665911956078e-10,-1.0904401905306296e-11,-1.8417555614760182e-10,-1.6016923459764905e-11,4.975956571919173e-11,-0.20368739025846783,-0.4023567713463161,0.978805957255027,0.6682932946644327,-0.5268947835330119,-0.412105349954251,0.32547678862146606
5.7,-1.3623853383209032,-1.1977108897447277,-1.3322961190244256,-2.49449369302321,0.5021149436153552,-1.4066765479797911,0.172048735360586,0.20943951023917112,0.015402366652221876,0.26016863914454064,0.02262516802563539,-0.07028118024425183,-1.218131915321311e-10,-1.482665911956078e-10,-1.0904401905306296e-11,-1.8417555614760182e-10,-1.6016923459764905e-11,4.975956571919173e-11,-0.19968427890477303,-0.39124398710471614,0.989229997883518,0.669025061430143,-0.5304900807936537,-0.3941636329425072,0.34003054542717287
5.8,-1.3451804647848387,-1.176766938720803,-1.3307558823592027,-2.468476829108747,0.5043774604179196,-1.413704666004219,0.172048735360586,0.20943951023917112,0.015402366652221876,0.26016863914454064,0.02262516802563539,-0.07028118024425183,-1.218131915321311e-10,-1.482665911956078e-10,-1.0904401905306296e-11,-1.8417555614760182e-10,-1.6016923459764905e-11,4.975956571919173e-11,-0.19619960824507862,-0.37978056744764566,0.9994433800714438,0.6695798474981559,-0.533804310804958,-0.37582664582989167,0.35421761372727234
5.9,-1.3279755912487738,-1.1558229876968786,-1.32921564569398,-2.4424599651942835,0.5066399772204839,-1.4207327840286466,0.172048735360586,0.20943951023917112,0.015402366652221876,0.26016863914454064,0.02262516802563539,-0.07028118024425183,-1.218131915321311e-10,-1.482665911956078e-10,-1.0904401905306296e-11,-1.8417555614760182e-10,-1.6016923459764905e-11,4.975956571919173e-11,-0.1932500797668896,-0.3679819352896849,1.0094332218491149,0.6699498823303275,-0.5368393581409433,-0.357109056227449,0.36802687493815056
6.0,-1.310770717712709,-1.1348790366729542,-1.3276754090287572,-2.41644310127982,0.5089024940230482,-1.4277609020530742,0.172048735360586,0.20943951023917112,0.015402366652221876,0.26016863914454064,0.02262516802563539,-0.07028118024425183,-1.218131915321311e-10,-1.482665911956078e-10,-1.0904401905306296e-11,-1.8417555614760182e-10,-1.6016923459764905e-11,4.975956571919173e-11,-0.1908518741978696,-0.35586459734937625,1.01918638666568,0.6701274890896248,-0.539597452065909,-0.3380258651107821,0.3814475751745204
6.1,-1.2935658441766444,-1.1139350856490298,-1.3261351723635344,-2.3904262373653573,0.5111650108256126,-1.434789020077502,0.172048735360586,0.20943951023917112,0.015402366652221876,0.26016863914454064,0.02262516802563539,-0.07028118024425183,-1.218131915321311e-10,-1.482665911956078e-10,-1.0904401905306296e-11,-1.8417555614760182e-10,-1.6016923459764905e-11,4.975956571919173e-11,-0.18902058648094877,-0.3434461396417473,1.0286895063827806,0.6701050975490949,-0.5420811644758056,-0.31859239423429514,0.39446933429017267
6.2,-1.2763609706405796,-1.092991134625105,-1.3245949356983118,-2.3644093734508935,0.513427527628177,-1.4418171381019296,0.172048735360586,0.20943951023917112,0.015402366652221876,0.26016863914454064,0.02262516802563539,-0.07028118024425183,-1.218131915321311e-10,-1.482665911956078e-10,-1.0904401905306296e-11,-1.8417555614760182e-10,-1.6016923459764905e-11,4.975956571919173e-11,-0.1877711602019096,-0.33074521880115254,1.0379290051711465,0.6698752569455521,-0.5442934073300846,-0.29882427327281724,0.4070821545733857
6.3,-1.2591560971045148,-1.0720471836011805,-1.323054699033089,-2.33839250953643,0.5156900444307414,-1.4488452561263574,0.172048735360586,0.20943951023917112,0.015402366652221876,0.26016863914454064,0.02262516802563539,-0.07028118024425183,-1.218131915321311e-10,-1.482665911956078e-10,-1.0904401905306296e-11,-1.8417555614760182e-10,-1.6016923459764905e-11,4.975956571919173e-11,-0.18711782173342079,-0.317781549158484,1.0468911242629446,0.6694306487582619,-0.5462374295750277,-0.27873742670172824,0.41927642908951823
6.4,-1.2419512235684504,-1.051103232577256,-1.3215144623678663,-2.3123756456219673,0.5179525612333056,-1.455873374150785,0.172048735360586,0.20943951023917112,0.015402366652221876,0.26016863914454064,0.02262516802563539,-0.07028118024425183,-1.218131915321311e-10,-1.482665911956078e-10,-1.0904401905306296e-11,-1.8417555614760182e-10,-1.6016923459764905e-11,4.975956571919173e-11,-0.18707401436563167,-0.3045758855137399,1.0555619475105131,0.6687640993929069,-0.5479168135603292,-0.2583480604269073,0.4310429496636555
6.5,-1.2247463500323856,-1.0301592815533316,-1.3199742257026437,-2.286358781707504,0.52021507803587,-1.4629014921752124,0.1720487353605854,0.2094395102391707,0.015402366652221866,0.2601686391445409,0.02262516802563525,-0.07028118024425153,-1.2211820976724456e-10,-1.486825251525807e-10,-1.093386389392521e-11,-1.8467467689596932e-10,-1.6058516855462196e-11,4.9884345906283604e-11,-0.18765233269849632,-0.29115000156232396,1.0639274277000257,0.6678685927511557,-0.5493354709514634,-0.2376726481760517,0.4423729144964771
6.6,-1.207541476496321,-1.0092153305294072,-1.318433989037421,-2.2603419177930406,0.5224775948384344,-1.4699296101996402,0.1720487353605854,0.2094395102391707,0.015402366652221866,0.2601686391445409,0.02262516802563525,-0.07028118024425153,-1.2211820976724456e-10,-1.486825251525807e-10,-1.093386389392521e-11,-1.8467467689596932e-10,-1.6058516855462196e-11,4.9884345906283604e-11,-0.18886445757493514,-0.27752666395121656,1.071973413566644,0.666737282666221,-0.5504976381411425,-0.21672791766311528,0.4532579354068688
6.7,-1.1903366029602562,-0.9882713795054824,-1.316893752372198,-2.2343250538785773,0.5247401116409987,-1.4769577282240678,0.1720487353605854,0.2094395102391707,0.015402366652221866,0.2601686391445409,0.02262516802563525,-0.07028118024425153,-1.2211820976724456e-10,-1.486825251525807e-10,-1.093386389392521e-11,-1.8467467689596932e-10,-1.6058516855462196e-11,4.9884345906283604e-11,-0.1907210918367415,-0.2637296019592313,1.0796856774558505,0.6653635051848886,-0.5514078711639344,-0.19553083653779102,0.4636900446951263
6.8,-1.1731317294241916,-0.9673274284815578,-1.3153535157069753,-2.208308189964114,0.527002628443563,-1.4839858462484956,0.1720487353605854,0.2094395102391707,0.015402366652221866,0.2601686391445409,0.02262516802563525,-0.07028118024425153,-1.2211820976724456e-10,-1.486825251525807e-10,-1.093386389392521e-11,-1.8467467689596932e-10,-1.6058516855462196e-11,4.9884345906283604e-11,-0.19323189718677503,-0.24978347281388216,1.0870499435738803,0.663740790676626,-0.5520710401188696,-0.1740985981321691,0.47366170162094634
6.9,-1.155926855888127,-0.9463834774576334,-1.3138132790417525,-2.1822913260496506,0.5292651452461273,-1.491013964272923,0.1720487353605854,0.2094395102391707,0.015402366652221866,0.2601686391445409,0.02262516802563525,-0.07028118024425153,-1.2211820976724456e-10,-1.486825251525807e-10,-1.093386389392521e-11,-1.8467467689596932e-10,-1.6058516855462196e-11,4.9884345906283604e-11,-0.19640543244143968,-0.2357138226758431,1.094051916768559,0.6618628757505257,-0.5524923231056377,-0.1524486070168419,0.4831657984907504
7.0,-1.1387219823520625,-0.9254395264337091,-1.31227304237653,-2.1562744621351877,0.5315276620486916,-1.4980420822973508,0.1720487353605854,0.2094395102391707,0.015402366652221866,0.2601686391445409,0.02262516802563525,-0.07028118024425153,-1.2211820976724456e-10,-1.486825251525807e-10,-1.093386389392521e-11,-1.8467467689596932e-10,-1.6058516855462196e-11,4.9884345906283604e-11,-0.20024909345670308,-0.22154704334054884,1.1006773117802924,0.6597237149610369,-0.5526771996807102,-0.13059846437891884,0.4921956663492326
7.1,-1.1215171088159979,-0.9044955754097845,-1.3107328057113072,-2.130257598220724,0.533790178851256,-1.5050702003217786,0.1720487353605854,0.2094395102391707,0.015402366652221866,0.2601686391445409,0.02262516802563525,-0.07028118024425153,-1.2211820976724456e-10,-1.486825251525807e-10,-1.093386389392521e-11,-1.8467467689596932e-10,-1.6058516855462196e-11,4.9884345906283604e-11,-0.20476905500898263,-0.20731032472502672,1.1069118829016114,0.6573174922836362,-0.5526314438404961,-0.10856595323453062,0.5007450802703888
7.2,-1.104312235279933,-0.8835516243858599,-1.3091925690460844,-2.1042407343062606,0.5360526956538203,-1.5120983183462062,0.1720487353605854,0.2094395102391707,0.015402366652221866,0.2601686391445409,0.02262516802563525,-0.07028118024425153,-1.2211820976724456e-10,-1.486825251525807e-10,-1.093386389392521e-11,-1.8467467689596932e-10,-1.6058516855462196e-11,4.9884345906283604e-11,-0.20997021490907955,-0.1930316032265436,1.1127414539823701,0.6546386323418488,-0.552361116539357,-0.08636902348856974,0.508808264243634
7.3,-1.0871073617438682,-0.8626076733619352,-1.3076523323808618,-2.0782238703917972,0.5383152124563846,-1.5191264363706338,0.1720487353605854,0.2094395102391707,0.015402366652221866,0.2601686391445409,0.02262516802563525,-0.07028118024425153,-1.2211820976724456e-10,-1.486825251525807e-10,-1.093386389392521e-11,-1.8467467689596932e-10,-1.6058516855462196e-11,4.9884345906283604e-11,-0.2158561406230111,-0.1787395060579852,1.1181519487165996,0.6516818113672838,-0.5518725577510614,-0.06402577685451466,0.516379895650996
7.4,-1.0699024882078036,-0.841663722338011,-1.3061120957156391,-2.052207006477334,0.540577729258949,-1.5261545543950616,0.17204873536058574,0.2094395102391708,0.01540236665222185,0.26016863914454064,0.02262516802563535,-0.07028118024425195,-1.2203502297585e-10,-1.4857160943072124e-10,-1.0926931661308994e-11,-1.8456376117410986e-10,-1.605158462284598e-11,4.985661697581874e-11,-0.2224290186680611,-0.1644632916829943,1.1231294211460154,0.648441967874669,-0.5511723780829669,-0.041554451647319156,0.5234551093317212
7.5,-1.0526976146717393,-0.8207197713140866,-1.3045718590504163,-2.026190142562871,0.5428402460615133,-1.533182672419489,0.17204873536058574,0.2094395102391708,0.01540236665222185,0.26016863914454064,0.02262516802563535,-0.07028118024425195,-1.2203502297585e-10,-1.4857160943072124e-10,-1.0926931661308994e-11,-1.8456376117410986e-10,-1.605158462284598e-11,4.985661697581874e-11,-0.22968960704566393,-0.15023278649170396,1.1276600863143234,0.6449143130341801,-0.5502674499529404,-0.018973407462440965,0.5300295012310204
7.6,-1.0354927411356745,-0.799775820290162,-1.3030316223851934,-2.0001732786484077,0.5451027628640777,-1.5402107904439168,0.17204873536058574,0.2094395102391708,0.01540236665222185,0.26016863914454064,0.02262516802563535,-0.07028118024425195,-1.2203502297585e-10,-1.4857160943072124e-10,-1.0926931661308994e-11,-1.8456376117410986e-10,-1.605158462284598e-11,4.985661697581874e-11,-0.23763719096487204,-0.1360783178753291,1.1317303510057632,0.6410943407237313,-0.5491648983397223,0.0036988902458174695,0.536099131630034
7.7,-1.0182878675996099,-0.7788318692662377,-1.3014913857199708,-1.9741564147339443,0.547365279666642,-1.5472389084683447,0.17204873536058574,0.2094395102391708,0.01540236665222185,0.26016863914454064,0.02262516802563535,-0.07028118024425195,-1.2203502297585e-10,-1.4857160943072124e-10,-1.0926931661308994e-11,-1.8456376117410986e-10,-1.605158462284598e-11,4.985661697581874e-11,-0.24626954210115956,-0.1220306438748436,1.135326844500769,0.6369778372442709,-0.547872091118136,0.02644388567340539,0.5416605279544966
7.8,-1.001082994063545,-0.757887918242313,-1.2999511490547482,-1.948139550819481,0.5496277964692062,-1.5542670264927723,0.17204873536058574,0.2094395102391708,0.01540236665222185,0.26016863914454064,0.02262516802563535,-0.07028118024425195,-1.2203502297585e-10,-1.4857160943072124e-10,-1.0926931661308994e-11,-1.8456376117410986e-10,-1.605158462284598e-11,4.985661697581874e-11,-0.2555828816251979,-0.10812087959542507,1.1384364492811923,0.632560890681538,-0.546396628991213,0.049242948249741514,0.5467106871599376
7.9,-0.9838781205274804,-0.7369439672183884,-1.2984109123895253,-1.9221226869050172,0.5518903132717706,-1.5612951445171999,0.17204873536058574,0.2094395102391708,0.01540236665222185,0.26016863914454064,0.02262516802563535,-0.07028118024425195,-1.2203502297585e-10,-1.4857160943072124e-10,-1.0926931661308994e-11,-1.8456376117410986e-10,-1.605158462284598e-11,4.985661697581874e-11,-0.26557184722505167,-0.09438042059418196,1.1410463316172785,0.62783989989818,-0.5447463350319641,0.07207738828166604,0.5512470776916468
8.0,-0.9666732469914159,-0.716000016194464,-1.2968706757243027,-1.8961058229905543,0.5541528300743349,-1.5683232625416277,0.17204873536089105,0.20943951023954246,0.015402366652249182,0.2601686391450023,0.022625168025675498,-0.07028118024437667,1.829832121377752e-10,2.2274649842442008e-10,1.6379132613976676e-11,2.7667926817862116e-10,2.4058313294595726e-11,-7.474333206809714e-11,-0.2762294643330202,-0.08084086346385336,1.1431439719684502,0.6228115831405879,-0.5429292438481738,0.09492847264471127,0.555267641018011
8.1,-0.949468373455336,-0.6950560651705209,-1.2953304390590785,-1.8700889590760679,0.5564153468769013,-1.5753513805660615,0.17204873536089105,0.20943951023954246,0.015402366652249182,0.2601686391450023,0.022625168025675498,-0.07028118024437667,1.829832121377752e-10,2.2274649842442008e-10,1.6379132613976676e-11,2.7667926817862116e-10,2.4058313294595726e-11,-7.474333206809714e-11,-0.28754712175512775,-0.06753392384958792,1.1447171951299908,0.6174729862452951,-0.5409535903842259,0.11777744050825273,0.5587707927362149
8.2,-0.9322634999192558,-0.6741121141465776,-1.2937902023938543,-1.8440720951615812,0.5586778636794677,-1.5823794985904955,0.17204873536089105,0.20943951023954246,0.015402366652249182,0.2601686391450023,0.022625168025675498,-0.07028118024437667,1.829832121377752e-10,2.2274649842442008e-10,1.6379132613976676e-11,2.7667926817862116e-10,2.4058313294595726e-11,-7.474333206809714e-11,-0.29951455188702714,-0.054491352149611504,1.1457542000578815,0.6118214904303317,-0.5388277983745636,0.14060551908094845,0.5617554232496604
8.3,-0.9150586263831759,-0.6531681631226346,-1.2922499657286304,-1.818055231247095,0.560940380482034,-1.5894076166149294,0.17204873536089105,0.20943951023954246,0.015402366652249184,0.2601686391450024,0.022625168025675504,-0.07028118024437618,1.8295548320731032e-10,2.2274649842442008e-10,1.6379132613976676e-11,2.7667926817862116e-10,2.406177941090384e-11,-7.474333206809714e-11,-0.31211981568515207,-0.041744847163174705,1.146243589304403,0.6058548196573916,-0.5365604684639921,0.1633939393631898,0.5642208980168929
8.4,-0.8978537528470959,-0.6322242120986916,-1.2907097290634062,-1.7920383673326086,0.5632028972846003,-1.5964357346393632,0.17204873536089105,0.20943951023954246,0.015402366652249184,0.2601686391450024,0.022625168025675504,-0.07028118024437618,1.8295548320731032e-10,2.2274649842442008e-10,1.6379132613976676e-11,2.7667926817862116e-10,2.406177941090384e-11,-7.474333206809714e-11,-0.32534929254582695,-0.029325967961239523,1.1461743979975505,0.5995710475513206,-0.5341603660105891,0.18612395189286748,0.5661670573721392
8.5,-0.8806488793110161,-0.6112802610747485,-1.289169492398182,-1.7660215034181221,0.5654654140871667,-1.603463852663797,0.17204873536089105,0.20943951023954246,0.015402366652249184,0.2601686391450024,0.022625168025675504,-0.07028118024437618,1.8295548320731032e-10,2.2274649842442008e-10,1.6379132613976676e-11,2.7667926817862116e-10,2.406177941090384e-11,-7.474333206809714e-11,-0.33918767522846716,-0.0172660442660538,1.1455361222979779,0.5929686038639623,-0.5316364085875523,0.20877684247106804,0.5675942159179946
8.6,-0.8634440057749362,-0.5903363100508054,-1.287629255732958,-1.740004639503636,0.5677279308897331,-1.6104919706882308,0.17204873536089105,0.20943951023954246,0.015402366652249184,0.2601686391450024,0.022625168025675504,-0.07028118024437618,1.8295548320731032e-10,2.2274649842442008e-10,1.6379132613976676e-11,2.7667926817862116e-10,2.406177941090384e-11,-7.474333206809714e-11,-0.35361796994150124,-0.005596085635636601,1.1443187472679424,0.586046280470021,-0.5289976532008259,0.23133394785423816,0.5685031614911606
8.7,-0.846239132238856,-0.5693923590268622,-1.286089019067734,-1.7139877755891495,0.5699904476922995,-1.617520088712665,0.17204873536089105,0.20943951023954246,0.015402366652249184,0.2601686391450024,0.022625168025675504,-0.07028118024437618,1.8295548320731032e-10,2.2274649842442008e-10,1.6379132613976676e-11,2.7667926817862116e-10,2.406177941090384e-11,-7.474333206809714e-11,-0.36862150169154534,0.0056533102420583785,1.142512774087652,0.578803236883231,-0.526253283239858,0.25377667139939236,0.5688951537025158
8.8,-0.8290342587027761,-0.548448408002919,-1.28454878240251,-1.687970911674663,0.5722529644948657,-1.6245482067370989,0.17204873536089105,0.20943951023954246,0.015402366652249184,0.2601686391450024,0.022625168025675504,-0.07028118024437618,1.8295548320731032e-10,2.2274649842442008e-10,1.6379132613976676e-11,2.7667926817862116e-10,2.406177941090384e-11,-7.474333206809714e-11,-0.38417792497765296,0.016452049832928993,1.1401092465554987,0.5712390052817706,-0.5234125951793278,0.27608649864899654,0.5687719220531828
8.9,-0.8118293851666962,-0.5275044569789761,-1.2830085457372857,-1.6619540477601764,0.574515481297432,-1.6315763247615327,0.17204873536089105,0.20943951023954246,0.015402366652249184,0.2601686391450024,0.022625168025675504,-0.07028118024437618,1.8295548320731032e-10,2.2274649842442008e-10,1.6379132613976676e-11,2.7667926817862116e-10,2.406177941090384e-11,-7.474333206809714e-11,-0.40026523989323765,0.02677063629963502,1.1370997768098696,0.5633534950325257,-0.5204849850501266,0.29824501284221616,0.5681356636286387
9.0,-0.7946245116306163,-0.506560505955033,-1.2814683090720618,-1.6359371838456904,0.5767779980999984,-1.6386044427859665,0.17204873536089105,0.20943951023954246,0.015402366652249184,0.2601686391450024,0.022625168025675504,-0.07028118024437618,1.8295548320731032e-10,2.2274649842442008e-10,1.6379132613976676e-11,2.7667926817862116e-10,2.406177941090384e-11,-7.474333206809714e-11,-0.4168598136785879,0.03658026197956021,1.1334765702115925,0.5551469967044927,-0.5174799346983212,0.32023391033929094,0.5669890403732779
9.1,-0.7774196380945364,-0.4856165549310899,-1.2799280724068376,-1.609920319931204,0.5790405149025647,-1.6456325608104003,0.17204873536089105,0.20943951023954246,0.015402366652249184,0.2601686391450024,0.022625168025675504,-0.07028118024437618,1.8295548320731032e-10,2.2274649842442008e-10,1.6379132613976676e-11,2.7667926817862116e-10,2.406177941090384e-11,-7.474333206809714e-11,-0.4339364077468362,0.0458529004697313,1.1292324493275818,0.5466201855623168,-0.5144069978512211,0.34203501594587654,0.5653351759482299
9.2,-0.7602147645584563,-0.46467260390714665,-1.2783878357416134,-1.5839034560167176,0.5813030317051311,-1.6526606788348344,0.17204873536089088,0.20943951023954252,0.01540236665224919,0.26016863914500243,0.02262516802567551,-0.0702811802443767,1.830109410682401e-10,2.2277422735488498e-10,1.638433178843884e-11,2.767347260395509e-10,2.406871164352006e-11,-7.475719653332959e-11,-0.4514682101859022,0.054561397987838975,1.1243608769578801,0.537774124531692,-0.5112757860100646,0.3636302981242932,0.5631776521755817
9.3,-0.7430098910223765,-0.44372865288320357,-1.2768475990763892,-1.557886592102231,0.5835655485076975,-1.6596887968592682,0.17204873536089088,0.20943951023954252,0.01540236665224919,0.26016863914500243,0.02262516802567551,-0.0702811802443767,1.830109410682401e-10,2.2277422735488498e-10,1.638433178843884e-11,2.767347260395509e-10,2.406871164352006e-11,-7.475719653332959e-11,-0.46942687371835856,0.06267956367702049,1.1188559781500687,0.5286102666290586,-0.5080959541891769,0.3850018840787173,0.5605205050725471
9.4,-0.7258050174862964,-0.42278470185926054,-1.2753073624111653,-1.5318697281877447,0.5858280653102638,-1.666716914883702,0.17204873536089088,0.20943951023954252,0.01540236665224919,0.26016863914500243,0.02262516802567551,-0.0702811802443767,1.830109410682401e-10,2.2277422735488498e-10,1.638433178843884e-11,2.767347260395509e-10,2.406871164352006e-11,-7.475719653332959e-11,-0.4877825590804757,0.07018225852186598,1.1127125611469384,0.5191304568488221,-0.5048771865217853,0.406132074701481,0.5573682204794694
9.5,-0.7086001439502169,-0.40184075083531773,-1.273767125745941,-1.5058528642732587,0.5880905821128302,-1.673745032908136,0.17204873536089088,0.20943951023954252,0.01540236665224919,0.26016863914500243,0.02262516802567551,-0.0702811802443767,1.830109410682401e-10,2.2277422735488498e-10,1.638433178843884e-11,2.767347260395509e-10,2.406871164352006e-11,-7.475719653332959e-11,-0.5065039837609391,0.07704548254422497,1.1059261372153286,0.5093369335020477,-0.5016291817529767,0.4270033593677586,0.5537257292859148
9.6,-0.6913952704141365,-0.38089679981137414,-1.272226889080717,-1.4798360003587716,0.5903530989153964,-1.6807731509325698,0.17204873536089088,0.20943951023954252,0.01540236665224919,0.26016863914500243,0.02262516802567551,-0.0702811802443767,1.830109410682401e-10,2.2277422735488498e-10,1.638433178843884e-11,2.767347260395509e-10,2.406871164352006e-11,-7.475719653332959e-11,-0.5255584760190165,0.08324645994979792,1.0984929393062108,0.499232329001388,-0.4983616386405383,0.447598430566069,0.5495984022594677
9.7,-0.6741903968780567,-0.35995284878743117,-1.2706866524154927,-1.4538191364442854,0.5926156157179628,-1.6878012689570039,0.17204873536089088,0.20943951023954252,0.01540236665224919,0.26016863914500243,0.02262516802567551,-0.0702811802443767,1.830109410682401e-10,2.2277422735488498e-10,1.638433178843884e-11,2.767347260395509e-10,2.406871164352006e-11,-7.475719653332959e-11,-0.5449120340813363,0.08876372190023216,1.0904099394983777,0.48881967008776944,-0.4950842412846639,0.46790019835215585,0.544992044482198
9.8,-0.6569855233419768,-0.3390088977634881,-1.269146415750269,-1.427802272529799,0.5948781325205292,-1.694829386981438,0.17204873536089088,0.20943951023954252,0.01540236665224919,0.26016863914500243,0.02262516802567551,-0.0702811802443767,1.830109410682401e-10,2.2277422735488498e-10,1.638433178843884e-11,2.767347260395509e-10,2.406871164352006e-11,-7.475719653332959e-11,-0.5645293903960317,0.09357718659045788,1.0816748651804728,0.4781023774951778,-0.49180664440772986,0.48789180461399784,0.5399128894000991
9.9,-0.6397806498058969,-0.31806494673954505,-1.2676061790850448,-1.4017854086153128,0.5971406493230955,-1.7018575050058717,0.17204873536089088,0.20943951023954252,0.01540236665224919,0.26016863914500243,0.02262516802567551,-0.0702811802443767,1.830109410682401e-10,2.2277422735488498e-10,1.638433178843884e-11,2.767347260395509e-10,2.406871164352006e-11,-7.475719653332959e-11,-0.5843740808028588,0.09766823631732367,1.0722862139286204,0.46708426505067746,-0.4885384586054907,0.5075566371358309,0.5343675924911669
10.0,-0.622575776269817,-0.2971209957156019,-1.2660659424198206,-1.3757685447008263,0.5994031661256618,-1.7088856230303056,0.17204873536089088,0.20943951023954252,0.01540236665224919,0.26016863914500243,0.02262516802567551,-0.0702811802443767,1.830109410682401e-10,2.2277422735488498e-10,1.638433178843884e-11,2.767347260395509e-10,2.406871164352006e-11,-7.475719653332959e-11,-0.604408518458129,0.10101979123317942,1.0622432670395072,0.4557695382076271,-0.48528923559122716,0.5268783434492769,0.5283632245581014
10.1,-0.6053709027337366,-0.2761770446916582,-1.2645257057545964,-1.3497516807863392,0.6016656829282283,-1.7159137410547398,0.17204873536089096,0.20943951023954271,0.01540236665224947,0.26016863914500254,0.02262516802567543,-0.07028118024437635,1.831495857205645e-10,2.2296832986813918e-10,1.6398196253671286e-11,2.7701201534419977e-10,2.4086042225060613e-11,-7.48265188594918e-11,-0.624594072333968,0.10361637948690414,1.0515461016814867,0.44416279201086406,-0.48206845345446353,0.5458408444598565,0.5219072646519564
10.2,-0.5881660291976569,-0.2552330936677154,-1.2629854690893725,-1.3237348168718532,0.6039281997307946,-1.7229418590791734,0.17204873536089096,0.20943951023954271,0.01540236665224947,0.26016863914500254,0.02262516802567543,-0.07028118024437635,1.831495857205645e-10,2.2296832986813918e-10,1.6398196253671286e-11,2.7701201534419977e-10,2.4086042225060613e-11,-7.48265188594918e-11,-0.6448911500925938,0.1054442034649453,1.0401956016290723,0.4322690084934691,-0.47888550195597596,0.5644283478373512,0.515007592633394
10.3,-0.570961155661577,-0.23428914264377235,-1.261445232424148,-1.2977179529573668,0.6061907165333609,-1.7299699771036072,0.17204873536089096,0.20943951023954271,0.01540236665224947,0.26016863914500254,0.02262516802567543,-0.07028118024437635,1.831495857205645e-10,2.2296832986813918e-10,1.6398196253671286e-11,2.7701201534419977e-10,2.4086042225060613e-11,-7.48265188594918e-11,-0.6652592851181176,0.10649120185621194,1.0281934665490808,0.4200935535055477,-0.475749667880856,0.5826253611587193,0.5076724813785053
10.4,-0.5537562821254971,-0.2133451916198293,-1.2599049957589241,-1.2717010890428806,0.6084532333359273,-1.7369980951280413,0.17204873536089096,0.20943951023954271,0.01540236665224947,0.26016863914500254,0.02262516802567543,-0.07028118024437635,1.831495857205645e-10,2.2296832986813918e-10,1.6398196253671286e-11,2.7701201534419977e-10,2.4086042225060613e-11,-7.48265188594918e-11,-0.6856572274708134,0.10674710727708055,1.0155422198096569,0.40764217297629934,-0.47267012047140966,0.6004167047924512,0.4999105886364863
10.5,-0.5365514085894172,-0.1924012405958862,-1.2583647590937002,-1.2456842251283944,0.6107157501384937,-1.744026213152475,0.17204873536089096,0.20943951023954271,0.01540236665224947,0.26016863914500254,0.02262516802567543,-0.07028118024437635,1.831495857205645e-10,2.2296832986813918e-10,1.6398196253671286e-11,2.7701201534419977e-10,2.4086042225060613e-11,-7.48265188594918e-11,-0.7060430385120545,0.10620349920632889,1.002245214786465,0.3949209886114919,-0.4696558969616781,0.6177875245135238,0.4917309485467595
10.6,-0.5193465350533372,-0.1714572895719429,-1.256824522428476,-1.2196673612139075,0.61297826694106,-1.7510543311769093,0.17204873536089096,0.20943951023954271,0.01540236665224947,0.26016863914500254,0.02262516802567543,-0.07028118024437635,1.831495857205645e-10,2.2296832986813918e-10,1.6398196253671286e-11,2.7701201534419977e-10,2.4086042225060613e-11,-7.48265188594918e-11,-0.7263741889321391,0.1048538519944199,0.9883066396434422,0.3819364930292836,-0.4667158882352942,0.6347233038383183,0.48314296282342983
10.7,-0.502141661517257,-0.1505133385479996,-1.2552842857632518,-1.1936504972994209,0.6152407837436263,-1.7580824492013432,0.17204873536089096,0.20943951023954271,0.01540236665224947,0.26016863914500254,0.02262516802567543,-0.07028118024437635,1.831495857205645e-10,2.2296832986813918e-10,1.6398196253671286e-11,2.7701201534419977e-10,2.4086042225060613e-11,-7.48265188594918e-11,-0.7466076598981654,0.1026935777271959,0.9737315205686996,0.3686955443381861,-0.46385882462834666,0.6512098760691324,0.4741563916152588
10.8,-0.48493678798117734,-0.12956938752405678,-1.2537440490980276,-1.1676336333849349,0.6175033005461926,-1.765110567225777,0.17204873536089096,0.20943951023954271,0.01540236665224947,0.26016863914500254,0.02262516802567543,-0.07028118024437635,1.831495857205645e-10,2.2296832986813918e-10,1.6398196253671286e-11,2.7701201534419977e-10,2.4086042225060613e-11,-7.48265188594918e-11,-0.766700047025022,0.0997200637406434,0.9585257234493902,0.3552053601617811,-0.46109326189878025,0.6672334360381718,0.46478134404962623
10.9,-0.46773191444509765,-0.10862543650011394,-1.2522038124328037,-1.1416167694704489,0.619765817348759,-1.7721386852502108,0.17204873536089096,0.20943951023954271,0.01540236665224947,0.26016863914500254,0.02262516802567543,-0.07028118024437635,1.831495857205645e-10,2.2296832986813918e-10,1.6398196253671286e-11,2.7701201534419977e-10,2.4086042225060613e-11,-7.48265188594918e-11,-0.7866076668594598,0.09593270460089089,0.9426959539726472,0.3414735111156538,-0.4584275673837513,0.6827805515411696,0.45502826846922373
11.0,-0.45052704090901746,-0.08768148547617058,-1.2506635757675792,-1.115599905555962,0.6220283341513253,-1.7791668032746448,0.172048735360891,0.20943951023954213,0.015402366652249179,0.26016863914500227,0.02262516802567562,-0.0702811802443764,1.8267819390266146e-10,2.2238602232837657e-10,1.63548697998199e-11,2.7623560529118297e-10,2.4027118247822734e-11,-7.463241634623761e-11,-0.8062866655551965,0.09133292838194863,0.9262497561430283,0.3275079137428203,-0.4558699063661594,0.697838174451059,0.444907942370495
11.1,-0.43332216737293733,-0.06673753445222728,-1.2491233391023553,-1.0895830416414753,0.6242908509538917,-1.7861949212990789,0.172048735360891,0.20943951023954213,0.015402366652249179,0.26016863914500227,0.02262516802567562,-0.0702811802443764,1.8267819390266146e-10,2.2238602232837657e-10,1.63548697998199e-11,2.7623560529118297e-10,2.4027118247822734e-11,-7.463241634623761e-11,-0.8256931294061365,0.0859242170928202,0.9091955092102693,0.31331682291475976,-0.45342822867139243,0.7123936515024021,0.43443146205310534
11.2,-0.4161172938368576,-0.045793583428284476,-1.247583102437131,-1.0635661777269894,0.626553367756458,-1.7932230393235122,0.172048735360891,0.20943951023954213,0.015402366652249179,0.26016863914500227,0.02262516802567562,-0.0702811802443764,1.8267819390266146e-10,2.2238602232837657e-10,1.63548697998199e-11,2.7623560529118297e-10,2.4027118247822734e-11,-7.463241634623761e-11,-0.8447831968950862,0.07971212112543773,0.8915424230045264,0.2989088237059636,-0.4511102555150677,0.7264347347375817,0.4236102319899588
11.3,-0.3989124203007775,-0.024849632404341203,-1.2460428657719071,-1.0375493138125027,0.6288158845590244,-1.8002511573479465,0.172048735360891,0.20943951023954213,0.015402366652249179,0.26016863914500227,0.02262516802567562,-0.0702811802443764,1.8267819390266146e-10,2.2238602232837657e-10,1.63548697998199e-11,2.7623560529118297e-10,2.4027118247822734e-11,-7.463241634623761e-11,-0.8635131719068561,0.07270426761532264,0.873300531679711,0.2842928227507418,-0.4489234666222973,0.7399495916060439,0.4124559539275476
11.4,-0.38170754676469776,-0.0039056813803983945,-1.244502629106683,-1.0115324498980167,0.6310784013615908,-1.8072792753723803,0.172048735360891,0.20943951023954213,0.015402366652249179,0.26016863914500227,0.02262516802567562,-0.0702811802443764,1.8267819390266146e-10,2.2238602232837657e-10,1.63548697998199e-11,2.7623560529118297e-10,2.4027118247822734e-11,-7.463241634623761e-11,-0.881839637747448,0.06491036262788795,0.8544806858689482,0.26947803909180795,-0.44687508763869976,0.7529268147081934,0.4009806157266361
11.5,-0.3645026732286176,0.017038269643544893,-1.2429623924414588,-0.9855155859835301,0.6333409181641572,-1.8143073933968141,0.172048735360891,0.20943951023954213,0.015402366652249179,0.26016863914500227,0.02262516802567562,-0.0702811802443764,1.8267819390266146e-10,2.2238602232837657e-10,1.63548697998199e-11,2.7623560529118297e-10,2.4027118247822734e-11,-7.463241634623761e-11,-0.8997195716051165,0.05634218710476352,0.835094543259591,0.254473994530962,-0.4449720778530491,0.7653554311758612,0.389196479953516
11.6,-0.34729779969253755,0.03798222066748817,-1.2414221557762346,-0.9594987220690434,0.6356034349667234,-1.8213355114212482,0.172048735360891,0.20943951023954213,0.015402366652249179,0.26016863914500227,0.02262516802567562,-0.0702811802443764,1.8267819390266146e-10,2.2238602232837657e-10,1.63548697998199e-11,2.7623560529118297e-10,2.4027118247822734e-11,-7.463241634623761e-11,-0.9171104590845113,0.04701358652641152,0.8151545575986872,0.23929050349296493,-0.44322111825109684,0.7772249116815688,0.3771160722322879
11.7,-0.3300929261564578,0.05892617169143097,-1.2398819191110109,-0.9334818581545574,0.6378659517692898,-1.8283636294456822,0.172048735360891,0.20943951023954213,0.015402366652249179,0.26016863914500227,0.02262516802567562,-0.0702811802443764,1.8267819390266146e-10,2.2238602232837657e-10,1.63548697998199e-11,2.7623560529118297e-10,2.4027118247822734e-11,-7.463241634623761e-11,-0.9339704084419039,0.03694045426946291,0.7946739661431759,0.22393766241446347,-0.44162859991970305,0.7885251790691568,0.36475216936882365
11.8,-0.31288805262037767,0.07987012271537426,-1.2383416824457865,-0.9074649942400707,0.6401284685718562,-1.835391747470116,0.172048735360891,0.20943951023954213,0.015402366652249179,0.26016863914500227,0.02262516802567562,-0.0702811802443764,1.8267819390266146e-10,2.2238602232837657e-10,1.63548697998199e-11,2.7623560529118297e-10,2.4027118247822734e-11,-7.463241634623761e-11,-0.9502582641476556,0.026140708659618393,0.7736667755725052,0.20842583867056724,-0.44020061282,0.7992466165986641,0.3521177872572687
11.9,-0.2956831790842981,0.10081407373931695,-1.2368014457805625,-0.8814481303255849,0.6423909853744225,-1.8424198654945498,0.17204873536089144,0.20943951023954321,0.015402366652249219,0.2601686391450025,0.022625168025675428,-0.07028118024437659,1.8356551967753777e-10,2.234674506165071e-10,1.643285741675239e-11,2.7756659395349745e-10,2.4138033969682272e-11,-7.497902797704866e-11,-0.9659337194016339,0.014634263743488522,0.7521477463847377,0.1927656590524362,-0.4389429349478548,0.8093800757986844,0.33922616858013643
12.0,-0.278478305548218,0.12175802476326028,-1.2352612091153385,-0.8554312664110983,0.6446535021769888,-1.8494479835189839,0.17204873536089144,0.20943951023954321,0.015402366652249219,0.2601686391450025,0.022625168025675428,-0.07028118024437659,1.8356551967753777e-10,2.234674506165071e-10,1.643285741675239e-11,2.7756659395349745e-10,2.4138033969682272e-11,-7.497902797704866e-11,-0.9809574272282681,0.0024429938253309517,0.7301323758005287,0.17696799780991782,-0.4378610218994206,0.8189168839197819,0.3260907703132035
12.1,-0.2612734320121378,0.14270197578720362,-1.2337209724501141,-0.8294144024966116,0.6469160189795552,-1.8564761015434177,0.17204873536089144,0.20943951023954321,0.015402366652249219,0.2601686391450025,0.022625168025675428,-0.07028118024437659,1.8356551967753777e-10,2.234674506165071e-10,1.643285741675239e-11,2.7756659395349745e-10,2.4138033969682272e-11,-7.497902797704866e-11,-0.9952911097802555,-0.0104093081628014,0.7076368792026851,0.16104396427402076,-0.4369599968590621,0.8278488509828759,0.3127252510466148
12.2,-0.24406855847605813,0.16364592681114648,-1.2321807357848902,-0.8033975385821257,0.6491785357821215,-1.8635042195678515,0.17204873536089144,0.20943951023954321,0.015402366652249219,0.2601686391450025,0.022625168025675428,-0.07028118024437659,1.8356551967753777e-10,2.234674506165071e-10,1.643285741675239e-11,2.7756659395349745e-10,2.4138033969682272e-11,-7.497902797704866e-11,-1.0088976654837372,-0.02389697836658368,0.6846781701422411,0.1450048900746553,-0.43624464102639987,0.8361682764168793,0.29914345813373533
12.3,-0.226863684939978,0.1845898778350898,-1.230640499119666,-0.777380674667639,0.6514410525846879,-1.8705323375922855,0.17204873536089144,0.20943951023954321,0.015402366652249219,0.2601686391450025,0.022625168025675428,-0.07028118024437659,1.8356551967753777e-10,2.234674506165071e-10,1.643285741675239e-11,2.7756659395349745e-10,2.4138033969682272e-11,-7.497902797704866e-11,-1.021741273662902,-0.037992535677487366,0.661273838945183,0.12886231596975098,-0.4357193844986592,0.8438679552802235,0.2853594146794464
12.4,-0.20965881140389825,0.20553382885903265,-1.229100262454442,-0.7513638107531531,0.6537035693872542,-1.8775604556167194,0.17204873536089144,0.20943951023954321,0.015402366652249219,0.2601686391450025,0.022625168025675428,-0.07028118024437659,1.8356551967753777e-10,2.234674506165071e-10,1.643285741675239e-11,2.7756659395349745e-10,2.4138033969682272e-11,-7.497902797704866e-11,-1.0337874962885178,-0.05266674122836542,0.6374421299571087,0.11262797830251796,-0.4353882976239271,0.8509411840612618,0.2713873063797273
12.5,-0.19245393786781856,0.22647777988297552,-1.2275600257892179,-0.7253469468386671,0.6559660861898204,-1.8845885736411532,0.17204873536089144,0.20943951023954321,0.015402366652249219,0.2601686391450025,0.022625168025675428,-0.07028118024437659,1.8356551967753777e-10,2.234674506165071e-10,1.643285741675239e-11,2.7756659395349745e-10,2.4138033969682272e-11,-7.497902797704866e-11,-1.0450033765028286,-0.06788866356003702,0.6132019174661241,0.09631379510420454,-0.43525508284029496,0.8573817660529243,0.25724146822447175
12.6,-0.175249064331738,0.24742173090691935,-1.2260197891239937,-0.6993300829241798,0.658228602992387,-1.8916166916655874,0.17204873536089144,0.20943951023954321,0.015402366652249219,0.2601686391450025,0.022625168025675428,-0.07028118024437659,1.8356551967753777e-10,2.234674506165071e-10,1.643285741675239e-11,2.7756659395349745e-10,2.4138033969682272e-11,-7.497902797704866e-11,-1.0553575335824559,-0.08362574928130838,0.5885726803473024,0.07993185186033987,-0.4353230670152416,0.8631840162973532,0.24293637107561897
12.7,-0.1580441907956583,0.2683656819308622,-1.2244795524587697,-0.6733132190096939,0.6604911197949532,-1.898644809690021,0.17204873536089144,0.20943951023954321,0.015402366652249219,0.2601686391450025,0.022625168025675428,-0.07028118024437659,1.8356551967753777e-10,2.234674506165071e-10,1.643285741675239e-11,2.7756659395349745e-10,2.4138033969682272e-11,-7.497902797704866e-11,-1.0648202540115514,-0.09984389902440709,0.5635744754749152,0.06349438695900418,-0.4355951942989372,0.868342766096631,0.2284866081327808
12.8,-0.14083931725957835,0.28930963295480533,-1.2229393157935455,-0.6472963550952074,0.6627536365975195,-1.905672927714455,0.17204873536089071,0.20943951023954238,0.015402366652249198,0.2601686391450026,0.022625168025675522,-0.07028118024437624,1.8290002534638055e-10,2.2263558270256054e-10,1.6372200381360455e-11,2.765683524567616e-10,2.4051381061979505e-11,-7.470173867239981e-11,-1.073363578349246,-0.11650754847799609,0.5382279099514267,0.04701377684021345,-0.4360740195044738,0.8728533670860905,0.21390688129862695
12.9,-0.12363444372349869,0.31025358397874814,-1.2213990791283216,-0.6212794911807213,0.6650161534000859,-1.9127010457388889,0.17204873536089071,0.20943951023954238,0.015402366652249198,0.2601686391450026,0.022625168025675522,-0.07028118024437624,1.8290002534638055e-10,2.2263558270256054e-10,1.6372200381360455e-11,2.765683524567616e-10,2.4051381061979505e-11,-7.470173867239981e-11,-1.080961383588513,-0.133579754260804,0.5125541122050044,0.030502520866060413,-0.43676170202731607,0.8767116948670696,0.19921198745639762
13.0,-0.10642957018741858,0.33119753500269145,-1.2198588424630974,-0.5952626272662347,0.6672786702026522,-1.9197291637633227,0.17204873536089071,0.20943951023954238,0.015402366652249198,0.2601686391450026,0.022625168025675522,-0.07028118024437624,1.8290002534638055e-10,2.2263558270256054e-10,1.6372200381360455e-11,2.765683524567616e-10,2.4051381061979505e-11,-7.470173867239981e-11,-1.0875894607178307,-0.1510222843806476,0.4865747020098505,0.013973225931714815,-0.4376600003155417,0.8799141521963643,0.18441680467195717
13.1,-0.08922469665133849,0.3521414860266347,-1.2183186057978732,-0.5692457633517479,0.6695411870052186,-1.9267572817877567,0.17204873536089071,0.20943951023954238,0.015402366652249198,0.2601686391450026,0.022625168025675522,-0.07028118024437624,1.8290002534638055e-10,2.2263558270256054e-10,1.6372200381360455e-11,2.765683524567616e-10,2.4051381061979505e-11,-7.470173867239981e-11,-1.0932255872124022,-0.1687957130061674,0.46031175948619085,-0.002561409162111605,-0.43877026690169035,0.8824576717300144,0.16953627833288573
13.2,-0.07201982311525881,0.3730854370505775,-1.216778369132649,-0.5432288994372619,0.6718037038077849,-1.9337853998121906,0.17204873536089071,0.20943951023954238,0.015402366652249198,0.2601686391450026,0.022625168025675522,-0.07028118024437624,1.8290002534638055e-10,2.2263558270256054e-10,1.6372200381360455e-11,2.765683524567616e-10,2.4051381061979505e-11,-7.470173867239981e-11,-1.0978495941981803,-0.18685951926214875,0.4337877931391118,-0.019088609554207447,-0.4400934440062796,0.8843397183194405,0.15458540723713596
13.3,-0.05481494957917913,0.39402938807452037,-1.215238132467425,-0.5172120355227758,0.6740662206103513,-1.9408135178366241,0.17204873536089071,0.20943951023954238,0.015402366652249198,0.2601686391450026,0.022625168025675522,-0.07028118024437624,1.8290002534638055e-10,2.2263558270256054e-10,1.6372200381360455e-11,2.765683524567616e-10,2.4051381061979505e-11,-7.470173867239981e-11,-1.101443428049439,-0.20517218974382553,0.40702570699770746,-0.03559554036395601,-0.441630059722256,0.8855582908583424,0.13957922964383393
13.4,-0.037610076043099065,0.4149733390984637,-1.213697895802201,-0.4911951716082892,0.6763287374129175,-1.9478416358610582,0.17204873536089071,0.20943951023954238,0.015402366652249198,0.2601686391450026,0.022625168025675522,-0.07028118024437624,1.8290002534638055e-10,2.2263558270256054e-10,1.6372200381360455e-11,2.765683524567616e-10,2.4051381061979505e-11,-7.470173867239981e-11,-1.1039912061990738,-0.22369132443118864,0.38004876691812256,-0.052069322906643144,-0.4433802247888505,0.8861119236791563,0.12453280929882421
13.5,-0.02040520250701936,0.4359172901224065,-1.212157659136977,-0.46517830769380314,0.6785912542154839,-1.954869753885492,0.17204873536089071,0.20943951023954238,0.015402366652249198,0.2601686391450026,0.022625168025675522,-0.07028118024437624,1.8290002534638055e-10,2.2263558270256054e-10,1.6372200381360455e-11,2.765683524567616e-10,2.4051381061979505e-11,-7.470173867239981e-11,-1.1054792669601907,-0.2423737456710828,0.35288056611607377,-0.06849705106078814,-0.4453436299624928,0.8859996874982583,0.10946122144757325
13.6,-0.0032003289709388793,0.45686124114635024,-1.2106174224717527,-0.4391614437793159,0.6808537710180503,-1.961897871909926,0.17204873536089071,0.20943951023954238,0.015402366652249198,0.2601686391450026,0.022625168025675522,-0.07028118024437624,1.8290002534638055e-10,2.2263558270256054e-10,1.6372200381360455e-11,2.765683524567616e-10,2.4051381061979505e-11,-7.470173867239981e-11,-1.1058962131776753,-0.2611756098828346,0.32554498999627746,-0.08486580776498326,-0.4475195439916059,0.8852211899094891,0.09437953884804881
13.7,0.014004544565140985,0.47780519217029327,-1.2090771858065286,-0.41314457986482955,0.6831162878206167,-1.9689259899343599,0.17204873536089096,0.20943951023954271,0.01540236665224922,0.26016863914500254,0.022625168025675556,-0.07028118024437635,1.831495857205645e-10,2.2296832986813918e-10,1.6398196253671286e-11,2.7701201534419977e-10,2.4086042225060613e-11,-7.48265188594918e-11,-1.1052329495493656,-0.2800525216323376,0.2980661803479624,-0.10116268162142016,-0.44990681220125284,0.8837765754259688,0.07930281779619647
13.8,0.031209418101220684,0.49874914319423613,-1.2075369491413046,-0.3871277159503435,0.685378804623183,-1.9759541079587937,0.17204873536089096,0.20943951023954271,0.01540236665224922,0.26016863914500254,0.022625168025675556,-0.07028118024437635,1.831495857205645e-10,2.2296832986813918e-10,1.6398196253671286e-11,2.7701201534419977e-10,2.4086042225060613e-11,-7.48265188594918e-11,-1.1034827134780094,-0.2989596497100455,0.27046849897716135,-0.11737478358304665,-0.45250385569276175,0.881666525070557,0.06424608417659329
13.9,0.04841429163730078,0.5196930942181794,-1.2059967124760806,-0.36111085203585686,0.6876413214257494,-1.9829822259832277,0.17204873536089096,0.20943951023954271,0.01540236665224922,0.26016863914500254,0.022625168025675556,-0.07028118024437635,1.831495857205645e-10,2.2296832986813918e-10,1.6398196253671286e-11,2.7701201534419977e-10,2.4086042225060613e-11,-7.48265188594918e-11,-1.100641099337359,-0.3178518448401153,0.24277649084795064,-0.13348926370103736,-0.455308671162573,0.8788922555157043,0.049224319550857085
14.0,0.06561916517338048,0.5406370452421223,-1.2044564758108565,-0.3350939881213708,0.6899038382283157,-1.9900103440076617,0.17204873536089096,0.20943951023954271,0.01540236665224922,0.26016863914500254,0.022625168025675556,-0.07028118024437635,1.831495857205645e-10,2.2296832986813918e-10,1.6398196253671286e-11,2.7701201534419977e-10,2.4086042225060613e-11,-7.48265188594918e-11,-1.0967060760583849,-0.3366837586411665,0.21501484680603253,-0.14949332790908446,-0.4583188313436834,0.875455517773827,0.034252447296327274
14.1,0.08282403870946059,0.5615809962660656,-1.2029162391456323,-0.30907712420688416,0.6921663550308821,-1.9970384620320956,0.17204873536089096,0.20943951023954271,0.01540236665224922,0.26016863914500254,0.022625168025675556,-0.07028118024437635,1.831495857205645e-10,2.2296832986813918e-10,1.6398196253671286e-11,2.7701201534419977e-10,2.4086042225060613e-11,-7.48265188594918e-11,-1.0916779979646856,-0.35540996345371234,0.1872083659591693,-0.16537425482085216,-0.46153148607217304,0.8713585954397283,0.01934531880748802
14.2,0.10002891224554068,0.5825249472900089,-1.201376002480408,-0.28306026029239756,0.6944288718334484,-2.0040665800565294,0.17204873536089096,0.20943951023954271,0.01540236665224922,0.26016863914500254,0.022625168025675556,-0.07028118024437635,1.831495857205645e-10,2.2296832986813918e-10,1.6398196253671286e-11,2.7701201534419977e-10,2.4086042225060613e-11,-7.48265188594918e-11,-1.0855596088095365,-0.3739850726453312,0.15938191778993738,-0.181119412516794,-0.4649433639804051,0.8666043024869661,0.004517699772547445
14.3,0.11723378578162037,0.6034688983139517,-1.1998357658151841,-0.2570433963779115,0.6966913886360148,-2.011094698080963,0.17204873536089096,0.20943951023954271,0.01540236665224922,0.26016863914500254,0.022625168025675556,-0.07028118024437635,1.831495857205645e-10,2.2296832986813918e-10,1.6398196253671286e-11,2.7701201534419977e-10,2.4086042225060613e-11,-7.48265188594918e-11,-1.0783560389906544,-0.392363861002133,0.13156040407703365,-0.19671627529645283,-0.46855077481758706,0.861195980620461,-0.010215743462498608
14.4,0.13443865931770047,0.6244128493378951,-1.19829552914996,-0.23102653246342486,0.6989539054385812,-2.0181228161053975,0.17204873536089096,0.20943951023954271,0.01540236665224922,0.26016863914500254,0.022625168025675556,-0.07028118024437635,1.831495857205645e-10,2.2296832986813918e-10,1.6398196253671286e-11,2.7701201534419977e-10,2.4086042225060613e-11,-7.48265188594918e-11,-1.0700747959425219,-0.41050138481398774,0.10376872070198584,-0.21215244037229497,-0.4723496123974825,0.8551374961880064,-0.02484045743006924
14.5,0.1516435328537802,0.645356800361838,-1.196755292484736,-0.20500966854893873,0.7012164222411476,-2.0251509341298313,0.172048735360891,0.20943951023954213,0.015402366652249179,0.26016863914500227,0.02262516802567537,-0.07028118024437666,1.8267819390266146e-10,2.2238602232837657e-10,1.63548697998199e-11,2.7623560529118297e-10,2.402365213151462e-11,-7.461855188100516e-11,-1.0607257477299241,-0.42835310126137915,0.0760317194185911,-0.22741564448109222,-0.4763353581721441,0.8484332366537358,-0.039342014965307426
14.6,0.16884840638986034,0.6663007513857812,-1.1952150558195118,-0.1789928046344521,0.7034789390437138,-2.032179052154265,0.172048735360891,0.20943951023954213,0.015402366652249179,0.26016863914500227,0.02262516802567537,-0.07028118024437666,1.8267819390266146e-10,2.2238602232837657e-10,1.63548697998199e-11,2.7623560529118297e-10,2.402365213151462e-11,-7.461855188100516e-11,-1.050321099890134,-0.44587498671362047,0.048374169662632076,-0.24249378038890185,-0.48050308542963877,0.8410881066369585,-0.05370612850646163
14.7,0.18605327992594006,0.6872447024097241,-1.1936748191542879,-0.15297594071996606,0.7057414558462802,-2.039207170178699,0.172048735360891,0.20943951023954213,0.015402366652249179,0.26016863914500227,0.02262516802567537,-0.07028118024437666,1.8267819390266146e-10,2.2238602232837657e-10,1.63548697998199e-11,2.7623560529118297e-10,2.402365213151462e-11,-7.461855188100516e-11,-1.0388753655948109,-0.463023653551478,0.020820720479597092,-0.25737491326569734,-0.484847464112813,0.833107523520167,-0.06791866325939899
14.8,0.2032581534620202,0.7081886534336673,-1.1921345824890637,-0.1269590768054794,0.7080039726488465,-2.0462352882031327,0.172048735360891,0.20943951023954213,0.015402366652249179,0.26016863914500227,0.02262516802567537,-0.07028118024437666,1.8267819390266146e-10,2.2238602232837657e-10,1.63548697998199e-11,2.7623560529118297e-10,2.402365213151462e-11,-7.461855188100516e-11,-1.026405329226103,-0.47975646513205505,-0.006604137351996185,-0.2720472969058187,-0.48936276625524316,0.8244974126303697,-0.08196565021446252
14.9,0.22046302699809991,0.7291326044576101,-1.1905943458238395,-0.10094221289099335,0.7102664894514128,-2.0532634062275665,0.172048735360891,0.20943951023954213,0.015402366652249179,0.26016863914500227,0.02262516802567537,-0.07028118024437666,1.8267819390266146e-10,2.2238602232837657e-10,1.63548697998199e-11,2.7623560529118297e-10,2.402365213151462e-11,-7.461855188100516e-11,-1.012930003484528,-0.4960316485199855,-0.03387610892426124,-0.2864993897704918,-0.49404287202960273,0.8152642019982771,-0.09583329900399873
15.0,0.23766790053418005,0.7500765554815534,-1.1890541091586155,-0.07492534897650668,0.7125290062539791,-2.0602915242520004,0.172048735360891,0.20943951023954213,0.015402366652249179,0.26016863914500227,0.02262516802567537,-0.07028118024437666,1.8267819390266146e-10,2.2238602232837657e-10,1.63548697998199e-11,2.7623560529118297e-10,2.402365213151462e-11,-7.461855188100516e-11,-0.9984705801688952,-0.5118084046166608,-0.06097113245361448,-0.3007198708288343,-0.4988812764027677,0.8054148167002281,-0.10950801058905511
15.1,0.25487277407026016,0.7710205065054967,-1.1875138724933914,-0.04890848506202004,0.7147915230565456,-2.0673196422764346,0.172048735360891,0.20943951023954213,0.015402366652249179,0.26016863914500227,0.02262516802567537,-0.07028118024437666,1.8267819390266146e-10,2.2238602232837657e-10,1.63548697998199e-11,2.7623560529118297e-10,2.402365213151462e-11,-7.461855188100516e-11,-0.9830503747907248,-0.5270470153282143,-0.0878654161080375,-0.3146976551739323,-0.5038710963910877,0.7949566727880919,-0.12297638976388324
15.2,0.27207764760633985,0.7919644575294396,-1.1859736358281672,-0.022891621147534003,0.7170540398591118,-2.0743477603008684,0.172048735360891,0.20943951023954213,0.015402366652249179,0.26016863914500227,0.02262516802567537,-0.07028118024437666,1.8267819390266146e-10,2.2238602232837657e-10,1.63548697998199e-11,2.7623560529118297e-10,2.402365213151462e-11,-7.461855188100516e-11,-0.966694765207211,-0.5417089474234107,-0.11453547433228065,-0.32842190939079824,-0.509005078908347,0.7838976708127403,-0.1362252574670732
15.3,0.28928252114242,0.8129084085533828,-1.1844333991629432,0.0031252427669526545,0.7193165566616782,-2.0813758783253027,0.172048735360891,0.20943951023954213,0.015402366652249179,0.26016863914500227,0.02262516802567537,-0.07028118024437666,1.8267819390266146e-10,2.2238602232837657e-10,1.63548697998199e-11,2.7623560529118297e-10,2.402365213151462e-11,-7.461855188100516e-11,-0.9494311244777185,-0.5557569527442834,-0.14095816359626442,-0.34188206665326476,-0.5142756091980499,0.7722461889470221,-0.14924166288830823
15.4,0.3064873946784996,0.8338523595773255,-1.182893162497719,0.02914210668143852,0.7215790734642444,-2.0884039963497365,0.1720487353608911,0.20943951023954277,0.015402366652249188,0.26016863914500243,0.022625168025675633,-0.0702811802443767,1.832050435814943e-10,2.2302378772906894e-10,1.6401662369979395e-11,2.770674732051295e-10,2.4092974457676834e-11,-7.484038332472424e-11,-0.9312887481689762,-0.5691551644453579,-0.16711071749301623,-0.355067841527153,-0.5196747198407891,0.7600110757145189,-0.16201289535992458
15.5,0.3236922682145797,0.8547963106012687,-1.1813529258324948,0.05515897059592516,0.7238415902668108,-2.0954321143741703,0.1720487353608911,0.20943951023954277,0.015402366652249188,0.26016863914500243,0.022625168025675633,-0.0702811802443767,1.832050435814943e-10,2.2302378772906894e-10,1.6401662369979395e-11,2.770674732051295e-10,2.4092974457676834e-11,-7.484038332472424e-11,-0.9122987763534669,-0.5818691889515292,-0.19297078111375507,-0.36796924445737883,-0.5251941003265799,0.7472016423306838,-0.1745264960226638
15.6,0.3408971417506598,0.8757402616252121,-1.179812689167271,0.08117583451041178,0.7261041070693772,-2.102460232398604,0.1720487353608911,0.20943951023954277,0.015402366652249188,0.26016863914500243,0.022625168025675633,-0.0702811802443767,1.832050435814943e-10,2.2302378772906894e-10,1.6401662369979395e-11,2.770674732051295e-10,2.4092974457676834e-11,-7.484038332472424e-11,-0.8924941105639654,-0.5938661933400371,-0.21851644462912448,-0.3805765959170032,-0.5308251071811811,0.7338276546633097,-0.18677026925519946
15.7,0.35810201528673946,0.8966842126491549,-1.1782724525020467,0.1071926984248978,0.7283666238719435,-2.109488350423038,0.1720487353608911,0.20943951023954277,0.015402366652249188,0.26016863914500243,0.022625168025675633,-0.0702811802443767,1.832050435814943e-10,2.2302378772906894e-10,1.6401662369979395e-11,2.770674732051295e-10,2.4092974457676834e-11,-7.484038332472424e-11,-0.8719093259846139,-0.6051149878685106,-0.24372627600717708,-0.39288054019662566,-0.5365587746345821,0.7198993248195733,-0.19873229385725358
15.8,0.3753068888228196,0.9176281636730982,-1.1767322158368225,0.13320956233938444,0.7306291406745099,-2.116516468447472,0.1720487353608911,0.20943951023954277,0.015402366652249188,0.26016863914500243,0.022625168025675633,-0.0702811802443767,1.832050435814943e-10,2.2302378772906894e-10,1.6401662369979395e-11,2.770674732051295e-10,2.4092974457676834e-11,-7.484038332472424e-11,-0.8505805791753204,-0.6155861033886059,-0.268579352800438,-0.4048720588129332,-0.5423858258189919,0.7054273023672344,-0.21040093397633333
15.9,0.39251176235889934,0.9385721146970412,-1.1751919791715986,0.15922642625387046,0.7328916574770763,-2.123544586471906,0.1720487353608911,0.20943951023954277,0.015402366652249188,0.26016863914500243,0.022625168025675633,-0.0702811802443767,1.832050435814943e-10,2.2302378772906894e-10,1.6401662369979395e-11,2.770674732051295e-10,2.4092974457676834e-11,-7.484038332472424e-11,-0.8285455116415731,-0.6252518634033029,-0.2930552929362591,-0.41654248351566686,-0.5482966844828532,0.690422665197871,-0.2217648497683516
16.0,0.4097166358949794,0.9595160657209845,-1.1736517425063744,0.1852432901683571,0.7351541742796426,-2.1305727044963403,0.17204873536028042,0.2094395102387994,0.015402366652194518,0.260168639144079,0.02262516802559533,-0.07028118024412724,-4.268868845061449e-10,-5.196401569110201e-10,-3.821566535500568e-11,-6.454740433604443e-10,-5.613375360975167e-11,1.74373379228119e-10,-0.805843149575828,-0.634086450545403,-0.3171342844467399,-0.4278835088727538,-0.5542814872065982,0.6748969100403237,-0.23281300778265124
16.1,0.42692150943105917,0.9804600167449271,-1.1721115058411504,0.21126015408284315,0.737416691082209,-2.1376008225207737,0.1720487353608911,0.20943951023954277,0.015402366652249188,0.26016863914500243,0.022625168025675633,-0.0702811802443767,1.832050435814943e-10,2.2302378772906894e-10,1.6401662369979395e-11,2.770674732051295e-10,2.4092974457676834e-11,-7.484038332472424e-11,-0.7825138001095301,-0.6420659672750438,-0.3407971140766503,-0.4388872044138604,-0.5603300961050728,0.6588619426328335,-0.24353469106218745
16.2,0.4441263829671388,1.00140396776887,-1.1705712691759262,0.23727701799732917,0.7396792078847753,-2.144628940545208,0.1720487353608911,0.20943951023954277,0.015402366652249188,0.26016863914500243,0.022625168025675633,-0.0702811802443767,1.832050435814943e-10,2.2302378772906894e-10,1.6401662369979395e-11,2.770674732051295e-10,2.4092974457676834e-11,-7.484038332472424e-11,-0.7585989444263846,-0.6491684906151197,-0.3640251947101537,-0.44954602631316964,-0.566432112000795,0.6423300675626206,-0.25391950894989673
16.3,0.4613312565032186,1.0223479187928128,-1.169031032510702,0.2632938819118152,0.7419417246873417,-2.1516570585696413,0.17204873536089144,0.20943951023954321,0.015402366652249469,0.2601686391450025,0.022625168025675428,-0.07028118024437635,1.8356551967753777e-10,2.234674506165071e-10,1.643285741675239e-11,2.7756659395349745e-10,2.4138033969682272e-11,-7.499289244228111e-11,-0.7341411280977664,-0.6553741207652135,-0.3868005915595638,-0.4598528285927572,-0.5725768880514582,0.6253139777819513,-0.26395740659254274
16.4,0.47853613003929873,1.0432918698167564,-1.167490795845478,0.2893107458263018,0.7442042414899079,-2.1586851765940755,0.17204873536089144,0.20943951023954321,0.015402366652249469,0.2601686391450025,0.022625168025675428,-0.07028118024437635,1.8356551967753777e-10,2.234674506165071e-10,1.643285741675239e-11,2.7756659395349745e-10,2.4138033969682272e-11,-7.499289244228111e-11,-0.7091838490100116,-0.660665023456971,-0.40910604706200226,-0.46980087382854163,-0.5787535438143646,0.6078267438099935,-0.2736386741335984
16.5,0.4957410035753784,1.064235820840699,-1.165950559180254,0.3153276097407878,0.7464667582924742,-2.1657132946185094,0.17204873536089144,0.20943951023954321,0.015402366652249469,0.2601686391450025,0.022625168025675428,-0.07028118024437635,1.8356551967753777e-10,2.234674506165071e-10,1.643285741675239e-11,2.7756659395349745e-10,2.4138033969682272e-11,-7.499289244228111e-11,-0.6837714432608182,-0.6650254659366748,-0.43092500443252507,-0.4793838433414181,-0.5849509797297682,0.5898818026300297,-0.2829539555870209
16.6,0.5129458771114586,1.0851797718646423,-1.16441032251503,0.3413444736552744,0.7487292750950406,-2.172741412642943,0.17204873536089144,0.20943951023954321,0.015402366652249469,0.2601686391450025,0.022625168025675428,-0.07028118024437635,1.8356551967753777e-10,2.234674506165071e-10,1.643285741675239e-11,2.7756659395349745e-10,2.4138033969682272e-11,-7.499289244228111e-11,-0.6579489694079965,-0.6684418464839957,-0.45224162982516125,0.4885958468568459,0.5911578920044305,-0.571492946291843,0.2918942573840536
16.7,0.5301507506475382,1.1061237228885852,-1.1628700858498058,0.3673613375697604,0.750991791897607,-2.179769530667377,0.17204873536089144,0.20943951023954321,0.015402366652249469,0.2601686391450025,0.022625168025675428,-0.07028118024437635,1.8356551967753777e-10,2.234674506165071e-10,1.643285741675239e-11,2.7756659395349745e-10,2.4138033969682272e-11,-7.499289244228111e-11,-0.6317620914584005,-0.6709027173994769,-0.473040833056239,0.497431431616833,0.5973627878760155,-0.5526743102293501,0.30045095658548804
16.8,0.5473556241836184,1.1270676739125285,-1.1613298491845816,0.393378201484247,0.7532543087001733,-2.186797648691811,0.17204873536089144,0.20943951023954321,0.015402366652249469,0.2601686391450025,0.022625168025675428,-0.07028118024437635,1.8356551967753777e-10,2.234674506165071e-10,1.643285741675239e-11,2.7756659395349745e-10,2.4138033969682272e-11,-7.499289244228111e-11,-0.6052569609879174,-0.6723988014170695,-0.49330828684748596,0.5058855909289861,0.603554001238342,-0.5334403613037622,0.30861580875212746
16.9,0.5645604977196985,1.148011624936472,-1.1597896125193574,0.4193950653987336,0.7555168255027396,-2.1938257667162446,0.17204873536089144,0.20943951023954321,0.015402366652249469,0.2601686391450025,0.022625168025675428,-0.07028118024437635,1.8356551967753777e-10,2.234674506165071e-10,1.643285741675239e-11,2.7756659395349745e-10,2.4138033969682272e-11,-7.499289244228111e-11,-0.5784800987850329,-0.6729230015219683,-0.5130304445495318,0.5139537721380257,0.6097197086068804,-0.5138058855828153,0.3163809554664978
17.0,0.5817653712557782,1.1689555759604149,-1.1582493758541332,0.4454119293132196,0.757779342305306,-2.2008538847406784,0.17204873536089144,0.20943951023954321,0.015402366652249469,0.2601686391450025,0.022625168025675428,-0.07028118024437635,1.8356551967753777e-10,2.234674506165071e-10,1.643285741675239e-11,2.7756659395349745e-10,2.4138033969682272e-11,-7.499289244228111e-11,-0.5514782764105395,-0.6724704041779525,-0.5321945563097317,0.5216318840059185,0.6158479454033196,-0.4937859758667944,0.3237389314991685
17.1,0.5989702447918583,1.189899526984358,-1.156709139188909,0.47142879322770626,0.7600418591078723,-2.2078820027651123,0.17204873536089144,0.20943951023954321,0.015402366652249469,0.2601686391450025,0.022625168025675428,-0.07028118024437635,1.8356551967753777e-10,2.234674506165071e-10,1.643285741675239e-11,2.7756659395349745e-10,2.4138033969682272e-11,-7.499289244228111e-11,-0.5242983980645729,-0.6710382759923292,-0.550788683651587,0.5289163034875773,0.6219266225374633,-0.47339601897230205,0.3306826716133706
17.2,0.6161751183279375,1.2108434780083002,-1.155168902523685,0.4974456571421914,0.7623043759104385,-2.214910120789546,0.1720487353608907,0.20943951023954177,0.015402366652248901,0.2601686391450023,0.02262516802567558,-0.07028118024437603,1.8237317566754772e-10,2.220255462323331e-10,1.6327140869355017e-11,2.757919424037448e-10,2.3982058735817295e-11,-7.449377169391317e-11,-0.4969873831492663,-0.6686260538703366,-0.5688017124364622,0.5358038818898629,0.6279435432642051,-0.45265168278491813,0.337205517001918
17.3,0.6333799918640176,1.2317874290322435,-1.153628665858461,0.5234625210566781,0.7645668927130049,-2.22193823881398,0.1720487353608907,0.20943951023954177,0.015402366652248901,0.2601686391450023,0.02262516802567558,-0.07028118024437603,1.8237317566754772e-10,2.220255462323331e-10,1.6327140869355017e-11,2.757919424037448e-10,2.3982058735817295e-11,-7.449377169391317e-11,-0.46959204991090236,-0.6652353287343579,-0.5862233641818381,0.5422919504024734,0.6338864202928255,-0.4315689030920648,0.3433012213507848
17.4,0.6505848654000977,1.2527313800561868,-1.152088429193237,0.5494793849711648,0.7668294095155712,-2.2289663568384137,0.1720487353608907,0.20943951023954177,0.015402366652248901,0.2601686391450023,0.02262516802567558,-0.07028118024437603,1.8237317566754772e-10,2.220255462323331e-10,1.6327140869355017e-11,2.757919424037448e-10,2.3982058735817295e-11,-7.449377169391317e-11,-0.4421590005396529,-0.660869822906474,-0.6030442057138837,0.5483783249901227,0.6397428931254009,-0.41016387020760475,0.348963956524006
17.5,0.6677897389361774,1.2736753310801294,-1.1505481925280128,0.5754962488856509,0.7690919263181376,-2.2359944748628475,0.1720487353608907,0.20943951023954177,0.015402366652248901,0.2601686391450023,0.02262516802567558,-0.07028118024437603,1.8237317566754772e-10,2.220255462323331e-10,1.6327140869355017e-11,2.757919424037448e-10,2.3982058735817295e-11,-7.449377169391317e-11,-0.41473450809764717,-0.6555353612756004,-0.6192556571358054,0.554061310636304,0.6455005456006813,-0.3884530153998182,0.354188317864935
17.6,0.6849946124722577,1.294619282104073,-1.149007955862789,0.6015131128001376,0.771354443120704,-2.243022592887282,0.1720487353608907,0.20943951023954177,0.015402366652248901,0.2601686391450023,0.02262516802567558,-0.07028118024437603,1.8237317566754772e-10,2.220255462323331e-10,1.6327140869355017e-11,2.757919424037448e-10,2.3982058735817295e-11,-7.449377169391317e-11,-0.3873644056374781,-0.6492398363926821,-0.6348499980970826,0.5593397049297892,0.651146923619392,-0.3664529971346031,0.3589693291092215
17.7,0.7021994860083373,1.3155632331280156,-1.1474677191975649,0.6275299767146236,0.7736169599232703,-2.2500507109117156,0.1720487353608907,0.20943951023954177,0.015402366652248901,0.2601686391450023,0.02262516802567558,-0.07028118024437603,1.8237317566754772e-10,2.220255462323331e-10,1.6327140869355017e-11,2.757919424037448e-10,2.3982058735817295e-11,-7.449377169391317e-11,-0.3600939778631707,-0.6419931676590065,-0.6498203723524395,0.5642128009859282,0.6566695530265502,-0.3441806871458691,0.36330244690522195
17.8,0.7194043595444174,1.336507184151959,-1.1459274825323407,0.6535468406291103,0.7758794767258368,-2.2570788289361494,0.1720487353608907,0.20943951023954177,0.015402366652248901,0.2601686391450023,0.02262516802567558,-0.07028118024437603,1.8237317566754772e-10,2.220255462323331e-10,1.6327140869355017e-11,2.757919424037448e-10,2.3982058735817295e-11,-7.449377169391317e-11,-0.3329678556742226,-0.633807254793611,-0.6641607906031711,0.5686803896957211,0.662055957626058,-0.32165315634522323,0.36718356493792237
17.9,0.7366092330804975,1.3574511351759022,-1.1443872458671165,0.679563704543597,0.7781419935284031,-2.2641069469605832,0.1720487353608907,0.20943951023954177,0.015402366652248901,0.2601686391450023,0.02262516802567558,-0.07028118024437603,1.8237317566754772e-10,2.220255462323331e-10,1.6327140869355017e-11,2.757919424037448e-10,2.3982058735817295e-11,-7.449377169391317e-11,-0.3060299139206935,-0.6246959257858771,-0.6778661316172024,0.5727427612965591,0.6672936773025278,-0.2988876605831954,0.3706090176527916
18.0,0.7538141066165772,1.378395086199845,-1.1428470092018925,0.705580568458083,0.7804045103309694,-2.2711350649850175,0.1720487353608907,0.20943951023954177,0.015402366652248901,0.2601686391450023,0.02262516802567558,-0.07028118024437603,1.8237317566754772e-10,2.220255462323331e-10,1.6327140869355017e-11,2.757919424037448e-10,2.3982058735817295e-11,-7.449377169391317e-11,-0.27932317268335954,-0.614674879558672,-0.6909321416280849,0.5764007062594729,0.6723702862250405,-0.2759016262743318,0.3735755835763584
18.1,0.7710189801526572,1.3993390372237884,-1.1413067725366683,0.7315974323725697,0.7826670271335358,-2.2781631830094513,0.1720487353608911,0.20943951023954338,0.01540236665224948,0.2601686391450027,0.02262516802567545,-0.0702811802443769,1.837041643298622e-10,2.2363382419929642e-10,1.6444988823830777e-11,2.777884253972165e-10,2.4158830667530935e-11,-7.503448583797843e-11,-0.25288970237789604,-0.6037616235857252,-0.7033554320169216,0.5796555154886757,0.6772734111073027,-0.2527126358986129,0.3760804882306595
18.2,0.7882238536887366,1.4202829882477306,-1.1397665358714444,0.7576142962870551,0.784929543936102,-2.2851913010338847,0.1720487353608911,0.20943951023954338,0.01540236665224948,0.2601686391450027,0.02262516802567545,-0.0702811802443769,1.837041643298622e-10,2.2363382419929642e-10,1.6444988823830777e-11,2.777884253972165e-10,2.4158830667530935e-11,-7.503448583797843e-11,-0.22677053296584704,-0.5919754067242496,-0.7151334752850247,0.5825089798301418,0.6819907494984798,-0.2293384133917417,0.3781214066390683
18.3,0.8054287272248167,1.4412269392716741,-1.1382262992062202,0.7836311602015418,0.7871920607386684,-2.292219419058319,0.1720487353608911,0.20943951023954338,0.01540236665224948,0.2601686391450027,0.02262516802567545,-0.0702811802443769,1.837041643298622e-10,2.2363382419929642e-10,1.6444988823830777e-11,2.777884253972165e-10,2.4158830667530935e-11,-7.503448583797843e-11,-0.2010055675378712,-0.5793371475400448,-0.7262645993289142,0.5849633888869443,0.6865100880788245,-0.20579680943689924,0.3796964654213924
18.4,0.8226336007608972,1.4621708902956179,-1.136686062540996,0.809648024116029,0.7894545775412348,-2.299247537082753,0.1720487353608911,0.20943951023954338,0.01540236665224948,0.2601686391450027,0.02262516802567545,-0.0702811802443769,1.837041643298622e-10,2.2363382419929642e-10,1.6444988823830777e-11,2.777884253972165e-10,2.4158830667530935e-11,-7.503448583797843e-11,-0.17563350051657697,-0.5658693584174356,-0.7367479800330211,0.5870215291400329,0.6908193209340928,-0.18210578667068966,0.38080424447648376
18.5,0.8398384742969764,1.4831148413195603,-1.1351458258757718,0.8356648880305144,0.7917170943438011,-2.3062756551071866,0.1720487353608911,0.20943951023954338,0.01540236665224948,0.2601686391450027,0.02262516802567545,-0.0702811802443769,1.837041643298622e-10,2.2363382419929642e-10,1.6444988823830777e-11,2.777884253972165e-10,2.4158830667530935e-11,-7.503448583797843e-11,-0.15069174070708666,-0.5515960657602721,-0.746583632199235,0.5886866813741253,0.6949064677826752,-0.15828340481598946,0.3814437782509798
18.6,0.8570433478330566,1.5040587923435036,-1.1336055892105479,0.8616817519450011,0.7939796111463675,-2.3133037731316204,0.1720487353608911,0.20943951023954338,0.01540236665224948,0.2601686391450027,0.02262516802567545,-0.0702811802443769,1.837041643298622e-10,2.2363382419929642e-10,1.6444988823830777e-11,2.777884253972165e-10,2.4158830667530935e-11,-7.503448583797843e-11,-0.1262163394035616,-0.5365427266028704,-0.7557723988361301,0.5899626174093676,0.6987596921293016,-0.13434780575451066,0.38161455659316795
18.7,0.8742482213691363,1.5250027433674465,-1.1320653525453237,0.8876986158594871,0.7962421279489338,-2.3203318911560546,0.1720487353608911,0.20943951023954338,0.01540236665224948,0.2601686391450027,0.02262516802567545,-0.0702811802443769,1.837041643298622e-10,2.2363382419929642e-10,1.6444988823830777e-11,2.777884253972165e-10,2.4158830667530935e-11,-7.503448583797843e-11,-0.10224192373924422,-0.5207361419610993,-0.764315938834379,0.5908535961404096,0.7023673193191792,-0.11031719855191523,0.3813165251913341
18.8,0.8914530949052163,1.5459466943913898,-1.1305251158800997,0.9137154797739736,0.7985046447515001,-2.3273600091804885,0.1720487353608911,0.20943951023954338,0.01540236665224948,0.2601686391450027,0.02262516802567545,-0.0702811802443769,1.837041643298622e-10,2.2363382419929642e-10,1.6444988823830777e-11,2.777884253972165e-10,2.4158830667530935e-11,-7.503448583797843e-11,-0.07880163544619295,-0.5042043672637891,-0.772216713058482,0.5913643588855225,0.7057178544664585,-0.0862098444483155,0.3805500855963253
18.9,0.9086579684412968,1.5668906454153335,-1.1289848792148753,0.9397323436884608,0.8007671615540666,-2.3343881272049227,0.1720487353608911,0.20943951023954338,0.01540236665224948,0.2601686391450027,0.02262516802567545,-0.0702811802443769,1.837041643298622e-10,2.2363382419929642e-10,1.6444988823830777e-11,2.777884253972165e-10,2.4158830667530935e-11,-7.503448583797843e-11,-0.05592707516903753,-0.48697662021323906,-0.7794779688884953,0.5915001240493863,0.7088000002309741,-0.0620440418270455,0.3793160948284363
19.0,0.9258628419773763,1.5878345964392764,-1.1274446425496514,0.9657492076029467,0.8030296783566327,-2.3414162452293565,0.17204873536089066,0.20943951023954172,0.015402366652249148,0.26016863914500227,0.02262516802567545,-0.07028118024437652,1.8234544673708285e-10,2.219700883714033e-10,1.6323674753046905e-11,2.757364845428151e-10,2.3978592619509183e-11,-7.447990722868074e-11,-0.03364825245467094,-0.46908318643076014,-0.7861037232489181,0.5912665811041605,0.7116026744173148,-0.037838111174567014,0.3776158645690927
19.1,0.9430677155134564,1.6087785474632195,-1.1259044058844272,0.9917660715174333,0.8052921951591991,-2.3484443632537904,0.17204873536089066,0.20943951023954172,0.015402366652249148,0.26016863914500227,0.02262516802567545,-0.07028118024437652,1.8234544673708285e-10,2.219700883714033e-10,1.6323674753046905e-11,2.757364845428151e-10,2.3978592619509183e-11,-7.447990722868074e-11,-0.011993541517032531,-0.4505553232488974,-0.792098744165322,0.5906698838944275,0.714115027370428,-0.01361038004436114,0.3754511599381794
