mathias31415/primitives_from_planned_trajectory_python/data/saved_trajectories/trajectory_20250624_152044_planned.csv
time_from_start,shoulder_pan_joint_pos,shoulder_lift_joint_pos,elbow_joint_pos,wrist_1_joint_pos,wrist_2_joint_pos,wrist_3_joint_pos,shoulder_pan_joint_vel,shoulder_lift_joint_vel,elbow_joint_vel,wrist_1_joint_vel,wrist_2_joint_vel,wrist_3_joint_vel,shoulder_pan_joint_acc,shoulder_lift_joint_acc,elbow_joint_acc,wrist_1_joint_acc,wrist_2_joint_acc,wrist_3_joint_acc,fk_x,fk_y,fk_z,fk_qx,fk_qy,fk_qz,fk_qw
0.0,-2.0224840000000004,-1.7245999999999997,-2.4908779999999995,-0.5302379999999998,1.582503,-0.45276400000000017,-9.155424242774868e-05,-0.00015917491832198865,0.0005000000000000001,-0.00034128486228200163,-3.177336464508227e-06,-9.15155858892247e-05,-0.09155424242774868,-0.15917491832198866,0.5000000000000001,-0.3412848622820016,-0.0031773364645082272,-0.0915155858892247,-0.36594300954837555,-0.358449331120704,0.16327022939650304,-0.00044054749660349537,0.9998439462840056,0.012430133440775752,0.012545149651325497
0.1,-2.022941771212139,-1.7253958745916096,-2.4883779999999995,-0.5319444243114098,1.5824871133176774,-0.4532215779294463,-0.009155424242774792,-0.015917491832198736,0.04999999999999961,-0.03412848622819988,-0.0003177336464508201,-0.009151558588922396,-0.09155424242768438,-0.15917491832187824,0.49999999999966,-0.3412848622817638,-0.003177336464506034,-0.0915155858891621,-0.36669301659027453,-0.3594839467704351,0.16366008902874896,-0.00044057652253923343,0.9998439735624137,0.012428898521410742,0.012544198053108642
0.2,-2.0243150848485554,-1.7277834983664395,-2.4808779999999997,-0.5370636972456397,1.5824394532707098,-0.45459431171778464,-0.018310848485549945,-0.031834983664398096,0.10000000000000116,-0.0682569724564011,-0.0006354672929016527,-0.01830311717784515,-0.09155424242791163,-0.1591749183222703,0.5000000000008743,-0.3412848622826034,-0.0031773364645138404,-0.09151558588938588,-0.3689469303417908,-0.3625795067128006,0.16483610838310198,-0.0004406637096929429,0.9998440550112109,0.0124252145945092,0.01254135226018964
0.30000000000000004,-2.026603940909249,-1.7317628713244893,-2.468377999999999,-0.5455958188026898,1.582360019859097,-0.45688220136501523,-0.027466272728324664,-0.047752475496596704,0.15000000000000036,-0.10238545868460071,-0.0009532009393524702,-0.02745467576676747,-0.09155424242789428,-0.15917491832224254,0.5000000000007772,-0.3412848622825479,-0.0031773364645132983,-0.09151558588936853,-0.37271626760834603,-0.36771098772468985,0.1668175299311067,-0.00044080938610641194,0.9998441894711163,0.012419144055551787,0.012536639456373552
0.4,-2.0298083393942203,-1.7373339934657586,-2.4508779999999994,-0.5575407889825598,1.5822488130828394,-0.4600852468711381,-0.03662169697109835,-0.06366996732879351,0.19999999999999393,-0.13651394491279648,-0.001270934585803252,-0.036606234355688765,-0.09155424242681529,-0.15917491832037597,0.49999999999492073,-0.3412848622785511,-0.00317733646447611,-0.09151558588829647,-0.37801968322797663,-0.3748361484558911,0.16963615811893856,-0.00044101409851702726,0.9998443750099966,0.01241079056833363,0.012530105542376426
0.5,-2.033928280303469,-1.7444968647902481,-2.4283779999999995,-0.5728986077852498,1.5821058329419364,-0.4642034482361532,-0.04577712121387268,-0.07958745916099146,0.249999999999991,-0.17064243114099464,-0.0015886682322540562,-0.0457577929446107,-0.09155424242601731,-0.1591749183189882,0.49999999999053535,-0.3412848622755535,-0.0031773364644481377,-0.0915155858874985,-0.38488215023245115,-0.38389474204155044,0.17333594824436527,-0.0004412786123629598,0.9998446089228675,0.012400298566092963,0.012521816023883732
0.6000000000000001,-2.0389637636369953,-1.7532514852979575,-2.4008779999999996,-0.59166927521076,1.5819310794363886,-0.46923680546006064,-0.05493254545665098,-0.09550495099319628,0.30000000000000976,-0.20477091736920758,-0.001906401878704998,-0.0549093515335366,-0.09155424242918145,-0.1591749183244838,0.5000000000078271,-0.3412848622873496,-0.003177336464558076,-0.09151558589066264,-0.39333379254604794,-0.39480744741616935,0.17797240787913812,-0.00044160391178564985,0.9998448877318964,0.012387852541417907,0.01251185724776871
0.7000000000000001,-2.0446795659334747,-1.7631888987870674,-2.3696626125700284,-0.612975953610994,1.5817327158589185,-0.4749501943988865,-0.05752522708319568,-0.10001255080721749,0.31415926535896216,-0.21443560322529634,-0.001996379378976293,-0.05750093846370766,3.1477529301815368e-12,5.463500680579408e-12,-1.713930670354352e-11,1.1731273034949692e-11,1.0920067984660618e-13,3.1408195536833396e-12,-0.40300843638409833,-0.4069786539874766,0.18338563097711022,-0.00044197583302357774,0.9998451947660809,0.01237422555086247,0.01250078807743568
0.8,-2.050432088641794,-1.7731901538677892,-2.3382466860341315,-0.6344195139335241,1.581533077921021,-0.4807002882452574,-0.05752522708319568,-0.10001255080721749,0.31415926535896216,-0.21443560322529634,-0.001996379378976293,-0.05750093846370766,3.1477529301815368e-12,5.463500680579408e-12,-1.713930670354352e-11,1.1731273034949692e-11,1.0920067984660618e-13,3.1408195536833396e-12,-0.41282702250837927,-0.4189916291119687,0.18899226699708443,-0.0004423530124113026,0.9998454936349183,0.012361045143940272,0.012489905712556834
0.9,-2.0561846113501137,-1.7831914089485115,-2.3068307594982347,-0.6558630742560544,1.5813334399831231,-0.48645038209162833,-0.05752522708319568,-0.10001255080721749,0.31415926535896216,-0.21443560322529634,-0.001996379378976293,-0.05750093846370766,3.1477529301815368e-12,5.463500680579408e-12,-1.713930670354352e-11,1.1731273034949692e-11,1.0920067984660618e-13,3.1408195536833396e-12,-0.42272201736490594,-0.430762659549885,0.19475505001835658,-0.00044273306979752996,0.9998457823334596,0.012348397137124264,0.012479287862896668
1.0,-2.061937134058434,-1.7931926640292337,-2.275414832962336,-0.6773066345785854,1.5811338020452257,-0.4922004759379995,-0.05752522708320362,-0.1000125508072313,0.3141592653590055,-0.21443560322532593,-0.0019963793789765684,-0.057500938463715595,-4.7909631602542776e-12,-8.333918550833055e-12,2.6180429657192695e-11,-1.7832644353363243e-11,-1.659676999255959e-13,-4.7909631602542776e-12,-0.43268769654292283,-0.44228712227566536,0.20067088334659366,-0.0004431160052034347,0.999846060861717,0.012336278035873702,0.012468940281161764
1.1,-2.0676896567667535,-1.8031939191099555,-2.24399890642644,-0.6987501949011149,1.580934164107328,-0.49795056978437013,-0.05752522708319085,-0.1000125508072091,0.3141592653589358,-0.21443560322527833,-0.0019963793789761256,-0.05750093846370283,7.973382972925915e-12,1.3852886243396504e-11,-4.348613739668813e-11,2.973031842426637e-11,2.764683878655834e-13,7.966449596427719e-12,-0.4427182690165479,-0.45356054800668755,0.20673657862556233,-0.0004435018186512693,0.9998463292197031,0.012324684297150439,0.012458868688515312
1.2,-2.073442179475073,-1.8131951741906769,-2.212582979890544,-0.7201937552236443,1.5807345261694303,-0.5037006636307408,-0.05752522708319085,-0.1000125508072091,0.3141592653589358,-0.21443560322527833,-0.0019963793789761256,-0.05750093846370283,7.973382972925915e-12,1.3852886243396504e-11,-4.348613739668813e-11,2.973031842426637e-11,2.764683878655834e-13,7.966449596427719e-12,-0.4528078811075376,-0.4645786235322234,0.21294885734661995,-0.00044389051016231003,0.9998465874074298,0.012313612329663024,0.012449078774209697
1.3,-2.0791947021833925,-1.8231964292713987,-2.1811670533546486,-0.7416373155461735,1.5805348882315329,-0.5094507574771115,-0.05752522708319085,-0.1000125508072091,0.3141592653589358,-0.21443560322527833,-0.0019963793789761256,-0.05750093846370283,7.973382972925915e-12,1.3852886243396504e-11,-4.348613739668813e-11,2.973031842426637e-11,2.764683878655834e-13,7.966449596427719e-12,-0.46295062049590074,-0.4753371939345418,0.21930435240168175,-0.00044428207975816085,0.99984683542491,0.012303058494120564,0.012439576195221886
1.4,-2.084947224891712,-1.8331976843521205,-2.149751126818753,-0.7630808758687029,1.5803352502936352,-0.5152008513234823,-0.05752522708319085,-0.1000125508072091,0.3141592653589358,-0.21443560322527833,-0.0019963793789761256,-0.05750093846370283,7.973382972925915e-12,1.3852886243396504e-11,-4.348613739668813e-11,2.973031842426637e-11,2.764683878655834e-13,7.966449596427719e-12,-0.4731405202754957,-0.48583226470078394,0.2257996096789628,-0.0004446765274601578,0.999847073272156,0.01229301910348305,0.012430366575888308
1.5,-2.0906997476000315,-1.8431989394328419,-2.118335200282857,-0.784524436191232,1.5801356123557375,-0.5209509451698529,-0.05752522708319085,-0.1000125508072091,0.3141592653589358,-0.21443560322527833,-0.0019963793789761256,-0.05750093846370283,7.973382972925915e-12,1.3852886243396504e-11,-4.348613739668813e-11,2.973031842426637e-11,2.764683878655834e-13,7.966449596427719e-12,-0.48337156305168283,-0.4960600037242754,0.23243108970074666,-0.0004450738532897148,0.9998473009491808,0.012283490423217955,0.012421455507544204
1.6,-2.096452270308351,-1.8532001945135639,-2.08691927374696,-0.8059679965137623,1.5799359744178398,-0.5267010390162238,-0.057525227083200486,-0.10001255080722585,0.3141592653589884,-0.21443560322531427,-0.00199637937897646,-0.057500938463712466,-1.6570769830693188e-12,-2.8842846232503625e-12,9.09658996563576e-12,-6.184571836392604e-12,-5.763369214127077e-14,-1.6640103595675168e-12,-0.4936376850780859,-0.5060167431940382,0.23919516930243004,-0.00044547405726831087,0.9998475184559971,0.01227446867155994,0.012412848548164157
1.7000000000000002,-2.102204793016671,-1.8632014495942861,-2.055503347211062,-0.8274115568362933,1.5797363364799422,-0.5324511328625949,-0.057525227083200486,-0.10001255080722585,0.3141592653589884,-0.21443560322531427,-0.00199637937897646,-0.057500938463712466,-1.6570769830693188e-12,-2.8842846232503625e-12,9.09658996563576e-12,-6.184571836392604e-12,-5.763369214127077e-14,-1.6640103595675168e-12,-0.5039327804294824,-0.515698981371343,0.2460881433520669,-0.0004458771394169058,0.9998477257926178,0.012265950019769038,0.01240455122200261
1.8,-2.107957315724991,-1.8732027046750086,-2.0240874206751633,-0.8488551171588243,1.5795366985420447,-0.5382012267089661,-0.057525227083200486,-0.10001255080722585,0.3141592653589884,-0.21443560322531427,-0.00199637937897646,-0.057500938463712466,-1.6570769830693188e-12,-2.8842846232503625e-12,9.09658996563576e-12,-6.184571836392604e-12,-5.763369214127077e-14,-1.6640103595675168e-12,-0.5142507052078181,-0.5251033842522217,0.25310622650961667,-0.0004462830997569688,0.9998479229590558,0.012257930592395777,0.01239656901923895
1.9,-2.113709838433311,-1.883203959755731,-1.9926714941392651,-0.8702986774813556,1.5793370606041468,-0.5439513205553372,-0.057525227083200486,-0.10001255080722585,0.3141592653589884,-0.21443560322531427,-0.00199637937897646,-0.057500938463712466,-1.6570769830693188e-12,-2.8842846232503625e-12,9.09658996563576e-12,-6.184571836392604e-12,-5.763369214127077e-14,-1.6640103595675168e-12,-0.5245852817783132,-0.5342267871149406,0.26024555502508395,-0.00044669193830949204,0.9998481099553245,0.012250406467546974,0.01238890739562269
2.0,-2.119462361141631,-1.8932052148364535,-1.9612555676033667,-0.8917422378038866,1.5791374226662491,-0.5497014144017084,-0.057525227083174466,-0.10001255080718155,0.31415926535884897,-0.21443560322521926,-0.0019963793789755757,-0.057500938463686986,2.3850815153795784e-11,4.1475458212211154e-11,-1.302365441421221e-10,8.891362021287126e-11,8.276718194722011e-13,2.3843881777297586e-11,-0.5349303030326095,-0.5430661959515256,0.2675021885747212,-0.0004471036550955596,0.9998482867814371,0.012243373677152728,0.012381571772121484
2.1,-2.1252148838499507,-1.903206469917176,-1.9298396410674683,-0.9131857981264178,1.5789377847283514,-0.5554515082480795,-0.057525227083199994,-0.10001255080722594,0.3141592653589884,-0.21443560322531444,-0.0019963793789764617,-0.05750093846371251,-1.6570769830693188e-12,-2.8842846232503625e-12,9.09658996563576e-12,-6.184571836392604e-12,-5.763369214127077e-14,-1.6570769830693188e-12,-0.545279536675881,-0.5516187887824991,0.27487211213444107,-0.00044751825013630684,0.999848453437407,0.012236828207239174,0.012374567534570847
2.2,-2.1309674065582707,-1.9132077249978985,-1.89842371453157,-0.9346293584489489,1.578738146790454,-0.5612016020944508,-0.057525227083199994,-0.10001255080722594,0.3141592653589884,-0.21443560322531444,-0.0019963793789764617,-0.05750093846371251,-1.6570769830693188e-12,-2.8842846232503625e-12,9.09658996563576e-12,-6.184571836392604e-12,-5.763369214127077e-14,-1.6570769830693188e-12,-0.5556267295348193,-0.559881916854091,0.2823512378895785,-0.0004479357234526419,0.9998486099232475,0.012230765998200851,0.012367900033325642
2.3,-2.136719929266591,-1.923208980078621,-1.8670077879956717,-0.95607291877148,1.5785385088525565,-0.566951695940822,-0.057525227083199994,-0.10001255080722594,0.3141592653589884,-0.21443560322531444,-0.0019963793789764617,-0.05750093846371251,-1.6570769830693188e-12,-2.8842846232503625e-12,9.09658996563576e-12,-6.184571836392604e-12,-5.763369214127077e-14,-1.6570769830693188e-12,-0.5659656118833838,-0.5678531057172538,0.289935407180115,-0.00044835607506519046,0.9998487562389725,0.012225182945076537,0.012361574582913508
2.4,-2.1424724519749105,-1.9332102351593434,-1.8355918614597733,-0.9775164790940112,1.5783388709146586,-0.5727017897871931,-0.057525227083199994,-0.10001255080722594,0.3141592653589884,-0.21443560322531444,-0.0019963793789764617,-0.05750093846371251,-1.6570769830693188e-12,-2.8842846232503625e-12,9.09658996563576e-12,-6.184571836392604e-12,-5.763369214127077e-14,-1.6570769830693188e-12,-0.5762899017831945,-0.5755300561879082,0.2976203924804686,-0.0004487793049956697,0.9998488923845956,0.012220074897828687,0.01235559646169091
2.5,-2.1482249746832305,-1.9432114902400657,-1.8041759349238748,-0.9989600394165423,1.5781392329767612,-0.5784518836335643,-0.057525227083199994,-0.10001255080722594,0.3141592653589884,-0.21443560322531444,-0.0019963793789764617,-0.05750093846371251,-1.6570769830693188e-12,-2.8842846232503625e-12,9.09658996563576e-12,-6.184571836392604e-12,-5.763369214127077e-14,-1.6570769830693188e-12,-0.5865933094354402,-0.582910645187922,0.3054018994129358,-0.0004492054132640571,0.9998490183601305,0.012215437661622452,0.012349970911500968
2.6,-2.1539774973915504,-1.9532127453207881,-1.7727600083879764,-1.0204035997390735,1.5779395950388633,-0.5842019774799354,-0.057525227083199994,-0.10001255080722594,0.3141592653589884,-0.21443560322531444,-0.0019963793789764617,-0.05750093846371251,-1.6570769830693188e-12,-2.8842846232503625e-12,9.09658996563576e-12,-6.184571836392604e-12,-5.763369214127077e-14,-1.6570769830693188e-12,-0.5968695415411504,-0.5899929264664204,0.3132755687938477,-0.00044963439989132456,0.9998491341655914,0.01221126699711116,0.012344703137332403
2.7,-2.1597300200998704,-1.9632140004015108,-1.741344081852078,-1.0418471600616046,1.5777399571009658,-0.5899520713263066,-0.057525227083199994,-0.10001255080722594,0.3141592653589884,-0.21443560322531444,-0.0019963793789764617,-0.05750093846371251,-1.6570769830693188e-12,-2.8842846232503625e-12,9.09658996563576e-12,-6.184571836392604e-12,-5.763369214127077e-14,-1.6570769830693188e-12,-0.6071123056666909,-0.5967751312011026,0.32123697871150664,-0.0004500662648980648,0.9998492398009922,0.012207558620720182,0.012339798306982298
2.8,-2.1654825428081903,-1.9732152554822333,-1.7099281553161796,-1.0632907203841357,1.5775403191630681,-0.5957021651726777,-0.057525227083199994,-0.10001255080722594,0.3141592653589884,-0.21443560322531444,-0.0019963793789764617,-0.05750093846371251,-1.6570769830693188e-12,-2.8842846232503625e-12,9.09658996563576e-12,-6.184571836392604e-12,-5.763369214127077e-14,-1.6570769830693188e-12,-0.6173153146113269,-0.6032556684793275,0.329281646634929,-0.00045050100830503154,0.9998493352663469,0.012204308204935828,0.012335261550718572
2.9,-2.1712350655165094,-1.9832165105629542,-1.678512228780286,-1.0847342807066636,1.5773406812251705,-0.6014522590190481,-0.05752522708318122,-0.10001255080719235,0.31415926535888317,-0.2144356032252424,-0.001996379378975791,-0.057500938463693196,1.7596909552418683e-11,3.059005711003594e-11,-9.606886475898867e-11,6.561747517891663e-11,6.110038039034264e-13,1.7589976175920488e-11,-0.6274722907736955,-0.6094331256588245,0.33740503155242646,-0.0004509386301329323,0.99984942056167,0.012201511378596128,0.01233109796094734
3.0,-2.176987588224828,-1.9932177656436747,-1.647096302244393,-1.106177841029191,1.5771410432872728,-0.6072023528654181,-0.05752522708318122,-0.10001255080719235,0.31415926535888317,-0.2144356032252424,-0.001996379378975791,-0.057500938463693196,1.7596909552418683e-11,3.059005711003594e-11,-9.606886475898867e-11,6.561747517891663e-11,6.110038039034264e-13,1.7589976175920488e-11,-0.637576970514041,-0.6153062686079623,0.34560253613904157,-0.0004513791304020398,0.9998494956869759,0.012199163727183134,0.012327312591879896
3.1,-2.182740110933147,-2.0032190207243956,-1.6156803757085,-1.1276214013517185,1.5769414053493753,-0.6129524467117884,-0.05752522708318122,-0.10001255080719235,0.31415926535888317,-0.2144356032252424,-0.001996379378975791,-0.057500938463693196,1.7596909552418683e-11,3.059005711003594e-11,-9.606886475898867e-11,6.561747517891663e-11,6.110038039034264e-13,1.7589976175920488e-11,-0.6476231085090514,-0.6208740418255974,0.3538695089518187,-0.00045182250913271846,0.999849560642279,0.012197260793119136,0.012323910459203875
3.2,-2.1884926336414665,-2.0132202758051165,-1.584264449172607,-1.149064961674246,1.5767417674114779,-0.6187025405581587,-0.05752522708318122,-0.10001255080719235,0.31415926535888317,-0.2144356032252424,-0.001996379378975791,-0.057500938463693196,1.7596909552418683e-11,3.059005711003594e-11,-9.606886475898867e-11,6.561747517891663e-11,6.110038039034264e-13,1.7589976175920488e-11,-0.657604482096147,-0.6261355684406126,0.36220124665191594,-0.0004522687663453008,0.999849615427594,0.012195798076063065,0.012320896539754045
3.3,-2.194245156349785,-2.023221530885837,-1.5528485226367135,-1.1705085219967737,1.5765421294735802,-0.6244526344045289,-0.05752522708318122,-0.10001255080719235,0.31415926535888317,-0.2144356032252424,-0.001996379378975791,-0.057500938463693196,1.7596909552418683e-11,3.059005711003594e-11,-9.606886475898867e-11,6.561747517891663e-11,6.110038039034264e-13,1.7589976175920488e-11,-0.6675148956040948,-0.6310901500913447,0.3705929962525131,-0.0004527179020607383,0.9998496600429355,0.012194771033211028,0.012318275771187558
3.4,-2.199997679058104,-2.033222785966558,-1.5214325961008206,-1.191952082319301,1.5763424915356823,-0.6302027282508991,-0.05752522708318122,-0.10001255080719235,0.31415926535888317,-0.2144356032252424,-0.001996379378975791,-0.057500938463693196,1.7596909552418683e-11,3.059005711003594e-11,-9.606886475898867e-11,6.561747517891663e-11,6.110038039034264e-13,1.7589976175920488e-11,-0.6773481846668035,-0.6357372666851706,0.3790399573914812,-0.0004531699162985069,0.9998496944883184,0.01219417507960004,0.012316053051661554
3.5,-2.2057502017664232,-2.0432240410472784,-1.4900166695649275,-1.2133956426418284,1.5761428535977848,-0.6359528220972692,-0.05752522708318122,-0.10001255080719235,0.31415926535888317,-0.2144356032252424,-0.001996379378975791,-0.057500938463693196,1.7596909552418683e-11,3.059005711003594e-11,-9.606886475898867e-11,6.561747517891663e-11,6.110038039034264e-13,1.7589976175920488e-11,-0.6870982205171831,-0.6400765760386322,0.38753728462777304,-0.00045362480907922963,0.9998497187637577,0.012194005588409485,0.012314233239510117
3.6,-2.2115027244747423,-2.0532252961279993,-1.4586007430290344,-1.234839202964356,1.5759432156598872,-0.6417029159436394,-0.05752522708318122,-0.10001255080719235,0.31415926535888317,-0.2144356032252424,-0.001996379378975791,-0.057500938463693196,1.7596909552418683e-11,3.059005711003594e-11,-9.606886475898867e-11,6.561747517891663e-11,6.110038039034264e-13,1.7589976175920488e-11,-0.6967589142579674,-0.6441079133985395,0.3960800897604489,-0.0004540825804228858,0.9998497328692684,0.012194257891271728,0.012312821152926434
3.7,-2.2172552471830613,-2.0632265512087202,-1.4271848164931413,-1.2562827632868836,1.5757435777219897,-0.6474530097900095,-0.05752522708318122,-0.10001255080719235,0.31415926535888317,-0.2144356032252424,-0.001996379378976059,-0.057500938463693196,1.7596909552418683e-11,3.059005711003594e-11,-9.606886475898867e-11,6.561747517891663e-11,6.105704678722893e-13,1.7589976175920488e-11,-0.7063242211064071,-0.6478312908445938,0.40466344416928846,-0.00045454323034976976,0.9998497368048656,0.01219492727857836,0.012311821569645505
3.8,-2.2230077698913804,-2.073227806289441,-1.3957688899572482,-1.2777263236094112,1.575543939784092,-0.6532031036363799,-0.05752522708318122,-0.10001255080719235,0.31415926535888317,-0.2144356032252424,-0.001996379378976059,-0.057500938463693196,1.7596909552418683e-11,3.059005711003594e-11,-9.606886475898867e-11,6.561747517891663e-11,6.105704678722893e-13,1.7589976175920488e-11,-0.715788144609762,-0.6512468965741498,0.41328238117588945,-0.00045500675887987917,0.9998497305705648,0.012196008999793284,0.012311239226629524
3.9,-2.2287602925996994,-2.0832290613701616,-1.364352963421355,-1.2991698839319388,1.5753443018461941,-0.65895319748275,-0.05752522708318122,-0.10001255080719235,0.31415926535888317,-0.2144356032252424,-0.001996379378976059,-0.057500938463693196,1.7596909552418683e-11,3.059005711003594e-11,-9.606886475898867e-11,6.561747517891663e-11,6.105704678722893e-13,1.7589976175920488e-11,-0.7251447408285457,-0.6543550940698214,0.42193189842416745,-0.00045547316603304026,0.9998497141663811,0.012197498263765831,0.012311078819755853
4.0,-2.234512815308018,-2.0932303164508825,-1.3329370368854616,-1.3206134442544661,1.5751446639082967,-0.6647032913291202,-0.057525227083232267,-0.10001255080728111,0.31415926535916194,-0.21443560322543273,-0.001996379378977831,-0.05750093846374423,-3.34119413448161e-11,-5.810169505489913e-11,1.82486469432571e-10,-1.2455117541362863e-10,-1.1600405553547508e-12,-3.34050079683179e-11,-0.7343881224844936,-0.6571564211507175,0.4306069602791517,-0.0004559424518293519,0.9998496875923304,0.012199390239047177,0.012311345003507428
4.1,-2.240265338016337,-2.1032315715316034,-1.3015211103495683,-1.342057004576994,1.574945025970399,-0.6704533851754905,-0.05752522708318122,-0.10001255080719235,0.31415926535888317,-0.2144356032252424,-0.001996379378976059,-0.057500938463693196,1.7596909552418683e-11,3.059005711003594e-11,-9.606886475898867e-11,6.561747517891663e-11,6.105704678722893e-13,1.7589976175920488e-11,-0.7435124630702529,-0.6596515889081791,0.4393025002429699,-0.0004564146162884922,0.9998496508484279,0.01220168005420852,0.012312042390663799
4.2,-2.246017860724656,-2.1132328266123244,-1.2701051838136754,-1.3635005648995215,1.5747453880325013,-0.6762034790218607,-0.05752522708318122,-0.10001255080719235,0.31415926535888317,-0.2144356032252424,-0.001996379378976059,-0.057500938463693196,1.7596909552418683e-11,3.059005711003594e-11,-9.606886475898867e-11,6.561747517891663e-11,6.105704678722893e-13,1.7589976175920488e-11,-0.7525120009178211,-0.6618414805269704,0.4480134233869015,-0.0004568896594303423,0.9998496039346896,0.012204362798160735,0.012313175551996377
4.3,-2.251770383432975,-2.123234081693045,-1.2386892572777823,-1.384944125222049,1.5745457500946038,-0.6819535728682309,-0.05752522708318122,-0.10001255080719235,0.31415926535888317,-0.2144356032252424,-0.001996379378976059,-0.057500938463693196,1.7596909552418683e-11,3.059005711003594e-11,-9.606886475898867e-11,6.561747517891663e-11,6.105704678722893e-13,1.7589976175920488e-11,-0.7613810432227878,-0.6637271499929548,0.4567346087983716,-0.0004573675812745703,0.9998495468511313,0.012207433520477262,0.012314749015964941
4.4,-2.2575229061412942,-2.1332353367737658,-1.207273330741889,-1.4063876855445765,1.5743461121567062,-0.6877036667146011,-0.05752522708318122,-0.10001255080719235,0.31415926535888317,-0.2144356032252424,-0.001996379378976059,-0.057500938463693196,1.7596909552418683e-11,3.059005711003594e-11,-9.606886475898867e-11,6.561747517891663e-11,6.105704678722893e-13,1.7589976175920488e-11,-0.7701139700214685,-0.6653098206883729,0.4654609120417519,-0.00045784838184097823,0.9998494795977688,0.012210887231720176,0.012316767268417505
4.5,-2.263275428849613,-2.1432365918544862,-1.175857404205996,-1.4278312458671039,1.5741464742188085,-0.6934537605609712,-0.057525227083180724,-0.10001255080719243,0.31415926535888317,-0.2144356032252426,-0.001996379378975793,-0.05750093846369338,1.7596909552418683e-11,3.060392386303233e-11,-9.606886475898867e-11,6.558974167292385e-11,6.105704678722893e-13,1.7589976175920488e-11,-0.7787052381180485,-0.6665908838759118,0.47418716763183877,-0.0004583320611491691,0.9998494021746183,0.01221471890376494,0.012319234752290763
4.6,-2.2690279515579324,-2.153237846935207,-1.1444414776701026,-1.4492748061896317,1.573946836280911,-0.6992038544073416,-0.057525227083180724,-0.10001255080719243,0.31415926535888317,-0.2144356032252426,-0.001996379378975793,-0.05750093846369338,1.7596909552418683e-11,3.060392386303233e-11,-9.606886475898867e-11,6.558974167292385e-11,6.105704678722893e-13,1.7589976175920488e-11,-0.7871493849588997,-0.6675718970728426,0.4829081915188447,-0.0004588186192184359,0.9998493145816961,0.012218923470131331,0.012322155867315169
4.7,-2.2747804742662514,-2.163239102015928,-1.1130255511342098,-1.4707183665121593,1.5737471983430136,-0.7049539482537117,-0.057525227083180724,-0.10001255080719243,0.31415926535888317,-0.2144356032252426,-0.001996379378975793,-0.05750093846369338,1.7596909552418683e-11,3.060392386303233e-11,-9.606886475898867e-11,6.558974167292385e-11,6.105704678722893e-13,1.7589976175920488e-11,-0.7954410324512564,-0.6682545823165735,0.4916187835837715,-0.0004593080560685938,0.9998492168190182,0.012223495826313295,0.012325534969719656
4.8,-2.28053299697457,-2.1732403570966485,-1.0816096245983164,-1.4921619268346866,1.5735475604051157,-0.7107040421000819,-0.057525227083180724,-0.10001255080719243,0.31415926535888317,-0.2144356032252426,-0.001996379378975793,-0.05750093846369338,1.7596909552418683e-11,3.060392386303233e-11,-9.606886475898867e-11,6.558974167292385e-11,6.105704678722893e-13,1.7589976175920488e-11,-0.8035748907234976,-0.6686408243230426,0.5003137301429946,-0.00045980037171923136,0.9998491088866011,0.012228430830112588,0.012329376371940712
4.9,-2.286285519682889,-2.1832416121773695,-1.0501936980624236,-1.5136054871572142,1.5733479224672182,-0.7164541359464522,-0.057525227083180724,-0.10001255080719243,0.31415926535888317,-0.2144356032252426,-0.001996379378975793,-0.05750093846369338,1.7596909552418683e-11,3.060392386303233e-11,-9.606886475898867e-11,6.558974167292385e-11,6.105704678722893e-13,1.7589976175920488e-11,-0.8115457618243038,-0.668732668539455,0.5089878064609015,-0.00046029556618948803,0.9998489907844614,0.01223372330197529,0.012333684342335286
5.0,-2.292038042391208,-2.1932428672580904,-1.0187777715265305,-1.5350490474797416,1.5731482845293205,-0.7222042297928223,-0.057525227083180724,-0.10001255080719243,0.31415926535888317,-0.2144356032252426,-0.001996379378975793,-0.05750093846369338,1.7596909552418683e-11,3.060392386303233e-11,-9.606886475898867e-11,6.558974167292385e-11,6.105704678722893e-13,1.7589976175920488e-11,-0.8193485433580134,-0.6685323190929423,0.5176357792694292,-0.0004607936394984568,0.9998488625126157,0.012239368025327371,0.012338463104890809
5.1,-2.297790565099527,-2.203244122338811,-0.9873618449906372,-1.5564926078022694,1.5729486465914229,-0.7279543236391925,-0.057525227083180724,-0.10001255080719243,0.31415926535888317,-0.2144356032252426,-0.001996379378975793,-0.05750093846369338,1.7596909552418683e-11,3.060392386303233e-11,-9.606886475898867e-11,6.558974167292385e-11,6.105704678722893e-13,1.7589976175920488e-11,-0.8269782320535473,-0.6680421366367905,0.526252409293318,-0.0004612945916658228,0.9998487240710808,0.012245359746915528,0.012343716838943615
5.2,-2.303543087807846,-2.2132453774195318,-0.9559459184547443,-1.5779361681247968,1.5727490086535254,-0.7337044174855628,-0.057525227083180724,-0.10001255080719243,0.31415926535888317,-0.2144356032252426,-0.001996379378975793,-0.05750093846369338,1.7596909552418683e-11,3.060392386303233e-11,-9.606886475898867e-11,6.558974167292385e-11,6.105704678722893e-13,1.7589976175920488e-11,-0.8344299272643184,-0.6672646360959581,0.5348324537799202,-0.00046179842271072485,0.9998485754598735,0.012251693177148462,0.012349449678896516
5.3,-2.309295610516165,-2.2232466325002527,-0.9245299919188502,-1.5993797284473248,1.5725493707156277,-0.7394545113319332,-0.05752522708321976,-0.10001255080725936,0.31415926535909366,-0.2144356032253861,-0.0019963793789771287,-0.05750093846373173,-2.091799689507261e-11,-3.637249310956278e-11,1.1426204469035353e-10,-7.795888534577276e-11,-7.258378521554238e-13,-2.0911063518574407e-11,-0.8416988343965907,-0.6662024843136779,0.5433706690323932,-0.000462305132652186,0.9998484166790105,0.012258362990440162,0.012355665713938733
5.4,-2.315048133224486,-2.233247887580977,-0.8931140653829467,-1.6208232887698597,1.57234973277773,-0.7452046051783053,-0.05752522708321976,-0.10001255080725936,0.31415926535909366,-0.2144356032253861,-0.0019963793789771287,-0.05750093846373173,-2.091799689507261e-11,-3.637249310956278e-11,1.1426204469035353e-10,-7.795888534577276e-11,-7.258378521554238e-13,-2.0911063518574407e-11,-0.8487802682638076,-0.6648584976010063,0.5518618129450936,-0.00046281472150914115,0.9998482477285093,0.012265363825556194,0.012362368987770706
5.5,-2.320800655932807,-2.2432491426617007,-0.861698138847043,-1.642266849092394,1.5721500948398321,-0.7509546990246774,-0.05752522708321976,-0.10001255080725936,0.31415926535909366,-0.2144356032253861,-0.0019963793789771287,-0.05750093846373173,-2.091799689507261e-11,-3.637249310956278e-11,1.1426204469035353e-10,-7.795888534577276e-11,-7.258378521554238e-13,-2.0911063518574407e-11,-0.8556696563644507,-0.6632356391912446,0.5603006475399999,-0.0004633271893009509,0.9998480686083868,0.012272690285959469,0.01236956349832717
5.6,-2.3265531786411278,-2.253250397742425,-0.8302822123111395,-1.6637104094149289,1.5719504569019347,-0.7567047928710495,-0.05752522708321976,-0.10001255080725936,0.31415926535909366,-0.2144356032253861,-0.0019963793789771287,-0.05750093846373173,-2.091799689507261e-11,-3.637249310956278e-11,1.1426204469035353e-10,-7.795888534577276e-11,-7.258378521554238e-13,-2.0911063518574407e-11,-0.8623625420810821,-0.6613370166012315,0.5686819415029929,-0.00046384253604652657,0.9998478793186604,0.012280336940163245,0.012377253197509652
5.7,-2.3323057013494486,-2.2632516528231488,-0.7988662857752358,-1.6851539697374636,1.571750818964037,-0.7624548867174216,-0.05752522708321976,-0.10001255080725936,0.31415926535909366,-0.2144356032253861,-0.0019963793789771287,-0.05750093846373173,-2.091799689507261e-11,-3.637249310956278e-11,1.1426204469035353e-10,-7.795888534577276e-11,-7.258378521554238e-13,-2.0911063518574407e-11,-0.8688545877982236,-0.6591658789015636,0.5770004727188183,-0.00046436076176470506,0.9998476798593475,0.012288298322078296,0.012385441990911397
5.8,-2.33805822405777,-2.2732529079038732,-0.7674503592393319,-1.7065975300599983,1.5715511810261393,-0.7682049805637938,-0.05752522708321976,-0.10001255080725936,0.31415926535909366,-0.2144356032253861,-0.0019963793789771287,-0.05750093846373173,-2.091799689507261e-11,-3.637249310956278e-11,1.1426204469035353e-10,-7.795888534577276e-11,-7.258378521554238e-13,-2.0911063518574407e-11,-0.8751415779368358,-0.6567256138978771,0.5852510308035349,-0.0004648818664742497,0.9998474702304657,0.012296568931370317,0.012394133737556013
5.9,-2.3438107467660907,-2.2832541629845977,-0.7360344327034284,-1.7280410903825332,1.5713515430882417,-0.773955074410166,-0.05752522708321976,-0.10001255080725936,0.31415926535909366,-0.2144356032253861,-0.0019963793789771287,-0.05750093846373173,-2.091799689507261e-11,-3.637249310956278e-11,1.1426204469035353e-10,-7.795888534577276e-11,-7.258378521554238e-13,-2.0911063518574407e-11,-0.8812194219031904,-0.654019745225366,0.5934284196333051,-0.0004654058501942656,0.9998472504320324,0.012305143233812859,0.012403332249629874
6.0,-2.3495632694744115,-2.2932554180653217,-0.7046185061675247,-1.7494846507050676,1.571151905150344,-0.7797051682565381,-0.05752522708321976,-0.10001255080725936,0.31415926535909366,-0.2144356032253861,-0.0019963793789771287,-0.05750093846373173,-2.091799689507261e-11,-3.637249310956278e-11,1.1426204469035353e-10,-7.795888534577276e-11,-7.258378521554238e-13,-2.0911063518574407e-11,-0.8870841569500124,-0.6510519293587881,0.6015274598683278,-0.0004659327129431867,0.9998470204640655,0.012314015661644733,0.012413041292221025
6.1,-2.3553157921827323,-2.3032566731460458,-0.6732025796316211,-1.7709282110276026,1.5709522672124463,-0.7854552621029101,-0.05752522708321976,-0.10001255080725936,0.31415926535909366,-0.2144356032253861,-0.0019963793789771287,-0.05750093846373173,-2.091799689507261e-11,-3.637249310956278e-11,1.1426204469035353e-10,-7.795888534577276e-11,-7.258378521554238e-13,-2.0911063518574407e-11,-0.892731950947807,-0.6478259525402641,0.6095429914707547,-0.0004664624547398033,0.9998467803265828,0.012323180613930791,0.012423264583061306
6.2,-2.361068314891053,-2.31325792822677,-0.6417866530957176,-1.792371771350137,1.5707526292745486,-0.7912053559492822,-0.05752522708321976,-0.10001255080725936,0.31415926535909366,-0.2144356032253861,-0.0019963793789771287,-0.05750093846373173,-2.091799689507261e-11,-3.637249310956278e-11,1.1426204469035353e-10,-7.795888534577276e-11,-7.258378521554238e-13,-2.0911063518574407e-11,-0.8981591050643812,-0.6443457276272316,0.61746987621542,-0.00046699507560290056,0.9998465300196024,0.012332632456921228,0.012434005792268296
6.3,-2.3668208375993744,-2.323259183307494,-0.6103707265598141,-1.8138153316726715,1.570552991336651,-0.7969554497956544,-0.05752522708321976,-0.10001255080725936,0.31415926535909366,-0.2144356032253861,-0.0019963793789771287,-0.05750093846373173,-2.091799689507261e-11,-3.637249310956278e-11,1.1426204469035353e-10,-7.795888534577276e-11,-7.258378521554238e-13,-2.0911063518574407e-11,-0.9033620563506081,-0.6406152908629644,0.6253030001922151,-0.0004675305755507458,0.9998462695431423,0.012342365524415404,0.012445268542092125
6.4,-2.3725733603076953,-2.3332604383882183,-0.5789548000239104,-1.8352588919952064,1.5703533533987533,-0.8027055436420265,-0.05752522708321976,-0.10001255080725936,0.31415926535909366,-0.2144356032253861,-0.0019963793789771287,-0.05750093846373173,-2.091799689507261e-11,-3.637249310956278e-11,1.1426204469035353e-10,-7.795888534577276e-11,-7.258378521554238e-13,-2.0911063518574407e-11,-0.9083373802305722,-0.6366387985721367,0.6330372762989466,-0.0004680689546020313,0.9998459988972206,0.012352374118126577,0.01245705640666409
6.5,-2.378325883016016,-2.343261693468942,-0.5475388734880069,-1.856702452317741,1.5701537154608554,-0.8084556374883987,-0.05752522708321976,-0.10001255080725936,0.31415926535909366,-0.2144356032253861,-0.0019963793789771287,-0.05750093846373173,-2.091799689507261e-11,-3.637249310956278e-11,1.1426204469035353e-10,-7.795888534577276e-11,-7.258378521554238e-13,-2.0911063518574407e-11,-0.9130817928942915,-0.632420523783942,0.6406676467235236,-0.00046861021277525044,0.9998457180818556,0.012362652508047293,0.01246937291174694
6.6,-2.384078405724337,-2.3532629485496663,-0.5161229469521029,-1.878146012640276,1.569954077522958,-0.8142057313347708,-0.05752522708321976,-0.10001255080725936,0.31415926535909366,-0.2144356032253861,-0.0019963793789771287,-0.05750093846373173,-2.091799689507261e-11,-3.637249310956278e-11,1.1426204469035353e-10,-7.795888534577276e-11,-7.258378521554238e-13,-2.0911063518574407e-11,-0.9175921535912867,-0.6279648527853476,0.6481890854143111,-0.00046915435008873903,0.9998454270970658,0.012373194932819588,0.012482221534490837
6.7,-2.3896128624516364,-2.3628850771825327,-0.4858979318105767,-1.8987766929003702,1.569762007437459,-0.8197378512731457,-0.05117882151709686,-0.08897877934196619,0.27949999999992003,-0.1907782380155843,-0.0017761310836595906,-0.05115721251206196,0.09155424244260547,0.15917491834781486,-0.5000000000811573,0.3412848623373625,0.003177336465023875,0.09151558590407974,-0.9217078316410899,-0.6234582079044967,0.6553179339532809,-0.0004696805778191115,0.9998451375444325,0.012383581529815817,0.012495088531261644
6.8,-2.394275714185815,-2.370991845632079,-0.46043296366419034,-1.9161583091940804,1.5696001858937407,-0.8243987342322797,-0.042023397274335794,-0.07306128750979131,0.2294999999999954,-0.15664975178743556,-0.0014583974372092468,-0.04200565392315329,0.09155424242862165,0.15917491832351743,-0.500000000004774,0.34128486228526306,0.0031773364645383724,0.09151558589010282,-0.9250031680081414,-0.6194969859712187,0.6612389874255649,-0.00047012600003680944,0.9998448862864793,0.012392514092237794,0.012506316116068693
6.9,-2.3980230234957154,-2.377506864898405,-0.43996799551780535,-1.9301270768649694,1.5694701377146678,-0.8281444613325212,-0.032867973031552346,-0.05714379567757753,0.17949999999994856,-0.12252126555920344,-0.0011406637907581264,-0.03285409533422225,0.09155424243697803,0.15917491833803796,-0.5000000000504041,0.34128486231640703,0.003177336464828502,0.0915155858984523,-0.9275363012058028,-0.616206435802576,0.6659391570991549,-0.00047048533544710453,0.9998446795200467,0.01239981095742674,0.012515596958368565
7.0,-2.4008547903813384,-2.3824301349815107,-0.42450302737142065,-1.9406829959130383,1.5693718629002398,-0.8309750325738704,-0.023712548788800546,-0.041226303845418776,0.12950000000007453,-0.08839277933108926,-0.0008229301443081041,-0.02370253674532283,0.09155424241420762,0.15917491829844288,-0.4999999999260314,0.3412848622315261,0.003177336464038342,0.09151558587568875,-0.9293819760357381,-0.6136573885574578,0.6694556223257181,-0.0004707576885381973,0.9998445204081208,0.012405393847867902,0.012522763294612372
7.1,-2.402771014842684,-2.385761655881397,-0.4140380592250356,-1.9478260663382874,1.5693053614504568,-0.8328904479563274,-0.014557124546007223,-0.025308812013187822,0.07949999999997372,-0.054264293102820306,-0.000505196497856641,-0.014550978156381913,0.09155424243256316,0.15917491833036007,-0.5000000000262984,0.341284862299948,0.003177336464675304,0.09151558589403742,-0.9305972685931335,-0.6119023081661162,0.671817576960762,-0.00047094238258559164,0.999844411340903,0.012409204924307068,0.012527687607144542
7.2,-2.403771696879752,-2.387501427598063,-0.4085730910786509,-1.9515562881407162,1.5692706333653192,-0.833890707479892,-0.005401700303238916,-0.009391320181000364,0.029500000000009536,-0.0201358068746446,-0.00018746285140604595,-0.005399419567466001,0.09155424242654216,0.1591749183198901,-0.49999999999340805,0.34128486227750265,0.0031773364644663462,0.09151558588801878,-0.9312210797548126,-0.6109761704706866,0.673045309275001,-0.00047103895965551034,0.9998443539358131,0.012411205691275838,0.01253028324755666
7.259299362,-2.4039326682099764,-2.3877812900889888,-0.40769398746774277,-1.952156337650277,1.5692650469494012,-0.8340516108439112,-2.975404557752995e-17,-5.1729965198386264e-17,1.6249408431843444e-16,-1.1091354237651368e-16,-1.0325967587436721e-18,-2.974148265986921e-17,0.09155424237588973,0.15917491823182742,-0.49999999971678566,0.341284862088688,0.0031773364627084924,0.09151558583738764,-0.9313207317826294,-0.6108265774316749,0.6732424355983481,-0.0004710545033340714,0.9998443446728051,0.012411528211665347,0.012530702331268255
