mathias31415/primitives_from_planned_trajectory_python/data/saved_trajectories/trajectory_20250626_100905_executed.csv
timestamp,shoulder_lift_joint_pos,elbow_joint_pos,wrist_1_joint_pos,wrist_2_joint_pos,wrist_3_joint_pos,shoulder_pan_joint_pos,shoulder_lift_joint_vel,elbow_joint_vel,wrist_1_joint_vel,wrist_2_joint_vel,wrist_3_joint_vel,shoulder_pan_joint_vel,shoulder_lift_joint_eff,elbow_joint_eff,wrist_1_joint_eff,wrist_2_joint_eff,wrist_3_joint_eff,shoulder_pan_joint_eff
1750925370.6826706,-1.3058388054019456,-1.1393890331038827,-2.245924508004964,1.5428119591584926,-3.0111693785476805,-4.58085219724054,0.0,0.0,0.0,0.0,0.0,0.0,0.9923540689924182,3.3721646298688355,0.30445928685782025,-0.0023094327768914493,0.0,-1.630136543466197e-17
1750925370.6838028,-1.3058388054019456,-1.1393890331038827,-2.245924508004964,1.5428119591584926,-3.0111693785476805,-4.58085219724054,0.0,0.0,0.0,0.0,0.0,0.0,0.9923540689924182,3.3721646298688355,0.30445928685782025,-0.0023094327768914493,0.0,-1.630136543466197e-17
1750925370.6876247,-1.3058388054019456,-1.1393890331038827,-2.245924508004964,1.5428119591584926,-3.0111693785476805,-4.58085219724054,0.0,0.0,0.0,0.0,0.0,0.0,0.9923540689924182,3.3721646298688355,0.30445928685782025,-0.0023094327768914493,0.0,-1.630136543466197e-17
1750925370.6881595,-1.3058388054019456,-1.1393890331038827,-2.245924508004964,1.5428119591584926,-3.0111693785476805,-4.58085219724054,0.0,0.0,0.0,0.0,0.0,0.0,0.9923540689924182,3.3721646298688355,0.30445928685782025,-0.0023094327768914493,0.0,-1.630136543466197e-17
1750925370.6885726,-1.3058388054019456,-1.1393890331038827,-2.245924508004964,1.5428119591584926,-3.0111693785476805,-4.58085219724054,0.0,0.0,0.0,0.0,0.0,0.0,0.9923540689924182,3.3721646298688355,0.30445928685782025,-0.0023094327768914493,0.0,-1.630136543466197e-17
1750925370.6924374,-1.3058388054019456,-1.1393890331038827,-2.245924508004964,1.5428119591584926,-3.0111693785476805,-4.58085219724054,0.0,0.0,0.0,0.0,0.0,0.0,0.9923540689924182,3.3721646298688355,0.30445928685782025,-0.0023094327768914493,0.0,-1.630136543466197e-17
1750925370.6928942,-1.3058388054019456,-1.1393890331038827,-2.245924508004964,1.5428119591584926,-3.0111693785476805,-4.58085219724054,0.0,0.0,0.0,0.0,0.0,0.0,0.9923540689924182,3.3721646298688355,0.30445928685782025,-0.0023094327768914493,0.0,-1.630136543466197e-17
1750925370.6940832,-1.3058388054019456,-1.1393890331038827,-2.245924508004964,1.5428119591584926,-3.0111693785476805,-4.58085219724054,0.0,0.0,0.0,0.0,0.0,0.0,0.9923540689924182,3.3721646298688355,0.30445928685782025,-0.0023094327768914493,0.0,-1.630136543466197e-17
1750925370.6982298,-1.3058388054019456,-1.1393890331038827,-2.245924508004964,1.5428119591584926,-3.0111693785476805,-4.58085219724054,0.0,0.0,0.0,0.0,0.0,0.0,0.9923540689924182,3.3721646298688355,0.30445928685782025,-0.0023094327768914493,0.0,-1.630136543466197e-17
1750925370.6995754,-1.3058388054019456,-1.1393890331038827,-2.245924508004964,1.5428119591584926,-3.0111693785476805,-4.58085219724054,0.0,0.0,0.0,0.0,0.0,0.0,0.9923540689924182,3.3721646298688355,0.30445928685782025,-0.0023094327768914493,0.0,-1.630136543466197e-17
1750925370.7016091,-1.3058388054019456,-1.1393890331038827,-2.245924508004964,1.5428119591584926,-3.0111693785476805,-4.58085219724054,0.0,0.0,0.0,0.0,0.0,0.0,0.9923540689924182,3.3721646298688355,0.30445928685782025,-0.0023094327768914493,0.0,-1.630136543466197e-17
1750925370.7036436,-1.3058388054019456,-1.1393890331038827,-2.245924508004964,1.5428119591584926,-3.0111693785476805,-4.58085219724054,0.0,0.0,0.0,0.0,0.0,0.0,0.9923540689924182,3.3721646298688355,0.30445928685782025,-0.0023094327768914493,0.0,-1.630136543466197e-17
1750925370.7056074,-1.3058388054019456,-1.1393890331038827,-2.245924508004964,1.5428119591584926,-3.0111693785476805,-4.58085219724054,0.0,0.0,0.0,0.0,0.0,0.0,0.9923540689924182,3.3721646298688355,0.30445928685782025,-0.0023094327768914493,0.0,-1.630136543466197e-17
1750925370.7075615,-1.3058388054019456,-1.1393890331038827,-2.245924508004964,1.5428119591584926,-3.0111693785476805,-4.58085219724054,0.0,0.0,0.0,0.0,0.0,0.0,0.9923540689924182,3.3721646298688355,0.30445928685782025,-0.0023094327768914493,0.0,-1.630136543466197e-17
1750925370.7098393,-1.3058388054019456,-1.1393890331038827,-2.245924508004964,1.5428119591584926,-3.0111693785476805,-4.58085219724054,0.0,0.0,0.0,0.0,0.0,0.0,0.9923540689924182,3.3721646298688355,0.30445928685782025,-0.0023094327768914493,0.0,-1.630136543466197e-17
1750925370.7120602,-1.3058388054019456,-1.1393890331038827,-2.245924508004964,1.5428119591584926,-3.0111693785476805,-4.58085219724054,0.0,0.0,0.0,0.0,0.0,0.0,0.9923540689924182,3.3721646298688355,0.30445928685782025,-0.0023094327768914493,0.0,-1.630136543466197e-17
1750925370.7137773,-1.3058388054019456,-1.1393890331038827,-2.245924508004964,1.5428119591584926,-3.0111693785476805,-4.58085219724054,0.0,0.0,0.0,0.0,0.0,0.0,0.9923540689924182,3.3721646298688355,0.30445928685782025,-0.0023094327768914493,0.0,-1.630136543466197e-17
1750925370.715479,-1.3058388054019456,-1.1393890331038827,-2.245924508004964,1.5428119591584926,-3.0111693785476805,-4.58085219724054,0.0,0.0,0.0,0.0,0.0,0.0,0.9923540689924182,3.3721646298688355,0.30445928685782025,-0.0023094327768914493,0.0,-1.630136543466197e-17
1750925370.7173166,-1.3058388054019456,-1.1393890331038827,-2.245924508004964,1.5428119591584926,-3.0111693785476805,-4.58085219724054,0.0,0.0,0.0,0.0,0.0,0.0,0.9923540689924182,3.3721646298688355,0.30445928685782025,-0.0023094327768914493,0.0,-1.630136543466197e-17
1750925370.719419,-1.3058388054019456,-1.1393890331038827,-2.245924508004964,1.5428119591584926,-3.0111693785476805,-4.58085219724054,0.0,0.0,0.0,0.0,0.0,0.0,0.9923540689924182,3.3721646298688355,0.30445928685782025,-0.0023094327768914493,0.0,-1.630136543466197e-17
1750925370.7214587,-1.3058388054019456,-1.1393890331038827,-2.245924508004964,1.5428119591584926,-3.0111693785476805,-4.58085219724054,0.0,0.0,0.0,0.0,0.0,0.0,0.9923540689924182,3.3721646298688355,0.30445928685782025,-0.0023094327768914493,0.0,-1.630136543466197e-17
1750925370.7236412,-1.3058388054019456,-1.1393890331038827,-2.245924508004964,1.5428119591584926,-3.0111693785476805,-4.58085219724054,0.0,0.0,0.0,0.0,0.0,0.0,0.9923540689924182,3.3721646298688355,0.30445928685782025,-0.0023094327768914493,0.0,-1.630136543466197e-17
1750925370.727559,-1.3058388054019456,-1.1393890331038827,-2.245924508004964,1.5428119591584926,-3.0111693785476805,-4.58085219724054,0.0,0.0,0.0,0.0,0.0,0.0,0.9923540689924182,3.3721646298688355,0.30445928685782025,-0.0023094327768914493,0.0,-1.630136543466197e-17
1750925370.728259,-1.3058388054019456,-1.1393890331038827,-2.245924508004964,1.5428119591584926,-3.0111693785476805,-4.58085219724054,0.0,0.0,0.0,0.0,0.0,0.0,0.9923540689924182,3.3721646298688355,0.30445928685782025,-0.0023094327768914493,0.0,-1.630136543466197e-17
1750925370.7296977,-1.3058388054019456,-1.1393890331038827,-2.245924508004964,1.5428119591584926,-3.0111693785476805,-4.58085219724054,0.0,0.0,0.0,0.0,0.0,0.0,0.9923540689924182,3.3721646298688355,0.30445928685782025,-0.0023094327768914493,0.0,-1.630136543466197e-17
1750925370.7315838,-1.3058388054019456,-1.1393890331038827,-2.245924508004964,1.5428119591584926,-3.0111693785476805,-4.58085219724054,0.0,0.0,0.0,0.0,0.0,0.0,0.9923540689924182,3.3721646298688355,0.30445928685782025,-0.0023094327768914493,0.0,-1.630136543466197e-17
1750925370.7336543,-1.3058388054019456,-1.1393890331038827,-2.245924508004964,1.5428119591584926,-3.0111693785476805,-4.58085219724054,0.0,0.0,0.0,0.0,0.0,0.0,0.9923540689924182,3.3721646298688355,0.30445928685782025,-0.0023094327768914493,0.0,-1.630136543466197e-17
1750925370.735773,-1.3058388054019456,-1.1393890331038827,-2.245924508004964,1.5428119591584926,-3.0111693785476805,-4.58085219724054,0.0,0.0,0.0,0.0,0.0,0.0,0.9923540689924182,3.3721646298688355,0.30445928685782025,-0.0023094327768914493,0.0,-1.630136543466197e-17
1750925370.7377217,-1.3058388054019456,-1.1393890331038827,-2.245924508004964,1.5428119591584926,-3.0111693785476805,-4.58085219724054,0.0,0.0,0.0,0.0,0.0,0.0,0.9923540689924182,3.3721646298688355,0.30445928685782025,-0.0023094327768914493,0.0,-1.630136543466197e-17
1750925370.7395647,-1.3058388054019456,-1.1393890331038827,-2.245924508004964,1.5428119591584926,-3.0111693785476805,-4.58085219724054,0.0,0.0,0.0,0.0,0.0,0.0,0.9923540689924182,3.3721646298688355,0.30445928685782025,-0.0023094327768914493,0.0,-1.630136543466197e-17
1750925370.7479792,-1.3058388054019456,-1.1393890331038827,-2.245924508004964,1.5428119591584926,-3.0111693785476805,-4.58085219724054,0.0,0.0,0.0,0.0,0.0,0.0,0.9923540689924182,3.3721646298688355,0.30445928685782025,-0.0023094327768914493,0.0,-1.630136543466197e-17
1750925370.7561982,-1.3058388054019456,-1.1393890331038827,-2.245924508004964,1.5428119591584926,-3.0111693785476805,-4.58085219724054,0.0,0.0,0.0,0.0,0.0,0.0,0.9923540689924182,3.3721646298688355,0.30445928685782025,-0.0023094327768914493,0.0,-1.630136543466197e-17
1750925370.756758,-1.3058388054019456,-1.1393890331038827,-2.245924508004964,1.5428119591584926,-3.0111693785476805,-4.58085219724054,0.0,0.0,0.0,0.0,0.0,0.0,0.9923540689924182,3.3721646298688355,0.30445928685782025,-0.0023094327768914493,0.0,-1.630136543466197e-17
1750925370.7575016,-1.3058388054019456,-1.1393890331038827,-2.245924508004964,1.5428119591584926,-3.0111693785476805,-4.58085219724054,0.0,0.0,0.0,0.0,0.0,0.0,0.9923540689924182,3.3721646298688355,0.30445928685782025,-0.0023094327768914493,0.0,-1.630136543466197e-17
1750925370.758161,-1.3058388054019456,-1.1393890331038827,-2.245924508004964,1.5428119591584926,-3.0111693785476805,-4.58085219724054,0.0,0.0,0.0,0.0,0.0,0.0,0.9923540689924182,3.3721646298688355,0.30445928685782025,-0.0023094327768914493,0.0,-1.630136543466197e-17
1750925370.7602549,-1.30583873887843,-1.1393897225387573,-2.245923943978317,1.5428119688841195,-3.01116739776424,-4.580850216671884,6.652182223124551e-05,-0.0006894336663824933,0.0005640272424789293,9.72572691370288e-06,0.0019807816391638755,0.001980566855261407,0.8168179308788827,3.1977777330603567,0.317905998271426,0.0012862078628420926,0.05579925633662152,0.6206017713019777
1750925370.7617774,-1.3058385393282022,-1.139391790828884,-2.2459222518912227,1.5428119980622,-3.0111614554355324,-4.580844274987521,0.00013302332644332484,-0.0013788528361953713,0.001128061641874274,1.9452653229301603e-05,0.003961541665544881,0.0039611121071271285,0.8168131272564656,3.1977835954141844,0.3179061797786734,0.0012862491337868548,0.05579864749742228,0.6205967042206493
1750925370.7645562,-1.305838206812215,-1.1393952379307732,-2.245919431722207,1.5428120466963318,-3.0111515516263956,-4.58083437225226,0.00019948419478445423,-0.002068243012948123,0.0016921103550690383,2.918197832051058e-05,0.005942258465724796,0.005941614151572683,0.8168020105045792,3.1977934156246066,0.3179065674462615,0.0012863173748927904,0.055797429801239855,0.6205863652840821
1750925370.765285,-1.3058377414320583,-1.1394000637719426,-2.245915483435489,1.542812114792512,-3.0111376864448967,-4.5808205085741225,0.0002658841097494499,-0.002757589700367264,0.0022561805388360396,3.891490142170511e-05,0.007922910425050805,0.007922051383335448,0.816784581528785,3.197807193733471,0.31790716127115054,0.0012864125831877839,0.05579560321329545,0.6205707541307354
1750925370.7685082,-1.3058371433299563,-1.1394062682509176,-2.2459104069809674,1.5428122023591357,-3.0111198600423337,-4.58080268410434,0.00033220275432190125,-0.003446878402412782,0.0028202793497826236,4.86526216386314e-05,0.00990347592697329,0.009902402195268816,0.816760841619918,3.1978249298199395,0.31790796124917226,0.00128653475613305,0.05579316768015538,0.6205498702055081
1750925370.7701685,-1.305836412688766,-1.139413851237232,-2.245904202294234,1.542812309406996,-3.01109807261324,-4.580780899037361,0.0003984198121840029,-0.004136094623453371,0.0033844139443553046,5.8396337867156664e-05,0.011883933352468888,0.011882644977739271,0.8167307924711893,3.197846623976295,0.31790896737586727,0.0012866838890742043,0.05579012313213384,0.6205237127711932
1750925370.7739305,-1.3058355497319756,-1.1394228125714276,-2.2458968692965637,1.5428124359492836,-3.0110723243953896,-4.580755153610857,0.000464514967845671,-0.004825223868294361,0.00394859147869769,6.814724873814129e-05,0.01386426107934614,0.013862758117995535,0.8166944361500712,3.197872276326237,0.31791017964290524,0.0012868599759360132,0.05578646947998381,0.6204922809024548
1750925370.7748795,-1.3058345547237051,-1.1394331520650578,-2.245888407894922,1.5428125820015863,-3.0110426156698056,-4.580725448105729,0.0005304679068520475,-0.005514251642340618,0.004512819108743634,7.790655255175624e-05,0.01584443748171059,0.015842719999553338,0.8166517751276611,3.1979018870098623,0.31791159804442115,0.0012870630089478403,0.05578220661939145,0.6204555734880411
1750925370.7758203,-1.3058345547237051,-1.1394331520650578,-2.245888407894922,1.5428125820015863,-3.0110426156698056,-4.580725448105729,0.0005304679068520475,-0.005514251642340618,0.004512819108743634,7.790655255175624e-05,0.01584443748171059,0.015842719999553338,0.8166517751276611,3.1979018870098623,0.31791159804442115,0.0012870630089478403,0.05578220661939145,0.6204555734880411
1750925370.780574,-1.305833427968702,-1.1394448695006867,-2.2458788179819607,1.5428127475818878,-3.011008946760766,-4.580691782846112,0.0005962583159058354,-0.006203163451577333,0.005077103989967067,8.767544730963764e-05,0.017824440929254736,0.01782250900154283,0.8166028122528416,3.197935456207565,0.31791322256772175,0.0012872929813703938,0.05577733442603942,0.6204135892215769
1750925370.782163,-1.305833427968702,-1.1394448695006867,-2.2458788179819607,1.5428127475818878,-3.011008946760766,-4.580691782846112,0.0005962583159058354,-0.006203163451577333,0.005077103989967067,8.767544730963764e-05,0.017824440929254736,0.01782250900154283,0.8166028122528416,3.197935456207565,0.31791322256772175,0.0012872929813703938,0.05577733442603942,0.6204135892215769
1750925370.7826478,-1.305833427968702,-1.1394448695006867,-2.2458788179819607,1.5428127475818878,-3.011008946760766,-4.580691782846112,0.0005962583159058354,-0.006203163451577333,0.005077103989967067,8.767544730963764e-05,0.017824440929254736,0.01782250900154283,0.8166028122528416,3.197935456207565,0.31791322256772175,0.0012872929813703938,0.05577733442603942,0.6204135892215769
1750925370.7835536,-1.305830780640604,-1.1394724371832643,-2.2458562521211434,1.5428131374104004,-3.010929729905773,-4.58061257457621,0.0007272702979849217,-0.007580581203537094,0.006205874126004177,0.00010724679935527235,0.021783842413108306,0.021781481857882704,0.8164859943265258,3.198014470929934,0.31791708993739803,0.0012878337000100948,0.05576576146177144,0.6203137840183279
1750925370.7858357,-1.3058292608801185,-1.139488286850412,-2.245843275887043,1.5428133617065534,-3.010884182824748,-4.580567032430476,0.0007924512518999278,-0.008269058162374998,0.006770373689683417,0.0001170516502969184,0.023763197161374837,0.02376062244314227,0.816418146938883,3.198059916919158,0.31791933275721507,0.001288144423041951,0.05575906035719628,0.6202559595507702
1750925370.7878938,-1.305827610998108,-1.1395055132999587,-2.245829170569138,1.542813605626587,-3.010834677290149,-4.580517532259384,0.0008573884379747656,-0.008957361188801641,0.007334959122106919,0.00012687087938967033,0.02574229237749015,0.02573950360941552,0.8163440130166791,3.198109322347566,0.31792178164521856,0.00128848203779086,0.055751749252425424,0.620192851176572
1750925370.7906282,-1.305825831502415,-1.139524116169552,-2.24581393598854,1.5428138692004534,-3.0107812138427,-4.5804640746034195,0.000922061551398907,-0.009645475793467032,0.007899637576265188,0.0001367056819945589,0.02772110639998574,0.027718103704767606,0.8162635973675599,3.1981626875021454,0.31792443658457764,0.0012888465282407694,0.0557438279370794,0.6201244566706089
1750925370.791579,-1.305823922941486,-1.1395440950678601,-2.2457975719520507,1.542814152460494,-3.0107237930664574,-4.580406660046385,0.0009864502895743034,-0.010333387488197777,0.008464416204518346,0.0001465572528488556,0.029699617559284536,0.029696401069175937,0.8161769051952803,3.1982200127072717,0.31792729755757804,0.0012892378793728724,0.05573529618273728,0.6200507736124969
1750925370.7935483,-1.3058218859043738,-1.1395654495745742,-2.245780078252171,1.5428144554414396,-3.0106624155888237,-4.580345289215408,0.0010505343522661064,-0.011021081786104746,0.009029302158457281,0.00015642678591163705,0.03167780417714712,0.03167437403396601,0.8160839420754803,3.1982812983030127,0.31793036454222035,0.0012896560720086754,0.05572615374537828,0.6199717994138797
1750925370.7957864,-1.3058197210207263,-1.139588179240416,-2.2457614546670994,1.542814778180408,-3.010597082080568,-4.580279962780967,0.001114293441792072,-0.011708544201684446,0.009594302588917155,0.0001663154744389111,0.033655644565983155,0.033652000921152,0.8159847139868579,3.1983465446562005,0.31793363751691645,0.0012901010891992796,0.05571640036158373,0.619887531286851
1750925370.7976036,-1.3058174289607853,-1.1396122835871365,-2.245741700960732,1.5428151207169025,-3.010527793255844,-4.580210681456901,0.0011777072631897658,-0.012395760250900945,0.010159424645897135,0.00017622451079384732,0.035633117028300916,0.03562926004287371,0.8158792272939441,3.198415752158373,0.31793711645780054,0.0012905729088193312,0.0557060357524284,0.6197979662743854
1750925370.799487,-1.3058150104353805,-1.1396377621075207,-2.245720816882665,1.5428154830928107,-3.0104545498722106,-4.580137446000438,0.0012407555243808363,-0.01308271545125063,0.010724675478499804,0.00018615508648049125,0.03761019985607809,0.03760612970075723,0.815767488752291,3.198488921230561,0.31794080133938707,0.0012910715098170863,0.05569505962126229,0.6197031012269263
1750925370.8016763,-1.3058124661959205,-1.1396646142653886,-2.245698802168201,1.5428158653524018,-3.010377352730655,-4.580060257212214,0.001303417936371619,-0.01376939532191417,0.01129006223492596,0.00019610839211841284,0.03958687133012494,0.039582588185315945,0.815649505516283,3.1985660523096584,0.31794469213571774,0.0012915968705940154,0.055683471653495395,0.6196029328138412
1750925370.8036144,-1.3058097970343914,-1.139692839495602,-2.245675656538345,1.5428162675423256,-3.010296202675613,-4.579979115936293,0.0013656742133699865,-0.01445578538375822,0.011855592062298567,0.00020608561726673545,0.041563109719530124,0.041558613775373864,0.8155252851064387,3.1986471458657295,0.31794878881609795,0.0012921489647340044,0.05567127151892618,0.6194974575328458
1750925370.8053856,-1.3058070037833458,-1.1397224372040657,-2.245651379699808,1.5428166897116098,-3.0102111005949954,-4.579894023060198,0.0014275040730260132,-0.015141871159503474,0.012421272106743675,0.00021608795051456997,0.043538893281045946,0.043534184737427116,0.8153948354672931,3.1987322023893263,0.3179530913519206,0.0012927277685046822,0.05565845887003581,0.6193866716862718
1750925370.807457,-1.305804087315897,-1.1397534067677322,-2.24562597134501,1.5428171319116581,-3.0101220474202117,-4.579804979514926,0.001488887236541823,-0.015827638173738633,0.012987109513162313,0.0002261165793132873,0.045514200258470854,0.0455092793250918,0.815258164901514,3.1988212223991255,0.3179575997081625,0.0012933332536253104,0.05564503334190965,0.6192705714128507
1750925370.8099444,-1.3058010485457139,-1.1397857475346047,-2.245599431152085,1.5428175941962483,-3.010029044126197,-4.579711986274987,0.0015498034289042298,-0.016513071953102504,0.013553111425398553,0.00023617269002849882,0.047489008882088825,0.04748387577846191,0.8151152821289578,3.1989142064303078,0.3179623138543874,0.0012939653933863788,0.05563099455384136,0.6191491526553946
1750925370.8112848,-1.3057978884270094,-1.139819458823741,-2.2455717587848767,1.5428180766215296,-3.0099320917314416,-4.579615044358418,0.0016102323790095083,-0.01719815802625373,0.014119284985947287,0.000246257467811422,0.04946329736802831,0.04945795232356099,0.8149661962426978,3.199011155057947,0.3179672337521667,0.001294624157640406,0.05561634210706455,0.6190224111926353
1750925370.814509,-1.3057978884270094,-1.139819458823741,-2.2455717587848767,1.5428180766215296,-3.0099320917314416,-4.579615044358418,0.0016102323790095083,-0.01719815802625373,0.014119284985947287,0.000246257467811422,0.04946329736802831,0.04945795232356099,0.8149661962426978,3.199011155057947,0.3179672337521667,0.001294624157640406,0.05561634210706455,0.6190224111926353
1750925370.8156772,-1.305794607954537,-1.1398545399252598,-2.2455429538929472,1.5428185792460203,-3.009831191298016,-4.579514154826823,0.001670153819865285,-0.01788288192406017,0.01468563733601423,0.00025637209654326567,0.05143704391771044,0.051431487171734236,0.8148109167301159,3.199112068864908,0.3179723593642618,0.001295309514789203,0.05560107558726911,0.6188903426195732
1750925370.8172853,-1.305791208163578,-1.1398909901003424,-2.2455130161115795,1.542819102130605,-3.0097263439316038,-4.579409318785397,0.001729547488762574,-0.01856722917961006,0.015252175615406796,0.00026651775887857383,0.05341022671726457,0.05340445851905341,0.8146494534784672,3.199216948474985,0.3179776906507591,0.0012960214346174395,0.05558519456368198,0.6187529423506237
1750925370.8194807,-1.305787690129936,-1.1399288085812396,-2.2454819450617745,1.5428196453385326,-3.009617550781533,-4.57930053738296,0.0017883931274428424,-0.019251185328338985,0.015818906962515093,0.00027669563606178157,0.05538282393690627,0.05537684454576518,0.8144818167526073,3.1993257945258393,0.31798322757094527,0.001296759881890439,0.055568698588005096,0.6186102056347063
1750925370.8234787,-1.3057840549699247,-1.1399679945712764,-2.24544974035026,1.5428202089354126,-3.0095048130408064,-4.579187811811986,0.0018466704822876767,-0.01993473590810398,0.01638583851416777,0.00028690690794513603,0.05735481373042272,0.05734862341569891,0.8143080172187276,3.1994386076844035,0.31798897007993704,0.001297524822027991,0.05555158719744645,0.618462127540699
1750925370.8240297,-1.3057803038403613,-1.140008547244853,-2.245416401569491,1.5428207929892133,-3.009388131946137,-4.579071143308638,0.0019043593044691027,-0.02061786645923019,0.01695297740562016,0.0002971527529828993,0.05932617423450944,0.05931977327566405,0.8141280659244596,3.1995553886473274,0.3179949181327755,0.0012983162204023113,0.05553385991052824,0.6183087029561204
1750925370.826125,-1.3057764379385581,-1.1400504657474562,-2.2453819282976557,1.542821397570258,-3.0092675087779814,-4.5789505331528035,0.0019614393501623346,-0.021300562524664297,0.01752033077045477,0.00030743434806452467,0.06129688356829631,0.06129027225493011,0.8139419743173252,3.199676138125555,0.31800107168119074,0.001299134037876375,0.05551551623242064,0.6181499266101793
1750925370.8277326,-1.3057724585023047,-1.1400937491956586,-2.2453463200986725,1.5428220227512226,-3.009142944860576,-4.578825982668131,0.0020178903807127942,-0.021982809649989565,0.01808790574053379,0.0003177528685496915,0.06326691983267405,0.06326009846462304,0.8137497542408968,3.19980085686922,0.3180074306760256,0.0012999782364151104,0.05549655564932032,0.6179857930488308
1750925370.8296444,-1.3057683668098674,-1.140138396677128,-2.245309576522203,1.5428226686071318,-3.009014441561975,-4.578697493222063,0.0020736921627891756,-0.02266459338355531,0.01865570944591213,0.00032810948817601587,0.06523626110984303,0.06522922999718261,0.8135514179057546,3.1999295456379184,0.3180139950651806,0.001300848775553341,0.05547697763471492,0.6178162966558997
1750925370.8317897,-1.3057641641799709,-1.140184407250632,-2.2452716971036466,1.5428233352153562,-3.008882000294086,-4.578565066225878,0.002128824468592981,-0.023345899276509766,0.01922374901473311,0.0003385053790694511,0.06720488546264713,0.06719764492577508,0.813346977941202,3.2000622052328485,0.31802076479392666,0.0013017456152380116,0.05545678164332529,0.6176414316344258
1750925370.8335729,-1.305759851971792,-1.1402317799460429,-2.2452326813641506,1.5428240226556091,-3.0087456225127114,-4.578428703134727,0.0021832670760233374,-0.024026712882905872,0.019792031573160764,0.0003489417115698306,0.06917277093410114,0.06916532130378261,0.8131364473520543,3.2001988364713396,0.31802773980539367,0.0013026687106771288,0.05543596711655915,0.6174611920339229
1750925370.835692,-1.3057554315849433,-1.1402805137643437,-2.2451925288106107,1.5428247310099426,-3.008605309717588,-4.578288405447674,0.002236999768870505,-0.024707019759784205,0.020360564245349995,0.00035941965426923355,0.07113989554676275,0.07113223716421883,0.812919839544243,3.2003394401984813,0.31803492004190603,0.001303618018283193,0.05541453347813427,0.617275571725615
1750925370.8545537,-1.305750904459467,-1.1403306076776358,-2.2451512389356783,1.5428254603627443,-3.0084610634524287,-4.57814417470774,0.002290002336981482,-0.02538680546725553,0.020929354153321464,0.00036994037399425877,0.07310623730225582,0.0730983705191786,0.8126971683049359,3.200484017280785,0.3180423054420392,0.0013045934941237614,0.0553924801383372,0.6170845644144894
1750925370.8551242,-1.3057462720758153,-1.1403820606291424,-2.2451088112177615,1.5428262108007333,-3.0083128853049637,-4.5779960125019405,0.0023422545764470422,-0.026066055568519104,0.02149840841681165,0.0003805050356355601,0.0750717741806821,0.0750636993593321,0.8124684478222455,3.2006325686232446,0.3180498959404344,0.0013055950896212996,0.05536980649088353,0.6168881636504723
1750925370.8557637,-1.3057415359548452,-1.1404348715332162,-2.2450652451210296,1.5428269824129568,-3.008160776906985,-4.5778439204613335,0.0023937362897831914,-0.02674475563002237,0.022067734153361666,0.0003911148021932665,0.07703648414009423,0.07702820165335367,0.8122336926657518,3.2007850951394636,0.318057691473896,0.0013066227576077358,0.05534651191464244,0.6166863628109347
1750925370.8580296,-1.3057415359548452,-1.1404348715332162,-2.2450652451210296,1.5428269824129568,-3.008160776906985,-4.5778439204613335,0.0023937362897831914,-0.02674475563002237,0.022067734153361666,0.0003911148021932665,0.07703648414009423,0.07702820165335367,0.8122336926657518,3.2007850951394636,0.318057691473896,0.0013066227576077358,0.05534651191464244,0.6166863628109347
1750925370.8585927,-1.3057366976578004,-1.1404890392753488,-2.245020540095423,1.542827775290786,-3.0080047399343917,-4.57768790026106,0.0024444272861372613,-0.02742289122149466,0.02263733847806852,0.0004017708346560399,0.0790003451159999,0.07899185534741057,0.811992917815397,3.20094159778034,0.31806569197221657,0.0013076764476608884,0.05532259577451616,0.6164791551154215
1750925370.8591154,-1.305731758786301,-1.1405445627121713,-2.2449746955766496,1.542828589527912,-3.0078447761072344,-4.577527953620395,0.0024943073814290063,-0.028100447915991204,0.023207228503538988,0.0004124742920255385,0.08096333502072682,0.08095463836461368,0.8117461386218566,3.2011020775225187,0.3180738973640225,0.0013087561101858079,0.05529805741751571,0.6162665336180952
1750925370.8595467,-1.3057267209823271,-1.1406014406714657,-2.2449277109862003,1.5428294252203418,-3.007680887189763,-4.577364082302787,0.002543356398570388,-0.028777411290008742,0.02377741133980843,0.000423226331186731,0.08292543174302974,0.08291652860452611,0.8114933708417521,3.2012665353645393,0.3180823075754204,0.0013098616921026708,0.055272896179584564,0.6160484912216811
1750925370.8598468,-1.3057215859282056,-1.1406596719521707,-2.2448795857313453,1.5428302824663944,-3.0075130749904737,-4.577196288115911,0.0025915541676446116,-0.029453766923561223,0.02434789409429118,0.000434028106919247,0.08488661314749944,0.08487750394261669,0.8112346306210371,3.2014349723297437,0.31809092253109605,0.001310993140772484,0.05524711138001531,0.6158250206623224
1750925370.8600845,-1.305716355346597,-1.1407192553243881,-2.2448303192051418,1.5428311613666956,-3.007341341362158,-4.577024572911717,0.0026388805260669766,-0.030129500400188518,0.024918683871573952,0.00044488077175323297,0.08684685707405959,0.08683754222977849,0.8109699344887128,3.2016073894755497,0.31809974215004777,0.0013121503996550278,0.05522070232392741,0.6155961145294394
1750925370.8615437,-1.3057110310004791,-1.1407801895293916,-2.244779910786443,1.5428320620241744,-3.0071656882019524,-4.576848938586475,0.0026853153188336545,-0.030804597307138075,0.025489787773473035,0.00045578547603980095,0.08880614133746323,0.08879662129179408,0.8106992993906771,3.201783787872796,0.3181087663524698,0.0013133334143421993,0.05519366830225631,0.6153617652467731
1750925370.8635993,-1.3057056146931307,-1.1408424732796307,-2.2447283598398986,1.542832984544058,-3.0069861174513903,-4.576669387080832,0.0027308383986213293,-0.03147904323526065,0.02606121289872087,0.00046674336776703497,0.09076444372678928,0.09075471892886303,0.810422742632456,3.20196416863968,0.31811799505030314,0.0013145421253804182,0.05516600859175358,0.6151219650957865
1750925370.8653574,-1.3057001082681197,-1.1409061052587433,-2.2446756657159685,1.5428339290338675,-3.0068026310964524,-4.576485920379859,0.002775429626060408,-0.0321528237792885,0.026632966343087105,0.0004777555926753508,0.09272174200495527,0.09271181291506644,0.8101402819376329,3.202148532890488,0.31812742815794,0.0013157764767151585,0.055137722455444516,0.6148767061918502
1750925370.8674388,-1.3056945136092821,-1.1409710841215572,-2.244621827750919,1.542834895603413,-3.00661523116762,-4.576298540513107,0.002819068869872368,-0.03282592453770732,0.027205055199107618,0.0004888232939668612,0.09467801390822056,0.09466788099794479,0.8098519354130616,3.202336881797867,0.31813706558310195,0.0013170364042618505,0.05510880914235978,0.6146259805206236
1750925370.8699446,-1.305688832640711,-1.141037408494105,-2.2445668452668377,1.5428358843647882,-3.00642391973993,-4.5761072495546555,0.002861736007084585,-0.03349833111296174,0.027777486556067512,0.0004999476124779805,0.09663323714571123,0.09662290089795003,0.8095577215574183,3.20252921653537,0.3181469072321373,0.0013183218489292315,0.05507926788814623,0.614369779900024
1750925370.8715923,-1.305688832640711,-1.141037408494105,-2.2445668452668377,1.5428358843647882,-3.00642391973993,-4.5761072495546555,0.002861736007084585,-0.03349833111296174,0.027777486556067512,0.0004999476124779805,0.09663323714571123,0.09662290089795003,0.8095577215574183,3.20252921653537,0.3181469072321373,0.0013183218489292315,0.05507926788814623,0.614369779900024
1750925370.8742456,-1.3056830673267346,-1.1411050769736244,-2.244510717571636,1.5428368954323666,-3.0062286989330267,-4.575912049623174,0.00290341092322385,-0.034170029111433534,0.028350267499873433,0.0005111296865175641,0.0985873893989207,0.09857685030799662,0.8092576592739968,3.202725538322004,0.31815695300837826,0.001319632747210904,0.055049097914382714,0.6141080960081287
1750925370.8757486,-1.305677219671903,-1.1411740881285732,-2.244453443959058,1.5428379289227951,-3.006029570911221,-4.575712942881973,0.0029440735124884325,-0.034841004143546114,0.028923405112894453,0.0005223706517980671,0.10054044832125744,0.10052970689300096,0.8089517678395107,3.202925848389793,0.3181672028101624,0.0013209690338215796,0.05501829842990731,0.6138409203827139
1750925370.8787098,-1.3056712917209676,-1.1412444404986308,-2.2443950237086856,1.54283898495499,-3.0058265378835447,-4.57550993153906,0.002983703677952442,-0.03551124182378321,0.029496906473854976,0.000533671641449335,0.10249239153756617,0.10248144828940173,0.8086400669376269,3.203130148009265,0.3181776565331165,0.0013223306440063797,0.0549868686300696,0.613568244412139
1750925370.8795629,-1.3056652855588657,-1.1413161325947128,-2.244335456085947,1.5428400636501307,-3.0056196021038097,-4.575303017847202,0.0030222813317737182,-0.036180727770818655,0.03007077865779569,0.0005450337859017758,0.10444319664371737,0.10443205210470931,0.8083225766433709,3.2033384384648635,0.3181883140714015,0.001323717509855165,0.054954807698656495,0.613290059345488
1750925370.8817437,-1.305659203310701,-1.1413891628989736,-2.2442747403421253,1.5428411651316551,-3.005408765870665,-4.575092204103976,0.003059786395381256,-0.03684944760751082,0.030645028735884976,0.0005564582128327706,0.10639284120605952,0.10638149591706468,0.8079993174285385,3.20355072108023,0.3181991753141406,0.001325129562106948,0.054922114804022766,0.6130063562946052
1750925370.885451,-1.3056530471417247,-1.1414635298648204,-2.2442128757143625,1.5428422895252536,-3.0051940315276564,-4.574877492651836,0.0030961987996653375,-0.037517386960993424,0.03121966377528659,0.0005679460472212192,0.1083413027610736,0.10832975727476084,0.8076703101516155,3.203766997197827,0.3182102401463661,0.0013265667331696519,0.054888789104792404,0.6127171262237681
1750925370.8877132,-1.305640521902963,-1.1416162674511936,-2.2440856966849516,1.542844607562664,-3.00475287811108,-4.574436386215352,0.0031656654023215036,-0.0388508667484251,0.032370116985950166,0.0005911164237859228,0.11223458684277904,0.11222264266770204,0.8069951368251567,3.204211535467013,0.3182329801042188,0.0013295161394030048,0.054820235858913186,0.6121220482501566
1750925370.8897524,-1.3056341573642447,-1.1416946348348596,-2.2440203806869725,1.542845801469069,-3.0045264639496367,-4.574209996140825,0.0031986795116051613,-0.03951637845846791,0.0329459492705105,0.0006028012014129893,0.11417936428894827,0.11416722164655406,0.8066490144730752,3.204439800442669,0.3182446549835434,0.0013310282286493054,0.054785006566539673,0.6118161816137775
1750925370.8915277,-1.305627727966808,-1.1417743324064062,-2.2439539126124117,1.542847018812722,-3.0042961615027033,-4.573979718177143,0.0032305207837549006,-0.04018105223751183,0.03352219474258193,0.0006145538572825586,0.11612286856587972,0.11611052805712527,0.806297231443013,3.2046720645800453,0.31825653295718703,0.0013325651416125869,0.054749140977147316,0.611504750508768
1750925370.8934186,-1.3056212360763473,-1.1418553584756221,-2.243886291627847,1.5428482597304904,-3.004061973339232,-4.573745554892046,0.003261169199994851,-0.040844873734825614,0.034098860447471256,0.0006263755015950976,0.11806507705406698,0.11805253929220247,0.8059398105754513,3.204908329357476,0.3182686138939532,0.001334126801439521,0.054712638188942786,0.6111877452468322
1750925370.8953018,-1.3056146840985843,-1.1419377113235942,-2.2438175168857732,1.5428495243614588,-3.0038239020734467,-4.573507508898517,0.003290604752205396,-0.04150782860422677,0.03467595342562859,0.0006382672414463182,0.12000596710157066,0.11999323271223689,0.8055767750923667,3.2051485962884056,0.3182808976547803,0.0013357131299789548,0.054675497288278696,0.6108651560142587
1750925370.8972862,-1.3056080744792462,-1.1420213892027258,-2.243747587524606,1.5428508128469227,-3.0035819503649086,-4.573265582854854,0.0033188074431469996,-0.042169902504175294,0.03525348071261815,0.0006502301807394097,0.12194551602360146,0.12193258564495332,0.8052081486159194,3.20539286690784,0.3182933840996853,0.0013373240467444416,0.05463771734976146,0.6105369728737264
1750925370.8993125,-1.3056080744792462,-1.1420213892027258,-2.243747587524606,1.5428508128469227,-3.0035819503649086,-4.573265582854854,0.0033188074431469996,-0.042169902504175294,0.03525348071261815,0.0006502301807394097,0.12194551602360146,0.12193258564495332,0.8052081486159194,3.20539286690784,0.3182933840996853,0.0013373240467444416,0.05463771734976146,0.6105369728737264
1750925370.9013274,-1.3056014097040434,-1.1421063903367399,-2.243676502668696,1.5428521253303822,-3.0033361209185805,-4.573019779464731,0.003345757286665922,-0.042831081097802516,0.03583144933889276,0.000662265420227739,0.12388370110219218,0.12387057538494656,0.8048339551663415,3.2056411427820857,0.318306073082233,0.0013389594726046035,0.0545992974387603,0.6102031857603858
1750925370.9034007,-1.3055946922986479,-1.142192712920691,-2.24360426142834,1.5428534619575356,-3.0030864164848956,-4.572770101477268,0.003371434307892149,-0.043491350052936514,0.036409866329675834,0.0006743740573002829,0.12582049958577077,0.12580717919334886,0.80445421915323,3.205893425507526,0.31831896445283403,0.0013406193225412937,0.05456023660861418,0.6098637845038548
1750925370.905461,-1.3055879248286697,-1.142280355120974,-2.243530862899787,1.5428548228762726,-3.0028328398598236,-4.572516551687094,0.00339581854345677,-0.0441506950421774,0.036988738704794154,0.0006865571860870738,0.12775588868880988,0.12774237429741503,0.8040689653850167,3.2061497167035418,0.3183320580568613,0.0013423035146397139,0.054520533902792885,0.6095187588024651
1750925370.9077797,-1.3055811098996326,-1.1423693150753342,-2.243456306165255,1.5428562082366684,-3.00257539388494,-4.572259132934418,0.003418890041690262,-0.04480910174291348,0.037568073478520106,0.0006988158973248551,0.12968984559144542,0.1296761378901812,0.8036782190607525,3.2064100180209794,0.31834535373536527,0.0013440119633477323,0.054480188354017876,0.6091680982458865
1750925370.9093685,-1.3055742501569547,-1.1424595908928747,-2.2433805902929347,1.5428576181909752,-3.002314081447494,-4.5719978481051005,0.003440628862846566,-0.0454665558373754,0.03814787765943473,0.0007111512782635807,0.13162234743916457,0.13160844713012027,0.8032820057807153,3.206674331138042,0.3183588513254752,0.0013457445806238288,0.05443919898622433,0.6088117923129898
1750925370.911344,-1.3055673482859182,-1.1425511806540705,-2.24330371433701,1.5428590528936172,-3.002048905480479,-4.571732700130717,0.0034610150793155615,-0.04612304301268144,0.0387281582502168,0.0007235644127379481,0.13355337134242554,0.13353927914077712,0.8028803515410243,3.206942657759682,0.31837255065816167,0.0013475012806029886,0.05439756481263461,0.6084498303661746
1750925370.9134557,-1.3055604070116509,-1.142644082410774,-2.243225677337663,1.542860512501182,-3.001779868962703,-4.571463691988631,0.003480028775820092,-0.046778548960850125,0.03930892224755216,0.0007360563809580506,0.13548289437631167,0.1354686110104572,0.8024732827254414,3.2072149996220403,0.31838645156211043,0.001349281971648169,0.054355284836726726,0.6080822016678079
1750925370.9154034,-1.3055534290990973,-1.142738294186227,-2.243146478321089,1.5428619971724147,-3.0015069749188594,-4.5711908267020664,0.003497650049640554,-0.04743305937883358,0.03989017664184176,0.0007486282595683664,0.13741089358025962,0.1373964197918788,0.8020608261209067,3.207491358491225,0.3184005538574986,0.001351086563940441,0.05431235805432287,0.6077088953677346
1750925370.9173882,-1.3055464173529945,-1.14283381397507,-2.2430661162995085,1.5428635070682093,-3.0012302264195987,-4.570914107340177,0.003513859010840226,-0.048086559968590244,0.0404719284171525,0.0007612811215500374,0.13933734595765584,0.1393226825018601,0.8016430089104845,3.2077717361556766,0.31841485736307124,0.0013529149650471025,0.05426878344987609,0.6073299005143092
1750925370.9193845,-1.3055393746178474,-1.142930639743354,-2.242984590271181,1.5428650423516026,-3.0009496265816007,-4.570633537018119,0.003528635782464786,-0.0487390364370805,0.04105418455095829,0.0007740160361605986,0.14126222847559786,0.14124737612102486,0.8012198586662594,3.208056134436629,0.31842936189028903,0.0013547670810061753,0.05422456000111608,0.6069452060603185
1750925370.924237,-1.3055323037779,-1.143028769428546,-2.242901899220419,1.542866603187766,-3.000665178567648,-4.5703491188971235,0.00354196050078521,-0.04939047449630498,0.04163695201402604,0.000786834068863556,0.14318551806458146,0.14317047759349352,0.8007914033711729,3.2083445551872143,0.31844406724749286,0.001356642815996553,0.0541796866769607,0.6065548008563938
1750925370.930768,-1.305525207757114,-1.143128200939544,-2.2428180421175963,1.542868189743998,-3.0003768855866984,-4.57006085618457,0.0035538133154752027,-0.05004085986333247,0.042220237770118324,0.000799736281340458,0.1451071916181787,0.14509196382657125,0.8003576713788877,3.2086370002815734,0.3184589732342331,0.0013585420746779176,0.05413416243725541,0.606158673653619
1750925370.9314873,-1.3055180895191327,-1.1432289321566858,-2.2427330179191713,1.5428698021897165,-3.00008475089396,-4.569768752134062,0.0035641743899018493,-0.05069017826034808,0.04280404877596333,0.0008127237313747637,0.14702722599275972,0.14701181169049124,0.7999186914786552,3.208933471630985,0.3184740796495453,0.001360464758599294,0.054087986234010954,0.6057568131139617
1750925370.931844,-1.3055180895191327,-1.1432289321566858,-2.2427330179191713,1.5428698021897165,-3.00008475089396,-4.569768752134062,0.0035641743899018493,-0.05069017826034808,0.04280404877596333,0.0008127237313747637,0.14702722599275972,0.14701181169049124,0.7999186914786552,3.208933471630985,0.3184740796495453,0.001360464758599294,0.054087986234010954,0.6057568131139617
1750925370.9321475,-1.305503798444442,-1.143434285088004,-2.242559463991821,1.5428731054378353,-2.9994889696256495,-4.56917303326515,0.003580342040862798,-0.051985557058586415,0.04397327432671282,0.0008389585554199215,0.15086228444283856,0.15084649960480834,0.7990251049417054,3.209538500868875,0.3185048929175611,0.0013643800011401935,0.053993673709506876,0.6049358462358605
1750925370.9323733,-1.305503798444442,-1.143434285088004,-2.242559463991821,1.5428731054378353,-2.9994889696256495,-4.56917303326515,0.003580342040862798,-0.051985557058586415,0.04397327432671282,0.0008389585554199215,0.15086228444283856,0.15084649960480834,0.7990251049417054,3.209538500868875,0.3185048929175611,0.0013643800011401935,0.053993673709506876,0.6049358462358605
1750925370.9332097,-1.3054966317332104,-1.1435389024201426,-2.242470932106336,1.5428747965895977,-2.999185329792418,-4.568869425185734,0.0035861090143683967,-0.0526315889298605,0.04455870274765707,0.0008522080250684932,0.15277726204275338,0.1527612932078767,0.7985705578335927,3.2098470627189237,0.3185205993368207,0.0013663723575746086,0.05394553525555223,0.6045167167746497
1750925370.935313,-1.3054894550556817,-1.1436448106943704,-2.242381228812162,1.5428765143295549,-2.9988778617322316,-4.5685619892464935,0.0035903050419638883,-0.053276496771224015,0.04514468416989626,0.0008655469234056017,0.1546905075119619,0.15467435554664327,0.7981108818383086,3.2101596587466594,0.3185365053123901,0.001368387732057403,0.05389674057313073,0.6040918077483424
1750925370.937388,-1.305482271573517,-1.1437520076483727,-2.2422903529963767,1.5428782588376022,-2.9985665689326786,-4.568250728933269,0.003592910358610002,-0.05392026633064256,0.04573122551152354,0.000878976287970794,0.15660199751698456,0.15658566330205645,0.7976461077009134,3.2104762910098623,0.3185526106127061,0.0013704260204838328,0.053847288579042946,0.6036611073940625
1750925370.939254,-1.3054750844878882,-1.1438604909913401,-2.2421983035322297,1.5428800302957064,-2.9982514549280537,-4.567935647778579,0.0035939052143035273,-0.054562883361343587,0.04631833368229686,0.0008924971520374601,0.15851170868568662,0.15849519311650162,0.7971762665790003,3.210796961587509,0.3185689149994599,0.0013724871149001102,0.053797178184359244,0.6032246038718205
1750925370.9412584,-1.305467897039457,-1.1439702584039715,-2.2421050792791597,1.542881828887896,-2.9979325232994336,-4.567616749361694,0.0035932698742720064,-0.0552043336217767,0.046906015583478886,0.0009061105446227418,0.16041961760697807,0.16040292159357616,0.7967013900130406,3.211121672594649,0.31858541823019404,0.0013745709077817906,0.053746408291696766,0.6027822852655037
1750925370.9432423,-1.305460712508335,-1.1440813075384888,-2.2420106790828136,1.5428836548002538,-2.997609777674757,-4.567294037308718,0.0035909846192120247,-0.05584460287560602,0.04749427810744994,0.0009198174904391106,0.16232570083071182,0.16230882529788726,0.7962215099466458,3.2114504261801833,0.31860212005131033,0.0013766772903921636,0.05369497780080614,0.6023341395873361
1750925370.9466174,-1.3054535342140596,-1.1441936360186489,-2.241915101775059,1.542885508220907,-2.9972832217289014,-4.566967515292666,0.0035870297455338723,-0.056483676891780195,0.048083128137680925,0.0009336190097656362,0.16422993486742207,0.16421288075487656,0.7957366587182667,3.2117832245126072,0.31861902020840516,0.0013788061505170374,0.053642885604065216,0.6018801547868537
1750925370.9471672,-1.3054463655155573,-1.1443072414397477,-2.241818346174009,1.5428873893400192,-2.9969528591837635,-4.566637187033539,0.0035813855656002358,-0.05712154144449093,0.04867257254836838,0.0009475161184285288,0.16613229618817693,0.16611506445062896,0.7952468690730526,3.212120069801188,0.31863611843683054,0.0013809573755385253,0.05359013058970216,0.601420318744444
1750925370.9492493,-1.3054392098111158,-1.1444221213686374,-2.241720411084035,1.5428892983497813,-2.9966186938083372,-4.566303056298406,0.0035740324079532003,-0.05775818231323485,0.049262618204304005,0.0009615098278318726,0.16803276122437602,0.16801535283166785,0.7947521741416582,3.2124609642724526,0.31865341446795953,0.001383130853832524,0.05353671164024302,0.6009546192693448
1750925370.9512024,-1.3054320705383482,-1.1445382733437341,-2.2416212952957917,1.5428912354444022,-2.9962807294187934,-4.565965126901483,0.00356495061756106,-0.05839358528274571,0.049853271960547514,0.0009756011447191392,0.16993130636761064,0.16991372230485777,0.7942526074638049,3.2128059101989677,0.3186709080243195,0.0013853264672359018,0.05348262763427403,0.6004830441291581
1750925370.9532306,-1.3054249511741602,-1.1446556948750288,-2.241520997586229,1.5428932008201,-2.99593896987856,-4.565623402704213,0.00355412055605413,-0.05902773614305142,0.050444540662250306,0.000989791071284481,0.17182790796948844,0.17181014923719237,0.7937482029702323,3.2131549098721464,0.3186885988230887,0.0013875441008319783,0.0534278774454428,0.6000055810171397
1750925370.9552093,-1.3054178552347189,-1.1447743834440969,-2.241419516718622,1.5428951946750922,-2.9955934190984013,-4.565277887615342,0.003541522601968754,-0.059660620689461305,0.051036431144357054,0.0010040806049947555,0.17372254234154927,0.17370460995570533,0.7932389949896983,3.213507965615875,0.3187064865730174,0.0013897836348740961,0.053372459945027206,0.5995222175880788
1750925370.9574177,-1.3054107862754174,-1.1448943365041107,-2.2413168514425816,1.5428972172095867,-2.995244081036499,-4.564928585591006,0.0035271371509955534,-0.0602922247225532,0.05162895023141399,0.001018470738625915,0.17561518575507568,0.1755970807473021,0.7927250182561428,3.213865079789141,0.3187245709775981,0.0013920449507550646,0.0533163739989653,0.5990329414336678
1750925370.9594123,-1.3054037478908382,-1.1450155514798483,-2.241213000494083,1.542899268625772,-2.994890959698532,-4.564575500634805,0.0035109446162270197,-0.06092253404818832,0.05222210473730183,0.0010329624601984138,0.1775058144409669,0.17748753785865112,0.7922063079000105,3.214226254777606,0.3187428517325952,0.0013943279282071053,0.05325961846964666,0.5985377401009515
1750925370.9612596,-1.3053967437147218,-1.1451380257677055,-2.2411079625954837,1.5429013491278083,-2.994534059137759,-4.564218636797887,0.003492925428387623,-0.061551534477489275,0.052815901464922745,0.0010475567527824983,0.17939440458971836,0.17937595749611762,0.7916828994394258,3.2145914929973274,0.3187613285248967,0.0013966324416381205,0.05320219221888144,0.598036601105604
1750925370.963289,-1.3053897774199275,-1.1452617567357049,-2.241001736455548,1.5429034589218162,-2.994173383455097,-4.563857998179025,0.0034730600361136906,-0.06217921182685664,0.053410347206045886,0.0010622545946510232,0.18128093235123272,0.18126231582559862,0.7911548288115948,3.214960796897395,0.3187800010370717,0.0013989583698694006,0.05314409410316034,0.5975295118992348
1750925370.9653342,-1.3053828527184024,-1.1453867417235077,-2.2408943207694634,1.5429055982158686,-2.993808936799205,-4.563493588924705,0.0034513289061547394,-0.06280555191790735,0.054005448740898146,0.0010770569590727336,0.18316537383476897,0.18314658897249247,0.7906221323256544,3.215334168958968,0.3187988689401058,0.001401305586076918,0.053085322977537305,0.5970164599137799
1750925370.9672487,-1.305375973361139,-1.1455129780424222,-2.240785714218875,1.5429077672199798,-2.993440723366563,-4.5631254132292,0.00342771252369789,-0.06343054057753848,0.05460121283804,0.0010919648143011462,0.18504770510887933,0.18502875302161476,0.7900848467250459,3.21571161169137,0.31881793190137137,0.0014036739632664484,0.05302587769528873,0.5964974325395247
1750925370.9692628,-1.3053691431381402,-1.1456404629754182,-2.2406759154718987,1.5429099661460952,-2.9930687474015563,-4.562753475334653,0.003402191392561817,-0.06405416363788072,0.0551976462540296,0.0011069791235130601,0.1869279022013588,0.18690878401713676,0.7895430091192973,3.216093127631628,0.318837189578685,0.0014060633728554628,0.05296575710827122,0.5959724171378988
1750925370.9713511,-1.305362365878386,-1.1457691937771326,-2.2405649231831504,1.542912195208082,-2.9926930131965532,-4.562377779531164,0.003374746035452139,-0.06467640693623034,0.0557947557330845,0.0011221008447939696,0.18880594109916163,0.18878665796251654,0.7889966570254605,3.2164787193597144,0.31885664162054145,0.0014084736859762029,0.05290496006598772,0.5954414010349969
1750925370.9768653,-1.305362365878386,-1.1457691937771326,-2.2405649231831504,1.542912195208082,-2.9926930131965532,-4.562377779531164,0.003374746035452139,-0.06467640693623034,0.0557947557330845,0.0011221008447939696,0.18880594109916163,0.18878665796251654,0.7889966570254605,3.2164787193597144,0.31885664162054145,0.0014084736859762029,0.05290496006598772,0.5954414010349969
1750925370.9802694,-1.305362365878386,-1.1457691937771326,-2.2405649231831504,1.542912195208082,-2.9926930131965532,-4.562377779531164,0.003374746035452139,-0.06467640693623034,0.0557947557330845,0.0011221008447939696,0.18880594109916163,0.18878665796251654,0.7889966570254605,3.2164787193597144,0.31885664162054145,0.0014084736859762029,0.05290496006598772,0.5954414010349969
1750925370.9807432,-1.305362365878386,-1.1457691937771326,-2.2405649231831504,1.542912195208082,-2.9926930131965532,-4.562377779531164,0.003374746035452139,-0.06467640693623034,0.0557947557330845,0.0011221008447939696,0.18880594109916163,0.18878665796251654,0.7889966570254605,3.2164787193597144,0.31885664162054145,0.0014084736859762029,0.05290496006598772,0.5954414010349969
1750925370.9810324,-1.3053556454497883,-1.1458991676738837,-2.2404527359937694,1.5429144546217177,-2.992313525091991,-4.561998330156861,0.0033453569942802617,-0.06529725631513404,0.056392548006890586,0.001137330930966277,0.19068179774840802,0.19066235082051367,0.7884458283806406,3.21686838947451,0.31887628766963516,0.00141090476911187,0.05284348541812948,0.5949043715455837
1750925370.9840891,-1.305335864413287,-1.1462965197729469,-2.2401089912316348,1.542921417158742,-2.9911525815080324,-4.5608375047126,0.003245333478178662,-0.06715129943792554,0.05819008871909614,0.001183680828632796,0.19629603305240187,0.19627610188616024,0.7867668682750603,3.2180618966609718,0.31893638615623027,0.001418321311833885,0.05265498431800117,0.5932570754831207
1750925370.9844308,-1.305335864413287,-1.1462965197729469,-2.2401089912316348,1.542921417158742,-2.9911525815080324,-4.5608375047126,0.003245333478178662,-0.06715129943792554,0.05819008871909614,0.001183680828632796,0.19629603305240187,0.19627610188616024,0.7867668682750603,3.2180618966609718,0.31893638615623027,0.001418321311833885,0.05265498431800117,0.5932570754831207
1750925370.9851997,-1.305329410765797,-1.1464314377469798,-2.239992010582509,1.5429238001746035,-2.990758122173797,-4.560443085399881,0.0032079755120286144,-0.06776643166748082,0.05879067922718937,0.0011993537973681648,0.1981629193506072,0.19814282920678367,0.7861985205797959,3.218467906999979,0.3189568044870558,0.0014208341368931185,0.05259078772713895,0.5926958651124957
1750925370.9871783,-1.3053230338716917,-1.146567584523197,-2.239873828037222,1.542926214649298,-2.99035993136605,-4.560044934930362,0.0031685768678767056,-0.06838009926743026,0.059391985989704854,0.0012151398155369124,0.2000275025174127,0.20000725464232647,0.7856258919271057,3.218878009218002,0.3189774149105125,0.0014233670544354267,0.05252590777048027,0.5921285776250372
1750925370.9892354,-1.305316737831669,-1.146704957158212,-2.239754442156613,1.5429286608098458,-2.9899580137153468,-4.559643057932089,0.0031271182080879647,-0.06899228811097682,0.059994015656658635,0.001231039803674723,0.20188975825368669,0.2018693539110578,0.7850490226185861,3.2192922061133364,0.3189982170150608,0.0014259199238428422,0.05246034329942322,0.591555200252203
1750925370.9912395,-1.3053105267850809,-1.1468435526803882,-2.239633851488236,1.5429311388851028,-2.989552373900881,-4.55923745908171,0.0030835802160732477,-0.0696029840763789,0.06059677486344732,0.0012470546766951373,0.20374966221952287,0.20372910269061748,0.7844679533837384,3.2197105005087074,0.31901921038436654,0.0014284926024944035,0.05239409316533219,0.5909757202248564
1750925370.9931223,-1.30530440490989,-1.1469833680898534,-2.2395120545663865,1.5429336491057488,-2.9891430166505684,-4.55882814310456,0.0030379435965226667,-0.07021217304687279,0.0612002702304517,0.001263185343935407,0.20560719003427275,0.20558647661803828,0.7838827253362729,3.220132895262037,0.31904039459091277,0.0014310849491796205,0.052327156220486525,0.5903901247658355
1750925370.9952657,-1.3052983764226296,-1.1471244003585044,-2.2393890499121367,1.5429361917042772,-2.988729946741125,-4.558415114774741,0.0029901890756867623,-0.07081984091062908,0.06180450836271178,0.0012794327089766717,0.20746231727669134,0.20744145128986302,0.7832933799930182,3.220559393265619,0.31906176919808676,0.0014336968177907766,0.05225953132127087,0.5897984011165124
1750925370.997466,-1.3052983764226296,-1.1471244003585044,-2.2393890499121367,1.5429361917042772,-2.988729946741125,-4.558415114774741,0.0029901890756867623,-0.07081984091062908,0.06180450836271178,0.0012794327089766717,0.20746231727669134,0.20744145128986302,0.7832933799930182,3.220559393265619,0.31906176919808676,0.0014336968177907766,0.05225953132127087,0.5897984011165124
1750925370.9994917,-1.305286616670612,-1.1474101032198707,-2.2391394114247856,1.5429413749739478,-2.9878926882962085,-4.557577940397814,0.0028882493446456626,-0.07203055689518269,0.06301523926467388,0.0013122811179783753,0.2111652721567367,0.21114410505089234,0.7821025054879478,3.2214247107374674,0.31910508782443664,0.0014389785361119676,0.05212221309010343,0.588596518242695
1750925371.0011568,-1.3052808940313723,-1.1475547676153255,-2.239012774567982,1.5429440161190366,-2.987468509558908,-4.557153804143468,0.0028340256972403674,-0.07263357681673828,0.06362174516484688,0.0013288839400796282,0.21301305074952812,0.2129917351315052,0.7815010613557973,3.221863536143242,0.31912703092332717,0.001441648088659285,0.052052517483814155,0.5879863335561506
1750925371.0033233,-1.3052752820310065,-1.1477006364754674,-2.238884923931442,1.5429466905898774,-2.9870406377589838,-4.556725975122135,0.0027776072747198446,-0.0732350192329761,0.06422902009058568,0.0013456070161717596,0.21485833068049467,0.2148368679395745,0.7808956699958679,3.222306476681553,0.3191491625834057,0.0014443365705948156,0.05198212937183553,0.5873699697582706
1750925371.005334,-1.3052697850782318,-1.1478477066311958,-2.2387558579705873,1.5429493986278535,-2.986609077918375,-4.556294458352959,0.0027189749153107715,-0.07383487005619878,0.06483707056527659,0.0013624512204766898,0.21670108732674373,0.21667947887068764,0.7802863749205406,3.2227535354012318,0.31917148232043846,0.001447043829771966,0.05191104762500625,0.5867474141716457
1750925371.0073225,-1.3052697850782318,-1.1478477066311958,-2.2387558579705873,1.5429493986278535,-2.986609077918375,-4.556294458352959,0.0027189749153107715,-0.07383487005619878,0.06483707056527659,0.0013624512204766898,0.21670108732674373,0.21667947887068764,0.7802863749205406,3.2227535354012318,0.31917148232043846,0.001447043829771966,0.05191104762500625,0.5867474141716457
1750925371.009266,-1.3052644076200632,-1.1479959748852409,-2.238625575127811,1.5429521404760904,-2.9861738351083074,-4.5558592589043325,0.002658109480489397,-0.0744331152033962,0.06544590309487494,0.0013794174211085163,0.21854129602551944,0.21851954328067608,0.7796732200488817,3.22320471538628,0.3191939896384705,0.0014497697110638008,0.05183927112036755,0.5861186541541242
1750925371.0112941,-1.3052591541417708,-1.1481454380121727,-2.238494073832512,1.5429549163794438,-2.985734914449372,-4.555420381893973,0.0025949918552656895,-0.07502974059622523,0.06605552416773622,0.0013965064801814814,0.2203789320742859,0.2203570364857234,0.7790562496979627,3.223660019748426,0.31921668403685827,0.0014525140624950007,0.05176679873730206,0.5854836770782068
1750925371.0133455,-1.3052540291668304,-1.1482960927584074,-2.2383613525011308,1.5429577265844876,-2.9852923211116043,-4.554977832489008,0.002529602948452837,-0.07562473216087699,0.06666594025398682,0.001413719253550002,0.22221397073094964,0.22219193376260574,0.7784355085800984,3.2241194516433596,0.3192395649972119,0.0014552767249330456,0.05169362936145968,0.5848424703701796
1750925371.0154169,-1.3052490372568766,-1.148447935842218,-2.2382274095371857,1.542960571339501,-2.9848460603145632,-4.554531615906049,0.002461923692980872,-0.07621807582809621,0.06727715780535247,0.0014310565908919296,0.22404638721408077,0.22402421034885295,0.7778110418138185,3.2245830142487772,0.31926263199614613,0.0014580575417361282,0.05161976188472205,0.5841950214857017
1750925371.0173028,-1.305244183011653,-1.1486009639537453,-2.2380922433313106,1.5429634508944563,-2.98439613732741,-4.5540817374112725,0.0023919350461725666,-0.07680975753308407,0.06788918325466271,0.0014485193355952245,0.22587615670303024,0.22585384144297413,0.777182894911637,3.225050710779798,0.31928588449627626,0.0014608563532225026,0.05154519520227181,0.5835413179295095
1750925371.0193615,-1.3052394710689654,-1.148755173755002,-2.237955852261292,1.5429663655010064,-2.9839425574689864,-4.553628202320497,0.0023196179900603917,-0.07739976321546785,0.0685020230156206,0.0014661083247229077,0.22770325433827926,0.2276808022046657,0.7765511137971655,3.2255225444830433,0.31930932195381956,0.0014636729988527371,0.05146992821913619,0.582881347248577
1750925371.0213635,-1.3052349061046282,-1.1489105618798874,-2.237818234692111,1.542969315412472,-2.983485326107891,-4.55317101599926,0.002244953531651808,-0.07798807881920485,0.06911568348222792,0.0014838243889415078,0.22952765522154164,0.22950506775505833,0.7759157447783135,3.225998518638429,0.3193329438085271,0.0014665073162318093,0.05139395984322448,0.5822150970458025
1750925371.0292754,-1.3052304928324192,-1.1490671249341915,-2.2376793889759767,1.5429723008838285,-2.983024448662558,-4.552710183862895,0.0021679227032467526,-0.0785746902925392,0.0697301710285762,0.001501668352455257,0.23134933441615815,0.23132661317697012,0.775276834572208,3.2264786365587423,0.3193567494944863,0.001469359141256491,0.05131728899355642,0.5815425549794984
1750925371.029663,-1.3052304928324192,-1.1490671249341915,-2.2376793889759767,1.5429723008838285,-2.983024448662558,-4.552710183862895,0.0021679227032467526,-0.0785746902925392,0.0697301710285762,0.001501668352455257,0.23134933441615815,0.23132661317697012,0.775276834572208,3.2264786365587423,0.3193567494944863,0.001469359141256491,0.05131728899355642,0.5815425549794984
1750925371.0299628,-1.3052304928324192,-1.1490671249341915,-2.2376793889759767,1.5429723008838285,-2.983024448662558,-4.552710183862895,0.0021679227032467526,-0.0785746902925392,0.0697301710285762,0.001501668352455257,0.23134933441615815,0.23132661317697012,0.775276834572208,3.2264786365587423,0.3193567494944863,0.001469359141256491,0.05131728899355642,0.5815425549794984
1750925371.0302315,-1.3052262360040237,-1.1492248594956056,-2.2375393134523733,1.5429753221716933,-2.9825599306013344,-4.5522457113766075,0.002088506562747263,-0.07915958358794291,0.07034549200834551,0.0015196410329488107,0.23316826694722595,0.23314541351515902,0.7746344303011092,3.226962901588931,0.3193807384313495,0.001472228308337386,0.05123991459279651,0.5808637087630301
1750925371.0332475,-1.3052221404089872,-1.1493837621137288,-2.2373980064480987,1.5429783795343126,-2.9820917774425526,-4.551777604055552,0.0020066861939163115,-0.07974274466200118,0.07096165275439237,0.0015377432416045227,0.23498442780195947,0.23496144377660153,0.7739885794665616,3.227451317109536,0.3194049100273066,0.0014751146525456478,0.05116183557377659,0.5801785461750761
1750925371.0337887,-1.3052182108746608,-1.1495438293100797,-2.237255466277304,1.5429814732315483,-2.98161999475461,-4.551305867464905,0.0019224427067412943,-0.08032415947541093,0.07157865957845819,0.0015559757828842989,0.23679779192995634,0.23677467893080967,0.7733393299959095,3.227943886529287,0.31942926368218005,0.001478018002932162,0.05108305087681892,0.5794870550663541
1750925371.035359,-1.3052144522661493,-1.1497050575780996,-2.237111691241539,1.5429846035248647,-2.9811445881560417,-4.550830507219945,0.0018357572376947635,-0.08090381399285188,0.07219651877065557,0.001574339454695474,0.2386083342435054,0.23858509391008842,0.7726867301985434,3.2284406132945387,0.3194537987813056,0.0014809381933686033,0.05100355945092234,0.5787892233455892
1750925371.037154,-1.305210869486256,-1.1498674433831662,-2.2369666796297967,1.542987770677315,-2.9806655633155947,-4.550351528986117,0.0017466109500650865,-0.08148169418293862,0.0728152365990955,0.0015928350480885957,0.2404160296179302,0.2403926636099249,0.7720308287897582,3.2289415008816005,0.31947851469945904,0.0014838750493784765,0.05092336025476466,0.5780850390165639
1750925371.0392547,-1.3052074674754346,-1.150030983162595,-2.236820429718554,1.5429909749535278,-2.980182925952303,-4.5498689384791176,0.0016549850342474615,-0.0820577860181301,0.07343481930950262,0.0016114633474027277,0.2422208528918692,0.24219736288925678,0.7713716748785245,3.229446552800879,0.3195034108005947,0.0014868284006885777,0.050842452254911547,0.5773744901427472
1750925371.0410922,-1.3052042512117268,-1.150195673325653,-2.2366729397718217,1.5429942166196937,-2.979696681835559,-4.5493827414649575,0.001560860708077545,-0.0826320754746454,0.07405527312469078,0.0016302251301115818,0.24402277886770893,0.2439991665708688,0.7707093179844098,3.2299557725989705,0.319528486433756,0.0014897980728765404,0.050760834430137514,0.5766575648838015
1750925371.0431077,-1.3052012257107126,-1.1503615102535605,-2.2365242080411853,1.542997495943551,-2.979206836785186,-4.54889294376004,0.0014642192171206937,-0.08320454853238979,0.07467660424422037,0.001649121166737747,0.24582178231187513,0.24579804944174746,0.7700438080105869,3.230469163850325,0.31955374093832856,0.0014927838892219232,0.050678505767414145,0.575934251485398
1750925371.0468366,-1.3051983960254532,-1.1505284902995054,-2.236374232765858,1.5430008131943724,-2.978713396671511,-4.548399551231229,0.0013650418350147904,-0.08377519117489582,0.07529881884397092,0.0016681522209215382,0.2476178379552498,0.24759398625343784,0.7693751952740493,3.230986730161899,0.31957917364148497,0.0014957856750991384,0.05059546526546334,0.5752045382767051
1750925371.0472927,-1.305195767246433,-1.1506966097886417,-2.2362230121727205,1.543004168642951,-2.9782163674154343,-4.547902569795921,0.0012633098637723247,-0.08434398938917291,0.07592192307565417,0.0016873190492324858,0.24941092049357008,0.2493869517224697,0.7687035304881475,3.231508475184464,0.3196047838569939,0.0014988032507176061,0.05051171193424223,0.5744684136924328
1750925371.049381,-1.3051933445015038,-1.150865865018103,-2.236070544476382,1.5430075625615853,-2.9777157549884987,-4.5474020054221125,0.0011590046340986557,-0.08491092916569126,0.07654592306640289,0.0017066224011518499,0.251201004587815,0.25117692053075524,0.7680288647545896,3.232034402585716,0.3196305708864966,0.0015018364359397698,0.050427244794604836,0.5737258662649887
1750925371.051189,-1.3051911329558292,-1.1510362522570086,-2.2359168278792136,1.5430109952240665,-2.9772115654129605,-4.546897864128472,0.0010521075056956636,-0.08547599649820783,0.07717082491827491,0.0017260630191188223,0.25298806486462444,0.2529638673259813,0.7673512495762523,3.2325645160821956,0.31965653401806704,0.0015048850520568186,0.05034206287920346,0.5729768846210852
1750925371.053129,-1.3051891378118219,-1.151207767746465,-2.235761860571416,1.5430144669056627,-2.976703804761856,-4.546390151984407,0.000942599867662602,-0.0860391773837862,0.07779663470790668,0.0017456416382615747,0.2547720759167949,0.25474776672212324,0.7666707368824313,3.2330988194110595,0.3196826725296093,0.001507948912975019,0.05025616523466316,0.5722214575159307
1750925371.0551841,-1.305187364309087,-1.1513804076995786,-2.2356056407310563,1.5430179778831057,-2.9761924791590695,-4.5458788751101284,0.0008304631387005744,-0.08660045782256169,0.07842335848588106,0.001765358986545826,0.25655301230368677,0.25652859329982414,0.7659873789491154,3.2336373163527594,0.31970898568146777,0.0015110278368833717,0.050169550919074914,0.5714595737996342
1750925371.0571773,-1.3051858177243627,-1.151554168301459,-2.2354481665241295,1.5430215284345756,-2.9756775947793996,-4.545364039676721,0.0007156787675507102,-0.08715982381778388,0.07905100227648947,0.0017852157846502366,0.2583308485516734,0.2583063216068886,0.7653012284986699,3.234180010709906,0.31973547272697744,0.0015141216386218266,0.05008221900318387,0.5706912224423414
1750925371.0592122,-1.3051845033714589,-1.1517290457092253,-2.23528943610461,1.5430251188396866,-2.9751591578486254,-4.544845651906204,0.0005982282332517574,-0.08771726137558823,0.07967957207702937,0.00180521274584736,0.2601055591546853,0.260080926158792,0.7646123386228021,3.2347269063322357,0.31976213289993005,0.0015172301298378447,0.04999416857306674,0.5699163925454511
1750925371.061212,-1.3051834266011992,-1.1519050360520096,-2.2351294476145007,1.5430287493794719,-2.974637174643569,-4.5443237180716,0.0004780930455124169,-0.08827275650499644,0.08030907385751238,0.0018253505760472577,0.26187711857466367,0.26185238143913847,0.7639207628248578,3.2352780070887563,0.31978896542553814,0.0015203531235236556,0.049905398727570015,0.56913507332227
1750925371.0632968,-1.3051825928013532,-1.1520821354309678,-2.234968199183898,1.5430324203363692,-2.974111651492161,-4.543798244496993,0.0003552547450331863,-0.08882629521775817,0.08093951356008067,0.001845629973667918,0.263645501242103,0.26362066190020694,0.7632265550040223,3.235833316890188,0.31981596951270286,0.0015234904291893385,0.049815908580833686,0.5683472541255201
1750925371.0654137,-1.3051820073965796,-1.1522603399192786,-2.2348056889310364,1.5430361319942056,-2.9735825947735015,-4.543269237557596,0.0002296949038127491,-0.08937786352823032,0.0815708970985188,0.0018660516296202445,0.2654106815565619,0.2653857419634632,0.7625297694418113,3.23639283967865,0.31984314435652716,0.0015266418560529532,0.04972569726138126,0.5675529244380593
1750925371.0672061,-1.3051816758483632,-1.1524396455621568,-2.2346419149623555,1.5430398846381823,-2.9730500109179228,-4.542736703679809,0.00010139512554664886,-0.08992744745334497,0.08220323035792194,0.0018866162272686848,0.26717263388720636,0.2671475960201067,0.7618304608444877,3.236956579423861,0.3198704891426436,0.0015298072123774507,0.04963476391304545,0.566752073879317
1750925371.0691884,-1.3051816036549457,-1.152620048376848,-2.234476875372553,1.5430436785548598,-2.9725139064070483,-4.542200649341279,-2.9662954083816724e-05,-0.09047503301238558,0.08283651919392991,0.001907324442263012,0.26893133257342544,0.2689061984316616,0.7611286842972257,3.237524540142292,0.31989800303521704,0.0015329863018383296,0.04954310769699839,0.5659446922221313
1750925371.071191,-1.3051817963512686,-1.1528015443526431,-2.234310568244645,1.5430475140321418,-2.9719742877738513,-4.5416610810709575,-0.0001634976670687579,-0.09102060622696906,0.08347076943248341,0.0019281769426782135,0.2706867519253179,0.27066152353049094,0.7604244952735185,3.2380967258652764,0.31992568519127645,0.0015361789321704574,0.049450727788122886,0.565130769369038
1750925371.0800457,-1.3051822595089035,-1.1529841294508758,-2.2341429916500237,1.543051391359261,-2.9714311616027147,-4.541118005449162,-0.000300127312689228,-0.09156415312087865,0.0841059868691556,0.0019491743887914874,0.27243886622436714,0.2724135456204389,0.7597179496703464,3.2386731406728506,0.31995353474915605,0.0015393849049890065,0.04935762338031763,0.564310295386639
1750925371.080417,-1.3051829987359866,-1.1531677996049297,-2.233974143648525,1.5430553108267624,-2.9708845345294863,-4.54057142910763,-0.00043957015719604516,-0.09210565971998518,0.08474217726876254,0.0019703174330944705,0.27418764972396303,0.27416223897742215,0.7590091037613492,3.239253788666116,0.31998155083604707,0.001542604022400185,0.049263793682174956,0.5634832604949072
1750925371.0807145,-1.3051829987359866,-1.1531677996049297,-2.233974143648525,1.5430553108267624,-2.9708845345294863,-4.54057142910763,-0.00043957015719604516,-0.09210565971998518,0.08474217726876254,0.0019703174330944705,0.27418764972396303,0.27416223897742215,0.7590091037613492,3.239253788666116,0.31998155083604707,0.001542604022400185,0.049263793682174956,0.5634832604949072
1750925371.0813465,-1.3051853280134749,-1.1535383786743134,-2.2336326256068,1.5430632773515633,-2.9697808044778014,-4.539467801049738,-0.0007269683406974967,-0.09318249614673858,0.08601749985858079,0.002013042887012997,0.2776751212020797,0.2776495364602506,0.7575847381012764,3.2404278008102567,0.3200380790208069,0.0015490808931777945,0.04907395534681387,0.5618094696631698
1750925371.0838497,-1.3051869294623817,-1.1537252793166939,-2.233459951629004,1.5430673249963758,-2.969223715028859,-4.538910762854444,-0.0008749600439130573,-0.09371779803532358,0.0866566434196109,0.002034626562198334,0.27941375755290726,0.27938808900395934,0.7568693328858713,3.2410211733334475,0.3200665892975202,0.001552338243360818,0.04897794521869022,0.5609626949823537
1750925371.0853062,-1.3051888297776024,-1.1539132484690056,-2.2332859983693183,1.543071415956565,-2.968663151736958,-4.538350250981652,-0.0010258376737605985,-0.09425100375068798,0.08729678268409562,0.0020563583665805423,0.2811489598502528,0.2811232096517509,0.7561518564383849,3.2416187958030105,0.32009526245749237,0.0015556079319365356,0.04888120682116115,0.5601093219143831
1750925371.0872848,-1.3051910347490923,-1.1541022819249367,-2.2331107638307293,1.5430755505290035,-2.9680991214960777,-4.537786272321003,-0.001179619326088715,-0.09478209932717457,0.08793792325490878,0.0020782389129136007,0.2828807022169673,0.2828548725495397,0.755432367003503,3.2422206724796077,0.3201240975521543,0.001558889754962856,0.048783739455974716,0.5592493415250384
1750925371.0893855,-1.3051935502029632,-1.154292375450245,-2.2329342460050476,1.5430797290117813,-2.967531631251977,-4.5372188338138715,-0.0013363230616075471,-0.09531107080038735,0.088580070700919,0.00210026880583516,0.2846089587518489,0.2845830518192744,0.7547109232327114,3.2428268076751783,0.3201530936172739,0.0015621835060756625,0.048685542445550956,0.5583827450601111
1750925371.0912282,-1.3051963820014114,-1.1544835247827612,-2.2327564428729847,1.5430839517041892,-2.9669606880022403,-4.536647942453412,-0.0014959669055148778,-0.09583790420713355,0.08922323055644957,0.002122448641830794,0.28633370353034,0.2863077215596624,0.7539875841693875,3.2434372057195686,0.3201822496728423,0.0015654889780722975,0.04858661513195663,0.5575095239552614
1750925371.093161,-1.3051995360426503,-1.154675725632388,-2.232577352404215,1.543088218906703,-2.966386298796324,-4.536073605284601,-0.0016585688471422375,-0.0963625855852639,0.08986740832080642,0.0021447790091052433,0.2880549106052599,0.28802885584690907,0.753262409249227,3.244051870979709,0.32021156472584494,0.0015688059602474483,0.048486956877887635,0.5566296698399142
1750925371.0952065,-1.3052030182608352,-1.1548689736811086,-2.232396972557453,1.5430925309209667,-2.9658084707356007,-4.535495829404289,-0.0018241468395915306,-0.09688510097352174,0.09051260945763719,0.002167260487695158,0.2897725540075504,0.2897464287354205,0.7525354583056832,3.244670807857912,0.32024103776505225,0.0015721342452031976,0.04838656706704966,0.5557431745254896
1750925371.0982847,-1.3052030182608352,-1.1548689736811086,-2.232396972557453,1.5430925309209667,-2.9658084707356007,-4.535495829404289,-0.0018241468395915306,-0.09688510097352174,0.09051260945763719,0.002167260487695158,0.2897725540075504,0.2897464287354205,0.7525354583056832,3.244670807857912,0.32024103776505225,0.0015721342452031976,0.04838656706704966,0.5557431745254896
1750925371.0994976,-1.305206834625988,-1.1550632645829824,-2.232215301280518,1.543096888049776,-2.965227210973402,-4.534914621961236,-0.001992718799373351,-0.09740543641139554,0.09115883939434222,0.002189893649235937,0.29148660774706164,0.2914604142586357,0.7518067915598142,3.245294020788376,0.320270667762637,0.0015754736191631099,0.04828544510528124,0.5548500300451152
1750925371.1013432,-1.3052109911439311,-1.155258593964147,-2.2320323365104144,1.5431012905970614,-2.964642526715061,-4.534329990156156,-0.002164302606042337,-0.0979235779390233,0.09180610352165249,0.0022126790570609956,0.2931970458133051,0.29317078642973543,0.7510764696216375,3.2459215142289444,0.32030045367873,0.0015788238712310559,0.048183590419638773,0.5539502286160767
1750925371.1032414,-1.3052154938562062,-1.1554549574228252,-2.231848076173401,1.5431057388678717,-2.9640544252179506,-4.533741941241756,-0.0023389161018056784,-0.09843951159700615,0.09245440719292107,0.0022356172660116086,0.29490384217627874,0.2948775192425021,0.7503445535090395,3.2465532926806295,0.32033039445359757,0.0015821847853513596,0.04808100246042036,0.5530437626831449
1750925371.1052485,-1.3052203488400016,-1.1556523505293166,-2.2316625181850682,1.5431102331683573,-2.9634629137915236,-4.533150482522774,-0.002516577091184065,-0.09895322342626844,0.09310375572362488,0.00225870882254913,0.2966069707872254,0.29658058667206544,0.7496111046148347,3.2471893606711397,0.320360489013404,0.0015855561487260925,0.047977680699285326,0.552130624887028
1750925371.1071947,-1.3052255622080775,-1.1558507688260047,-2.231475660450415,1.5431147738057525,-2.9628679997973473,-4.532555621356017,-0.002697303340625059,-0.09946469946792148,0.09375415439072003,0.0022819542645030663,0.2983064055795408,0.29827996267579343,0.7488761847258768,3.247829722757998,0.3203907362659686,0.001588937741635584,0.047873624633474894,0.5512108081060052
1750925371.109232,-1.30523114010869,-1.1560502078273576,-2.231287500863923,1.5431193610883587,-2.96226969064914,-4.531957365150394,-0.0028811125781248092,-0.09997392576310367,0.09440560843213786,0.0023053541212152075,0.30000212046955416,0.2999756211940831,0.7481398560265919,3.2484743835346968,0.3204211351050835,0.001592329348548592,0.047768833782222964,0.5502843054252772
1750925371.111215,-1.3052370887255096,-1.1562506630199207,-2.2310980373096374,1.5431239953255278,-2.9616679938128034,-4.531355721366948,-0.0030680224928483625,-0.10048088835281703,0.09505812304612615,0.0023289089133773115,0.3016940893574111,0.3016675361512484,0.7474021810931062,3.2491233476281582,0.32045168440591093,0.00159573074951064,0.04766330768963031,0.5493511101662552
1750925371.1132586,-1.3052434142775473,-1.1564521298623252,-2.23090726766125,1.5431286768276442,-2.961062916806455,-4.53075069751889,-0.0032580507347701785,-0.10098557327781672,0.09571170339070662,0.0023526191530437437,0.3033822861279567,0.3033556814563673,0.7466632228748631,3.2497766196843703,0.3204823830279861,0.0015991417250472556,0.047557045924676244,0.5484112158759287
1750925371.115251,-1.305250123019075,-1.1566546037852818,-2.2307151897821758,1.5431334059061075,-2.960454467200456,-4.530142301171627,-0.0034512149142666196,-0.10148796657840602,0.09636635458305869,0.002376485343460411,0.3050666846515877,0.30504003100421556,0.7459230447316645,3.2504342043952996,0.3205132298138862,0.001602562051029832,0.04745004808034571,0.547464616349011
1750925371.1171792,-1.3052572212395432,-1.156858080191582,-2.2305218015256347,1.5431381828733153,-2.9598426526174415,-4.52953053994279,-0.003647532601770498,-0.10198805429428029,0.09702208169885966,0.0024005079792151925,0.3067472587851896,0.30672055867611675,0.7451817103917991,3.2510961064775232,0.3205442235872745,0.0016059915076948,0.047342313776022944,0.5465113056065463
1750925371.1191888,-1.3052647152635082,-1.157062554456095,-2.2303271007347405,1.5431430080426454,-2.9592274807323453,-4.52891542150226,-0.003847021327344117,-0.10248582246441514,0.09767888977181179,0.002424687545987944,0.30842398237311186,0.30839723834091476,0.7444392839888058,3.251762330675275,0.3205753631585245,0.0016094298683856558,0.04723384265856449,0.5455512779289717
1750925371.1213133,-1.3052726114505386,-1.157268021925768,-2.230131085242581,1.543147881728438,-2.958608959272424,-4.528296953572193,-0.004049698580306149,-0.10298125712685954,0.09833678379289286,0.0024490245206617834,0.3100968292479832,0.3100700438558692,0.7436958300441625,3.252432881770884,0.32060664731683963,0.0016128769097123517,0.04712463439779258,0.5445845278341862
1750925371.1233685,-1.305280916195147,-1.1574744779196227,-2.229933752872304,1.5431528042459788,-2.9579870960172805,-4.527675143927039,-0.004255581808902986,-0.10347434431853722,0.09899576870976107,0.0024735193711786603,0.31176577323179216,0.3117389490676354,0.7429514134327856,3.253107764574459,0.32063807483477597,0.0016163324043659791,0.04701468869396979,0.5436110501060413
1750925371.127073,-1.3052896359266963,-1.1576819177287518,-2.2297351014372087,1.5431577759114796,-2.9573618987988826,-4.527050000393566,-0.004464688419804546,-0.10396507007518847,0.0996558494262253,0.0024981725565181986,0.3134307881367552,0.31340392781322574,0.7422060994726246,3.2537869839228537,0.3206696444696161,0.0016197961245807719,0.04690400527181295,0.5426308397801661
1750925371.1307247,-1.3052896359266963,-1.1576819177287518,-2.2297351014372087,1.5431577759114796,-2.9573618987988826,-4.527050000393566,-0.004464688419804546,-0.10396507007518847,0.0996558494262253,0.0024981725565181986,0.3134307881367552,0.31340392781322574,0.7422060994726246,3.2537869839228537,0.3206696444696161,0.0016197961245807719,0.04690400527181295,0.5426308397801661
1750925371.1326618,-1.305298777109325,-1.1578903366163225,-2.2295351287408263,1.5431627970420616,-2.9567333755015834,-4.526421530850877,-0.004677035777826351,-0.10445342043110943,0.10031703080153438,0.002522984526677144,0.3150918477663956,0.31506495392098516,0.7414599538101383,3.2544705446837865,0.32070135495877744,0.0016232678421476167,0.04679258388643537,0.5416438921584585
1750925371.134836,-1.3053083462418549,-1.1580997298175646,-2.2293338325770193,1.543167867955737,-2.9561015340621366,-4.525789743230426,-0.004892641205462589,-0.10493938141897964,0.10097931764971654,0.002547955722559757,0.3167489259164394,0.3167220012116102,0.7407130425219373,3.2551584517676884,0.32073320502120445,0.0016267473259146653,0.04668042431818139,0.5406502028124274
1750925371.1353345,-1.305318349857714,-1.1583100925397734,-2.229131210730065,1.5431729889713905,-2.955466382469711,-4.525154645516032,-0.005111521982525617,-0.1054229390697619,0.10164271473907266,0.0025730865760143664,0.31840199637597233,0.3183750434991434,0.7399654320389795,3.255850710094063,0.32076519336113724,0.0016302343459000618,0.04656752637999616,0.5396497675829176
1750925371.1372185,-1.3053287945248435,-1.1585214199623053,-2.2289272609747535,1.5431781604087615,-2.9548279287659036,-4.524516245743892,-0.005333695345729112,-0.10590407941247011,0.10230722679142171,0.002598377509751402,0.32005103292831366,0.3200240545920137,0.7392171891959919,3.256547324627524,0.3207973186617823,0.001633728669950362,0.04645388990943272,0.5386425825886115
1750925371.1394851,-1.3053396868456177,-1.1587337072365695,-2.2287219810764736,1.5431833825884256,-2.95418618104475,-4.523874552002591,-0.0055591784883247805,-0.10638278847397842,0.10297285848145761,0.002623828937225661,0.3216960093522016,0.3216690082941014,0.7384683811899475,3.257248300359073,0.3208295795882175,0.0016372300627382043,0.04633951477744337,0.5376286442372722
1750925371.1414592,-1.305351033456751,-1.1589469494860296,-2.2285153687913173,1.543188655831776,-2.9535411474527304,-4.5232295724331095,-0.005787988559655762,-0.10685905227891093,0.1036396144361563,0.0026494412627678277,0.3233368994227799,0.32330987840575875,0.7377190756221818,3.2579536423029167,0.32086197478848133,0.0016407382927783728,0.04622440088276951,0.536607949208289
1750925371.1432273,-1.305362841029213,-1.1591611418061953,-2.228307421866166,1.5431939804610055,-2.952892836188779,-4.5225813152288294,-0.006020142664779263,-0.10733285684940799,0.10430749923415022,0.0026752148813426065,0.3249736769127349,0.3249466387249337,0.7369693404654758,3.2586633555096385,0.3208945028933871,0.0016442531219091321,0.04610854815618814,0.5355804944862518
1750925371.1452417,-1.3053751162681406,-1.1593762792646176,-2.2280981380387974,1.5431993567990874,-2.9522412555042856,-4.52192978863554,-0.006255657864084781,-0.10780418820492782,0.10497651740489759,0.0027011501786095965,0.32660631559328834,0.32657926304823914,0.736219244063382,3.259377445057576,0.32092716250998643,0.0016477743138236264,0.04599195655643817,0.5345462773445196
1750925371.14723,-1.3053878659127438,-1.159592356900883,-2.2278875150379776,1.5432047851697568,-2.9515864137030983,-4.521275000951436,-0.006494551172830499,-0.10827303236213501,0.10564667342826295,0.002727247530909474,0.32823478923543503,0.32820772517206626,0.7354688551661382,3.2600959160494254,0.32095995223360946,0.0016513016319804688,0.04587462607712631,0.5335052953549908
1750925371.151298,-1.3054010967362188,-1.1598093697266094,-2.2276755505835624,1.5432102658974924,-2.950928319141522,-4.5206169605271205,-0.006736839560813107,-0.10873937533462011,0.106317971733619,0.0027535073051605853,0.3298590716109976,0.3298319988937034,0.7347182428688732,3.260818773622531,0.3209928706342598,0.0016548348370313088,0.04575655674157439,0.5324575463949467
1750925371.1516633,-1.3054010967362188,-1.1598093697266094,-2.2276755505835624,1.5432102658974924,-2.950928319141522,-4.5206169605271205,-0.006736839560813107,-0.10873937533462011,0.106317971733619,0.0027535073051605853,0.3298590716109976,0.3298319988937034,0.7347182428688732,3.260818773622531,0.3209928706342598,0.0016548348370313088,0.04575655674157439,0.5324575463949467
1750925371.1537027,-1.3054290291819477,-1.1602461808530293,-2.2272475881494387,1.5432213857256794,-2.9496024054246908,-4.5192911551222705,-0.007231669223587465,-0.10966450176371072,0.10766401265209141,0.0028065155398171115,0.33309495766076436,0.33306787633098445,0.7332166264560331,3.2622776691785784,0.32105908766814373,0.0016619179457317737,0.045518201758440936,0.530341740626985
1750925371.1553578,-1.3054437447479508,-1.1604659714799475,-2.2270315833699517,1.5432270252507998,-2.948934595414391,-4.518623399278939,-0.007485828586949356,-0.11014018587843909,0.10835398287758928,0.0028316849390190345,0.3347607713590248,0.33473366300593327,0.7258671235329784,3.258107821999323,0.32145669353084255,0.0017130089100494427,0.04692650702508127,0.5465113852264143
1750925371.157451,-1.3054589831306629,-1.1606868255895462,-2.2268140941363024,1.5432327044690262,-2.94826309014268,-4.51795194840998,-0.007753250607210156,-0.11071340896643161,0.10913547545456569,0.0028475241334051126,0.3367436543379807,0.33671636015381207,0.685810971040081,3.2297652686686016,0.32365434577586716,0.0019944761971098486,0.055858448206190035,0.6475554653449749
1750925371.1594758,-1.3054589831306629,-1.1606868255895462,-2.2268140941363024,1.5432327044690262,-2.94826309014268,-4.51795194840998,-0.007753250607210156,-0.11071340896643161,0.10913547545456569,0.0028475241334051126,0.3367436543379807,0.33671636015381207,0.685810971040081,3.2297652686686016,0.32365434577586716,0.0019944761971098486,0.055858448206190035,0.6475554653449749
1750925371.1613617,-1.3054747605446302,-1.1609088230501046,-2.226595040567407,1.5432384153110543,-2.947587624193975,-4.517276537234398,-0.008024864019019622,-0.11128353342915177,0.10991831906809285,0.0028633089057950355,0.33872144203517296,0.3386939633132226,0.6847838045582042,3.2305437863223503,0.32369359491535105,0.0019915977785209954,0.05571491248472643,0.6462853765552378
1750925371.1633463,-1.305491085397744,-1.1611319576437236,-2.226374419955709,1.543244157669051,-2.9469082077963744,-4.516597175977697,-0.00830069393249381,-0.11185053858012368,0.11070251915619711,0.0028790402642778746,0.34069409698954645,0.3406664350279024,0.6837543665796759,3.231327822540425,0.3237330029265232,0.0019887378063047755,0.055570321473227303,0.6450056537587426
1750925371.1654217,-1.3055079661480598,-1.1613562231110883,-2.226152229582892,1.5432499314371884,-2.9462248512528326,-4.515913874940233,-0.008580765392731718,-0.11241440372501749,0.11148808107316276,0.0028947192047581406,0.3426615817354608,0.34263373783693396,0.6827227481148059,3.2321173849129936,0.32377256742534843,0.001985895927901769,0.05542467504252563,0.6437162922027657
1750925371.1673503,-1.3055254113036678,-1.1615816131514851,-2.2259284667200134,1.5432557365116182,-2.945537564941233,-4.515226644497279,-0.008865103379105831,-0.11297510816139579,0.11227501008853591,0.0029103467109090142,0.3446238588044281,0.3445958342764803,0.6816890407837072,3.232912481076862,0.32381228599945516,0.0019830717897131767,0.05527797311240493,0.6424172876004648
1750925371.1694155,-1.305543429422542,-1.161808121422787,-2.2257031286276785,1.5432615727904477,-2.9448463593144005,-4.514535495099038,-0.009153732804550662,-0.11353263117846314,0.11306331138612767,0.002925923754121974,0.34658089072689846,0.3465526868815731,0.6806533368119857,3.233713118713104,0.32385215620809593,0.001980265037039783,0.05513021565295048,0.6411086361468649
1750925371.1713412,-1.3055620291124157,-1.1620357415414375,-2.2254762125562104,1.543267440173714,-2.944151244900098,-4.513840437270645,-0.009446678514854924,-0.11408695205680307,0.11385299006301088,0.0029414512934644046,0.3485326400340415,0.3485042581878933,0.6796157290289858,3.2345193055482593,0.32389217558199346,0.001977475314248226,0.0549814026844288,0.6397903345160026
1750925371.1735854,-1.3055812190306515,-1.1622644670824336,-2.2252477157458275,1.5432733385633604,-2.9434522323010217,-4.513141481612163,-0.009743965287954515,-0.1146380500681103,0.11464405112851073,0.0029569302756384383,0.3504790692595682,0.3504505107335929,0.6785763108636971,3.2353310493534413,0.32393234162317897,0.0019747022648289175,0.0548315342784324,0.638462379873439
1750925371.1754546,-1.3056010078840945,-1.1624942915793026,-2.225017635426817,1.543279267863211,-2.9427493321948006,-4.512438638798569,-0.010045617833212627,-0.11518590447493038,0.11543649950318828,0.002972361634931055,0.35242014094158725,0.3523914070611523,0.6775351763476335,3.2361483579431036,0.32397265180474527,0.001971945531159271,0.054680610558847716,0.6371247698862751
1750925371.17746,-1.3056214044289405,-1.1627252085240913,-2.224785968819715,1.543285227978946,-2.9420425553339786,-4.511731919579754,-0.010351660790706136,-0.11573049453038375,0.11623034001781554,0.0029877462931765836,0.3543558176244751,0.3543269097192509,0.6764924201105604,3.236971239176111,0.32401310357066243,0.0019692047548318186,0.05452863170223665,0.6357775027269392
1750925371.1797256,-1.3056424174705974,-1.1629572113673419,-2.224552713135485,1.543291218818077,-2.941331912546003,-4.5110213347805015,-0.010662118730502507,-0.11627179947789436,0.11702557741234332,0.003003085159713229,0.35628606186078743,0.3562569812646775,0.6754481373814905,3.2377997009545134,0.32405369433554254,0.0019664795765043297,0.054375597939012636,0.6344205770847487
1750925371.182264,-1.305664055863538,-1.163190293518074,-2.2243178655757045,1.5432972402899214,-2.9406174147332074,-4.510306895300474,-0.01097701615193489,-0.11680979855091499,0.11782221633486563,0.0030183791313406405,0.35821083621319416,0.3581815842642659,0.6744024239868064,3.2386337512230168,0.32409442148454487,0.0019637696359252076,0.05422150955409724,0.6330539921732756
1750925371.1837864,-1.3056863285111682,-1.163424448343764,-2.2240814233327475,1.5433032923055778,-2.9398990728727874,-4.509588612114186,-0.011296377482878851,-0.11734447097264399,0.11862026134057237,0.0030336290922836464,0.3601301032564323,0.3601006812968494,0.6733553763475534,3.239473397969186,0.3241352823730578,0.001961074572093961,0.05406636688742383,0.6316777477356998
1750925371.1896152,-1.3057092443656746,-1.1636596691703218,-2.223843383589969,1.5433093747779008,-2.9391768980167754,-4.508866496270979,-0.0116202270790208,-0.11787579595574595,0.11941971689070077,0.0030488359141472164,0.36204382557930326,0.36201423495525753,0.6723070914795153,3.2403186492221123,0.32417627432664936,0.001958394023035934,0.05391017033519166,0.6302918440572344
1750925371.189995,-1.3057092443656746,-1.1636596691703218,-2.223843383589969,1.5433093747779008,-2.9391768980167754,-4.508866496270979,-0.0116202270790208,-0.11787579595574595,0.11941971689070077,0.0030488359141472164,0.36204382557930326,0.36201423495525753,0.6723070914795153,3.2403186492221123,0.32417627432664936,0.001958394023035934,0.05391017033519166,0.6302918440572344
1750925371.1902146,-1.305732812427884,-1.1638959492820735,-2.2236037435219007,1.543315487621475,-2.9384509012920095,-4.508140558895002,-0.011948589223121702,-0.11840375270206396,0.12022058735147272,0.003064000455882972,0.3639519657866909,0.3639222078483302,0.6712576669943917,3.2411695130536353,0.3242173946406905,0.001955727626114724,0.05375292035044925,0.6288962819698067
1750925371.1913192,-1.3057570417471105,-1.1641332819217407,-2.2233625002944324,1.543321630752591,-2.9377210939001017,-4.5074108111851565,-0.012281488124287476,-0.11892832040233382,0.12102287699303566,0.0030791235637470165,0.36585448650160085,0.3658245626029628,0.6702072010915655,3.242025997575164,0.3242586405804184,0.0019530750177907626,0.053594617443690006,0.6274910628616995
1750925371.1934736,-1.3057819414210172,-1.1643716602904108,-2.223119651065014,1.5433278040892184,-2.9369874871174027,-4.506677264415082,-0.012618947917225218,-0.11944947823588963,0.12182658998838615,0.0030942060712664194,0.36775135036723183,0.3677212618661756,0.669155792564784,3.242888110940404,0.3243000093804953,0.0019504358338622851,0.05343526218376401,0.6260761886837674
1750925371.1951394,-1.3058075205954616,-1.1646110775475185,-2.2228751929828485,1.5433340075509816,-2.9362500922949426,-4.505939929933092,-0.012960992661506864,-0.11996720537037116,0.1226317304122968,0.0031092487992019613,0.3696425200490777,0.3696122683072133,0.6681035407934627,3.2437558613420854,0.324341498245063,0.0019478097093653041,0.053274855198730334,0.6246516619590816
1750925371.197333,-1.3058337884643407,-1.1648515268108248,-2.2226291231890833,1.5433402410591335,-2.9355089208584104,-4.505198819162143,-0.013307646340821603,-0.12048148096142566,0.12343830224022898,0.0031242525555107655,0.3715279582370495,0.3714975446196704,0.6670505457469499,3.2446292570135262,0.3243831043473707,0.0019451962785670815,0.053113397176427615,0.6232174857897484
1750925371.1991115,-1.305860754269446,-1.1650930011563894,-2.2223814388170204,1.54334650453653,-2.934763984308077,-4.5044539435997795,-0.013658932862228296,-0.12099228415241034,0.12424630934724415,0.003139218135316373,0.37340762764763336,0.37337705352364625,0.6659969079807091,3.2455083062268546,0.3244248248297129,0.001942595175184027,0.05295088886548921,0.6217736638658654
1750925371.2030568,-1.305888427300303,-1.1653354936185432,-2.222132136992311,1.5433527979076047,-2.934015294218762,-4.503705314818074,-0.014014876055409702,-0.12149959407408724,0.12505575550690864,0.0031541463208700233,0.37528149102606584,0.3752507577679214,0.6649427286329326,3.246393017292884,0.324466656803264,0.0019400060321214671,0.052787331075819864,0.6203202004718291
1750925371.2035449,-1.3059168168940225,-1.1655789971898667,-2.2218812148331626,1.5433591210983424,-2.933262862239758,-4.502952944463569,-0.014375499671920698,-0.12200338984431698,0.12586664439019182,0.0031690378815223026,0.37714951114853523,0.37711862013215847,0.6638881094250154,3.2472833985608696,0.32450859734788823,0.0019374284817665378,0.05262272467934184,0.61885710049333
1750925371.2058218,-1.3059168168940225,-1.1655789971898667,-2.2218812148331626,1.5433591210983424,-2.933262862239758,-4.502952944463569,-0.014375499671920698,-0.12200338984431698,0.12586664439019182,0.0031690378815223026,0.37714951114853523,0.37711862013215847,0.6638881094250154,3.2472833985608696,0.32450859734788823,0.0019374284817665378,0.05262272467934184,0.61885710049333
1750925371.2073295,-1.305945932435133,-1.1658235048211658,-2.221628669450542,1.5433654740362537,-2.9325067000947715,-4.502196844257224,-0.014740827384426976,-0.12250365056775606,0.1266789795643547,0.003183893573687618,0.37901165082442567,0.3789806034291484,0.6628331526621708,3.24817945841738,0.32455064351184826,0.00193486215581506,0.05245707061119263,0.6173843694305281
1750925371.2093637,-1.3059757833554393,-1.166069009421438,-2.2213744979483874,1.5433718566503494,-2.9317468195818606,-4.501437025994328,-0.01511088278595859,-0.12300035533553735,0.1274927644918413,0.0031987141408175803,0.3808678728985605,0.38083667050704684,0.6617779612252234,3.249081205286631,0.3245927923119332,0.0019323066854653498,0.05229036986970634,0.6159020133954296
1750925371.2113311,-1.3060063791338408,-1.1663155038578532,-2.221118697423819,1.5433782688711137,-2.9309832325733503,-4.500673501544441,-0.015485689389142545,-0.12349348322496562,0.1283080025291563,0.0032135003133668652,0.3827181402534966,0.382686784251677,0.6607226385753584,3.249988647628381,0.32463504073300486,0.0019297617012722984,0.05212262351784899,0.6144100391312318
1750925371.213346,-1.306037729296186,-1.166562980955721,-2.220861264967348,1.5433847106304792,-2.930215951015768,-4.49990628285131,-0.01586527062544395,-0.1239830132991954,0.12912469692574008,0.0032282528087660494,0.3845624158118339,0.38453090758883113,0.6596672887494002,3.2509017939393146,0.3246773857279908,0.0019272268332996883,0.051953832683647276,0.6129084540117794
1750925371.215382,-1.3060698434151075,-1.1668114334984585,-2.2206021976630987,1.5433911818617998,-2.929444986929745,-4.499135381932792,-0.016249649844401335,-0.12446892460691562,0.1299428508228394,0.0032429723313946355,0.3864006625385431,0.38636900348660286,0.6586120163585671,3.251820652750907,0.3247198242177142,0.0019247017111356614,0.051783998560696556,0.6113972660507728
1750925371.2171476,-1.3061027311098492,-1.1670608542275716,-2.220341492589019,1.5433976824998252,-2.928670352409947,-4.498360810880762,-0.01663885031286233,-0.12495119618202732,0.13076246725237167,0.0032576595725511926,0.38823284344333436,0.3882010349577527,0.6575569265851037,3.2527452326292097,0.3247623530907354,0.0019221859638228309,0.051613122409325966,0.6098764839116132
1750925371.2192304,-1.3061364020461088,-1.1673112358426163,-2.2200791468171035,1.543404212480675,-2.9278920596249662,-4.497582581861018,-0.01703289521421357,-0.1254298070433207,0.13158354913578532,0.0032723152104299504,0.39005892158303573,0.3900269650620861,0.656502125183163,3.253675542174642,0.32480496920323987,0.0019196792200215174,0.051441205556859604,0.6083461169107557
1750925371.2212474,-1.306170865935865,-1.167562571001171,-2.219815157413615,1.5434107717418113,-2.927110120817238,-4.496800707113195,-0.017431807647609134,-0.12590473619414916,0.13240609928290983,0.003286939910092394,0.3918788600640108,0.39184675690887477,0.6554477184753982,3.254611590021031,0.3248476693787477,0.0019171811078981464,0.05126824939872975,0.6068061750307819
1750925371.2234042,-1.3062061325372092,-1.167814852318803,-2.219549521439313,1.5434173602220138,-2.9263245483029294,-4.496015198950657,-0.017835610627199724,-0.1263759626221026,0.1332301203908099,0.0033015343234451665,0.3936926220445897,0.3936603736592794,0.6543938133504099,3.2555533848345433,0.32489045040821385,0.0019146912552661533,0.05109425539885248,0.6052566689206281
1750925371.225951,-1.3062422116541779,-1.1680680723690422,-2.219282235949671,1.5434239778613523,-2.9255353544718385,-4.49522606976039,-0.018244327081358067,-0.12684346529867338,0.1340556150426261,0.0033160990892168946,0.39550017073752897,0.3954677785288159,0.6533405172614615,3.2565009353141265,0.32493330904968976,0.001912209289586839,0.05091922509043425,0.6036976099084961
1750925371.227277,-1.3062791131365756,-1.1683222236833428,-2.219013297995117,1.5434306246011615,-2.9247425517872827,-4.494433332002895,-0.018657979851900455,-0.1273072231789286,0.13488258570641662,0.0033306348329346404,0.39730146941249467,0.39726893478983544,0.6522879382249163,3.257454250189367,0.3249762420282956,0.0019097348379420712,0.05074316007663823,0.602129010005844
1750925371.2294362,-1.3063168468798079,-1.168577298751054,-2.218742704621252,1.543437300384013,-2.9239461527859767,-4.493636998212068,-0.01907659169331286,-0.12776721520116854,0.13571103473399024,0.0033451421669032245,0.3990964813985682,0.3990638057740282,0.6512361848158439,3.2584133382213047,0.32501924603603516,0.0019072675271154024,0.0505660620312114,0.6005508819146341
1750925371.2329473,-1.3063554228246943,-1.168833290019383,-2.218470452869097,1.5434440051536906,-2.923146170077919,-4.492837080995077,-0.01950018527196437,-0.12822342028659697,0.13654096435973972,0.003359621690183673,0.40088517008678426,0.4008523548749626,0.6501853661698861,3.259378208200259,0.32506231773175626,0.0019048069835868838,0.0503879326994008,0.5989632390374311
1750925371.2345598,-1.3063554228246943,-1.168833290019383,-2.218470452869097,1.5434440051536906,-2.923146170077919,-4.492837080995077,-0.01950018527196437,-0.12822342028659697,0.13654096435973972,0.003359621690183673,0.40088517008678426,0.4008523548749626,0.6501853661698861,3.259378208200259,0.32506231773175626,0.0019048069835868838,0.0503879326994008,0.5989632390374311
1750925371.237584,-1.3063948509573038,-1.169090189893363,-2.2181965397753194,1.5434507388551624,-2.9223426163462634,-4.492033593032247,-0.0199287831653285,-0.128675817338978,0.13737237669946473,0.003374073988575725,0.40266749893267767,0.40263454555063105,0.6491355919777292,3.260348868946227,0.32510545374088373,0.0019023528336210103,0.050208773898192866,0.5973660954796799
1750925371.2380157,-1.3064351413087643,-1.169347990735817,-2.2179209623724745,1.543457501434555,-2.9215355043471813,-4.491226547076909,-0.02036240786120131,-0.12912438524429484,0.13820527374919564,0.003388499634595889,0.4044434314588666,0.4044103413260327,0.6480869724823444,3.2613253293073075,0.32514865065544624,0.0018999047031629098,0.05002858751734863,0.5957594660607655
1750925371.2406094,-1.3064763039550975,-1.1696066848673228,-2.2176437176892474,1.543464292839127,-2.9207248469097333,-4.490415955955287,-0.020801081756913295,-0.1295691028704061,0.139039657384012,0.0034028991874668416,0.4062129312576448,0.4061797057957614,0.647039618480829,3.2623075981601395,0.32519190503392087,0.00189746221813187,0.04984737551965398,0.5941433663150023
1750925371.2411869,-1.3065183490170256,-1.1698662645661724,-2.217364802750695,1.543471113017241,-2.9199106569357216,-4.489601832566336,-0.021244827158545237,-0.13000994906670155,0.1398755293568543,0.0034172731930946433,0.407975961993609,0.40794260262663906,0.6459936413169614,3.2632956844074372,0.32523521340103534,0.0018950250041131784,0.049665139941904635,0.5925178125059003
1750925371.2433586,-1.3065612866597878,-1.1701267220683391,-2.217084214578491,1.5434779619183396,-2.9190929473995464,-4.488784189881603,-0.021693666280137573,-0.1304469026637564,0.14071289129733702,0.003431622184054572,0.4097324874063078,0.40969899556035816,0.6449491528826946,3.264289596978216,0.3252785722478153,0.0018925926865814534,0.049481882895517824,0.5908828216283665
1750925371.2452753,-1.3066051270929613,-1.1703880495674408,-2.216801950191174,1.5434848394929161,-2.9182717313480495,-4.487963040945081,-0.022147621242901254,-0.13087994247297907,0.14155174471055262,0.00344594667958056,0.4114824713129001,0.41144884841614116,0.6439062656149344,3.265289344827599,0.3253219780313397,0.00189016489099486,0.04929760656680583,0.5892384114138215
