mathias31415/primitives_from_planned_trajectory_python/data/saved_trajectories/trajectory_20250617_153137_executed.csv
timestamp,shoulder_lift_joint_pos,elbow_joint_pos,wrist_1_joint_pos,wrist_2_joint_pos,wrist_3_joint_pos,shoulder_pan_joint_pos,shoulder_lift_joint_vel,elbow_joint_vel,wrist_1_joint_vel,wrist_2_joint_vel,wrist_3_joint_vel,shoulder_pan_joint_vel,shoulder_lift_joint_eff,elbow_joint_eff,wrist_1_joint_eff,wrist_2_joint_eff,wrist_3_joint_eff,shoulder_pan_joint_eff
1750167103.9094355,-1.2797476173046318,1.819857937082797,-2.7987772746652007,-1.7669656956749051,-3.2538149602701885,1.2873684797655356,0.0,0.0,0.0,0.0,0.0,0.0,-4.9959829756996035,-3.709640004041104,-0.2853324982942956,-0.012432004212063408,0.0,-3.7946064990229454e-16
1750167103.9098408,-1.2797476173046318,1.819857937082797,-2.7987772746652007,-1.7669656956749051,-3.2538149602701885,1.2873684797655356,0.0,0.0,0.0,0.0,0.0,0.0,-4.9959829756996035,-3.709640004041104,-0.2853324982942956,-0.012432004212063408,0.0,-3.7946064990229454e-16
1750167103.9108117,-1.2797476173046318,1.819857937082797,-2.7987772746652007,-1.7669656956749051,-3.2538149602701885,1.2873684797655356,0.0,0.0,0.0,0.0,0.0,0.0,-4.9959829756996035,-3.709640004041104,-0.2853324982942956,-0.012432004212063408,0.0,-3.7946064990229454e-16
1750167103.913276,-1.2797476173046318,1.819857937082797,-2.7987772746652007,-1.7669656956749051,-3.2538149602701885,1.2873684797655356,0.0,0.0,0.0,0.0,0.0,0.0,-4.9959829756996035,-3.709640004041104,-0.2853324982942956,-0.012432004212063408,0.0,-3.7946064990229454e-16
1750167103.9173346,-1.2797476173046318,1.819857937082797,-2.7987772746652007,-1.7669656956749051,-3.2538149602701885,1.2873684797655356,0.0,0.0,0.0,0.0,0.0,0.0,-4.9959829756996035,-3.709640004041104,-0.2853324982942956,-0.012432004212063408,0.0,-3.7946064990229454e-16
1750167103.9177735,-1.2797476173046318,1.819857937082797,-2.7987772746652007,-1.7669656956749051,-3.2538149602701885,1.2873684797655356,0.0,0.0,0.0,0.0,0.0,0.0,-4.9959829756996035,-3.709640004041104,-0.2853324982942956,-0.012432004212063408,0.0,-3.7946064990229454e-16
1750167103.918653,-1.2797476173046318,1.819857937082797,-2.7987772746652007,-1.7669656956749051,-3.2538149602701885,1.2873684797655356,0.0,0.0,0.0,0.0,0.0,0.0,-4.9959829756996035,-3.709640004041104,-0.2853324982942956,-0.012432004212063408,0.0,-3.7946064990229454e-16
1750167103.9207733,-1.2797476173046318,1.819857937082797,-2.7987772746652007,-1.7669656956749051,-3.2538149602701885,1.2873684797655356,0.0,0.0,0.0,0.0,0.0,0.0,-4.9959829756996035,-3.709640004041104,-0.2853324982942956,-0.012432004212063408,0.0,-3.7946064990229454e-16
1750167103.9224145,-1.2797476173046318,1.819857937082797,-2.7987772746652007,-1.7669656956749051,-3.2538149602701885,1.2873684797655356,0.0,0.0,0.0,0.0,0.0,0.0,-4.9959829756996035,-3.709640004041104,-0.2853324982942956,-0.012432004212063408,0.0,-3.7946064990229454e-16
1750167103.9248588,-1.2797486795191126,1.8198574642327405,-2.798775802367532,-1.7669654362127973,-3.2538152814530936,1.287368071994934,-0.0010622134244985338,-0.00047285146739970395,0.0014722980555181338,0.00025946216608751274,-0.00032118294852013775,-0.0004077706775750668,-5.548386001311888,-3.921049274192778,-0.25827960695817914,-0.0070441011336709785,-0.009047826758449782,-0.14402775488059832
1750167103.9266264,-1.2797518661498781,1.8198560456656399,-2.798771385469883,-1.766964657825775,-3.253816245002329,1.2873668486822165,-0.002124414171010494,-0.0009457198660135934,0.0029446007544473895,0.0005189250308040151,-0.0006423664169979956,-0.0008155422681870629,-5.548369045623013,-3.921060440239302,-0.2582794872942178,-0.007044029681269967,-0.009047841406577115,-0.14402775074850865
1750167103.9289196,-1.279757177158893,1.8198536813307016,-2.798764023958323,-1.7669633605117427,-3.253817850919455,1.287364809824644,-0.0031865895613134277,-0.001418622127009799,0.0044169127399288875,0.0007783892927766592,-0.0009635509253909873,-0.0012233156848712092,-5.5483390800991454,-3.9210798670724674,-0.2582792237904623,-0.0070439033881280885,-0.009047870702073035,-0.14402807933302067
1750167103.9308064,-1.2797646124827669,1.8198503711432696,-2.798753717809637,-1.7669615442672066,-3.2538200992070707,1.287361955417651,-0.004248726916757298,-0.001891575181440471,0.005889238654558147,0.0010378556506337483,-0.0012847369936557617,-0.001631091840662002,-5.548296104803467,-3.9211075544918668,-0.25827881646366335,-0.007043722254080742,-0.009047914644915925,-0.14402874066587296
1750167103.9326506,-1.2797741720327505,1.8198461149848262,-2.7987404669913243,-1.7669592090872772,-3.2538229898688162,1.2873582854548464,-0.005310813557998198,-0.002364595960208613,0.007361583140113328,0.001297324802990483,-0.0016059251417427445,-0.0020388716485827264,-5.5482401197774625,-3.9211435022094667,-0.25827826533786385,-0.0070434862792435994,-0.009047973234930522,-0.14402973479043688
1750167103.9347498,-1.279785855694735,1.819840912702992,-2.798724271461602,-1.7669563549656662,-3.253826522909371,1.2873537999280131,-0.006372836804809829,-0.0028377013940024064,0.008833950837297754,0.0015567974484635635,-0.001927115889603842,-0.0024466560216549263,-5.548171125077061,-3.9211877098505816,-0.25827757044477156,-0.00704319546329592,-0.009048046472158537,-0.14403106176717212
1750167103.937027,-1.2797996633292525,1.8198347641115264,-2.798705131169408,-1.766952981894689,-3.2538306983344545,1.2873484988271078,-0.007434783975838139,-0.0033109084132501333,0.010306346385443295,0.001816274285659795,-0.002248309757182782,-0.0028544458728899233,-5.548089120746399,-3.921240176952603,-0.25827673182433547,-0.0070428498061353316,-0.009048134356369504,-0.14403272166815556
1750167103.9386992,-1.279815594771467,1.8198276689903286,-2.798683046054401,-1.7669490898652631,-3.253835516150826,1.287342382140261,-0.008496642388370206,-0.0037842339480613314,0.011778774422246173,0.002075756013175709,-0.0025695072644213793,-0.003262242115287639,-5.54799410682333,-3.9213009029632095,-0.2582757495238507,-0.007042449307590014,-0.0090482368875096,-0.1440347145795612
1750167103.940784,-1.2798336498311773,1.8198196270854374,-2.798658016046969,-1.7669446788669099,-3.253840976366285,1.2873354498537772,-0.00955839935815151,-0.004257694928177933,0.01325123958352549,0.002335243329598336,-0.0028907089312524142,-0.00367004566183752,-5.547886083364651,-3.9213698872475056,-0.25827462359800213,-0.007041993967425383,-0.009048354065324261,-0.14403704060105266
1750167103.9426906,-1.2798538282928131,1.8198106381090329,-2.7986300410682285,-1.7669397488877534,-3.2538470789896707,1.2873277019521354,-0.010620042199117607,-0.004731308282921868,0.014723746502912752,0.0025947369335025026,-0.003211915277605135,-0.004077857425512945,-5.547765050403089,-3.921447129078673,-0.2582733541097611,-0.007041483785370376,-0.009048485889714034,-0.1440396998457936
1750167103.9444911,-1.2798761299154293,1.8198007017394369,-2.798599121030031,-1.766934299914519,-3.2538538240308617,1.2873191384179883,-0.011681558223180887,-0.005205090941140013,0.016196299811589498,0.002854237523449394,-0.003533126823399041,-0.004485678319272167,-5.547631007974446,-3.9215326276428235,-0.2582719411296566,-0.0070409187611341325,-0.009048632360404237,-0.1440426924413906
1750167103.9466958,-1.279900554432702,1.8197898176211138,-2.79856525583497,-1.7669283319325366,-3.253861211500777,1.287309759232163,-0.012742934740015867,-0.005679059831158781,0.017668904138030468,0.0031137457979829642,-0.0038543440885451304,-0.004893509256056151,-5.547483956117742,-3.9216263820408743,-0.2582703847356594,-0.007040298894458368,-0.009048793477155401,-0.14404601852873525
1750167103.9486432,-1.2799271015529232,1.8197779853646725,-2.7985284453763835,-1.7669218449257382,-3.2538692414113752,1.2872995643736602,-0.013804159056843261,-0.006153231880709423,0.019141564107723368,0.003373262455635967,-0.004175567592947324,-0.0053013511487899605,-5.547323894872217,-3.9217283912820213,-0.2582686850136547,-0.007039624184848029,-0.009048969239768126,-0.144049678263183
1750167103.9505613,-1.279955770958999,1.8197652045468666,-2.7984886895383623,-1.7669148388766596,-3.253877913775655,1.2872885538196552,-0.014865218478183633,-0.006627624016914247,0.02061428434290307,0.00363278819491708,-0.004496797856495806,-0.00570920491037204,-5.547150824267261,-3.921838654293924,-0.2582668420570451,-0.007038894632065316,-0.009049159647855456,-0.14405367181115586
1750167103.9525876,-1.2799865623084399,1.8197514747105963,-2.798445988195756,-1.7669073137664384,-3.253887228607654,1.2872767275454975,-0.015926100305649202,-0.0071022531661898165,0.022087069462265824,0.003892323714317944,-0.004818035399073377,-0.006117071453681316,-5.546964744334443,-3.9219571699083704,-0.2582648559672505,-0.0070381102356255,-0.009049364701209397,-0.14405799935546323
1750167103.955773,-1.2800194752333578,1.8197367953649095,-2.7984003412141805,-1.7668992695748171,-3.2538971859224506,1.2872640855247108,-0.016986791837720287,-0.007577136254228091,0.02355992408071962,0.004151869712309143,-0.005139280740549215,-0.006524951691572004,-5.54676565510633,-3.9220839368766827,-0.2582627268529834,-0.007037270995078552,-0.009049584399446187,-0.14406266109149937
1750167103.9566696,-1.2800545093404576,1.8197211659850037,-2.798351748450026,-1.7668907062801384,-3.2539077857361622,1.287250627728993,-0.01804728036950728,-0.008052290205930714,0.025032852809095212,0.004411426887337257,-0.0054605344007799235,-0.006932846536870259,-5.546553556605489,-3.9222189538579313,-0.25826045483089677,-0.007036376909966466,-0.009049818742211562,-0.14406765722795964
1750167103.958911,-1.2800916642110298,1.8197045860122274,-2.798300209750466,-1.7668816238593505,-3.2539190280659462,1.2872363541282166,-0.01910755319255365,-0.008527731945345944,0.02650586025388781,0.004670995937825094,-0.005781796899609306,-0.007340756902378657,-5.5463284488650775,-3.9223622194236176,-0.2582580400252249,-0.007035427979783375,-0.009050067729144958,-0.14407298798884446
1750167103.964062,-1.2800916642110298,1.8197045860122274,-2.798300209750466,-1.7668816238593505,-3.2539190280659462,1.2872363541282166,-0.01910755319255365,-0.008527731945345944,0.02650586025388781,0.004670995937825094,-0.005781796899609306,-0.007340756902378657,-5.5463284488650775,-3.9223622194236176,-0.2582580400252249,-0.007035427979783375,-0.009050067729144958,-0.14407298798884446
1750167103.9657316,-1.2801723344406506,1.8196685718842227,-2.798188293887788,-1.7668619015402536,-3.2539434403475593,1.2872053593818493,-0.021227400859334545,-0.00947954647902398,0.029452129695394205,0.005190172458738937,-0.006424350492361675,-0.008156627845065784,-5.545839205760874,-3.922673490162749,-0.2582527825983293,-0.007033365581993607,-0.009050609633787943,-0.14408465433772602
1750167103.9669075,-1.2801723344406506,1.8196685718842227,-2.798188293887788,-1.7668619015402536,-3.2539434403475593,1.2872053593818493,-0.021227400859334545,-0.00947954647902398,0.029452129695394205,0.005190172458738937,-0.006424350492361675,-0.008156627845065784,-5.545839205760874,-3.922673490162749,-0.2582527825983293,-0.007033365581993607,-0.009050609633787943,-0.14408465433772602
1750167103.9689972,-1.2802158488351463,1.8196491364424627,-2.7981279163730117,-1.7668512615888554,-3.2539566103389013,1.2871886381668758,-0.0222869502662362,-0.009955953116705649,0.030925400880969747,0.005449781325876188,-0.006745642625897162,-0.008564590247689397,-5.545575070446175,-3.9228414920398103,-0.2582499402638921,-0.00703225211314838,-0.009050902550650478,-0.1440909904406993
1750167103.9713326,-1.2802614820639935,1.8196287478347728,-2.798064592219535,-1.7668401024051708,-3.2539704229253417,1.287171101008078,-0.023346233090295744,-0.010432715228836847,0.03239876916015062,0.005709404861890135,-0.007066945677251912,-0.008972571821404454,-5.54529792598891,-3.923017735910341,-0.25824695571952117,-0.007031083796903614,-0.009051210109900065,-0.14409766219337541
1750167103.9738984,-1.280309233581299,1.819607405333285,-2.797998321228588,-1.7668284239591632,-3.2539848781292355,1.287152747866201,-0.024405236601811753,-0.010909849734473825,0.03387223911369356,0.0059690437650598465,-0.007388260166188816,-0.009380573478843591,-5.545007772409351,-3.9232022199083434,-0.25824382912751465,-0.007029860632524064,-0.009051532311038247,-0.14410466988679618
1750167103.976801,-1.2803591028157024,1.819585108176294,-2.797929103192247,-1.766816226219401,-3.253999975973978,1.287133578700165,-0.025463948066169046,-0.011387373551500256,0.03534581531638839,0.006228698733627202,-0.0077095866124524005,-0.00978859613260065,-5.544704609727572,-3.923394942074278,-0.2582405606582301,-0.007028582619411275,-0.009051869153547788,-0.14411201382496228
1750167103.9793675,-1.280465192022989,1.8195376466798119,-2.7977818251059796,-1.7667902727258964,-3.254032099684786,1.28709279212217,-0.02758044388908117,-0.01234365678516528,0.038293304737029576,0.006748059659762105,-0.008352277455838815,-0.01060470807924358,-5.544059257150623,-3.9238050926460586,-0.2582335988063012,-0.007025862043711788,-0.009052586760434982,-0.14412771172096017
1750167103.9805992,-1.2805214107257399,1.8195124806477478,-2.7977037645945386,-1.7667765169023077,-3.254049125602838,1.2870711746189254,-0.028638202751859052,-0.012822450031305645,0.03976722707236563,0.0070077670136355664,-0.008673642892349152,-0.011012799197108522,-5.543717067296314,-3.924022516696934,-0.2582299058019977,-0.00702441947966757,-0.009052967523657446,-0.144136066353803
1750167103.9828951,-1.280579744605304,1.8194863565750399,-2.797622756114701,-1.766762241645269,-3.2540667942657127,1.2870487409089508,-0.029695618575495478,-0.013301700247726481,0.04124127389110003,0.007267493225518954,-0.008995022364959592,-0.011420914961247147,-5.543361868427019,-3.924248170203191,-0.25822607167725625,-0.0070229220637144695,-0.009053362925886129,-0.14414475858363543
1750167103.985781,-1.2806401929628413,1.819459273530836,-2.797538799412958,-1.7667474469163675,-3.2540851057020017,1.2870254909420413,-0.03075267859750504,-0.013781424345723102,0.04271544973422058,0.007527238993464016,-0.009316416393308461,-0.011829056284033138,-5.542993660562111,-3.924482050767207,-0.2582220966401561,-0.0070213697950458715,-0.009053772966494374,-0.14415378878170648
1750167103.9884863,-1.28070275507398,1.8194312305504627,-2.7974518942267257,-1.7667321326757932,-3.2541040599413362,1.2870014246661674,-0.03180937004917009,-0.014261639235113005,0.04418975913514857,0.007787005015483496,-0.009637825497010729,-0.01223722407779037,-5.542612443724213,-3.9247241559005515,-0.2582179809065835,-0.007019762672667196,-0.009054197644824217,-0.14416315733290885
1750167103.9895906,-1.28070275507398,1.8194312305504627,-2.7974518942267257,-1.7667321326757932,-3.2541040599413362,1.2870014246661674,-0.03180937004917009,-0.014261639235113005,0.04418975913514857,0.007787005015483496,-0.009637825497010729,-0.01223722407779037,-5.542612443724213,-3.9247241559005515,-0.2582179809065835,-0.007019762672667196,-0.009054197644824217,-0.14416315733290885
1750167103.990695,-1.2807674301888072,1.819402226635429,-2.7973620402843618,-1.7667162988823382,-3.2541236570143863,1.2869765420274748,-0.03286568015533137,-0.014742361824175966,0.045664206619485996,0.008046791989541247,-0.009959250195657023,-0.012645419254792038,-5.542218217940769,-3.9249744830251716,-0.25821372469965526,-0.007018100695797212,-0.009054636960190005,-0.1441728646356153
1750167103.9928877,-1.2808342175318508,1.8193722607534284,-2.7972692373051804,-1.7666999454934018,-3.2541438969528618,1.2869508429702847,-0.03392159613413847,-0.015223609019606784,0.047138796704713354,0.008306600613557103,-0.010280691008810808,-0.013053642727261222,-5.541810983225125,-3.925233029472299,-0.2582093282507518,-0.007016383863432435,-0.009055090911826392,-0.14418291110368092
1750167103.995363,-1.280903116302067,1.819341331838343,-2.7971734849994694,-1.7666830724649856,-3.254164779789511,1.286924327437094,-0.03497710519686472,-0.01570539772646502,0.04861353389996268,0.008566431585402615,-0.010602148456009583,-0.013461895407360097,-5.541390739608758,-3.9254997924876327,-0.25820479179810835,-0.007014612174605782,-0.009055559499002042,-0.14419329715949628
1750167103.9968112,-1.28097412567283,1.819309438790246,-2.7970747830685068,-1.7666656797516964,-3.2541863055581217,1.2868969953685754,-0.03603219454768327,-0.016187744848124998,0.05008842270574957,0.008826285602899843,-0.010923623056763082,-0.013870178207198516,-5.540957487121266,-3.9257747692277727,-0.2582001155875,-0.007012785628340147,-0.009056042720934717,-0.14420402324350862
1750167103.9987514,-1.281047244791914,1.819276580475406,-2.7969731312045782,-1.766647767306745,-3.2542084742935202,1.2868688467035774,-0.03708685138343149,-0.016670667286200074,0.051563467613668285,0.009086163363821703,-0.011245115330555996,-0.014278492038827143,-5.540511225783182,-3.926057956753152,-0.25819529987302464,-0.0070109042235428605,-0.009056540576918959,-0.14421508980769568
1750167104.0005398,-1.2811224727814796,1.8192427557262902,-2.7968685290909954,-1.7666293350819462,-3.254231286031572,1.2868398813791242,-0.038141062893406165,-0.017154181940521093,0.053038673106165016,0.009346065565885799,-0.011566625796840615,-0.014686837814234325,-5.540051955625336,-3.9263493520427053,-0.25819034491554393,-0.007008967959230297,-0.009057053066042067,-0.1442264973168132
1750167104.0041146,-1.2811998087380587,1.8192079633415679,-2.7967609764021146,-1.7666103830277216,-3.254254740809182,1.2868100993304166,-0.039194816259151145,-0.017638305709057056,0.054514043656264805,0.009605992906756735,-0.011888154975040185,-0.015095216445349271,-5.539579676680392,-3.9266489519803986,-0.2581852509835508,-0.007006976834291058,-0.009057580187485793,-0.14423824625062545
1750167104.0059836,-1.2812792517325367,1.8191722020861139,-2.796650472803356,-1.766590911093095,-3.254278838664293,1.2867795004908311,-0.040248098654229895,-0.018123055487878546,0.055989583727295025,0.009865946084044416,-0.012209703384548961,-0.015503628844033078,-5.539094388979276,-3.9269567533629384,-0.2581800183533852,-0.007004930847561413,-0.009058121940433457,-0.14425033709971047
1750167104.0068114,-1.2813608008101385,1.8191354706910134,-2.7965370179512226,-1.7665709192256962,-3.254303579635887,1.2867480847919208,-0.0413008972440335,-0.018608448171089403,0.05746529777264129,0.010125925795300581,-0.012531271544727204,-0.015912075922084518,-5.5385960925656965,-3.927272752896134,-0.25817464730848655,-0.00700282999793643,-0.009058678323927464,-0.14426277037023716
1750167104.0089293,-1.2814444549904138,1.8190977678535651,-2.7964206114933203,-1.76655040737176,-3.254328963763985,1.2867158521634152,-0.04235319918553724,-0.0190945006507888,0.058941190235471404,0.01038593273801878,-0.012852859974904119,-0.016320558591233277,-5.538084787473291,-3.927596947196258,-0.25816913813988496,-0.007000674284206833,-0.00905924933709287,-0.14427554658064204
1750167104.0106518,-1.2815302132672146,1.8190590922372858,-2.79630125306838,-1.766529375476125,-3.254354991089646,1.2866828025332206,-0.043404991627089676,-0.019581229817008286,0.06041726554846505,0.010645967609629313,-0.013174469194374941,-0.016729077763136622,-5.53756047373993,-3.9279293327876235,-0.2581634911462814,-0.00699846370522836,-0.009059834978972866,-0.14428866626173342
1750167104.0125916,-1.2816180746086818,1.8190194424719142,-2.796178942306278,-1.766507823482237,-3.254381661654968,1.2866489358274198,-0.044456261708223054,-0.02006865255765903,0.06189352813357123,0.010906031107504146,-0.013496099722399863,-0.017137634349385936,-5.5370231514188815,-3.928269906106871,-0.2581577066335585,-0.006996198259683413,-0.00906043524858012,-0.14430212996028247
1750167104.014684,-1.2817080379572277,1.8189788171534151,-2.796053678828057,-1.7664857513321461,-3.2544089755030874,1.2866142519702726,-0.045506996559421135,-0.020556785758476692,0.06336998240173711,0.011166123928947997,-0.013817752078204546,-0.017546229261493962,-5.536472820557802,-3.9286186634977414,-0.2581517849150594,-0.006993877946386128,-0.009061050144941959,-0.14431593823221966
1750167104.0164962,-1.2818001022295142,1.8189372148439844,-2.795925462245949,-1.7664631589665074,-3.254436932678179,1.2865787508842157,-0.046557183301902706,-0.021045646302965883,0.06484663275263115,0.011426246771202492,-0.014139426780980336,-0.0179548634109012,-5.53590948120619,-3.928975601212719,-0.2581457263119454,-0.006991502763982204,-0.009061679667091696,-0.14433009165021587
1750167104.0186627,-1.2818942663164377,1.8188946340720533,-2.7957942921633987,-1.7664400463245826,-3.2544655332254555,1.286542432489863,-0.04760680904742041,-0.02153525107236376,0.06632348357441978,0.01168640033144013,-0.014461124349877912,-0.018363537708968466,-5.535333133424729,-3.9293407154181628,-0.2581395311519353,-0.0069890727112048535,-0.009062323813883704,-0.1443445907975543
1750167104.0207422,-1.2819905290831075,1.8188510733322925,-2.795660168175086,-1.7664164133442384,-3.2544947771911685,1.2865052967060064,-0.048655860898047514,-0.022025616945557824,0.06780053924346677,0.011946585306766296,-0.01478284530401293,-0.01877225306697871,-5.534743777275779,-3.929714002183261,-0.2581331997711263,-0.006986587786662199,-0.009062982584331396,-0.1443594362718739
1750167104.0226016,-1.2820888893688283,1.8188065310856174,-2.79552308986695,-1.7663922599619477,-3.2545246646226076,1.2864673434496146,-0.04970432594595614,-0.022516760799059128,0.06927780412410033,0.012206802394214336,-0.015104590162460999,-0.019181010396134224,-5.534141412823163,-3.93009545749079,-0.2581267325122326,-0.00698404798902206,-0.009063655977306545,-0.14437462868418968
1750167104.0245433,-1.282189345987078,1.8187610057591932,-2.7953830568162137,-1.7663675861127892,-3.2545551955681007,1.2864285726358338,-0.05075219127321968,-0.023008699506927,0.07075528256834072,0.01246705229074612,-0.015426359444260533,-0.019589810607553656,-5.533526040140876,-3.9304850772288598,-0.25812012972574966,-0.006981453316862075,-0.009064343991761512,-0.14439016865738943
1750167104.0265415,-1.2822918977254885,1.818714495746439,-2.795240068591408,-1.766342391730447,-3.2545863700770132,1.2863889841779887,-0.05179944395159582,-0.02350144994072906,0.07223297891564517,0.012727335693250314,-0.01574815366840393,-0.019998654612270007,-5.5328976593059735,-3.930882857196467,-0.2581133917694166,-0.006978803768732005,-0.009065046626399793,-0.14440605682772187
1750167104.028884,-1.2823965433458255,1.8186669994070335,-2.7950941247523975,-1.7663166767472145,-3.254618188199749,1.2863485779875818,-0.05284607104232706,-0.023995028969477205,0.07371089749265863,0.012987653298537764,-0.016069973353846006,-0.02040754332123064,-5.532256270405338,-3.93128879309969,-0.2581065190080911,-0.006976099343248126,-0.009065763880162817,-0.14442229384480387
1750167104.030632,-1.282503281583967,1.81861851506692,-2.794945224850408,-1.7662904410939868,-3.254650649987749,1.2863073539742937,-0.053892059595910126,-0.024489453459582432,0.07518904261293212,0.013248005803346565,-0.016391819019501954,-0.020816477645293305,-5.531601873521931,-3.9317028805526397,-0.2580995118144409,-0.006973340038789438,-0.009066495751934427,-0.1444388803711144
1750167104.0327337,-1.282612111149878,1.8185690410183117,-2.7947933684280497,-1.7662636847002702,-3.2546837554934926,1.2862653120459835,-0.054937396651913,-0.024984740274790515,0.07666741857669226,0.013508393904329024,-0.01671369118423738,-0.021225458495226,-5.53093446875681,-3.9321251150775645,-0.25809237056789625,-0.006970525854049976,-0.009067242240317635,-0.1444558170819073
1750167104.0345936,-1.2827230307275954,1.8185185755196969,-2.7946385550193473,-1.7662364074941745,-3.2547175047704977,1.2862224521086885,-0.05598206923875836,-0.025480906276144032,0.07814602967058307,0.013768818298063864,-0.017035590366877337,-0.021634486781702635,-5.530254056214666,-3.932555492107186,-0.25808509565521753,-0.0069676567872901055,-0.009068003344169968,-0.14447310466473537
1750167104.036806,-1.2828360389751987,1.8184671167958442,-2.794480784149765,-1.766208609402418,-3.254751897873318,1.2861787740666253,-0.05702606437350184,-0.025977968321913708,0.07962488016738671,0.01402927968104204,-0.017357517086199696,-0.022043563415300955,-5.529560635998786,-3.9329940069772125,-0.2580776874708257,-0.006964732837088372,-0.009068779062162509,-0.14449074382031468
1750167104.0385468,-1.282951134524792,1.818414663037809,-2.7943200553362364,-1.7661802903503263,-3.254786934857546,1.286134277822189,-0.058069369061658674,-0.026475943267538275,0.08110397432579165,0.014289778749674154,-0.01767947186094014,-0.022452689306507668,-5.5288542082357015,-3.933440654932805,-0.2580701464160797,-0.006961754001777362,-0.009069569393106672,-0.14450873526400806
1750167104.0440974,-1.2830683159824767,1.818361212402939,-2.794156368087191,-1.766151450261832,-3.2548226157798115,1.2860889632759538,-0.05911197029696684,-0.02697484796559058,0.08258331639012545,0.014550316200282671,-0.018001455209782247,-0.02286186536570393,-5.52813477304612,-3.933895431127592,-0.2580624728996807,-0.006958720279781412,-0.009070374335534554,-0.1445270797199121
1750167104.0451787,-1.2830683159824767,1.818361212402939,-2.794156368087191,-1.766151450261832,-3.2548226157798115,1.2860889632759538,-0.05911197029696684,-0.02697484796559058,0.08258331639012545,0.014550316200282671,-0.018001455209782247,-0.02286186536570393,-5.52813477304612,-3.933895431127592,-0.2580624728996807,-0.006958720279781412,-0.009070374335534554,-0.1445270797199121
1750167104.0467768,-1.283187581928332,1.8183067630148786,-2.793989721902585,-1.7661220890594738,-3.2548589406977806,1.2860428303266738,-0.06015385506120136,-0.027474699265713432,0.08406291059011795,0.014810892729101683,-0.01832346765136534,-0.023271092503172434,-5.527402330567375,-3.934358330622024,-0.25805466733719884,-0.006955631669494179,-0.009071193888199677,-0.14454577792798745
1750167104.0501919,-1.2833089309163874,1.818251312963577,-2.79382011627393,-1.766092206664399,-3.2548959096701577,1.285995878871282,-0.06119501032396006,-0.027975514014555565,0.08554276114062026,0.015071509032280009,-0.0186455097042781,-0.023680371629096822,-5.526656880939678,-3.934829348380398,-0.25804673015202173,-0.006952488169143457,-0.009072028049675208,-0.14456483064170594
1750167104.0507402,-1.283432361474599,1.8181948603052922,-2.793647550684322,-1.7660618029963633,-3.254933522756684,1.2859481088048916,-0.062235423042471434,-0.028477309055727974,0.08702287224138161,0.015332165805870684,-0.018967581887060252,-0.02408970365355216,-5.5258984243188225,-3.9353084792769195,-0.2580386617740582,-0.006949289777164911,-0.009072876818582262,-0.14458423862379663
1750167104.052673,-1.2835578721048249,1.8181374030625987,-2.7934720246084743,-1.7660308779737308,-3.254971780018138,1.2858995200207954,-0.06327508016137962,-0.02898010122975515,0.08850324807678162,0.015592863745836415,-0.019289684718200206,-0.024499089486507624,-5.525126960864162,-3.935795718092403,-0.2580304626407114,-0.0069460364917729315,-0.009073740193474997,-0.14460400265207318
1750167104.0545533,-1.2838151274581087,1.8180194667458998,-2.793112088855174,-1.765967463531167,-3.255050227314126,1.2857998858635586,-0.06535207531489441,-0.029988744322630136,0.09146481061068017,0.01611438590826744,-0.019933984399251814,-0.025318026217246447,-5.523545014159952,-3.9367944981257583,-0.2580136738928413,-0.006939365233803401,-0.009075510755441775,-0.14464460201682658
1750167104.056525,-1.2838151274581087,1.8180194667458998,-2.793112088855174,-1.765967463531167,-3.255050227314126,1.2857998858635586,-0.06535207531489441,-0.029988744322630136,0.09146481061068017,0.01611438590826744,-0.019933984399251814,-0.025318026217246447,-5.523545014159952,-3.9367944981257583,-0.2580136738928413,-0.006939365233803401,-0.009075510755441775,-0.14464460201682658
1750167104.058432,-1.283946869054164,1.817958983548679,-2.7929276780855075,-1.765934973941003,-3.2550904174754005,1.2857488402679058,-0.06638938717410804,-0.030494628906546938,0.0929460055988614,0.016375211522175515,-0.020256182285877868,-0.025727578934415688,-5.522734531287991,-3.93730602843357,-0.25800508518840537,-0.006935947257719339,-0.009076417939482757,-0.14466543897032552
1750167104.0604546,-1.2840806844681723,1.8178974875206315,-2.7927403046452364,-1.7659019626557786,-3.255131252065084,1.2856969755095229,-0.06742589108251767,-0.03100157795334241,0.09442748190052883,0.01663608108534316,-0.020578412894290687,-0.026137189098853708,-5.521911042330249,-3.937825644837202,-0.25799636754909644,-0.006932474381108377,-0.009077339723538518,-0.1446866352049903
1750167104.062506,-1.284216572071113,1.8178349765160073,-2.792549967967627,-1.7658684295868987,-3.2551727311491376,1.285644291472606,-0.06846157391889295,-0.03150960828723603,0.09590924361949761,0.016896995293240347,-0.02090067674271155,-0.026546857619962963,-5.5210745475162275,-3.9383533416468683,-0.2579875214472662,-0.006928946602198478,-0.009078276106054823,-0.14470819155774073
1750167104.0664358,-1.2843545302077093,1.8177714483554106,-2.792356667477755,-1.7658343746443785,-3.25521485479456,1.2855907880395325,-0.06949642254821417,-0.03201873672903389,0.09739129484271652,0.017157954841232465,-0.02122297434930297,-0.026956585407027906,-5.520225047067493,-3.938889113077186,-0.25797854736273246,-0.006925363919155576,-0.009079227085376456,-0.1447301088816863
1750167104.0669358,-1.2844945571964015,1.8177069008258075,-2.7921604025925397,-1.7657997977368431,-3.2552576230693857,1.2855364650908612,-0.07053042382150124,-0.03252898009604235,0.0988736396400148,0.017418960424584552,-0.021545306232174002,-0.02736637336921436,-5.519362541228501,-3.9394329532433856,-0.2579694457826303,-0.0069217263299640635,-0.009080192659997132,-0.14475238804167181
1750167104.0688443,-1.2846366513293166,1.8176413316805335,-2.791961172720777,-1.7657646987715268,-3.255301036042685,1.2854813225053328,-0.07156356457559472,-0.033040355202056906,0.10035628206389158,0.017680012738446504,-0.021867672909371937,-0.027776222415559743,-5.5184870302485,-3.939984856172456,-0.25796021720002416,-0.006918033832922675,-0.009081172828177192,-0.1447750299129063
1750167104.0705836,-1.28478081087224,1.8175747386392997,-2.791758977263176,-1.7657290776542727,-3.2553450937845647,1.2854253601598702,-0.0725958316329851,-0.03355287885726935,0.10183922614923566,0.0179411124778656,-0.022190074898887722,-0.0281861334549806,-5.517598514399355,-3.9405448157902874,-0.25795086211604223,-0.006914286425938398,-0.009082167588329361,-0.14479803538565786
1750167104.0726423,-1.28492703406459,1.8175071193882006,-2.7915538156123936,-1.765692934289535,-3.2553897963661673,1.2853685779295783,-0.07362721180161932,-0.034066567868228155,0.10332247591311017,0.01820226033777559,-0.022512512718649246,-0.028596107396265225,-5.5166969939683135,-3.9411128259302606,-0.25794138103800435,-0.00691048410713917,-0.009083176938677162,-0.14482140536036817
1750167104.0746064,-1.2850753191193833,1.8174384715797212,-2.791345687153071,-1.7656562685803783,-3.255435143859671,1.2853109756877448,-0.07465769187467648,-0.03458143903779369,0.1048060353544929,0.018463457012995184,-0.022834986886523957,-0.029006145148067677,-5.515782469242221,-3.9416888803288574,-0.2579317744802847,-0.006906626874591518,-0.00908420087751802,-0.14484514074916793
1750167104.076495,-1.2852256642232103,1.8173687928327442,-2.7911345912618697,-1.7656190804284764,-3.2554811363382905,1.28525255330584,-0.07568725863041996,-0.035097509165058216,0.10628990845404537,0.018724703198229536,-0.023157497920316326,-0.029416247618914197,-5.514854940542942,-3.9422729726254273,-0.2579220429642115,-0.006902714726294344,-0.00908523940307786,-0.1448692424781773
1750167104.0785794,-1.285378067536202,1.8172980807325587,-2.7909205273075077,-1.7655813697341154,-3.255527773876275,1.2851933106535176,-0.0767158988319715,-0.03561479504530563,0.10777409917385074,0.01898599958807022,-0.02348004633777012,-0.029826415717197657,-5.5139144081915745,-3.9428650963626604,-0.2579121870182313,-0.006898747660143577,-0.009086292513646519,-0.14489371148546185
1750167104.080494,-1.285532527192001,1.8172263328308667,-2.7907034946507983,-1.7655431363961913,-3.255575056548909,1.2851332475986141,-0.07774359922713714,-0.0361333134699581,0.10925861145719662,0.019247346876986437,-0.023802632656562517,-0.030236650351169958,-5.512960872533461,-3.9434652449883902,-0.2579022071771575,-0.006894725674202428,-0.009087360207348367,-0.14491854871831455
1750167104.083047,-1.2856890412977293,1.8171535466457909,-2.790483492644687,-1.765504380312212,-3.2556229844325135,1.2850723640071504,-0.078770346548212,-0.03665308122652043,0.11074344922833605,0.01950874575932394,-0.02412525739430549,-0.030646952428946925,-5.511994333927002,-3.9440734118528598,-0.2578921039824996,-0.006890648766508177,-0.009088442482346356,-0.1449437551392167
1750167104.0846713,-1.285847607933956,1.8170797196618835,-2.7902605206342894,-1.7654651013782958,-3.255671557604444,1.2850106597433306,-0.07979612751180208,-0.03717411509851225,0.11222861639223092,0.019770196929313616,-0.024447921068546347,-0.0310573228585045,-5.511014792751888,-3.944689590207453,-0.2578818779831365,-0.006886516934778329,-0.009089539336818773,-0.14496933172136195
1750167104.0866563,-1.2860082251546716,1.8170048493301334,-2.790034577956932,-1.7654252994891735,-3.2557207761430904,1.2849481346695433,-0.08082092881863882,-0.03769643186543137,0.11371411683434472,0.02003170108105565,-0.024770624196762937,-0.0314677625476735,-5.510022249407509,-3.9453137732102097,-0.2578715297339417,-0.006882330177099848,-0.009090650768809237,-0.14499527944874538
1750167104.088493,-1.2861708909872496,1.8169289330679748,-2.789805663942189,-1.765384974538188,-3.2557706401278783,1.2848847886463617,-0.08184473715336624,-0.03822004830267388,0.11519995442035677,0.020293258908526256,-0.025093367296366263,-0.03187827240414108,-5.50901670429595,-3.945945953913549,-0.2578610597974501,-0.006878088491285638,-0.009091776776434383,-0.14502159931931582
1750167104.0904388,-1.2863356034324163,1.816851968259295,-2.7895737779119236,-1.7653441264172933,-3.255821149639268,1.2848206215325435,-0.08286753918438465,-0.03874498118151023,0.11668613299598432,0.02055487110557211,-0.025416150884698504,-0.03228885333544624,-5.507998157854743,-3.94658612528154,-0.25785046874177214,-0.006873791875246296,-0.00909291735775554,-0.14504829234126534
1750167104.092429,-1.2865023604642198,1.8167739522544428,-2.7893389191803277,-1.7653027550170561,-3.2558723047587543,1.2847556331850318,-0.08388932156366707,-0.03927124726899752,0.11817265638671563,0.02081653836590994,-0.025738975479029823,-0.032699506248977925,-5.506966610538333,-3.947234280173074,-0.2578397571424317,-0.0068694403268254045,-0.009094072510743973,-0.1450753595342526
1750167104.0944085,-1.2866711600299938,1.8166948823702378,-2.7891010870539628,-1.7652608602266575,-3.2559241055688664,1.2846898234589548,-0.08491007092655033,-0.039798863327942705,0.11965952839757142,0.021078261383123954,-0.026061841596560137,-0.03311023205197397,-5.505922062809217,-3.9478904113500555,-0.2578289255815206,-0.006865033843857037,-0.009095242233420736,-0.1451028019311915
1750167104.0963745,-1.2868420000503278,1.8166147558899777,-2.7888602808318006,-1.7652184419338903,-3.2559765521531676,1.2846231922076263,-0.08592977389158778,-0.04032784611684964,0.12114675281290899,0.021340040850664283,-0.02638474975441707,-0.033521031651515175,-5.504864515167758,-3.9485545114795118,-0.25781797464712747,-0.006860572424152506,-0.009096426523749436,-0.14513062057393838
1750167104.0984142,-1.2870148784190292,1.8165335700634475,-2.7886164998052654,-1.7651755000251592,-3.2560296445962558,1.2845557392825464,-0.08694841706033771,-0.04085821238984486,0.12263433339614346,0.021601877461842844,-0.026707700469655822,-0.03393190595452733,-5.503793968118158,-3.9492265731224063,-0.2578069049347847,-0.006856056065559658,-0.009097625379689835,-0.1451588165185513
1750167104.1007395,-1.2871897930030949,1.816451322106929,-2.7883697432582752,-1.765132034385485,-3.2560833829837623,1.2844874645334015,-0.08796598701720912,-0.041389978896643344,0.12412227388955767,0.02186377190983487,-0.02703069425925268,-0.03434285586777714,-5.50271042220045,-3.9499065887475293,-0.2577957170458625,-0.006851484765820175,-0.009098838799018742,-0.14518739083122154
1750167104.1028833,-1.2873667416426686,1.8163680092032082,-2.788120010467286,-1.7650880448985005,-3.2561377674023535,1.284418367808064,-0.08898247032925503,-0.041923162382476176,0.12561057801404488,0.022125724887674947,-0.027353731640116993,-0.0347538822978718,-5.501613877961074,-3.9505945507176015,-0.2577844115885825,-0.006846858522699968,-0.009100066779850787,-0.145216344591151
1750167104.105022,-1.2873667416426686,1.8163680092032082,-2.788120010467286,-1.7650880448985005,-3.2561377674023535,1.284418367808064,-0.08898247032925503,-0.041923162382476176,0.12561057801404488,0.022125724887674947,-0.027353731640116993,-0.0347538822978718,-5.501613877961074,-3.9505945507176015,-0.2577844115885825,-0.006846858522699968,-0.009100066779850787,-0.145216344591151
1750167104.10874,-1.2875457221510151,1.8162836285015858,-2.7878673007013317,-1.7650435314464525,-3.2561927979397285,1.2843484489525943,-0.0899978535460378,-0.04245777958804142,0.12709924946891005,0.022387737088253347,-0.027676813129071623,-0.03516498615124972,-5.50050433599134,-3.951290451301119,-0.2577729891774045,-0.006842177333998639,-0.009101309319749286,-0.14524567888461296
1750167104.109222,-1.2877267323144777,1.8161981771178852,-2.787611613222071,-1.7649984939102037,-3.25624847468462,1.2842777078112393,-0.0910121231994019,-0.042993847249449664,0.1285882919316092,0.022649809204316775,-0.02799993924286899,-0.03557616833418819,-5.499381796879802,-3.95199428266172,-0.2577614504335553,-0.006837441197422222,-0.00910256641673008,-0.1452753948151832
1750167104.1106503,-1.2879097698924467,1.816111652134463,-2.787352947283829,-1.7649529321692299,-3.2563047977267945,1.2842061442264336,-0.09202526580334598,-0.043531382098163984,0.13007770905755237,0.022911941928465913,-0.02832311049817909,-0.03598742975279388,-5.4982462612624365,-3.952706036866286,-0.2577497959844344,-0.0068326501106757385,-0.009103838068471098,-0.14530549349304459
1750167104.1124473,-1.2880948326173218,1.8160240506002165,-2.7870913021336428,-1.7649068461016224,-3.2563617671570517,1.2841337580388004,-0.09303726785381011,-0.04407040086095687,0.13156750447987411,0.02317413595315027,-0.028646327411595018,-0.03639877131300072,-5.497097729780822,-3.9534257058797557,-0.25773802646353194,-0.006827804071514978,-0.009105124272806131,-0.1453359760411597
1750167104.1143613,-1.2882819181944782,1.815935369530595,-2.7868266770113044,-1.7648602355840888,-3.2564193830672243,1.2840605490871502,-0.09404811582853817,-0.04461092025982876,0.13305768180919683,0.02343639197067118,-0.028969590499626576,-0.036810193920573955,-5.495936203117242,-3.9541532815641665,-0.25772614251137776,-0.006822903077573922,-0.009106425027388709,-0.1453668435948773
1750167104.1163588,-1.2884710243022255,1.8158456059076082,-2.7865590711494086,-1.76481310049195,-3.2564776455501776,1.2839865172084828,-0.09505779618687395,-0.04515295701197084,0.13454824463340664,0.023698710673174667,-0.029292900278705222,-0.037221698481097895,-5.494761681964956,-3.9548887556808965,-0.2577141447745784,-0.006817947126566813,-0.009107740330011879,-0.1453980972977683
1750167104.1183147,-1.2886621485917757,1.8157547566798367,-2.7862884837733968,-1.7647654406991444,-3.2565365546998106,1.283911662237987,-0.09606629536961604,-0.045696527829716185,0.13603919651746832,0.02396109275264914,-0.02961625726517326,-0.03763328589998,-5.493574167056294,-3.9556321198937265,-0.25770203390532614,-0.006812936216234701,-0.009109070178164026,-0.14542973830644898
1750167104.1203287,-1.288855288687202,1.8156628187624406,-2.7860149141016035,-1.7647172560782263,-3.256596110611054,1.2838359840090405,-0.09707359979884359,-0.04624164942045396,0.13753054100315942,0.02422353890093306,-0.02993966197529659,-0.03804495708245147,-5.492373659145654,-3.9563833657576493,-0.2576898105631598,-0.006807870344027959,-0.009110414569693052,-0.14546176778956044
1750167104.1240373,-1.2890504421854043,1.8155697890371711,-2.7857383613453033,-1.764668546500367,-3.256656313379872,1.2837594823532115,-0.09807969587773664,-0.04678833848661259,0.13902228160889135,0.024486049809696948,-0.03026311492525033,-0.038456712933552926,-5.491160159012199,-3.957142484732514,-0.2576774754127736,-0.006802749507795322,-0.00911177350204133,-0.14549418692251778
1750167104.1245654,-1.2892476066560699,1.8154756643523788,-2.7854588247087575,-1.7646193118353537,-3.2567171631032594,1.2836821571002575,-0.09908456999041991,-0.04733661172557232,0.1405144218294608,0.02474862617045566,-0.030586616631126898,-0.03886855435814452,-5.489933667465719,-3.957909468170049,-0.25766502912587796,-0.0067975737050025055,-0.009113146972879398,-0.14552699689613813
1750167104.1267047,-1.289446779641633,1.8153804415230252,-2.785176303389261,-1.76456955195159,-3.2567786598792443,1.2836040080781268,-0.10008820850179687,-0.047886485829615764,0.14200696513584782,0.025011268674556372,-0.030910167608929888,-0.03928048226089607,-5.48869418534516,-3.9586843073203353,-0.25765247237994937,-0.006792342933359226,-0.009114534979704844,-0.1455601989090166
1750167104.1285093,-1.2896479586572402,1.8152841173306922,-2.7848907965771916,-1.764519266716099,-3.256840803806887,1.2835250351129588,-0.10109059775739394,-0.0484379774858879,0.14349991497501904,0.025273978013178454,-0.031233768374571976,-0.039692497546286815,-5.487441713524201,-3.9594669933346487,-0.2576398058582506,-0.0067870571905191135,-0.009115937519956548,-0.14559379417131385
1750167104.1305287,-1.2898511411907094,1.815186688523592,-2.7846023034560567,-1.7644684559945203,-3.2569035949862783,1.2834452380290837,-0.10209172408318036,-0.0489911033763221,0.14499327476967866,0.02553675487733772,-0.031557419443880325,-0.040104601118603526,-5.486176252896541,-3.960257517255211,-0.2576270302508186,-0.0067817164739281425,-0.009117354591225563,-0.14562778390443423
1750167104.1325452,-1.2900563247024905,1.8150881518165793,-2.784310823202543,-1.764417119651112,-3.256967033518542,1.2833646166490236,-0.10309157378541561,-0.049545880177592226,0.14648704791808348,0.025799599957877208,-0.03188112133259133,-0.040516793881936,-5.484897804391668,-3.9610558700229794,-0.2576141462530816,-0.006776320781220005,-0.009118786190954957,-0.14566216933935355
1750167104.134584,-1.2902635066256263,1.81498850389116,-2.7840163549865657,-1.76436525754875,-3.2570311195058324,1.2832831707934926,-0.10409013315049809,-0.050102324561048565,0.14798123779382144,0.02606251394546582,-0.03220487455634786,-0.04092907674017659,-5.483606368974345,-3.961862042474035,-0.2576011545668432,-0.006770870110002995,-0.009120232316510109,-0.14569695171803487
1750167104.1367114,-1.2904726843657128,1.814887741395503,-2.7837188979713168,-1.7643128695489319,-3.2570958530513345,1.283200900281397,-0.10508738844479329,-0.050660453192676126,0.14947584774560457,0.0263254975305989,-0.0325286796307001,-0.041341450597017194,-5.482301947636034,-3.9626760253418656,-0.2575880558997156,-0.006765364457787764,-0.009121692965279996,-0.14573213229327756
1750167104.138513,-1.2906838553008564,1.81478586094445,-2.783418451313316,-1.7642599555117693,-3.2571612342592657,1.2831178049298364,-0.10608332591447812,-0.051220282733030593,0.1509708810970681,0.0265885514035906,-0.03285253707110643,-0.041753916355941986,-5.480984541401268,-3.9634978092534627,-0.2575748509649798,-0.006759803822210781,-0.00912316813467825,-0.1457677123261294
1750167104.140625,-1.2908970167816385,1.814682859119528,-2.7831150141624623,-1.7642065152959985,-3.2572272632348733,1.283033884554103,-0.10707793178540806,-0.05178182983717495,0.15246634114655494,0.026851676254579484,-0.033176447392924135,-0.04216647492023367,-5.47965415133916,-3.9643273847317406,-0.25756154048231394,-0.0067541882007163875,-0.009124657821857441,-0.14580369309079744
1750167104.142574,-1.2911121661310698,1.814578732468959,-2.782808585662082,-1.7641525487589726,-3.2572939400844354,1.282949138967683,-0.10807119226291817,-0.05234511115464367,0.15396223116691113,0.027114872773519847,-0.03350041111142145,-0.04257912719296187,-5.478310778532391,-3.965164742193963,-0.2575481251767622,-0.006748517590868396,-0.00912616202430849,-0.14584007586963676
1750167104.14457,-1.2913293006445512,1.8144734775076714,-2.782499164948982,-1.7640980557566657,-3.2573612649152603,1.2828635679822569,-0.10906309353172312,-0.05291014332935655,0.15545855440529444,0.027378141650181913,-0.03382442874176814,-0.042991874076989435,-5.476954424122815,-3.9660098719505217,-0.25753460577928655,-0.0067427919902053315,-0.009127680739257779,-0.14587686195681152
1750167104.1465933,-1.2915484175898335,1.8143670907173113,-2.782186751153501,-1.7640430361436739,-3.2574292378356873,1.2827771714076992,-0.11005362175572787,-0.05347694299959338,0.15695531408295635,0.02764148357414994,-0.03414850079903004,-0.04340471647496203,-5.4755850892718465,-3.966862764208739,-0.2575209830267981,-0.006737011396204032,-0.009129213963777654,-0.14591405265486013
1750167104.1485229,-1.2917695142069734,1.8142595685462541,-2.78187134339956,-1.7639874897732115,-3.2574978589550847,1.2826899490520796,-0.11104276307788088,-0.05404552679792202,0.15845251339504954,0.027904899234814897,-0.03447262779817846,-0.04381765528930526,-5.474202775177678,-3.9677234090662656,-0.2575072576615993,-0.006731175806472076,-0.00913076169520477,-0.14595164927596185
1750167104.150662,-1.2919925877082923,1.8141509074096163,-2.7815529408047177,-1.7639314164971172,-3.2575671283838514,1.282601900721663,-0.11203050362004913,-0.05461591135113866,0.1599501555104242,0.02816838932138067,-0.03479681025407902,-0.044230691422229455,-5.472807483087366,-3.9685917965158537,-0.257493430432084,-0.006725285218404544,-0.009132323930562325,-0.14598965314452086
1750167104.1525993,-1.2922176352783348,1.8140411036892656,-2.7812315424802208,-1.763874816165849,-3.2576370462334157,1.2825130262209101,-0.11301682948284507,-0.05518811328023413,0.1614482435714501,0.028431954522853055,-0.03512104868150098,-0.04464382577571966,-5.471399214274695,-3.969467916445248,-0.2574795020914954,-0.006719339629598889,-0.009133900667135762,-0.14602806559282513
1750167104.157918,-1.2924446540738241,1.8139301537338346,-2.780907147531057,-1.7638176886284898,-3.257707612616235,1.2824233253524784,-0.11400172674549852,-0.05576214920030437,0.16294678069378726,0.02869559552804436,-0.03544534359510581,-0.045057059251537274,-5.4699779700585625,-3.9703517586294557,-0.25746547339964565,-0.0067133390374666015,-0.009135491901888127,-0.14606688796378592
1750167104.1583664,-1.2924446540738241,1.8139301537338346,-2.780907147531057,-1.7638176886284898,-3.257707612616235,1.2824233253524784,-0.11400172674549852,-0.05576214920030437,0.16294678069378726,0.02869559552804436,-0.03544534359510581,-0.045057059251537274,-5.4699779700585625,-3.9703517586294557,-0.25746547339964565,-0.0067133390374666015,-0.009135491901888127,-0.14606688796378592
1750167104.1587944,-1.2929045938286832,1.8137048003461502,-2.7802493641477173,-1.7637018513249334,-3.2578506914366163,1.28224144371419,-0.11596717967948753,-0.05691578944407676,0.16594521445045568,0.02922310770383074,-0.03609410493899529,-0.04588382717605359,-5.467096560882587,-3.972142568343179,-0.2574371180263292,-0.0067011728332736316,-0.00913871785431214,-0.14614576789191538
1750167104.1630363,-1.2931375089620127,1.8135903894450875,-2.7799159738927117,-1.7636431412500144,-3.2579232041042387,1.282149262540633,-0.11694770740104128,-0.05749542696810596,0.1674451171809205,0.02948698025104426,-0.03641857239807791,-0.046297363427121416,-5.465636398758834,-3.973049514889079,-0.2574227928910935,-0.006695007216120734,-0.009140352565934293,-0.14618582818221187
1750167104.1633532,-1.2931375089620127,1.8135903894450875,-2.7799159738927117,-1.7636431412500144,-3.2579232041042387,1.282149262540633,-0.11694770740104128,-0.05749542696810596,0.1674451171809205,0.02948698025104426,-0.03641857239807791,-0.046297363427121416,-5.465636398758834,-3.973049514889079,-0.2574227928910935,-0.006695007216120734,-0.009140352565934293,-0.14618582818221187
1750167104.1644478,-1.293372383668621,1.81347481737135,-2.7795795833714907,-1.7635839033515586,-3.2579963657652375,1.2820562541919969,-0.11792675062261447,-0.05807696488364749,0.16894548116458682,0.029750931355204006,-0.03674309840093997,-0.0467110024052484,-5.464163266901465,-3.9739641417235196,-0.25740837049662546,-0.006688786585703105,-0.00914200176384473,-0.14622630386097693
1750167104.1665134,-1.2936092149654836,1.8133580803075686,-2.7792401916585643,-1.763524137471764,-3.258070176537214,1.281962418461927,-0.11890429531436184,-0.05866041977559521,0.17044630938078684,0.030014961704104264,-0.0370676834617082,-0.04712474501102742,-5.462677166836977,-3.974886438086073,-0.257393851629307,-0.006682510939308011,-0.009143665444870072,-0.14626719631922114
1750167104.168442,-1.293847999841491,1.8132401744032107,-2.778897797822511,-1.7634638434514542,-3.2581446365387987,1.2818677551422675,-0.11988032742419993,-0.059245808222618095,0.17194760478099755,0.030279071985323733,-0.037392328094401905,-0.04753859214480726,-5.461178100126795,-3.9758163930999952,-0.25737923708142113,-0.006676180274509705,-0.00914534360598508,-0.14630850695572312
1750167104.170575,-1.29408873525741,1.813121095774593,-2.7785524009260345,-1.7634030211300757,-3.258219745889649,1.2817722640230622,-0.12085483287769393,-0.059833146797128825,0.173449370288701,0.030543262886228984,-0.03771703281292829,-0.04795254470669201,-5.459666068389156,-3.976753995786182,-0.25736452764962564,-0.006669794588732322,-0.009147036244031117,-0.14635023717895138
1750167104.1725342,-1.294331418145834,1.813000840504893,-2.77820400002602,-1.7633416703457048,-3.2582955047104503,1.2816759448925552,-0.12182779757788972,-0.06042245206521912,0.17495160879915675,0.030807535093966727,-0.03804179813107611,-0.048366603596536016,-5.4581410732694255,-3.9776992350500135,-0.25734972413659646,-0.006663353879518156,-0.00914874335567162,-0.14639238840664429
1750167104.1764255,-1.29457604541114,1.812879404644163,-2.777852594173591,-1.7632797909350373,-3.2583719131229154,1.2815787975371908,-0.12279920740521852,-0.06101374058660457,0.17645432317925328,0.03107188929546848,-0.03836662456253069,-0.048780769713943385,-5.456603116476929,-3.9786520996900556,-0.257334827349681,-0.006656858144229893,-0.009150464937993232,-0.14643496206535297
1750167104.176768,-1.294822613929445,1.812756784209342,-2.7774981824141642,-1.7632173827334023,-3.258448971249785,1.2814808217416147,-0.12376904821735557,-0.06160702891456854,0.17795751626732334,0.031336326177439124,-0.03869151262084836,-0.04919504395826485,-5.45505219976193,-3.9796125783927505,-0.25731983810133696,-0.006650307380475005,-0.009152200987361737,-0.14647795959088272
1750167104.1786962,-1.295071120548556,1.812632975184269,-2.7771407637875094,-1.7631544455747505,-3.258526679214826,1.2813820172886738,-0.12473730584907074,-0.062202333595903075,0.17946119087292806,0.03160084642636664,-0.03901646281948408,-0.04960942722859393,-5.453488324911532,-3.9805806597305495,-0.2573047572099233,-0.006643701585493293,-0.009153951500921513,-0.146521382428127
1750167104.1804712,-1.2953215620879295,1.8125079735196958,-2.776780337327806,-1.7630909792916611,-3.258605037142832,1.2812823839594172,-0.12570396611213167,-0.06279967117086967,0.1809653497767434,0.031865450728503324,-0.039341475671759954,-0.05002392042376228,-5.451911493777191,-3.9815563321706087,-0.25728958549745534,-0.006637040756999062,-0.00915571647493027,-0.1465652320292774
1750167104.1824265,-1.2955739353386182,1.8123817751333005,-2.7764169020637017,-1.7630269837153438,-3.258684045159624,1.2811819215330964,-0.12666901479515713,-0.06339905817312923,0.18246999573033562,0.03213013976987632,-0.0396665516908865,-0.05043852444233993,-5.450321708247664,-3.9825395840629825,-0.2572743237920239,-0.0066303248923287456,-0.009157495906244324,-0.14660950985708
1750167104.184639,-1.2958282370632341,1.8122543759097003,-2.7760504570183695,-1.7629624586756316,-3.258763703392049,1.2810806297871666,-0.12763243766351737,-0.06400051112969182,0.18397513145602232,0.032394914236277494,-0.03999169138995415,-0.050853240182626644,-5.448718970274045,-3.983530403648705,-0.2572589729259907,-0.0066235539890276045,-0.009159289791480712,-0.14665421737977002
1750167104.1864977,-1.296084463995891,1.812125771700465,-2.775681001209567,-1.7628974040009915,-3.2588440119679793,1.2809785084972862,-0.12859422045917462,-0.06460404656085753,0.1854807596466614,0.0326597748132674,-0.04031689528192786,-0.05126806854266089,-5.44710328183863,-3.9845287790517046,-0.2572435337372362,-0.006616728044471001,-0.009161098127105166,-0.14669935608036355
1750167104.188464,-1.2963426128421682,1.8119959583241312,-2.7753085336496968,-1.7628318195185146,-3.258924971016314,1.2808755574373178,-0.12955434890061135,-0.06520968098017943,0.18698688296553265,0.03292472218616702,-0.040642163879652735,-0.05168301042020065,-5.445474645001604,-3.9855346982914304,-0.25722800706774224,-0.00660984705617352,-0.009162920909740834,-0.14674492744204287
1750167104.1905568,-1.2966026802790545,1.8118649315662143,-2.774933053345863,-1.7627657050539263,-3.259006580666977,1.280771776379329,-0.1305128086826626,-0.06581743089439065,0.18849350404613152,0.03318975704005266,-0.04096749769584653,-0.05209806671273105,-5.443833061848919,-3.986548149265072,-0.25721239376461424,-0.006602911021723069,-0.009164758135800786,-0.1467909329623264
1750167104.1925163,-1.2968646629549072,1.8117326871792236,-2.7745545592999346,-1.7626990604315775,-3.259088841050918,1.2806671650935921,-0.13146958547644405,-0.06642731280334961,0.19000062549201172,0.03345488005976358,-0.04129289724310369,-0.05251323831745864,-5.442178534542776,-3.9875691197606957,-0.25719669468004364,-0.006595919938434221,-0.009166609801810884,-0.14683737414426912
1750167104.1944802,-1.2971285574894003,1.8115992208826757,-2.774173050508602,-1.7626318854744536,-3.259171752300112,1.2805617233485862,-0.13242466492919971,-0.06703934320000593,0.19150824987664228,0.03372009192988624,-0.041618363033888175,-0.052928526131307045,-5.4405110652819815,-3.988597597452697,-0.2571809106699,-0.006588873803972146,-0.009168475904095504,-0.14688425250012943
1750167104.1963906,-1.2973943604734792,1.8114645283631077,-2.7737885259634396,-1.7625641800041683,-3.259255314547558,1.2804554509109962,-0.1333780326642195,-0.06765353857032737,0.19301637974322527,0.03398539333476312,-0.04194389558053979,-0.05334393105091547,-5.43883065633477,-3.9896335699002226,-0.2571650425955684,-0.0065817726156973165,-0.009170356439157284,-0.14693156954956943
1750167104.1984189,-1.2976620684693119,1.8113286052740925,-2.7734009846509653,-1.7624959438409684,-3.2593395279272794,1.2803483475457142,-0.1343296742807091,-0.06826991539324859,0.1945250176045364,0.03425078495848421,-0.0422694953952665,-0.05375945397263681,-5.43713731001595,-3.9906770245462653,-0.2571490913227411,-0.006574616371132532,-0.009172251403281833,-0.14697932682144474
1750167104.2004485,-1.2979316780102401,1.8111914472362516,-2.7730104255527026,-1.7624271768037323,-3.2594243925743256,1.28024041301584,-0.13527957535368118,-0.06888849014062957,0.19603416594277911,0.034516267484879896,-0.04259516299014298,-0.05417509579252649,-5.435431028698778,-3.9917279487212856,-0.25713305772136036,-0.0065674050679038025,-0.009174160792714964,-0.14702752584920523
1750167104.202363,-1.2982031856007321,1.8110530498372703,-2.7726168476452413,-1.7623578787099712,-3.2595099086247683,1.2801316470826813,-0.1362277214338622,-0.0695092792771883,0.19754382720942362,0.034781841597529214,-0.042920898877115206,-0.0545908574063511,-5.433711814820289,-3.9927863296388697,-0.2571169426660611,-0.006560138703373815,-0.009176084603830462,-0.1470761681783954
1750167104.2043755,-1.2984765877163316,1.8109134086319116,-2.7722202499002986,-1.7622880493758295,-3.2595960762157032,1.2800220495057548,-0.1371740980475674,-0.07013229926045692,0.19905400382505273,0.03504750797974543,-0.043246703567993365,-0.055006739709574426,-5.431979670867638,-3.9938521543967265,-0.25710074703569746,-0.006552817275196442,-0.00917802283280358,-0.14712525535845414
1750167104.2133453,-1.2984765877163316,1.8109134086319116,-2.7722202499002986,-1.7622880493758295,-3.2595960762157032,1.2800220495057548,-0.1371740980475674,-0.07013229926045692,0.19905400382505273,0.03504750797974543,-0.043246703567993365,-0.055006739709574426,-5.431979670867638,-3.9938521543967265,-0.25710074703569746,-0.006552817275196442,-0.00917802283280358,-0.14712525535845414
1750167104.2144942,-1.2995890699256627,1.8103423156904916,-2.7706036398130154,-1.762003415910522,-3.2599472647621064,1.279575337888044,-0.14094161950421147,-0.07264701655668879,0.20509991109959608,0.03611110986131479,-0.044550620602010746,-0.05667149371514638,-5.42492184628224,-3.9981896297217103,-0.257035176493427,-0.006522980876235312,-0.00918591985054014,-0.14732608387490234
1750167104.2165322,-1.299871890784238,1.810196387623426,-2.770191927290256,-1.761930927568832,-3.2600366921477573,1.2794615784223768,-0.14187893081910216,-0.07328143738116563,0.20661269967735096,0.03637724783177564,-0.04487677698479338,-0.05708799288667551,-5.423125091461414,-3.999292476072396,-0.25701859132171523,-0.006515384092742138,-0.009187930110932871,-0.14737741883724834
1750167104.218359,-1.300156584411055,1.810049188388008,-2.7697771886614952,-1.761857906854952,-3.2601267719179603,1.27934698583246,-0.14281438530730803,-0.0739181876436197,0.20812601747062096,0.036643482166058235,-0.04520300523945426,-0.05750461811394484,-5.421315422807985,-4.00040268640001,-0.25700193093747525,-0.006507732230960257,-0.009189954765671832,-0.14742920811108134
1750167104.2203498,-1.300443147077818,1.8099007133089553,-2.769359422866096,-1.7617843535754716,-3.2602175042169703,1.2792315598652884,-0.14374796832152867,-0.07455728374979068,0.20963986667965853,0.03690981354557205,-0.04552930587683192,-0.0579213702902365,-5.419492843246395,-4.001520246980734,-0.25698519624864147,-0.006500025288407119,-0.009191993810896398,-0.14748145329800497
1750167104.2224514,-1.3007315750269104,1.8097509576781807,-2.768938628839053,-1.7617102675356193,-3.260308889190063,1.279115300266071,-0.14467966518928035,-0.07519874209780363,0.21115424947266692,0.037176242651439234,-0.04585567940761283,-0.05833825030850792,-5.41765735576995,-4.002645143970693,-0.25696838816731643,-0.006492263262777049,-0.009194047242322891,-0.14753415600674552
1750167104.224339,-1.3010218644713465,1.809599916754809,-2.768514805511058,-1.7616356485392606,-3.2604009269835363,1.278998206778231,-0.145609461212811,-0.07584257907813681,0.21266916798568053,0.03744277016449462,-0.046182126342341846,-0.058755259061386955,-5.415808963442599,-4.003777363411382,-0.2569515076091973,-0.00648444615169004,-0.009196115055961993,-0.1475873178522262
1750167104.2283392,-1.3013140115947177,1.8094475857651913,-2.768087951808561,-1.7615604963889027,-3.2604936177447086,1.2788802791434073,-0.14653734166900834,-0.07648881107355196,0.21418462432242646,0.03770939676528297,-0.046508647191411845,-0.05917239744116998,-5.4139476693923,-4.0049168912200335,-0.25693455549374666,-0.006476573952769265,-0.009198197247532252,-0.14764094045663254
1750167104.2287135,-1.3016080125511458,1.8092939599029212,-2.7676580666538375,-1.7614848108856878,-3.2605869616219185,1.2787615171014537,-0.14746329180932863,-0.07713745445905493,0.21570062055419376,0.03797612313405706,-0.046835242465071696,-0.05958966633981481,-5.412073476824149,-4.006063713197886,-0.25691753274444884,-0.006468646663617891,-0.009200293812977113,-0.14769502544679727
1750167104.2306278,-1.3019038634652293,1.80913903432885,-2.767225148965054,-1.761408591829401,-3.2606809587645254,1.278641920390441,-0.14838729685968977,-0.07778852560184486,0.21721715871970737,0.038242949950768344,-0.04716191267341327,-0.06000706664894064,-5.410186389000864,-4.0072178150232425,-0.2569004402880601,-0.006460664282027178,-0.009202404747873765,-0.14774957445827322
1750167104.232506,-1.3019038634652293,1.80913903432885,-2.767225148965054,-1.761408591829401,-3.2606809587645254,1.278641920390441,-0.14838729685968977,-0.07778852560184486,0.21721715871970737,0.038242949950768344,-0.04716191267341327,-0.06000706664894064,-5.410186389000864,-4.0072178150232425,-0.2569004402880601,-0.006460664282027178,-0.009202404747873765,-0.14774957445827322
1750167104.2346978,-1.3022015604319916,1.8089828041711025,-2.7667891976563315,-1.7613318390184665,-3.2607756093229088,1.2785214887466567,-0.14930934202040977,-0.0784420408612559,0.21873424082499934,0.038509877895071036,-0.04748865832638237,-0.06042459925982351,-5.408286409265525,-4.008379182253928,-0.2568832790552412,-0.00645262680560563,-0.009204530048107425,-0.14780458913171507
1750167104.2366517,-1.3025010995168342,1.8088252645250926,-2.7663502116378114,-1.761254552249949,-3.2608709134484672,1.2784002219046064,-0.15022941246612878,-0.07909801658871453,0.22025186884329537,0.03877690764631553,-0.04781547993376709,-0.06084226506339256,-5.406373541034213,-4.009547800328321,-0.2568660499799562,-0.006444534232076102,-0.00920666970923554,-0.14786007111396543
1750167104.238531,-1.3028024767554793,1.8086664104535397,-2.765908189815722,-1.7611767313195568,-3.2609668712936197,1.2782781195970143,-0.15114749334570332,-0.07975646912769624,0.221770044714874,0.039044039883541014,-0.04814237800519903,-0.06126006495022297,-5.404447787782114,-4.010723654561769,-0.2568487539998932,-0.006436386559271758,-0.009208823726849086,-0.14791602205753432
1750167104.2403636,-1.3031056881539227,1.8085062369864837,-2.765463131092444,-1.7610983760216383,-3.261063483011804,1.2781551815548233,-0.1520635697821719,-0.08041741481366022,0.22328877034696695,0.039311275285482485,-0.048469353050156844,-0.06167799981053865,-5.40250915307734,-4.011906730148374,-0.25683139205599836,-0.006428183784792906,-0.009210992096640266,-0.14797244362198944
1750167104.2422984,-1.3034107296883786,1.808344739121302,-2.765015034366577,-1.761019486149186,-3.261160748757476,1.2780314075071966,-0.152977626872655,-0.08108086997401179,0.2248080476136359,0.039578614530558304,-0.04879640557795925,-0.06209607053420344,-5.400557640550327,-4.013097012159671,-0.25681396509248533,-0.006419925906489917,-0.009213174814103088,-0.148029337471667
1750167104.2443323,-1.30371759730523,1.808181911822725,-2.764563898533005,-1.7609400614938355,-3.2612586686861107,1.277906797181518,-0.1538896496883008,-0.081746850928051,0.22632787835566714,0.03984605829687014,-0.04912353609776427,-0.06251427801071986,-5.39859325391547,-4.014294485545633,-0.256796474056779,-0.0064116129221579434,-0.009215371874710799,-0.14808670527705137
1750167104.2464778,-1.3040262869209789,1.808017750022853,-2.764109722482965,-1.760860101845866,-3.261357242954201,1.2777813503033923,-0.1547996232741985,-0.08241537398693358,0.22784826438044312,0.04011360726220083,-0.049450745118569804,-0.0629326231292242,-5.396615996956081,-4.01549913513355,-0.2567789198998478,-0.006403244829567986,-0.009217583273952697,-0.14814454871444915
1750167104.2483706,-1.3043367944221878,1.8078522486211719,-2.7636525051041114,-1.7607796069942019,-3.2614564717192582,1.277655066596647,-0.15570753264931247,-0.08308645545360636,0.22936920746184125,0.04038126210400658,-0.04977803314921025,-0.06335110677848206,-5.394625873532283,-4.016710945623547,-0.2567613035754386,-0.006394821626632411,-0.009219809007222935,-0.14820286946520764
1750167104.2506287,-1.3046491156654314,1.80768540248457,-2.7631922452805857,-1.7606985767264138,-3.26155635513981,1.2775279457833322,-0.15661336280644436,-0.08376011162277039,0.23089070934013353,0.04064902349942033,-0.050105400698355035,-0.06376972984688663,-5.39262288759773,-4.017929901597207,-0.2567436260406233,-0.006386343311120118,-0.00922204906987431,-0.14826166921606349
1750167104.2523487,-1.3049632464772465,1.8075172064473548,-2.7627289418930814,-1.7606170108287174,-3.261656893375403,1.2773999875837214,-0.1575170987121458,-0.08443635878083705,0.2324127717218847,0.04091689212524305,-0.05043284827450974,-0.06418849322245232,-5.390607043173712,-4.0191559875100165,-0.2567258882550839,-0.0063778098809507645,-0.009224303457290835,-0.14832094965888964
1750167104.2543478,-1.3052791826540728,1.8073476553112686,-2.7622625938189134,-1.7605349090859752,-3.2617580865865987,1.2772711917163126,-0.15841872530665538,-0.08511521320586991,0.23393539627983106,0.04118486865794244,-0.05076037638601031,-0.06460739779281419,-5.3885783443602975,-4.020389187690262,-0.25670809118189364,-0.006369221334014429,-0.009226572164694356,-0.14838071249201684
1750167104.2563486,-1.3055969199622082,1.8071767438455066,-2.7617931999320846,-1.7604522712816966,-3.261859934934976,1.277141557897829,-0.15931822750385982,-0.08579669116755562,0.23545858465280345,0.04145295377364822,-0.05108798554102254,-0.06502644444521817,-5.386536795351111,-4.0216294863470345,-0.25669023578671557,-0.006360577668258696,-0.009228855187291126,-0.14844095941584323
1750167104.261763,-1.3059164541377495,1.8070044667867329,-2.761320759103355,-1.7603690971980415,-3.2619624385831303,1.277011085843219,-0.16021559019121812,-0.08648080892713578,0.23698233844561595,0.04172114814814903,-0.05141567624754662,-0.06544563406652534,-5.384482400410635,-4.022876867557242,-0.256672323037991,-0.006351878881654073,-0.009231152520416291,-0.14850169213956912
1750167104.2628458,-1.3065608958841253,1.8066557946742532,-2.76036673208742,-1.760201139314474,-3.262169412434228,1.276747625876552,-0.16200383645382627,-0.08785702884256202,0.24003154853942923,0.042257867374968366,-0.05207130434624919,-0.06628444576130747,-5.3803350902474705,-4.025392813340211,-0.2566363293671246,-0.006334315937781982,-0.009235790098401897,-0.1486246218346537
1750167104.2655292,-1.3068857947756864,1.8064793889313733,-2.7598851436261294,-1.7601163550721255,-3.26227388296744,1.2766146373855292,-0.16289468967143714,-0.08854916347834042,0.2415570078791868,0.04252639357712894,-0.052399242753552365,-0.06670406960651627,-5.378242183990417,-4.026661345444426,-0.2566182503951663,-0.006325451776567001,-0.009238130333449699,-0.14868682224322838
1750167104.2667172,-1.307212473175995,1.8063015962171678,-2.7594005036749043,-1.760031033665527,-3.2623790094609637,1.276480809500451,-0.16378334266380223,-0.08924400287179689,0.24308303871611187,0.04279503173776274,-0.052727264742614396,-0.06712383996408705,-5.376136449730213,-4.027936895164929,-0.2566001179699549,-0.006316532486576144,-0.009240484859284234,-0.1487495153266924
1750167104.2685134,-1.3075409266693612,1.8061224111059018,-2.758912811089311,-1.7599451748700865,-3.26248479208247,1.2763461419274078,-0.16466978018553802,-0.0899415632413485,0.24460964248362788,0.043063782530901026,-0.05305537082055376,-0.0675437577188695,-5.3740178921833595,-4.029219445953364,-0.25658193307250265,-0.0063075580659326105,-0.009242853670808952,-0.14881270281237566
1750167104.270459,-1.307871150809576,1.8059418281394117,-2.758422064722083,-1.759858778459865,-3.2625912310006435,1.276210634370721,-0.16555398696452392,-0.09064186079671864,0.246136820580603,0.043332646630214376,-0.05338356149430939,-0.0679638237553018,-5.371886516127483,-4.030508981129001,-0.2565636966867108,-0.006298528512709617,-0.009245236762965828,-0.14887638643602327
1750167104.2723432,-1.3082031411198596,1.8057598418271235,-2.7579282634231923,-1.7597718442075792,-3.2626983263851823,1.2760742865329429,-0.16643594770189377,-0.09134491173889654,0.2476645743713108,0.04360162470900369,-0.05371183727063639,-0.06838403895740203,-5.3697423264471835,-4.031805483886762,-0.25654540979803664,-0.006289443825166884,-0.009247634130576643,-0.1489405679344782
1750167104.274309,-1.308536893092806,1.8055764466460698,-2.757431406039915,-1.7596843718845943,-3.2628060784067987,1.2759370981148586,-0.16731564707198993,-0.09205073226008312,0.24919290518532117,0.043870717440202156,-0.0540401986561117,-0.06880440420876457,-5.367585328114226,-4.033108937290028,-0.2565270733949569,-0.006280304001431009,-0.009250045768622355,-0.14900524904880472
1750167104.2763107,-1.3088724021903344,1.8053916370409078,-2.7569314914169047,-1.7595963612609342,-3.262914487237217,1.275799068815486,-0.16819306972233952,-0.09275933854366769,0.2507218143174732,0.04413992549637118,-0.054368646157117874,-0.06922492039256113,-5.365415526200341,-4.03441932427868,-0.2565086884669797,-0.006271109039697736,-0.00925247167162686,-0.149070431525827
1750167104.2793393,-1.3088724021903344,1.8053916370409078,-2.7569314914169047,-1.7595963612609342,-3.262914487237217,1.275799068815486,-0.16819306972233952,-0.09275933854366769,0.2507218143174732,0.04413992549637118,-0.054368646157117874,-0.06922492039256113,-5.365415526200341,-4.03441932427868,-0.2565086884669797,-0.006271109039697736,-0.00925247167162686,-0.149070431525827
1750167104.2805526,-1.30920966384363,1.8052054074239368,-2.756428518396259,-1.7595078121052774,-3.263023553049175,1.275660198332078,-0.1690682002735932,-0.09347074676416192,0.2522513030277467,0.044409249549691915,-0.05469718027985861,-0.06964558839152886,-5.363232925855811,-4.035736627655368,-0.2564902560068714,-0.006261858938286154,-0.00925491183455166,-0.1491361171134446
1750167104.282577,-1.3095486734530928,1.8050177521751158,-2.7559224858175906,-1.7594187241849566,-3.2631332760164216,1.2755204863601217,-0.16994102331950997,-0.09418497308718983,0.2537813725412447,0.0446786902719652,-0.05502580153034459,-0.07006640908797128,-5.361037532336194,-4.037060830101632,-0.25647177700829954,-0.006252553695475636,-0.009257366251959833,-0.1492023075650156
1750167104.2845125,-1.309889426388283,1.8048286656420818,-2.7554133925180975,-1.7593290972659625,-3.2632436563137186,1.27537993259334,-0.1708115234269297,-0.09490203366942972,0.25531202404811054,0.044948248334607255,-0.05535451041439724,-0.07048738336375214,-5.358829350992727,-4.038391914165466,-0.2564532524672754,-0.006243193309586449,-0.009259834918519717,-0.14926900463621992
1750167104.286598,-1.3102319179878688,1.8046381421401667,-2.7549012373326316,-1.759238931112944,-3.2633546941168388,1.2752385367236927,-0.17167968513573953,-0.09562194465857898,0.25684325870346403,0.04521792440864475,-0.05568330743764235,-0.07090851210029016,-5.356608387270773,-4.039729862264938,-0.25643468338161035,-0.006233777779000406,-0.009262317828719757,-0.14933621008585865
1750167104.2884624,-1.3105761435595689,1.8044461759524169,-2.7543860190937703,-1.7591482254892066,-3.2634663896025655,1.2750962984413776,-0.17254549295884838,-0.09634472219331248,0.25837507762735135,0.045487719164711435,-0.05601219310551791,-0.07132979617855655,-5.354374646713149,-4.041074656686823,-0.25641607075055295,-0.006224307102126357,-0.009264814977270414,-0.14940392567663646
1750167104.2903426,-1.3109220983801047,1.8042527613296098,-2.7538677366318858,-1.7590569801567169,-3.263578742948694,1.2749532174348304,-0.17340893138217553,-0.09707038240324825,0.25990748190468255,0.04575763327304642,-0.0563411679232618,-0.07175123647907167,-5.352128134967971,-4.04242627958911,-0.25639741557537093,-0.006214781277361105,-0.009267326358533766,-0.14947215317431486
1750167104.292468,-1.3112697776951379,1.804057892490273,-2.753346388775215,-1.7589651948761,-3.2636917543340287,1.2748092933907265,-0.17426998486459963,-0.09779894140891397,0.2614404725851784,0.04602766740348562,-0.056670232395915794,-0.07217283388189367,-5.349868857768543,-4.043784712996028,-0.25637871885851315,-0.0062052003032304435,-0.009269851966985916,-0.1495408943456895
1750167104.2945812,-1.3116191767192245,1.8038615636207025,-2.7528219743499323,-1.758872869406642,-3.2638054239383845,1.2746645259939815,-0.17512863783798444,-0.09853041532171006,0.2629740506833457,0.04629782222546069,-0.05699938702832253,-0.07259458926662223,-5.347596820971458,-4.045149938804712,-0.2563599816037299,-0.006195564178270749,-0.009272391797016775,-0.1496101509622037
1750167104.2963538,-1.3119702906357542,1.80366376887498,-2.7522944921802166,-1.758780003506291,-3.263919751942585,1.2745189149277525,-0.17598487470712165,-0.09926482024386411,0.2645082171783856,0.046568098407994904,-0.05732863232512219,-0.07301650351238968,-5.345312030514384,-4.046521938774039,-0.2563412048168761,-0.006185872901021957,-0.009274945842923252,-0.1496799247973689
1750167104.2985258,-1.3123231145969019,1.803464502374992,-2.751763941088324,-1.758686596931657,-3.2640347385284643,1.2743724598734387,-0.17683867984974877,-0.10000217226841052,0.2660429730142015,0.04683849661969788,-0.05765796879075316,-0.07343857749785598,-5.343014492455372,-4.04790069453681,-0.25632238950408937,-0.006176126470120343,-0.009277514099020698,-0.14975021762598337
1750167104.300481,-1.3126776437235703,1.8032637582104487,-2.7512303198946593,-1.7585926494380137,-3.2641503838788637,1.2742251605106825,-0.17769003761651522,-0.10074248747913615,0.2675783190993098,0.047109017528764605,-0.0579873969294503,-0.07386081210120858,-5.3407042129441935,-4.049286187586687,-0.25630353667372036,-0.006166324884154268,-0.009280096559575514,-0.14982103122759777
1750167104.3023329,-1.3130338731053346,1.8030615304389015,-2.7506936274178444,-1.7584981607792987,-3.2642666881776337,1.27407701651737,-0.17853893233098095,-0.10148578195056997,0.26911425630683633,0.04737966180296718,-0.05831691724524054,-0.07428320820015112,-5.338381198242098,-4.0506783992899615,-0.2562846473345018,-0.006156468141861634,-0.009282693218730617,-0.1498923673811038
1750167104.304552,-1.3133917978003904,1.8028578130857622,-2.750153862474791,-1.7584031307081132,-3.264383651609632,1.2739280275696332,-0.17938534828961847,-0.10223207174793889,0.27065078547448274,0.04765043010965311,-0.05864653024194308,-0.07470576667190355,-5.336045454720517,-4.052077310877975,-0.25626572249620866,-0.006146556241973311,-0.00928530407063379,-0.14996422786900826
1750167104.3138278,-1.3137514128355026,1.8026526001443215,-2.749611023880771,-1.7583075589757264,-3.2645012743607245,1.2737781933418493,-0.18022926976180395,-0.10298137292712799,0.2721879074044756,0.04792132311574031,-0.05897623642316624,-0.07512848839319756,-5.3336969888559755,-4.0534829034462385,-0.2562467631700301,-0.0061365891832857785,-0.009287929109344614,-0.1500366144758221
1750167104.314289,-1.3137514128355026,1.8026526001443215,-2.749611023880771,-1.7583075589757264,-3.2645012743607245,1.2737781933418493,-0.18022926976180395,-0.10298137292712799,0.2721879074044756,0.04792132311574031,-0.05897623642316624,-0.07512848839319756,-5.3336969888559755,-4.0534829034462385,-0.2562467631700301,-0.0061365891832857785,-0.009287929109344614,-0.1500366144758221
1750167104.314601,-1.3148403497761372,1.8020279272416748,-2.7479640543225163,-1.758017591304041,-3.2648581004023227,1.273323615695703,-0.18274590954678835,-0.10524750517385978,0.2768028372582397,0.04873475699306359,-0.059965919106865245,-0.07639764181417398,-5.326575323576177,-4.057739575988371,-0.2561896883851203,-0.00610635704284025,-0.009295889286542307,-0.15025694887200108
1750167104.3154755,-1.3152066758085104,1.8018166712381691,-2.747408909247031,-1.7579198504128737,-3.2649783623085797,1.2731703970564627,-0.18357969522483997,-0.10600901225147082,0.2783423375496707,0.049006155457204915,-0.0602960030579989,-0.07682102529096696,-5.324176035284655,-4.059171700759252,-0.2561706012318743,-0.006096169337640265,-0.009298571012394076,-0.15033145782542515
1750167104.3165145,-1.3152066758085104,1.8018166712381691,-2.747408909247031,-1.7579198504128737,-3.2649783623085797,1.2731703970564627,-0.18357969522483997,-0.10600901225147082,0.2783423375496707,0.049006155457204915,-0.0602960030579989,-0.07682102529096696,-5.324176035284655,-4.059171700759252,-0.2561706012318743,-0.006096169337640265,-0.009298571012394076,-0.15033145782542515
1750167104.3184679,-1.3155746668413402,1.8016038891316553,-2.7468506845748233,-1.7578215665968608,-3.2650992844783544,1.2730163314827887,-0.18441090735680793,-0.10677361084927907,0.2798824340817481,0.0492776819487508,-0.06062618270848254,-0.07724457639343489,-5.321764058680168,-4.060610409977355,-0.25615148465601045,-0.006085926468270237,-0.00930126689465324,-0.15040650184051096
1750167104.3204207,-1.3159443177116454,1.8013895747230921,-2.746289379112817,-1.7577227395992843,-3.265220867103548,1.272861418638556,-0.18523953004952093,-0.10754131696653134,0.28142312744343795,0.04954933713195333,-0.06095645856062609,-0.0776682959952689,-5.319339400919046,-4.062055683927388,-0.2561323396723579,-0.006075628433825732,-0.009303976927143876,-0.1504820827097009
1750167104.3224213,-1.3163156232246322,1.8011737217814494,-2.7457249916667936,-1.7576233691620962,-3.265343110377066,1.2727056581858927,-0.1860655473827317,-0.10831214659295359,0.282964418188118,0.049821121670608016,-0.06128683111651592,-0.07809218496963462,-5.316902069258673,-4.063507502761899,-0.25611316729567296,-0.006065275233344214,-0.009306701103567917,-0.1505582022260994
1750167104.3243935,-1.3166885781536388,1.8009563240437272,-2.745157521041463,-1.7575234550259227,-3.2654660144928176,1.2725490497851808,-0.1868889434091513,-0.1090861157086983,0.28450630683356504,0.050093036228042634,-0.0616173008780117,-0.07851624418916846,-5.3144520710810745,-4.064965846492886,-0.2560939685412182,-0.006054866866117977,-0.009309439417539495,-0.15063486218310637
1750167104.3280413,-1.3170631772400823,1.8007373752149745,-2.7445869660405364,-1.757422996930063,-3.265589579645716,1.2723915930950578,-0.1877097021544627,-0.10986324028433989,0.28604879386196286,0.05036508146711943,-0.06194786834674869,-0.07894047452597341,-5.311989413886141,-4.066430694999454,-0.2560747444241678,-0.006044403331307775,-0.009312191862737084,-0.15071206437540016
1750167104.3285751,-1.3174394151934026,1.800516868968309,-2.7440133254667947,-1.7573219946124912,-3.2657138060316773,1.2722332877724176,-0.1885278076173297,-0.11064353628083576,0.2875918797198873,0.05063725805022605,-0.06227853402413062,-0.07936487685161223,-5.30951410528638,-4.067902028018945,-0.2560554959599586,-0.0060338846282452655,-0.009314958432637997,-0.15078981059756336
1750167104.3306222,-1.3178172866910112,1.8002947989449363,-2.7434365981221625,-1.7572204478098579,-3.2658386938476194,1.2720741334724115,-0.18934324376944459,-0.11142701964951705,0.2891355648183433,0.05090956663927297,-0.06260929841133107,-0.07978945203710562,-5.307026153028525,-4.069379825156623,-0.25603622416343186,-0.006023310756289433,-0.009317739120759207,-0.15086810264513636
1750167104.332511,-1.3181967863782367,1.8000711587541682,-2.7428567828077766,-1.7571183562574895,-3.2659642432914633,1.271914129848449,-0.19015599455552273,-0.11221370633205595,0.29067984953273374,0.05118200789569194,-0.06294016200929171,-0.08021420095292353,-5.304525564965097,-4.070864065874401,-0.25601693004995585,-0.006012681714740729,-0.00932053392056712,-0.1509469423131646
1750167104.3345997,-1.318577908868269,1.7998459419734438,-2.74227387832406,-1.7570157196893899,-3.266090454562131,1.2717532765521997,-0.19096604389334362,-0.11300361226045172,0.2922247342028927,0.0514545824804232,-0.06327112531871716,-0.08063912446897956,-5.3020123490788444,-4.07235472949875,-0.25599761463423293,-0.0060019975031983105,-0.009323342825384419,-0.15102633139615032
1750167104.3365726,-1.318960648742106,1.7996191421483474,-2.741687883470791,-1.7569125378382413,-3.2662173278595463,1.2715915732335934,-0.19177337567378896,-0.11379675335700701,0.29377021913311285,0.05172729105391748,-0.06360218884007654,-0.08106422345462946,-5.299486513480221,-4.073851795217494,-0.2559782789303135,-0.005991258121147188,-0.009326165828577027,-0.15110627168964932
1750167104.3387022,-1.318960648742106,1.7996191421483474,-2.741687883470791,-1.7569125378382413,-3.2662173278595463,1.2715915732335934,-0.19177337567378896,-0.11379675335700701,0.29377021913311285,0.05172729105391748,-0.06360218884007654,-0.08106422345462946,-5.299486513480221,-4.073851795217494,-0.2559782789303135,-0.005991258121147188,-0.009326165828577027,-0.15110627168964932
1750167104.340557,-1.319345000548502,1.7993907527926285,-2.7410987970471745,-1.756808810435408,-3.266344863384633,1.2714290195408222,-0.19257797376087168,-0.11459314553430866,0.2953163045921409,0.052000134276131676,-0.06393335307359786,-0.081489498778664,-5.29694806640346,-4.075355242079255,-0.25595892395245046,-0.005980463568116535,-0.009329002923352633,-0.15118676498816278
1750167104.3425286,-1.3197309588039126,1.799160767388221,-2.740506617851914,-1.7567045372109318,-3.2664730613393154,1.271265615120341,-0.19337982199174764,-0.11539280469521591,0.29686299081320316,0.05227311280652044,-0.06426461851927252,-0.08191495130930226,-5.294397016197766,-4.076865048992208,-0.25593955071396596,-0.005969613843783896,-0.00933185410304577,-0.15126781308603882
1750167104.3445387,-1.320118517992439,1.798929179385263,-2.7399113446832812,-1.756599717893537,-3.266601921926518,1.2711013596168688,-0.1941789041767789,-0.11619574673283799,0.2984102779940481,0.05254622730403295,-0.0645959856768437,-0.0823405819141879,-5.291833371352521,-4.078381194726326,-0.2559201602273284,-0.0059587089478654555,-0.009334719360663964,-0.151349417776678
1750167104.3465438,-1.3205076725657783,1.7986959822021162,-2.739312976339189,-1.7564943522106322,-3.266731445350164,1.27093625267339,-0.19497520409956984,-0.11700198753052422,0.29995816629696903,0.052819478427110135,-0.06492745504581152,-0.08276639146038375,-5.289257140484423,-4.079903657912633,-0.2559007535044506,-0.005947748880084304,-0.009337598689360254,-0.15143158085286879
1750167104.3486168,-1.3208984169431677,1.7984611692253851,-2.73871151161726,-1.7563884398883065,-3.2668616318151753,1.2707702939311554,-0.19576870551699632,-0.11781154296184142,0.30150665584882,0.0530928668336769,-0.06525902712543025,-0.08319238081436396,-5.286668332332898,-4.081432417038789,-0.25588133155665466,-0.005936733640294073,-0.00934049208220913,-0.15151430410578637
1750167104.3506176,-1.3212907455113303,1.798224733809937,-2.7381069493148993,-1.7562819806513366,-3.2669924815274722,1.2706034830296833,-0.19655939215926163,-0.11862442889056343,0.30305574674107844,0.053366393181134994,-0.06559070241470089,-0.08361855084201232,-5.284066955773878,-4.082967450453611,-0.2558618953936961,-0.005925663228498584,-0.009343399532075448,-0.15159758932678338
1750167104.3524365,-1.3216846526244241,1.7979866692789217,-2.737499288229364,-1.7561749742231836,-3.267123994693973,1.270435819606761,-0.19734724772994117,-0.11944066117066557,0.3046054390298704,0.05364005812636672,-0.06592248141237723,-0.08404490240861458,-5.281453019815006,-4.084508736366367,-0.2558424460247258,-0.005914537644516533,-0.009346321031995772,-0.15168143830513717
1750167104.3544607,-1.322080132603988,1.7977469689237904,-2.7368885271578343,-1.7560674203259952,-3.267256171522593,1.2702673032984462,-0.1981322559060278,-0.1202602556463079,0.306155732736018,0.053913862325722955,-0.06625436461695784,-0.08447143637885159,-5.278826533594461,-4.08605625284336,-0.25582298445753265,-0.005903356888427373,-0.009349256574779499,-0.15176585282828886
1750167104.3599532,-1.3224771797388861,1.7975056260043163,-2.736274664897484,-1.755959318680607,-3.2673890122222446,1.2700979337390672,-0.19891440033798516,-0.12108322815182744,0.3077066278450916,0.05418780643501897,-0.06658635252668531,-0.08489815361679724,-5.2761875063854715,-4.087609977809989,-0.2558035116985083,-0.005892120960369334,-0.009352206153216457,-0.15185083468357505
1750167104.3610957,-1.32287578828526,1.7972626337486133,-2.735657700245551,-1.755850669006545,-3.2675225170028357,1.269927710561225,-0.19969366464981017,-0.1219095945117278,0.3092581243074512,0.05446189110953401,-0.06691844563954416,-0.08532505498591116,-5.273535947600897,-4.089169889050384,-0.25578402875307954,-0.00588082986041984,-0.009355169760036638,-0.15193638565557058
1750167104.362213,-1.3232759524664708,1.7970179853531565,-2.7350376319994076,-1.7557414710220218,-3.26765668607527,1.2697566333957941,-0.2004700324390801,-0.12273937054066782,0.31081022203831343,0.05473611700399796,-0.06725064445326046,-0.0857521413490298,-5.270871866784781,-4.0907359642044385,-0.25576453662465,-0.00586948358894548,-0.00935814738795883,-0.15202250752597518
1750167104.362969,-1.3236776664730492,1.7967716739828012,-2.734414458956631,-1.7556317244439459,-3.2677915196514475,1.2695847018719246,-0.20124348727701477,-0.12357257204347064,0.3123629209178056,0.05501048477259294,-0.06758294946529521,-0.0861794135683647,-5.268195273621659,-4.092308180773443,-0.25574503631533724,-0.005858082146213433,-0.009361139029516727,-0.15210920207613124
1750167104.3645585,-1.324080924462642,1.7965236927708033,-2.733788179915073,-1.7555214289879135,-3.267927017944262,1.2694119156170423,-0.20201401270853855,-0.12440921481509915,0.3139162207910233,0.05528499506894785,-0.06791536117284937,-0.08660687250549652,-5.265506177933342,-4.093886516111556,-0.25572552882555477,-0.005846625532567969,-0.009364144677384136,-0.1521964710849039
1750167104.366434,-1.3244857205599585,1.796274034818838,-2.7331587936729305,-1.7554105843682164,-3.2680631811676006,1.2692382742568502,-0.20278159225234788,-0.12524931464066677,0.31547012146810016,0.05555964854613215,-0.06824788007285397,-0.08703451902136844,-5.2628045896846185,-4.095470947433444,-0.25570601515397096,-0.005835113748461928,-0.009367164323957535,-0.15228431632850012
1750167104.3684287,-1.3248920488567215,1.796022693197021,-2.732526299028814,-1.7552991902978397,-3.2682000095363457,1.2690637774153306,-0.2035462094009797,-0.12609288729543597,0.3170246227243006,0.05583444585664443,-0.06858050666197182,-0.08746235397627751,-5.260090518982201,-4.097061451810564,-0.2556864962966811,-0.005823546794590887,-0.009370197961680853,-0.15237273957941913
1750167104.3703787,-1.3252999034116106,1.7957696609439264,-2.7318906947818196,-1.7551872464884664,-3.268337503266372,1.2688884247147458,-0.2043078476208706,-0.12693994854480234,0.31857972430004805,0.056109387652421086,-0.06891324143659554,-0.08789037822987464,-5.257363976068888,-4.0986580061667,-0.2556669732488861,-0.0058119246713434075,-0.00937324558294239,-0.15246174261008832
1750167104.3723488,-1.3257092782502138,1.795514931066608,-2.731251979731596,-1.7550747526504722,-3.2684756625745464,1.2687122157756392,-0.2050664903524413,-0.12779051414431428,0.3201354259010459,0.05638447458481856,-0.06924608489284582,-0.08831859264115263,-5.254624971338957,-4.100260587287013,-0.2556474470026845,-0.005800247379531111,-0.009376307180082854,-0.15255132718736925
1750167104.3743665,-1.3261201673649712,1.7952584965406184,-2.730610152678417,-1.7549617084929352,-3.2686144876787284,1.2685351502168372,-0.2058221210101669,-0.1286445998396594,0.32169172719834044,0.05665970730461195,-0.06957903752656384,-0.08874699806844577,-5.251873515327875,-4.101869171808739,-0.2556279185483169,-0.005788514919946277,-0.009379382745227009,-0.1526414950774259
1750167104.3779368,-1.326532564715131,1.7950003503100282,-2.729965212423247,-1.7548481137236287,-3.2687539787977684,1.2683572276554496,-0.20657472298265336,-0.129502221366686,0.3232486278284168,0.05693508646199494,-0.06991209983331842,-0.08917559536941874,-5.2491096187184025,-4.103483736228572,-0.2556083888735123,-0.005776727293297649,-0.009382472270703091,-0.15273224804131474
1750167104.3783026,-1.3269464642266877,1.7947404852874465,-2.7293171577678126,-1.7547339680490293,-3.2688941361515074,1.2681784477068723,-0.20732427963270775,-0.13036339445138478,0.32480612739326414,0.057210612706562525,-0.07024527230839278,-0.08960438540106232,-5.246333292333761,-4.105104256892489,-0.2555888589639624,-0.005764884500709836,-0.009385575748465822,-0.15282358783761263
1750167104.3805234,-1.3273618597923384,1.79447889435404,-2.7286659875146713,-1.7546192711743114,-3.2690349599607775,1.2679988099847874,-0.20807077429744408,-0.13122813480991627,0.32636422546051214,0.057486286687317596,-0.07057855544679432,-0.0900333690196891,-5.243544547159006,-4.106730710008483,-0.2555693298019897,-0.005752986543070615,-0.009388693170744908,-0.15291551622153413
1750167104.3825724,-1.327778745271429,1.794215570359553,-2.7280117004672793,-1.7545040228033564,-3.2691764504474,1.2678183141011652,-0.2088141902883485,-0.13209645814860402,0.32792292156349034,0.05776210905266103,-0.07091194974323836,-0.09046254708092688,-5.240743394317709,-4.1083630716342245,-0.25554980236800334,-0.005741033421463421,-0.009391824529312044,-0.15300803494495485
1750167104.3843653,-1.3281971144899005,1.7939505061223273,-2.72735429543006,-1.7543882226387462,-3.269318607834186,1.2676369596662653,-0.20955451089136454,-0.1329683801639608,0.32948221520135706,0.058038080450382154,-0.07124545569216126,-0.09089192043970719,-5.237929845084451,-4.110001317685184,-0.2555302776389078,-0.005729025137154945,-0.009394969816309476,-0.15310114575397304
1750167104.3865278,-1.3286169612402432,1.7936836944293213,-2.726693771208473,-1.7542718703817686,-3.2694614323449334,1.2674547462886385,-0.21029171936700955,-0.13384391654267216,0.33104210583918636,0.05831420152766083,-0.07157907378770369,-0.09132148995026793,-5.235103910896801,-4.111645423928066,-0.2555107565894089,-0.005716961691321238,-0.009398129023407208,-0.15319485039316783
1750167104.3885415,-1.3290382792814412,1.7934151280361295,-2.7260301266090816,-1.7541549657324182,-3.26960492420443,1.2672716735751275,-0.21102579895042356,-0.13472308296165028,0.3326025929080975,0.05859047293105467,-0.07191280452371841,-0.09175125646613996,-5.232265603326553,-4.1132953659879234,-0.25549124019032177,-0.0057048430853883095,-0.00940130214249486,-0.15328915060194634
1750167104.3903992,-1.3294610623389236,1.7931447996670027,-2.725363360439621,-1.7540375083893958,-3.269749083638451,1.2670877411308685,-0.21175673285150698,-0.13560589508800316,0.3341636758053498,0.05886689530649845,-0.07224664839376219,-0.09218122084014388,-5.229414934117897,-4.114951119338293,-0.2554717294101437,-0.00569266932075476,-0.009404489165233565,-0.15338404811467288
1750167104.3923872,-1.3298853041045158,1.7928727020148674,-2.724693471509065,-1.753919498050113,-3.2698939108737566,1.2669029485592933,-0.21248450425499424,-0.13649236857908587,0.3357253538944834,0.059143469299298014,-0.07258060589109504,-0.0926113839243825,-5.226551915160935,-4.116612659311435,-0.2554522252133697,-0.0056804403989091775,-0.00940769008326459,-0.15347954466196964
1750167104.3943813,-1.3303109982363859,1.7925988277413447,-2.7240204586276944,-1.753800934410691,-3.2700394061380953,1.2667172954621297,-0.21320909632055696,-0.137382519082496,0.33728762650542193,0.05942019555411984,-0.07291467750868187,-0.09304174657023563,-5.22367655850216,-4.118279961088458,-0.2554327285615957,-0.0056681563215682336,-0.0094109048882742,-0.15357564196992987
1750167104.3964,-1.3307381383589965,1.7923231694767705,-2.7233443206071635,-1.7536818171659592,-3.2701855696602,1.266530781439404,-0.2139304921829079,-0.1382763622361071,0.33885049293461283,0.05969707471499102,-0.07324886373918393,-0.0934723096283507,-5.220788876347645,-4.119952999706748,-0.255413240412639,-0.005655817090370893,-0.009414133571708162,-0.15367234175869338
1750167104.3984807,-1.3311667180630558,1.7920457198202144,-2.7226650562605674,-1.7535621460094646,-3.270332401669789,1.2663434060894414,-0.21464867495191303,-0.13917391366808143,0.34041395244515515,0.059974107425292585,-0.07358316507495632,-0.09390307394864418,-5.217888881064891,-4.1216317500555455,-0.2553937617208172,-0.005643422707103067,-0.009417376124942166,-0.153769645746385
1750167104.4005806,-1.3315967309054653,1.7917664713394998,-2.721982664402508,-1.7534419206334633,-3.2704799023975646,1.2661551690088684,-0.21536362771268108,-0.1400751889968963,0.34197800426693387,0.060251294327748166,-0.073917582008055,-0.09433404038028113,-5.214976585172936,-4.123316186875409,-0.2553742934365379,-0.005630973173747058,-0.00942063253954928,-0.1538675556407866
1750167104.4024994,-1.3320281704092753,1.7914854165712226,-2.72129714384916,-1.7533211407289304,-3.2706280720752137,1.2659660697926136,-0.2160753335256987,-0.14098020383136925,0.34354264759676806,0.06052863606442556,-0.07425211503021928,-0.09476520977168293,-5.212052001364267,-4.125006284762267,-0.255354836506423,-0.0056184684922307914,-0.009423902806609924,-0.15396607314947405
1750167104.4046059,-1.3320281704092753,1.7914854165712226,-2.72129714384916,-1.7533211407289304,-3.2706280720752137,1.2659660697926136,-0.2160753335256987,-0.14098020383136925,0.34354264759676806,0.06052863606442556,-0.07425211503021928,-0.09476520977168293,-5.212052001364267,-4.125006284762267,-0.255354836506423,-0.0056184684922307914,-0.009423902806609924,-0.15396607314947405
1750167104.4110818,-1.3324610300636275,1.7912025480207707,-2.7206084934183385,-1.7531998059855551,-3.270776910935406,1.2657761080339098,-0.2167837754269133,-0.14188897377067655,0.3451078815985311,0.0608061332767278,-0.07458676463288412,-0.0951965829705118,-5.20911514247821,-4.126702018159303,-0.25533539187336945,-0.005605908664617477,-0.0094271869175497,-0.1540651999717756
1750167104.4123888,-1.3333309836107308,1.79063133943897,-2.7192217982041234,-1.752955470734629,-3.2710765971390097,1.2653935952536148,-0.21819079951584405,-0.14371784131255033,0.34824011810969197,0.06136159669044896,-0.07525641554386929,-0.0960599441772745,-5.2032046517014585,-4.1301102885391225,-0.25529654324697726,-0.0055806235801392585,-0.009433796635373023,-0.1542652883273511
1750167104.413639,-1.3337680643118137,1.7903429842625296,-2.718523751065145,-1.7528324696000537,-3.271227444952671,1.2652010434100223,-0.2188893476538966,-0.14463797006557222,0.3498071187835822,0.06163956417129315,-0.07559141783347761,-0.0964919338766894,-5.200231046323886,-4.131822773672316,-0.2552771411179391,-0.0055678983279200175,-0.009437122224403027,-0.15436625323113554
1750167104.4144728,-1.3342065387800064,1.7900527850137702,-2.717822569337654,-1.7527089123725883,-3.2713789628893726,1.265007627379981,-0.21958456378106792,-0.14556191622440948,0.35137470645871643,0.061917689686599615,-0.07592653866615637,-0.09692413076647984,-5.19724521890655,-4.13354079061819,-0.2552577550139939,-0.005555117938951743,-0.009440461621561215,-0.15446783419014243
1750167104.4163597,-1.3346464003342078,1.789760734042327,-2.7171182518486408,-1.7525847987355254,-3.2715311511866907,1.2648133467482667,-0.22027643081247392,-0.14648969534054865,0.3529428801366813,0.06219597387435369,-0.07626177853174332,-0.09735653569042126,-5.194247183130672,-4.135264313086738,-0.2552383858552963,-0.005542282415902642,-0.009443814817605289,-0.15457003287251653
1750167104.4183135,-1.3350876422591202,1.7894668236667415,-2.716410797427125,-1.7524601283708838,-3.271684010083181,1.2646182010979679,-0.22096493163941971,-0.14742132295602667,0.3545116387870699,0.062474417371838654,-0.07659713791975035,-0.09778914949149398,-5.191236952832534,-4.136993314628618,-0.25521903455832695,-0.005529391761485626,-0.009447181803355117,-0.15467285094287775
1750167104.420319,-1.3355302578052077,1.7891710461744812,-2.7157002049042185,-1.752334900959407,-3.271837539818377,1.2644221900104877,-0.2216500491295587,-0.14835681460348513,0.35608098134769683,0.06275302081563545,-0.0769326173193644,-0.09822197301187315,-5.188214542034538,-4.138727768651323,-0.255199702034023,-0.005516445978360067,-0.009450562569656451,-0.1547762900569665
1750167104.422328,-1.3359742401886443,1.7888733938219572,-2.714986473113189,-1.7522091161805662,-3.271991740632792,1.2642253130655465,-0.22233176612699695,-0.14929618580621767,0.3576509067247534,0.0630317848416073,-0.07726821721944016,-0.09865500709292187,-5.185179964916617,-4.140467648411314,-0.25518038918871794,-0.005503445069539182,-0.009453957107150102,-0.15488035186477112
1750167104.4243364,-1.336419582591268,1.7885738588345432,-2.7142696008895246,-1.7520827737125622,-3.2721466127679144,1.264027569841182,-0.22301006545244403,-0.15023945207820733,0.35922141379300954,0.06331071008489783,-0.07760393810849461,-0.09908825257518494,-5.1821332358385614,-4.142212927015561,-0.2551610969232739,-0.005490389038027739,-0.009457365406322827,-0.15498503800892904
1750167104.426433,-1.3368662781605378,1.7882724334065947,-2.7135495870709936,-1.7519558732323262,-3.272302156466211,1.2638289599137518,-0.22368492990335195,-0.1511866289241772,0.3607925013959976,0.06358979717992559,-0.07793978047471245,-0.09952171029837943,-5.179074369335004,-4.143963577422515,-0.2551418261335125,-0.0054772778869106595,-0.00946078745781357,-0.15509035012385847
1750167104.428877,-1.3373143200094821,1.7879691097014665,-2.7128264304977088,-1.7518284144155194,-3.2724583719711235,1.263629482857935,-0.22435634225403897,-0.15213773183963192,0.3623641683462004,0.06386904676037353,-0.07827574480593598,-0.0999553811013892,-5.176003380106326,-4.145719572437476,-0.2551225777097734,-0.005464111619496972,-0.009464223251977372,-0.15519628983782224
1750167104.4306815,-1.3377637012166552,1.7876638798515319,-2.712100130012189,-1.7517003969365392,-3.2726152595270697,1.2634291382467342,-0.22502428525584642,-0.15309277631092233,0.3639364134252583,0.06414845945918705,-0.07861183158966721,-0.10038926582226053,-5.172920283037274,-4.147480884720435,-0.25510335253692445,-0.005450890239100511,-0.009467672779227894,-0.15530285877229785
1750167104.4324534,-1.3382144148260924,1.7873567359582003,-2.7113706844594203,-1.7515718204685156,-3.272772819379442,1.263227925651476,-0.22568874163727945,-0.1540517778152842,0.36550923538416774,0.06442803590856709,-0.07894804131306302,-0.10082336529818856,-5.169825093186409,-4.149247486777546,-0.25508415149417246,-0.005437613749136958,-0.009471136029842434,-0.15541005853838064
1750167104.4345703,-1.338666453847262,1.7870476700919362,-2.710638092686918,-1.751442684683317,-3.272931051774606,1.2630258446418139,-0.22634969410415012,-0.15501475182090016,0.36708263294349003,0.06470777673995934,-0.07928437446293253,-0.1012576803655154,-5.1667178257885675,-4.151019350965777,-0.25506497545490836,-0.005424282153273919,-0.009474612994025121,-0.1555178907417637
1750167104.4365008,-1.3391198112550216,1.7867366742922761,-2.7099023535447855,-1.7513129892515469,-3.273089956959902,1.2628228947857294,-0.22700712533972878,-0.15598171378695622,0.36865660479355455,0.06498768258405424,-0.07962083152573637,-0.10169221185971845,-5.163598496258783,-4.15279644949166,-0.25504582528691605,-0.005410895455096729,-0.00947810366195824,-0.15562635697812016
1750167104.4386635,-1.3391198112550216,1.7867366742922761,-2.7099023535447855,-1.7513129892515469,-3.273089956959902,1.2628228947857294,-0.22700712533972878,-0.15598171378695622,0.36865660479355455,0.06498768258405424,-0.07962083152573637,-0.10169221185971845,-5.163598496258783,-4.15279644949166,-0.25504582528691605,-0.005410895455096729,-0.00947810366195824,-0.15562635697812016
1750167104.4404907,-1.3395744799895741,1.7864237405678476,-2.709163465885776,-1.751182733842552,-3.2732495351836417,1.262619075649534,-0.22766101800490002,-0.1569526791637006,0.37023114959469744,0.06526775407077437,-0.07995741298757984,-0.10212696061540748,-5.1604671201938155,-4.154578754411228,-0.2550267018513361,-0.0053974536584954725,-0.009481608023632059,-0.1557354588366328
1750167104.442578,-1.3400304529564204,1.7861088608963864,-2.7084214285653516,-1.751051918124416,-3.273409786695109,1.2624143867978708,-0.22831135473830136,-0.1579276633925102,0.37180626597745464,0.0655479918292706,-0.08029411933421597,-0.1025619274663106,-5.1573237133645105,-4.15636623762922,-0.2550076060038309,-0.005383956767371121,-0.009485126069123358,-0.1558451978958844
1750167104.4445407,-1.3404877230263175,1.7857920272247543,-2.7076762404417436,-1.7509205417639677,-3.2735707117445587,1.2622088277937165,-0.2289581181564971,-0.15890668190596038,0.3733819525428248,0.06582839648791555,-0.08063095105103552,-0.10299711324527487,-5.154168291732662,-4.158158870902392,-0.25498853859293347,-0.005370404785776192,-0.00948865778822649,-0.15595557572869173
1750167104.4465473,-1.3409462830352332,1.7854732314689568,-2.70692790037601,-1.7507886044267797,-3.273732310583217,1.2620023981983828,-0.2296012908541372,-0.1598897501278626,0.37495820786245987,0.0661089686742966,-0.08096790862307236,-0.10343251878425355,-5.151000871441349,-4.159956625830147,-0.254969500461741,-0.0053567977178722165,-0.009492203170888431,-0.15606659389662442
