mathias31415/primitives_from_planned_trajectory_python/data/saved_trajectories/trajectory_20250626_101043_executed.csv
timestamp,shoulder_lift_joint_pos,elbow_joint_pos,wrist_1_joint_pos,wrist_2_joint_pos,wrist_3_joint_pos,shoulder_pan_joint_pos,shoulder_lift_joint_vel,elbow_joint_vel,wrist_1_joint_vel,wrist_2_joint_vel,wrist_3_joint_vel,shoulder_pan_joint_vel,shoulder_lift_joint_eff,elbow_joint_eff,wrist_1_joint_eff,wrist_2_joint_eff,wrist_3_joint_eff,shoulder_pan_joint_eff
1750925457.2166703,-1.382902758183599,-1.4175619429039479,-1.9135533516497594,1.553474016688138,-2.1078970623337074,-3.677608261980449,0.0,0.0,0.0,0.0,0.0,0.0,2.0706571367780535,4.064207008344179,0.3026403128707484,-0.0014299734188130105,0.0,-1.421254780890821e-16
1750925457.2188835,-1.382902758183599,-1.4175619429039479,-1.9135533516497594,1.553474016688138,-2.1078970623337074,-3.677608261980449,0.0,0.0,0.0,0.0,0.0,0.0,2.0706571367780535,4.064207008344179,0.3026403128707484,-0.0014299734188130105,0.0,-1.421254780890821e-16
1750925457.2196064,-1.382902758183599,-1.4175619429039479,-1.9135533516497594,1.553474016688138,-2.1078970623337074,-3.677608261980449,0.0,0.0,0.0,0.0,0.0,0.0,2.0706571367780535,4.064207008344179,0.3026403128707484,-0.0014299734188130105,0.0,-1.421254780890821e-16
1750925457.220017,-1.382902758183599,-1.4175619429039479,-1.9135533516497594,1.553474016688138,-2.1078970623337074,-3.677608261980449,0.0,0.0,0.0,0.0,0.0,0.0,2.0706571367780535,4.064207008344179,0.3026403128707484,-0.0014299734188130105,0.0,-1.421254780890821e-16
1750925457.220262,-1.382902758183599,-1.4175619429039479,-1.9135533516497594,1.553474016688138,-2.1078970623337074,-3.677608261980449,0.0,0.0,0.0,0.0,0.0,0.0,2.0706571367780535,4.064207008344179,0.3026403128707484,-0.0014299734188130105,0.0,-1.421254780890821e-16
1750925457.2216043,-1.382902758183599,-1.4175619429039479,-1.9135533516497594,1.553474016688138,-2.1078970623337074,-3.677608261980449,0.0,0.0,0.0,0.0,0.0,0.0,2.0706571367780535,4.064207008344179,0.3026403128707484,-0.0014299734188130105,0.0,-1.421254780890821e-16
1750925457.2236612,-1.382902758183599,-1.4175619429039479,-1.9135533516497594,1.553474016688138,-2.1078970623337074,-3.677608261980449,0.0,0.0,0.0,0.0,0.0,0.0,2.0706571367780535,4.064207008344179,0.3026403128707484,-0.0014299734188130105,0.0,-1.421254780890821e-16
1750925457.2258368,-1.382902985427184,-1.4175624669057543,-1.9135526093150217,1.5534740292012394,-2.1078960623337073,-3.6776072619844165,-0.0002272435845590139,-0.0005240018064251416,0.0007423347377708722,1.2513101478117696e-05,0.001,0.0009999960327485378,1.8256821044513956,3.909136258258434,0.3196254168902693,0.0012181548831978438,0.028170323555610118,0.35721813892123283
1750925457.2276278,-1.3829036671579376,-1.4175640389111734,-1.9135503823108078,1.553474066740544,-2.107893062333707,-3.677604261996318,-0.0004544871691180278,-0.0010480036128502832,0.0014846694755417443,2.5026202956235392e-05,0.002,0.0019999920654970756,1.8256901269778043,3.909139451129781,0.3196253705620568,0.0012181800686963803,0.028170323555597513,0.35721865143388376
1750925457.2297676,-1.3829036671579376,-1.4175640389111734,-1.9135503823108078,1.553474066740544,-2.107893062333707,-3.677604261996318,-0.0004544871691180278,-0.0010480036128502832,0.0014846694755417443,2.5026202956235392e-05,0.002,0.0019999920654970756,1.8256901269778043,3.909139451129781,0.3196253705620568,0.0012181800686963803,0.028170323555597513,0.35721865143388376
1750925457.2316134,-1.38290480337586,-1.4175666589202054,-1.9135466706371194,1.5534741293060512,-2.107888062333707,-3.6775992620161544,-0.0006817307536770416,-0.001572005419275425,0.0022270042133126166,3.753930443435309e-05,0.003,0.0029999880982456133,1.825703497825081,3.9091447725363686,0.3196252933485766,0.0012182220442990394,0.028170323555576512,0.35721950561853505
1750925457.2342277,-1.382906394080952,-1.417570326932851,-1.9135414742939547,1.5534742168977616,-2.107881062333707,-3.677592262043925,-0.0009089743382360556,-0.0020960072257005663,0.0029693389510834886,5.0052405912470785e-05,0.004,0.003999984130994151,1.8257222169481249,3.909152222409708,0.31962518525013917,0.0012182808096635532,0.02817032355554711,0.3572207014705371
1750925457.235741,-1.382908439273213,-1.4175750429491085,-1.9135347932813147,1.553474329515675,-2.1078720623337075,-3.6775832620796303,-0.0011362179227950694,-0.002620009032125708,0.0037116736888543607,6.256550739058848e-05,0.005,0.004999980163742689,1.8257462842837866,3.9091618006539206,0.31962504626718047,0.0012183563643106852,0.028170323555509306,0.3572222389833785
1750925457.2374802,-1.3829109389526435,-1.4175808069689797,-1.9135266275991993,1.5534744671597913,-2.1078610623337077,-3.6775722621232703,-0.0013634615073540833,-0.00314401083855085,0.004454008426625233,7.507860886870617e-05,0.006,0.005999976196491227,1.8257756997508792,3.9091735071457276,0.3196248764002595,0.0012184487076242622,0.028170323555463103,0.3572241181486882
1750925457.2394717,-1.3829138931192428,-1.4175876189924628,-1.9135169772476086,1.5534746298301105,-2.107848062333707,-3.6775592621748445,-0.0015907050919130973,-0.0036680126449759915,0.005196343164396105,8.759171034682387e-05,0.007,0.0069999722292397645,1.8258104632501604,3.9091873417344494,0.31962467565006025,0.0012185578388511926,0.028170323555408504,0.3572263389562323
1750925457.2414818,-1.382917301773011,-1.4175954790195586,-1.9135058422265416,1.5534748175266326,-2.1078330623337074,-3.677544262234353,-0.0018179486764721112,-0.004192014451401133,0.005938677902166977,0.00010010481182494157,0.008,0.007999968261988302,1.8258505746643539,3.9092033042420176,0.3196244440173913,0.0012186837571014552,0.02817032355534551,0.3572289013939154
1750925457.244648,-1.3829211649139488,-1.4176043870502681,-1.9134932225360002,1.5534750302493576,-2.1078160623337077,-3.6775272623017963,-0.002045192261031125,-0.004716016257826275,0.00668101263993785,0.00011261791330305927,0.009000000000000001,0.008999964294736842,1.8258960338581383,3.9092213944629632,0.3196241815031851,0.0012188264613480998,0.028170323555274147,0.35723180544777894
1750925457.2459319,-1.3829254825420545,-1.4176143430845904,-1.9134791181759825,1.5534752679982857,-2.1077970623337077,-3.677508262377174,-0.0022724358455901393,-0.005240018064251417,0.007423347377708722,0.00012513101478117697,0.010000000000000002,0.00999996032748538,1.8259468406781278,3.909241612164413,0.31962388810849907,0.001218985950427228,0.02817032355519436,0.35723505110199777
1750925457.2477996,-1.3829302546573308,-1.4176253471225255,-1.9134635291464894,1.553475530773417,-2.1077760623337074,-3.6774872624604864,-0.0024996794301491536,-0.005764019870676559,0.008165682115479595,0.00013764411625929467,0.011000000000000003,0.010999956360233919,1.8260029949529224,3.9092639570861007,0.3196235638345145,0.0012191622230380225,0.02817032355510619,0.3572386383388861
1750925457.2500045,-1.3829354812597758,-1.4176373991640734,-1.9134464554475201,1.5534758185747508,-2.107753062333707,-3.6774642625517333,-0.0027269230147081674,-0.0062880216771017015,0.008908016853250468,0.00015015721773741238,0.012000000000000004,0.011999952392982457,1.8260644964930357,3.909288428940352,0.3196232086825379,0.0012193552777426335,0.02817032355500963,0.3572425671388859
1750925457.2517912,-1.3829411623493897,-1.417650499209234,-1.9134278970790763,1.5534761314022878,-2.107728062333708,-3.6774392626509145,-0.0029541665992671817,-0.006812023483526843,0.009650351591021341,0.0001626703192155301,0.013000000000000005,0.012999948425730996,1.8261313450909347,3.909315027412084,0.319622822653999,0.001219565112966363,0.028170323554904685,0.3572468374805768
1750925457.2537735,-1.3829472979261723,-1.4176646472580074,-1.9134078540411563,1.5534764692560277,-2.1077010623337076,-3.6774122627580303,-0.0031814101838261956,-0.0073360252899519855,0.010392686328792214,0.0001751834206936478,0.014000000000000005,0.013999944458479534,1.8262035405210515,3.9093437521588266,0.31962240575045375,0.0012197917269974612,0.028170323554791352,0.3572514493406623
1750925457.2561,-1.3829472979261723,-1.4176646472580074,-1.9134078540411563,1.5534764692560277,-2.1077010623337076,-3.6774122627580303,-0.0031814101838261956,-0.0073360252899519855,0.010392686328792214,0.0001751834206936478,0.014000000000000005,0.013999944458479534,1.8262035405210515,3.9093437521588266,0.31962240575045375,0.0012197917269974612,0.028170323554791352,0.3572514493406623
1750925457.2600605,-1.3829538879901246,-1.4176798433103937,-1.913386326333761,1.5534768321359707,-2.107672062333707,-3.6773832628730805,-0.00340865376838521,-0.007860027096377127,0.011135021066563087,0.00018769652217176552,0.015000000000000006,0.014999940491228074,1.8262810825397457,3.909374602810682,0.31962195797358106,0.0012200351179872874,0.028170323554669648,0.35725640269398223
1750925457.2621686,-1.3829609325412466,-1.4176960873663926,-1.9133633139568902,1.5534772200421163,-2.107641062333707,-3.6773522629960653,-0.0036358973529442237,-0.008384028902802269,0.01187735580433396,0.00020020962364988322,0.016000000000000007,0.01599993652397661,1.8263639708853274,3.9094075789703564,0.3196214793251852,0.0012202952839501272,0.028170323554539564,0.35726169751349496
1750925457.2638822,-1.3829609325412466,-1.4176960873663926,-1.9133633139568902,1.5534772200421163,-2.107641062333707,-3.6773522629960653,-0.0036358973529442237,-0.008384028902802269,0.01187735580433396,0.00020020962364988322,0.016000000000000007,0.01599993652397661,1.8263639708853274,3.9094075789703564,0.3196214793251852,0.0012202952839501272,0.028170323554539564,0.35726169751349496
1750925457.2657897,-1.3829684315795365,-1.4177133794260044,-1.913338816910544,1.5534776329744653,-2.107608062333707,-3.677319263126985,-0.003863140937503238,-0.008908030709227412,0.012619690542104833,0.00021272272512800093,0.017000000000000008,0.01699993255672515,1.8264522052780185,3.9094426802131355,0.3196209698071949,0.0012205722227634015,0.028170323554401102,0.3572673337702921
1750925457.2670765,-1.382976385104996,-1.4177317194892298,-1.9133128351947217,1.553478070933017,-2.1075730623337074,-3.6772842632658387,-0.004090384522062252,-0.009432032515652554,0.013362025279875706,0.00022523582660611863,0.01800000000000001,0.01799992858947369,1.8265457854200151,3.9094799060869,0.3196204294216634,0.0012208659321674095,0.02817032355425428,0.3572733114335815
1750925457.2687182,-1.3829936556174225,-1.4177715436265181,-1.913256417754651,1.5534790219287293,-2.1074970623337075,-3.6772082635673495,-0.00454487169118028,-0.010480036128502838,0.01484669475541745,0.00025026202956235404,0.02000000000000001,0.019999920654970766,1.8267489816702633,3.9095607297817936,0.31961925605681385,0.0012215036530241379,0.02817032355393553,0.3572862908470822
1750925457.2704968,-1.3829936556174225,-1.4177715436265181,-1.913256417754651,1.5534790219287293,-2.1074970623337075,-3.6772082635673495,-0.00454487169118028,-0.010480036128502838,0.01484669475541745,0.00025026202956235404,0.02000000000000001,0.019999920654970766,1.8267489816702633,3.9095607297817936,0.31961925605681385,0.0012215036530241379,0.02817032355393553,0.3572862908470822
1750925457.2729068,-1.3830127440785258,-1.4178155597782576,-1.9131940616366787,1.5534800730292535,-2.1074130623337073,-3.6771242639005988,-0.004999358860298308,-0.011528039741353122,0.016331364230959197,0.00027528823251858945,0.022000000000000013,0.021999912720467845,1.8269735568920733,3.9096500458896757,0.3196179592495573,0.0012222084257029508,0.02817032355358336,0.35730063547005064
1750925457.2737877,-1.3830127440785258,-1.4178155597782576,-1.9131940616366787,1.5534800730292535,-2.1074130623337073,-3.6771242639005988,-0.004999358860298308,-0.011528039741353122,0.016331364230959197,0.00027528823251858945,0.022000000000000013,0.021999912720467845,1.8269735568920733,3.9096500458896757,0.3196179592495573,0.0012222084257029508,0.02817032355358336,0.35730063547005064
1750925457.275765,-1.383022970039831,-1.417839139859547,-1.9131606565734787,1.55348063611882,-2.107368062333707,-3.677079264079125,-0.005226602444857322,-0.012052041547778263,0.01707369896873007,0.00028780133399670715,0.023000000000000013,0.02299990875321638,1.827093860680722,3.9096978871768258,0.31961726456148487,0.0012225859493706888,0.02817032355339475,0.3573083196380981
1750925457.2781096,-1.3830336504883052,-1.417863767944449,-1.9131257668408033,1.5534812242345895,-2.107321062333707,-3.677032264265586,-0.005453846029416337,-0.012576043354203406,0.017816033706500943,0.00030031443547482486,0.024000000000000014,0.02399990478596492,1.8272195080521878,3.9097478498063785,0.31961653902081083,0.0012229802271939223,0.028170323553197794,0.35731634498835024
1750925457.2796721,-1.383044785423948,-1.417889444032964,-1.9130893924386525,1.5534818373765618,-2.107272062333708,-3.6769832644599814,-0.005681089613975351,-0.013100045160628548,0.018558368444271812,0.00031282753695294256,0.025000000000000015,0.02499990081871346,1.8273504985820985,3.90979993313423,0.319615782630462,0.0012233912559537381,0.028170323552992507,0.3573247114768042
1750925457.281745,-1.3830563748467615,-1.4179161681250916,-1.9130515333670264,1.5534824755447372,-2.107221062333707,-3.676932264662311,-0.005908333198534365,-0.01362404696705369,0.019300703182042685,0.00032534063843106027,0.026000000000000016,0.025999896851462,1.8274868318280046,3.9098541364888493,0.3196149953934903,0.0012238190322941926,0.028170323552778886,0.3573334190575637
1750925457.2834458,-1.3830684187567428,-1.417943940220832,-1.913012189625924,1.5534831387391155,-2.1071680623337077,-3.6768792648725754,-0.0061355767830933786,-0.014148048773478833,0.02004303791981356,0.000337853739909178,0.027000000000000017,0.026999892884210536,1.8276285073293221,3.909910459171252,0.31961417731307257,0.0012242635527221835,0.028170323552556935,0.35734246768282774
1750925457.2855213,-1.3830809171538938,-1.4179727603201853,-1.9129713612153472,1.553483826959697,-2.107113062333708,-3.676824265090774,-0.006362820367652393,-0.014672050579903975,0.02078537265758443,0.0003503668413872957,0.028000000000000018,0.027999888916959075,1.8277755246073992,3.909968900455019,0.31961332839251083,0.0012247248136075734,0.028170323552326664,0.357351857302895
1750925457.2884977,-1.3830938700382127,-1.4180026284231513,-1.912929048135294,1.5534845402064812,-2.107056062333708,-3.6767672653169075,-0.006590063952211407,-0.015196052386329116,0.021527707395355304,0.0003628799428654134,0.02900000000000002,0.028999884949707615,1.827927883165449,3.9100294595862723,0.3196124486352323,0.0012252028111830043,0.02817032355208808,0.3573615878661477
1750925457.2896125,-1.3831072774097022,-1.418033544529731,-1.9128852503857656,1.5534852784794684,-2.1069970623337078,-3.6767082655509755,-0.006817307536770421,-0.015720054192754258,0.022270042133126177,0.0003753930443435311,0.03000000000000002,0.029999880982456154,1.828085582488613,3.910092135783695,0.31961153804478926,0.0012256975415440424,0.02817032355184119,0.3573716593190611
1750925457.2915428,-1.3831211392683604,-1.4180655086399225,-1.9128399679667618,1.5534860417786585,-2.1069360623337072,-3.676647265792978,-0.007044551121329436,-0.0162440559991794,0.02301237687089705,0.0003879061458216488,0.03100000000000002,0.03099987701520469,1.828248622043872,3.910156928238497,0.3196105966248596,0.0012262090006490642,0.028170323551585996,0.3573820716061909
1750925457.293343,-1.3831354556141875,-1.4180985207537269,-1.9127932008782818,1.5534868301040516,-2.1068730623337073,-3.6765842660429144,-0.007271794705888449,-0.016768057805604544,0.023754711608667923,0.0004004192472997665,0.03200000000000002,0.03199987304795323,1.8284170012800982,3.91022383611443,0.319609624379246,0.0012267371843193253,0.028170323551322513,0.35739282467017736
1750925457.29554,-1.3831502264471833,-1.418132580871145,-1.9127449491203272,1.5534876434556477,-2.106808062333707,-3.6765192663007857,-0.007499038290447463,-0.017292059612029686,0.024497046346438796,0.0004129323487778842,0.03300000000000002,0.032999869080701766,1.8285907196280444,3.91029285854779,0.31960862131187723,0.0012272820882388005,0.02817032355105074,0.35740391845172814
1750925457.2972999,-1.3831654517673488,-1.4181676889921757,-1.9126952126928964,1.5534884818334467,-2.1067410623337075,-3.6764522665665917,-0.007726281875006478,-0.017816061418454827,0.02523938108420967,0.0004254454502560019,0.03400000000000002,0.03399986511345031,1.8287697765003237,3.910363994647385,0.319607587426807,0.0012278437079543498,0.028170323550770683,0.3574153528896331
1750925457.2993276,-1.383181131574684,-1.4182038451168184,-1.9126439915959903,1.5534893452374487,-2.1066720623337076,-3.676383266840332,-0.007953525459565491,-0.01834006322487997,0.02598171582198054,0.0004379585517341196,0.035000000000000024,0.034999861146198845,1.828954171291416,3.9104372434945613,0.31960652272821505,0.0012284220388755185,0.028170323550482355,0.35742712792073433
1750925457.3027787,-1.3831972658691871,-1.4182410492450748,-1.912591285829608,1.5534902336676537,-2.1066010623337075,-3.676312267122007,-0.008180769044124505,-0.01886406503130511,0.026724050559751415,0.0004504716532122373,0.036000000000000025,0.03599985717894739,1.829143903377628,3.910512604143171,0.3196054272204063,0.0012290170762746919,0.028170323550185766,0.3574392434799543
1750925457.303627,-1.3832138546508599,-1.418279301376944,-1.912537095393751,1.5534911471240616,-2.106528062333707,-3.676239267411616,-0.00840801262868352,-0.019388066837730252,0.027466385297522287,0.000462984754690355,0.037000000000000026,0.036999853211695924,1.8293389721171527,3.9105900756195893,0.3196043009078112,0.0012296288152868866,0.02817032354988091,0.35745169950025485
1750925457.3057182,-1.3832308979197023,-1.4183186015124258,-1.912481420288418,1.5534920856066725,-2.106453062333707,-3.67616426770916,-0.008635256213242534,-0.019912068644155394,0.02820872003529316,0.0004754978561684728,0.03800000000000003,0.03799984924444446,1.8295393768500052,3.910669656922699,0.319603143794987,0.0012302572509099617,0.028170323549567815,0.35746449591266694
1750925457.307782,-1.3832483956757136,-1.4183589496515205,-1.9124242605136104,1.5534930491154861,-2.106376062333707,-3.6760872680146384,-0.008862499797801548,-0.020436070450580535,0.028951054773064033,0.0004880109576465905,0.03900000000000003,0.038999845277193,1.8297451168980297,3.910751347023879,0.3196019558866159,0.0012309023780043588,0.028170323549246472,0.35747763264626276
1750925457.3094969,-1.3832663479188936,-1.418400345794228,-1.9123656160693256,1.553494037650503,-2.1062970623337076,-3.6760082683280513,-0.009089743382360562,-0.02096007225700568,0.029693389510834906,0.0005005240591247082,0.04000000000000003,0.03999984130994154,1.8299561915649074,3.910835144867012,0.31960073718750626,0.0012315641912932509,0.028170323548916902,0.35749110962815117
1750925457.312856,-1.3832847546492424,-1.4184427899405483,-1.9123054869555665,1.5534950512117227,-2.106216062333708,-3.675927268649399,-0.009316986966919577,-0.021484074063430822,0.03043572424860578,0.0005130371606028259,0.04100000000000003,0.040999837342690075,1.8301726001361402,3.910921049368471,0.3195994877025927,0.001232242685362439,0.028170323548579106,0.35750492678349216
1750925457.313543,-1.3833036158667609,-1.4184862820904822,-1.912243873172331,1.5534960897991454,-2.106133062333708,-3.6758442689786808,-0.009544230551478591,-0.022008075869855964,0.031178058986376652,0.0005255502620809436,0.04200000000000003,0.04199983337543862,1.8303943418790474,3.911009059417112,0.3195982074369358,0.0012329378546604057,0.028170323548233095,0.3575190840354724
1750925457.315634,-1.383322931571449,-1.418530822244028,-1.9121807747196211,1.553497153412771,-2.1060480623337074,-3.675759269315897,-0.009771474136037604,-0.022532077676281105,0.031920393724147525,0.0005380633635590613,0.04300000000000003,0.042999829408187154,1.8306214160427556,3.9110991738742746,0.3195968963957222,0.0012336496934981355,0.02817032354787888,0.3575335813052985
1750925457.3173342,-1.383342701763305,-1.4185764104011866,-1.912116191597435,1.5534982420525996,-2.105961062333707,-3.6756722696610478,-0.009998717720596618,-0.023056079482706247,0.032662728461918394,0.000550576465037179,0.04400000000000003,0.0439998254409357,1.8308538218581676,3.9111913915737655,0.31959555458426536,0.001234378196049321,0.028170323547516467,0.3575484185122148
1750925457.3193958,-1.3833629264423308,-1.418623046561959,-1.9120501238057734,1.5534993557186312,-2.1058720623337077,-3.6755832700141333,-0.010225961305155632,-0.023580081289131388,0.03340506319968927,0.0005630895665152967,0.04500000000000003,0.04499982147368423,1.831091558538014,3.911285711321864,0.3195941820080044,0.001235123356350119,0.028170323547145867,0.35756359557346407
1750925457.321791,-1.3833629264423308,-1.418623046561959,-1.9120501238057734,1.5534993557186312,-2.1058720623337077,-3.6755832700141333,-0.010225961305155632,-0.023580081289131388,0.03340506319968927,0.0005630895665152967,0.04500000000000003,0.04499982147368423,1.831091558538014,3.911285711321864,0.3195941820080044,0.001235123356350119,0.028170323547145867,0.35756359557346407
1750925457.3240035,-1.3833836056085262,-1.418670730726344,-1.9119825713446357,1.5535004944108657,-2.1057810623337074,-3.675492270375153,-0.010453204889714646,-0.02410408309555653,0.03414739793746014,0.0005756026679934144,0.046000000000000034,0.04599981750643277,1.8313346252767937,3.91138213189731,0.31959277867250546,0.0012358851682992928,0.028170323546767097,0.3575791124043145
1750925457.3276696,-1.3834047392618896,-1.418719462894341,-1.9119135342140234,1.553501658129303,-2.105688062333707,-3.6753992707441077,-0.01068044847427366,-0.024628084901981675,0.03488973267523102,0.0005881157694715321,0.047000000000000035,0.04699981353918131,1.8315830212507616,3.9114806520512895,0.31959134458346167,0.0012366636256580792,0.028170323546380157,0.35759496891803244
1750925457.3281586,-1.3834263274024234,-1.4187692430659515,-1.911843012413935,1.5535028468739436,-2.105593062333707,-3.6753042711209964,-0.010907692058832675,-0.025152086708406816,0.035632067413001886,0.0006006288709496498,0.048000000000000036,0.04799980957192985,1.8318367456179871,3.911581270507451,0.31958987974669145,0.0012374587220501908,0.028170323545985063,0.357611165025875
1750925457.3320189,-1.3834483700301252,-1.418820071241175,-1.911771005944372,1.553504060644787,-2.1054960623337076,-3.67520727150582,-0.01113493564339169,-0.025676088514831958,0.03637440215077276,0.0006131419724277675,0.04900000000000004,0.048999805604678384,1.8320957975182448,3.9116839859618655,0.31958838416814184,0.0012382704509618433,0.02817032354558182,0.3576277006371057
1750925457.3324716,-1.3834708671449967,-1.4188719474200102,-1.911697514805332,1.5535052994418332,-2.105397062333708,-3.6751082718985777,-0.011362179227950703,-0.0262000903212571,0.03711673688854363,0.0006256550739058852,0.05000000000000004,0.04999980163742693,1.8323601760731036,3.911788797083049,0.3195868578538853,0.00123909880574167,0.028170323545170448,0.35764457565896635
1750925457.3411984,-1.383493818747037,-1.41892487160246,-1.9116225389968173,1.5535065632650826,-2.105296062333707,-3.67500727229927,-0.011589422812509718,-0.02672409212768224,0.03785907162631451,0.0006381681753840029,0.05100000000000004,0.05099979767017546,1.832629880385851,3.9118957025119396,0.3195853008101221,0.0012399437796006758,0.02817032354475095,0.35766178999667136
1750925457.3418946,-1.383493818747037,-1.41892487160246,-1.9116225389968173,1.5535065632650826,-2.105296062333707,-3.67500727229927,-0.011589422812509718,-0.02672409212768224,0.03785907162631451,0.0006381681753840029,0.05100000000000004,0.05099979767017546,1.832629880385851,3.9118957025119396,0.3195853008101221,0.0012399437796006758,0.02817032354475095,0.35766178999667136
1750925457.3423073,-1.3835410854126255,-1.4190338639781963,-1.9114681333713612,1.55350916599019,-2.1050880623337074,-3.6747992731244583,-0.012043909981627745,-0.027772095740532524,0.039343741101856254,0.0006631943783402383,0.05300000000000004,0.05299978973567254,1.8331852626068605,3.9121157907186817,0.3195820945595118,0.0012416835567123211,0.02817032354388763,0.35769723623037475
1750925457.342673,-1.3835410854126255,-1.4190338639781963,-1.9114681333713612,1.55350916599019,-2.1050880623337074,-3.6747992731244583,-0.012043909981627745,-0.027772095740532524,0.039343741101856254,0.0006631943783402383,0.05300000000000004,0.05299978973567254,1.8331852626068605,3.9121157907186817,0.3195820945595118,0.0012416835567123211,0.02817032354388763,0.35769723623037475
1750925457.344021,-1.3835901700268902,-1.4191470483683837,-1.9113077890680028,1.5535118688201093,-2.1048720623337074,-3.674583273981385,-0.012498397150745773,-0.02882009935338281,0.040828410577398,0.0006882205812964738,0.05500000000000004,0.05499978180116962,1.8337619366421254,3.912344239157829,0.31957876546845587,0.0012434897252321954,0.028170323542991954,0.3577340385393163
1750925457.3507595,-1.3836410725898318,-1.419264424773023,-1.911141506086742,1.5535146717548405,-2.104648062333707,-3.674359274870049,-0.012952884319863802,-0.029868102966233094,0.042313080052939746,0.0007132467842527092,0.057000000000000044,0.05699977386666669,1.8343598946598074,3.91258103596346,0.3195753135911392,0.0012453622258923912,0.028170323542064016,0.3577721960918199
1750925457.3530788,-1.3836672056020554,-1.4193246849807624,-1.9110561375918982,1.5535161107615103,-2.104533062333708,-3.674244275326283,-0.013180127904422816,-0.030392104772658236,0.043055414790710615,0.0007257598857308269,0.058000000000000045,0.057999769899415236,1.8346668526344798,3.9127025611747697,0.31957354162512436,0.0012463233316512149,0.028170323541587983,0.3577917828154985
1750925457.3538427,-1.3836937931014486,-1.4193859931921136,-1.910969284427579,1.5535175747943832,-2.1044160623337076,-3.6741272757904513,-0.01340737148898183,-0.030916106579083377,0.04379774952848149,0.0007382729872089446,0.059000000000000045,0.05899976593216377,1.8349791285350214,3.91282616882771,0.3195717389837902,0.0012473009972208036,0.028170323541103923,0.3578117080232218
1750925457.3543496,-1.3836937931014486,-1.4193859931921136,-1.910969284427579,1.5535175747943832,-2.1044160623337076,-3.6741272757904513,-0.01340737148898183,-0.030916106579083377,0.04379774952848149,0.0007382729872089446,0.059000000000000045,0.05899976593216377,1.8349791285350214,3.91282616882771,0.3195717389837902,0.0012473009972208036,0.028170323541103923,0.3578117080232218
1750925457.354775,-1.3837208350880115,-1.4194483494070784,-1.9108809465937844,1.5535190638534593,-2.104297062333707,-3.6740082762625543,-0.013634615073540845,-0.03144010838550852,0.04454008426625236,0.0007507860886870623,0.060000000000000046,0.059999761964912315,1.8352967212999918,3.912951857314709,0.3195699056744842,0.0012482952145726359,0.028170323540611844,0.3578319716017201
1750925457.3583007,-1.3837483315617432,-1.419511753625656,-1.9107911240905135,1.553520577938738,-2.104176062333707,-3.6738872767425916,-0.013861858658099859,-0.03196411019193366,0.04528241900402323,0.00076329919016518,0.06100000000000005,0.06099975799766085,1.8356196298495848,3.913079625000537,0.3195680417046838,0.0012493059755401307,0.02817032354011177,0.35785257343561133
1750925457.3591244,-1.3837762825226436,-1.4195762058478465,-1.9106998169177682,1.5535221170502198,-2.1040530623337075,-3.6737642772305636,-0.014089102242658871,-0.032488111998358805,0.04602475374179411,0.0007758122916432977,0.06200000000000005,0.06199975403040939,1.835947853085631,3.9132094702222906,0.31956614708199377,0.0012503332718189729,0.028170323539603703,0.3578735134074304
1750925457.3598833,-1.3838046879707138,-1.4196417060736497,-1.9106070250755467,1.5535236811879047,-2.1039280623337078,-3.6736392777264704,-0.014316345827217884,-0.033012113804783944,0.046767088479564976,0.0007883253931214153,0.06300000000000004,0.06299975006315792,1.8362813898916,3.9133413912894133,0.31956422181414745,0.001251377094966774,0.028170323539087463,0.35789479139759095
1750925457.3624628,-1.3838335479059527,-1.4197082543030657,-1.9105127485638498,1.5535252703517923,-2.103801062333707,-3.673512278230311,-0.014543589411776898,-0.03353611561120909,0.047509423217335846,0.000800838494599533,0.06400000000000004,0.06399974609590646,1.836620239132548,3.9134753864836465,0.3195622659090071,0.0012524374364032249,0.028170323538563666,0.3579164072844041
1750925457.3634808,-1.3838628623283604,-1.4197758505360945,-1.9104169873826775,1.553526884541883,-2.1036720623337075,-3.6733832787420866,-0.014770832996335912,-0.03406011741763423,0.04825175795510672,0.0008133515960776507,0.06500000000000004,0.064999742128655,1.8369643996551661,3.9136114540590676,0.31956027937456416,0.001253514287409903,0.028170323538031724,0.35793836094403336
1750925457.3681269,-1.3838628623283604,-1.4197758505360945,-1.9104169873826775,1.553526884541883,-2.1036720623337075,-3.6733832787420866,-0.014770832996335912,-0.03406011741763423,0.04825175795510672,0.0008133515960776507,0.06500000000000004,0.064999742128655,1.8369643996551661,3.9136114540590676,0.31956027937456416,0.001253514287409903,0.028170323538031724,0.35793836094403336
1750925457.3688314,-1.383922854634685,-1.4199141870129903,-1.910221011011906,1.5535301880006733,-2.103408062333708,-3.6731192797894407,-0.015225320165453941,-0.03510812103048451,0.04973642743064847,0.0008383777990338861,0.06700000000000005,0.06699973419415207,1.8376686498400407,3.9138897992311903,0.31955621445037674,0.0012557174825702168,0.02817032353694405,0.3579832810757854
1750925457.3697348,-1.383922854634685,-1.4199141870129903,-1.910221011011906,1.5535301880006733,-2.103408062333708,-3.6731192797894407,-0.015225320165453941,-0.03510812103048451,0.04973642743064847,0.0008383777990338861,0.06700000000000005,0.06699973419415207,1.8376686498400407,3.9138897992311903,0.31955621445037674,0.0012557174825702168,0.02817032353694405,0.3579832810757854
1750925457.3724613,-1.3839535325185999,-1.4199849272568574,-1.9101207958223068,1.553531877269373,-2.1032730623337077,-3.6729842803250197,-0.015452563750012955,-0.035632122836909655,0.05047876216841934,0.0008508909005120038,0.06800000000000005,0.06799973022690062,1.838028737103541,3.9140320731974785,0.3195541360772592,0.001256843808596677,0.028170323536388354,0.35800624728955666
1750925457.3740225,-1.3839846648896845,-1.4200567155043382,-1.9100190959632322,1.5535335915642754,-2.103136062333707,-3.6728472808685333,-0.015679807334571968,-0.03615612464333479,0.051221096906190214,0.0008634040019901215,0.06900000000000005,0.06899972625964915,1.838394130851202,3.9141764122841116,0.31955202710809305,0.0012579866079389368,0.028170323535824774,0.35802955075942605
1750925457.375795,-1.384016251747938,-1.4201295517554309,-1.9099159114346822,1.5535353308853808,-2.1029970623337073,-3.672708281419981,-0.015907050919130982,-0.03668012644975994,0.05196343164396108,0.0008759171034682392,0.07000000000000005,0.06999972229239769,1.8387648298375108,3.9143228146065385,0.31954988755151414,0.0012591458711880713,0.028170323535253318,0.3580531913508288
1750925457.3779237,-1.384048293093361,-1.4202034360101372,-1.9098112422366569,1.5535370952326892,-2.102856062333707,-3.6725672819793638,-0.016134294503689996,-0.037204128256185076,0.05270576638173196,0.0008884302049463569,0.07100000000000005,0.07099971832514623,1.839140832798535,3.9144712782525,0.31954771741629,0.0012603215887967438,0.02817032353467401,0.35807716892699265
1750925457.3798487,-1.384080788925953,-1.4202783682684554,-1.9097050883691553,1.5535388846062006,-2.1027130623337076,-3.6724242825466806,-0.01636153808824901,-0.03772813006261022,0.05344810111950283,0.0009009433064244746,0.07200000000000005,0.07199971435789478,1.8395221384518157,3.914621801281937,0.31954551671131615,0.0012615137510794308,0.02817032353408686,0.35810148334897796
1750925457.3814852,-1.3841137392457146,-1.4203543485303873,-1.9095974498321784,1.5535406990059148,-2.1025680623337077,-3.672279283121932,-0.016588781672808025,-0.038252131869035366,0.0541904358572737,0.0009134564079025923,0.07300000000000005,0.0729997103906433,1.8399087454964356,3.914774381727055,0.3195432854456194,0.0012627223482122466,0.028170323533491883,0.35812613447563957
1750925457.3835373,-1.384147144052644,-1.420431376795932,-1.909488326625726,1.5535425384318322,-2.1024210623337076,-3.672132283705118,-0.01681602525736704,-0.038776133675460504,0.054932770595044575,0.00092596950938071,0.07400000000000005,0.07399970642339185,1.8403006526129344,3.9149290175922555,0.319541023628356,0.00126394737023309,0.028170323532889095,0.35815112216364453
1750925457.3854144,-1.3841810033467432,-1.4205094530650895,-1.9093777187497984,1.5535444028839525,-2.1022720623337072,-3.6719832842962385,-0.017043268841926053,-0.03930013548188565,0.055675105332815444,0.0009384826108588277,0.07500000000000005,0.07499970245614039,1.8406978584633695,3.9150857068541614,0.3195387312688121,0.001265188807041249,0.028170323532278517,0.3581764462674167
1750925457.3875773,-1.384215317128012,-1.4205885773378597,-1.9092656262043946,1.5535462923622756,-2.1021210623337074,-3.6718322848952933,-0.017270512426485068,-0.03982413728831079,0.05641744007058632,0.0009509957123369456,0.07600000000000005,0.07599969848888892,1.8411003616912511,3.9152444474615935,0.3195364083764054,0.001266446648397687,0.028170323531660164,0.358202106639168
1750925457.3895538,-1.3842500853964497,-1.4206687496142427,-1.9091520489895162,1.5535482068668018,-2.1019680623337074,-3.671679285502283,-0.017497756011044082,-0.04034813909473593,0.05715977480835719,0.0009635088138150633,0.07700000000000005,0.07699969452163746,1.841508160921528,3.9154052373355523,0.3195340549606828,0.0012677208839249909,0.02817032353103405,0.35822810312889
1750925457.39153,-1.384285308152056,-1.4207499698942385,-1.9090369871051616,1.553550146397531,-2.101813062333708,-3.671524286117207,-0.017724999595603096,-0.04087214090116107,0.05790210954612807,0.000976021915293181,0.07800000000000006,0.077999690554386,1.841921254760611,3.915568074369228,0.3195316710313237,0.0012690115031070263,0.028170323530400193,0.3582544355843008
1750925457.3933916,-1.3843209853948322,-1.420832238177847,-1.9089204405513316,1.553552110954463,-2.1016560623337073,-3.6713672867400655,-0.01795224318016211,-0.041396142707586216,0.058644444283898936,0.0009885350167712986,0.07900000000000006,0.07899968658713453,1.8423396417963354,3.915732956427965,0.3195292565981362,0.0012703184952892025,0.028170323529758613,0.3582811038508773
1750925457.395331,-1.384357117124777,-1.4209155544650685,-1.9088024093280254,1.553554100537598,-2.1014970623337073,-3.6712082873708582,-0.018179486764721125,-0.04192014451401136,0.05938677902166981,0.0010010481182494164,0.08000000000000006,0.07999968261988308,1.8427633205979361,3.915899881349268,0.3195268116710619,0.0012716418496784353,0.028170323529109323,0.35830810777184485
1750925457.397285,-1.3843937033418907,-1.4209999187559035,-1.9086828934352447,1.553556115146936,-2.101336062333708,-3.671047288009586,-0.01840673034928014,-0.0424441463204365,0.06012911375944068,0.001013561219727534,0.08100000000000006,0.08099967865263162,1.843192289716064,3.9160688469427867,0.3195243362601718,0.0012729815553427966,0.02817032352845235,0.3583354471881243
1750925457.399303,-1.384430744046174,-1.4210853310503504,-1.9085618928729877,1.5535581547824768,-2.1011730623337073,-3.670884288656248,-0.018633973933839153,-0.042968148126861644,0.06087144849721156,0.0010260743212056518,0.08200000000000006,0.08199967468538015,1.8436265476827443,3.916239850990287,0.3195218303756696,0.0012743376012117852,0.028170323527787696,0.3583631219383661
1750925457.4012632,-1.3844682392376262,-1.421171791348411,-1.9084394076412554,1.5535602194442208,-2.1010080623337073,-3.6707192893108442,-0.018861217518398168,-0.04349214993328678,0.06161378323498243,0.0010385874226837694,0.08300000000000006,0.08299967071812869,1.844066093011378,3.916412891245676,0.31951929402788926,0.0012757099760762403,0.028170323527115394,0.3583911318589352
1750925457.403329,-1.384506188916248,-1.4212592996500835,-1.9083154377400486,1.5535623091321675,-2.100841062333707,-3.6705522899733753,-0.019088461102957182,-0.04401615173971193,0.062356117972753304,0.0010511005241618872,0.08400000000000006,0.08399966675087724,1.844510924196726,3.9165879654349505,0.3195167272272984,0.0012770986685880458,0.02817032352643546,0.35841947678386255
1750925457.405516,-1.3845445930820377,-1.4213478559553696,-1.9081899831693647,1.5535644238463173,-2.1006720623337074,-3.6703832906438407,-0.019315704687516196,-0.044540153546137065,0.06309845271052418,0.0010636136256400048,0.08500000000000006,0.08499966278362577,1.8449610397148788,3.9167650712562154,0.3195141299844954,0.0012785036672603761,0.0281703235257479,0.3584481565448729
1750925457.4074962,-1.384583451734997,-1.4214374602642685,-1.9080630439292054,1.5535665635866702,-2.1005010623337075,-3.670212291322241,-0.019542948272075207,-0.04506415535256221,0.06384078744829505,0.0010761267271181226,0.08600000000000006,0.08599965881637431,1.8454164380232694,3.9169442063796454,0.31951150231021036,0.0012799249604676648,0.02817032352505275,0.3584771709713773
1750925457.41034,-1.384583451734997,-1.4214374602642685,-1.9080630439292054,1.5535665635866702,-2.1005010623337075,-3.670212291322241,-0.019542948272075207,-0.04506415535256221,0.06384078744829505,0.0010761267271181226,0.08600000000000006,0.08599965881637431,1.8454164380232694,3.9169442063796454,0.31951150231021036,0.0012799249604676648,0.02817032352505275,0.3584771709713773
1750925457.4173267,-1.3847027546168906,-1.4217125612126411,-1.9076733181918764,1.5535731329649463,-2.099976062333708,-3.669687293405048,-0.02022467902575225,-0.04663616077183764,0.06606779166160767,0.0011136660315524756,0.08900000000000007,0.08899964691461992,1.8468143139836997,3.9174937638457448,0.319503436807762,0.0012842864889577546,0.028170323522921883,0.3585662205025582
1750925457.4179726,-1.3847027546168906,-1.4217125612126411,-1.9076733181918764,1.5535731329649463,-2.099976062333708,-3.669687293405048,-0.02022467902575225,-0.04663616077183764,0.06606779166160767,0.0011136660315524756,0.08900000000000007,0.08899964691461992,1.8468143139836997,3.9174937638457448,0.319503436807762,0.0012842864889577546,0.028170323522921883,0.3585662205025582
1750925457.4200656,-1.3847027546168906,-1.4217125612126411,-1.9076733181918764,1.5535731329649463,-2.099976062333708,-3.669687293405048,-0.02022467902575225,-0.04663616077183764,0.06606779166160767,0.0011136660315524756,0.08900000000000007,0.08899964691461992,1.8468143139836997,3.9174937638457448,0.319503436807762,0.0012842864889577546,0.028170323522921883,0.3585662205025582
1750925457.4204423,-1.384784562307332,-1.4219012018629549,-1.9074060776862787,1.5535776376814783,-2.0996160623337072,-3.6693272948332583,-0.02067916619487028,-0.04768416438468792,0.06755246113714941,0.001138692234508711,0.09100000000000007,0.09099963898011701,1.8477726161196506,3.9178702380299266,0.31949790785141774,0.0012872754279015825,0.028170323521463675,0.3586272569505109
1750925457.4215233,-1.3848261478833068,-1.4219970941935305,-1.9072702304292672,1.5535799275790487,-2.0994330623337074,-3.6691442955592652,-0.020906409779429293,-0.04820816619111306,0.06829479587492028,0.0011512053359868288,0.09200000000000007,0.09199963501286554,1.84825967772781,3.918061498475266,0.31949509782101654,0.0012887942363964445,0.028170323520723337,0.3586582756553475
1750925457.4234304,-1.3848681879464504,-1.4220940345277189,-1.9071328985027787,1.5535822425028223,-2.0992480623337073,-3.668959296293207,-0.021133653363988307,-0.048732167997538205,0.06903713061269116,0.0011637184374649464,0.09300000000000007,0.09299963104561408,1.8487520108040594,3.9182547711313176,0.3194922574379665,0.0012903292541544002,0.02817032351997554,0.3586896277652678
1750925457.4254663,-1.3849106824967627,-1.42219202286552,-1.9069940819068156,1.5535845824527987,-2.099061062333707,-3.668772297035083,-0.02136089694854732,-0.04925616980396335,0.06977946535046203,0.0011762315389430642,0.09400000000000007,0.09399962707836262,1.8492496136558894,3.918450053444473,0.3194893867140618,0.0012918804684371032,0.028170323519220303,0.358721313090605
1750925457.4274533,-1.384953631534244,-1.4222910592069349,-1.9068537806413772,1.553586947428978,-2.098872062333708,-3.6685832977848936,-0.021588140533106336,-0.04978017161038849,0.0705218000882329,0.0011887446404211818,0.09500000000000007,0.09499962311111115,1.849752484571982,3.9186473428330992,0.3194864856612329,0.0012934478663669804,0.028170323518457642,0.35875333143927096
1750925457.4292557,-1.3849970350588947,-1.4223911435519625,-1.9067119947064626,1.5535893374313603,-2.098681062333707,-3.6683922985426385,-0.02181538411766535,-0.05030417341681363,0.07126413482600377,0.0012012577418992997,0.09600000000000007,0.0959996191438597,1.8502606218221787,3.9188466366874994,0.3194835542915423,0.0012950314349272755,0.028170323517687588,0.3587856826167468
1750925457.4312809,-1.3850408930707143,-1.422492275900602,-1.9065687241020735,1.5535917524599456,-2.0984880623337077,-3.668199299308318,-0.022042627702224364,-0.05082817522323877,0.07200646956377464,0.0012137708433774172,0.09700000000000007,0.09699961517660824,1.850774023657479,3.919047932369935,0.3194805926171882,0.0012966311609616122,0.028170323516910158,0.3588183664260246
1750925457.4338288,-1.3850852055697036,-1.4225944562528552,-1.906423968828208,1.5535941925147339,-2.098293062333708,-3.668004300081932,-0.02226987128678338,-0.051352177029663916,0.07274880430154552,0.001226283944855535,0.09800000000000007,0.09799961120935677,1.8512926883100187,3.919251227214578,0.319477600650502,0.0012982470311742973,0.028170323516125372,0.3588513826676402
1750925457.435582,-1.3851299725558617,-1.4226976846087211,-1.9062777288848674,1.553596657595725,-2.098096062333708,-3.6678073008634806,-0.022497114871342393,-0.051876178836089054,0.0734911390393164,0.0012387970463336527,0.09900000000000007,0.09899960724210531,1.8518166139930425,3.9194565185275225,0.3194745784039503,0.0012998790321302018,0.028170323515333245,0.3588847311396581
1750925457.437192,-1.3851751940291894,-1.422801960968199,-1.9061300042720504,1.5535991477029192,-2.0978970623337077,-3.667608301652964,-0.022724358455901407,-0.0524001806425142,0.07423347377708726,0.0012513101478117705,0.10000000000000007,0.09999960327485385,1.8523457989009124,3.919663803586755,0.3194715258901358,0.0013015271502545395,0.028170323514533815,0.35891841163761845
1750925457.4394405,-1.385220869989686,-1.4229072853312905,-1.905980794989759,1.5536016628363163,-2.097696062333707,-3.667407302450381,-0.02295160204046042,-0.052924182448939344,0.07497580851485813,0.001263823249289888,0.10100000000000008,0.10099959930760238,1.8528802412090672,3.9198730796421573,0.31946844312179534,0.0013031913718329366,0.028170323513727093,0.3589524239545649
1750925457.4412456,-1.3852670004373513,-1.4230136576979948,-1.9058301010379912,1.5536042029959163,-2.097493062333708,-3.6672043032557333,-0.023178845625019436,-0.05344818425536448,0.07571814325262902,0.0012763363507680059,0.10200000000000008,0.10199959534035093,1.8534199390740087,3.9200843439154713,0.3194653301118021,0.0013048716830115412,0.028170323512913098,0.3589867678810332
1750925457.4431548,-1.3853135853721854,-1.423121078068312,-1.9056779224167482,1.5536067681817194,-2.097288062333707,-3.66699930406902,-0.02340608920957845,-0.05397218606178963,0.07646047799039989,0.0012888494522461235,0.10300000000000008,0.10299959137309947,1.8539648906332882,3.920297593600286,0.31946218687316247,0.0013065680697965825,0.028170323512091866,0.35902144320499385
1750925457.445216,-1.3853606247941892,-1.4232295464422418,-1.9055242591260297,1.5536093583937254,-2.0970810623337073,-3.666792304890241,-0.02363333279413746,-0.054496187868214765,0.07720281272817076,0.0013013625537242413,0.10400000000000008,0.10399958740584801,1.8545150940055102,3.920512825862056,0.3194590134190221,0.0013082805180546777,0.028170323511263404,0.35905644971188727
1750925457.4472523,-1.3854081187033618,-1.4233390628197853,-1.905369111165836,1.5536119736319343,-2.0968720623337074,-3.6665833057193966,-0.023860576378696475,-0.05502018967463991,0.07794514746594162,0.0013138756552023589,0.10500000000000008,0.10499958343859654,1.8550705472902551,3.9207300378380343,0.3194558097626604,0.001310009013512544,0.028170323510427746,0.35909178718458235
1750925457.449142,-1.385456067099704,-1.4234496272009407,-1.905212478536166,1.553614613896346,-2.096661062333707,-3.6663723065564864,-0.02408781996325549,-0.05554419148106505,0.07868748220371251,0.0013263887566804767,0.10600000000000008,0.10599957947134508,1.8556312485681359,3.920949226637311,0.3194525759174947,0.0013117535417572154,0.028170323509584913,0.3591274554033893
1750925457.4512131,-1.385504469983215,-1.423561239585709,-1.9050543612370205,1.553617279186961,-2.0964480623337076,-3.666159307401511,-0.024315063547814503,-0.056068193287490194,0.07942981694148338,0.0013389018581585943,0.10700000000000008,0.10699957550409363,1.8561971959007106,3.921170389340745,0.31944931189707637,0.00131351408823559,0.028170323508734923,0.3591634541460011
1750925457.453156,-1.385553327353895,-1.4236738999740908,-1.9048947592683998,1.5536199695037787,-2.0962330623337078,-3.66594430825447,-0.024542307132373518,-0.05659219509391534,0.08017215167925425,0.0013514149596367121,0.10800000000000008,0.10799957153684216,1.8567683873305159,3.9213935230009977,0.3194460177150964,0.0013152906382547054,0.02817032350787781,0.3591997831875215
1750925457.455381,-1.3856026392117444,-1.4237876083660854,-1.9047336726303037,1.5536226848467996,-2.0960160623337076,-3.6657273091153635,-0.024769550716932532,-0.05711619690034048,0.08091448641702512,0.0013639280611148297,0.10900000000000008,0.1089995675695907,1.8573448208810281,3.9216186246424938,0.31944269338538156,0.0013170831769816554,0.028170323507013584,0.35923644230045
1750925457.4574373,-1.3856524055567636,-1.423902364761692,-1.9045711013227322,1.5536254252160233,-2.095797062333707,-3.6655083099841916,-0.024996794301491546,-0.05764019870676562,0.081656821154796,0.0013764411625929475,0.11000000000000008,0.10999956360233924,1.857926494556632,3.921845691261392,0.31943933892189574,0.001318891689443283,0.028170323506142278,0.35927343125462746
1750925457.4596663,-1.3856524055567636,-1.423902364761692,-1.9045711013227322,1.5536254252160233,-2.095797062333707,-3.6655083099841916,-0.024996794301491546,-0.05764019870676562,0.081656821154796,0.0013764411625929475,0.11000000000000008,0.10999956360233924,1.857926494556632,3.921845691261392,0.31943933892189574,0.001318891689443283,0.028170323506142278,0.35927343125462746
1750925457.461263,-1.3857533017083075,-1.4241350215637452,-1.9042415046991614,1.5536309810330795,-2.0953530623337073,-3.6650643117456516,-0.025451281470609575,-0.058688202319615905,0.08314149063033774,0.001401467365549183,0.11200000000000009,0.11199955566783631,1.8591055542051582,3.9223057072747536,0.31943253965015395,0.0013225565749775496,0.02817032350437853,0.35934839775291755
1750925457.4694579,-1.3857533017083075,-1.4241350215637452,-1.9042415046991614,1.5536309810330795,-2.0953530623337073,-3.6650643117456516,-0.025451281470609575,-0.058688202319615905,0.08314149063033774,0.001401467365549183,0.11200000000000009,0.11199955566783631,1.8591055542051582,3.9223057072747536,0.31943253965015395,0.0013225565749775496,0.02817032350437853,0.35934839775291755
1750925457.4699676,-1.3857533017083075,-1.4241350215637452,-1.9042415046991614,1.5536309810330795,-2.0953530623337073,-3.6650643117456516,-0.025451281470609575,-0.058688202319615905,0.08314149063033774,0.001401467365549183,0.11200000000000009,0.11199955566783631,1.8591055542051582,3.9223057072747536,0.31943253965015395,0.0013225565749775496,0.02817032350437853,0.35934839775291755
1750925457.4717805,-1.3859080545893923,-1.42449186679392,-1.9037359747427391,1.5536395024551861,-2.094672062333707,-3.66438331444735,-0.026133012224286618,-0.06026020773889133,0.08536849484365036,0.0014390066699835362,0.11500000000000009,0.11499954376608193,1.8609133936267375,3.9230103919035266,0.3194221150962788,0.001328173323901391,0.028170323501680406,0.3594633154032296
1750925457.4736283,-1.385960547857425,-1.424612911211205,-1.9035644954183146,1.5536423929816277,-2.0944410623337077,-3.664152315363785,-0.026360255808845632,-0.06078420954531647,0.08611082958142123,0.0014515197714616537,0.11600000000000009,0.11599953979883047,1.8615264650742454,3.9232491837225023,0.31941858013112784,0.0013300773564849234,0.028170323500767133,0.35950227842271587
1750925457.475323,-1.3860134956126275,-1.4247350036321018,-1.9033915314244139,1.5536453085342719,-2.094208062333708,-3.6639193162881543,-0.026587499393404646,-0.061308211351741616,0.0868531643191921,0.0014640328729397716,0.11700000000000009,0.116999535831579,1.8621447621417477,3.923489918699765,0.3194150151338173,0.0013319972540645271,0.02817032349984695,0.3595415695975509
1750925457.4772997,-1.3860668978549988,-1.4248581440566115,-1.9032170827610377,1.5536482491131194,-2.093973062333708,-3.6636843172204583,-0.02681474297796366,-0.061832213158166754,0.08759549905696298,0.0014765459744178892,0.11800000000000009,0.11799953186432754,1.8627682826803003,3.923732593604928,0.3194114201194191,0.0013339330005445265,0.028170323498919892,0.3595811886760327
1750925457.4801893,-1.3860668978549988,-1.4248581440566115,-1.9032170827610377,1.5536482491131194,-2.093973062333708,-3.6636843172204583,-0.02681474297796366,-0.061832213158166754,0.08759549905696298,0.0014765459744178892,0.11800000000000009,0.11799953186432754,1.8627682826803003,3.923732593604928,0.3194114201194191,0.0013339330005445265,0.028170323498919892,0.3595811886760327
1750925457.4815457,-1.3861207545845389,-1.4249823324847348,-1.9030411494281863,1.5536512147181696,-2.093736062333708,-3.663447318160697,-0.027041986562522675,-0.0623562149645919,0.08833783379473385,0.001489059075896007,0.11900000000000009,0.11899952789707609,1.8633970245217022,3.923977205179195,0.31940779510314155,0.0013358845796884037,0.028170323497985972,0.35962113540366986
1750925457.4831867,-1.3861750658012486,-1.42510756891647,-1.9028637314258585,1.553654205349423,-2.0934970623337072,-3.66320831910887,-0.02726923014708169,-0.06288021677101704,0.08908016853250472,0.0015015721773741246,0.12000000000000009,0.11999952392982463,1.864030985478484,3.924223750135367,0.319404140100336,0.0013378519751191392,0.02817032349704523,0.3596614095232107
1750925457.4851894,-1.386229831505128,-1.425233853351818,-1.9026848287540563,1.553657221006879,-2.0932560623337073,-3.6629673200649777,-0.027496473731640703,-0.06340421857744219,0.08982250327027559,0.0015140852788522424,0.1210000000000001,0.12099951996257316,1.8646701633438787,3.9244722251578223,0.3194004551264921,0.0013398351703189193,0.028170323496097684,0.359702010774601
1750925457.487201,-1.3862850516961753,-1.4253611857907797,-1.9025044414127779,1.5536602616905384,-2.093013062333707,-3.6627243210290197,-0.027723717316199718,-0.06392822038386732,0.09056483800804646,0.00152659838033036,0.1220000000000001,0.1219995159953217,1.8653145558917812,3.924722626902489,0.3193967401972407,0.0013418341486292511,0.028170323495143364,0.3597429388949963
1750925457.4894726,-1.3863407263743923,-1.4254895662333542,-1.902322569402024,1.5536633274004004,-2.0927680623337075,-3.6624793220009964,-0.02795096090075873,-0.06445222219029247,0.09130717274581734,0.0015391114818084778,0.1230000000000001,0.12299951202807025,1.8659641608767712,3.9249749519968273,0.31939299532835197,0.001343848893250609,0.0281703234941823,0.3597841936187006
1750925457.4912949,-1.386396855539779,-1.4256189946795406,-1.902139212721794,1.5536664181364654,-2.0925210623337076,-3.6622323229809077,-0.028178204485317743,-0.06497622399671761,0.09204950748358821,0.0015516245832865954,0.1240000000000001,0.12399950806081877,1.8666189760340626,3.9252291970398367,0.31938922053573693,0.0013458793872426658,0.028170323493214508,0.35982577467719185
1750925457.4931614,-1.3864534391923335,-1.4257494711293406,-1.9019543713720894,1.5536695338987336,-2.0922720623337074,-3.6619833239687534,-0.028405448069876753,-0.06550022580314274,0.09279184222135907,0.001564137684764713,0.12500000000000008,0.1249995040935673,1.8672789990794723,3.925485358602011,0.3193854158354489,0.001347925613524189,0.02817032349223963,0.35986768179909995
1750925457.4952495,-1.3865104773320578,-1.4258809955827534,-1.9017680453529087,1.5536726746872045,-2.092021062333707,-3.6617323249645333,-0.028632691654435768,-0.06602422760956789,0.09353417695912995,0.0015766507862428306,0.12600000000000008,0.12599950012631583,1.8679442277094296,3.9257434332253243,0.3193815812436826,0.0013499875548727642,0.028170323491258878,0.35990991471017203
1750925457.4972215,-1.3865679699589517,-1.426013568039779,-1.9015802346642534,1.5536758405018785,-2.091768062333708,-3.661479325968248,-0.028859935238994782,-0.06654822941599303,0.09427651169690082,0.0015891638877209484,0.12700000000000009,0.1269994961590644,1.8686146596009403,3.926003417423234,0.31937771677677124,0.0013520651939250504,0.028170323490271088,0.35995247313327916
1750925457.4992301,-1.3866259170730135,-1.4261471885004173,-1.901390939306122,1.5536790313427555,-2.091513062333707,-3.661224326979897,-0.029087178823553796,-0.06707223122241818,0.09501884643467169,0.001601676989199066,0.12800000000000009,0.12799949219181292,1.869290292411548,3.926265307680644,0.3193738224511944,0.0013541585131762262,0.02817032348927669,0.35999535678835165
1750925457.5012298,-1.386684318674246,-1.4262818569646685,-1.9012001592785142,1.5536822472098353,-2.0912560623337075,-3.6609673279994808,-0.02931442240811281,-0.06759623302884331,0.09576118117244256,0.0016141900906771838,0.1290000000000001,0.12899948822456145,1.8699711237793535,3.926529100453893,0.3193698982835701,0.0013562674949806402,0.028170323488275712,0.3600385653924571
1750925457.5032237,-1.3867431747626462,-1.4264175734325324,-1.901007894581432,1.5536854881031181,-2.0909970623337077,-3.6607083290269986,-0.029541665992671825,-0.06812023483526845,0.09650351591021344,0.0016267031921553014,0.1300000000000001,0.12999948425731,1.8706571513229253,3.9267947921707242,0.3193659442906611,0.0013583921215511716,0.02817032348726818,0.3600820986596976
1750925457.5052779,-1.3868024853382162,-1.42655433790401,-1.9008141452148735,1.553688754022604,-2.0907360623337077,-3.6604473300624516,-0.02976890957723084,-0.0686442366416936,0.09724585064798431,0.0016392162936334192,0.1310000000000001,0.13099948029005853,1.8713483726413718,3.927062379230307,0.319361960489371,0.0013605323749591744,0.028170323486254124,0.3601259563011945
1750925457.5075772,-1.3868622504009558,-1.4266921503790995,-1.9006189111788396,1.5536920449682927,-2.0904730623337073,-3.6601843311058384,-0.029996153161789853,-0.06916823844811874,0.09798818538575518,0.0016517293951115368,0.1320000000000001,0.13199947632280706,1.872044785314229,3.927331858003167,0.31935794689674835,0.0013626882371348724,0.02817032348523357,0.36017013802515613
1750925457.5130246,-1.3869224699508633,-1.4268310108578017,-1.9004221924733304,1.5536953609401845,-2.0902080623337076,-3.6599193321571604,-0.030223396746348868,-0.06969224025454387,0.09873052012352605,0.0016642424965896546,0.1330000000000001,0.13299947235555562,1.872746386901473,3.9276032248312,0.31935390352998394,0.0013648596898669285,0.02817032348420655,0.3602146435367759
1750925457.5134506,-1.3869831439879405,-1.4269709193401177,-1.900223989098346,1.553698701938279,-2.0899410623337076,-3.659652333216416,-0.030450640330907882,-0.07021624206096902,0.09947285486129694,0.0016767555980677722,0.1340000000000001,0.13399946838830415,1.8734531749435275,3.9278764760276417,0.31934983040641163,0.0013670467148021725,0.028170323483173092,0.36025947253821694
1750925457.5158112,-1.3871058555236022,-1.4272538803155879,-1.8998231283399498,1.5537054590130772,-2.0894010623337076,-3.6591123353587323,-0.03090512750002591,-0.07126424567381931,0.10095752433683867,0.0017017818010240076,0.1360000000000001,0.13599946045380124,1.874882300455634,3.9284286166353293,0.31934159495889974,0.0013714674071629062,0.028170323481086987,0.3603500998042935
1750925457.5177314,-1.3871058555236022,-1.4272538803155879,-1.8998231283399498,1.5537054590130772,-2.0894010623337076,-3.6591123353587323,-0.03090512750002591,-0.07126424567381931,0.10095752433683867,0.0017017818010240076,0.1360000000000001,0.13599946045380124,1.874882300455634,3.9284286166353293,0.31934159495889974,0.0013714674071629062,0.028170323481086987,0.3603500998042935
1750925457.5192325,-1.3872303850079408,-1.4275410333055083,-1.8994163289036505,1.5537123161926873,-2.0888530623337074,-3.658564337532786,-0.031359614669143936,-0.07231224928666959,0.10244219381238043,0.001726808003980243,0.1380000000000001,0.1379994525192983,1.8763321417813321,3.9289882497583255,0.31933324069577135,0.0013759501645597434,0.028170323478975492,0.36044201738017617
1750925457.5212631,-1.3872933314808638,-1.4276861818058881,-1.8992107021812883,1.5537157823217966,-2.0885760623337077,-3.6582873386317147,-0.03158685825370295,-0.07283625109309473,0.1031845285501513,0.0017393211054583608,0.1390000000000001,0.13899944855204685,1.877064824516582,3.9292708664911515,0.31932901905321903,0.0013782147702585618,0.028170323477910295,0.3604884592574002
1750925457.5245473,-1.3872933314808638,-1.4276861818058881,-1.8992107021812883,1.5537157823217966,-2.0885760623337077,-3.6582873386317147,-0.03158685825370295,-0.07283625109309473,0.1031845285501513,0.0017393211054583608,0.1390000000000001,0.13899944855204685,1.877064824516582,3.9292708664911515,0.31932901905321903,0.0013782147702585618,0.028170323477910295,0.3604884592574002
1750925457.5252392,-1.3873567324409555,-1.4278323783098807,-1.8990035907894498,1.553719273477109,-2.088297062333707,-3.658008339738578,-0.031814101838261964,-0.07336025289951988,0.10392686328792217,0.0017518342069364784,0.1400000000000001,0.13999944458479538,1.8778026785365998,3.9295553448690104,0.3193247677608964,0.0013804948350665542,0.028170323476838843,0.36053522277356975
1750925457.527274,-1.3874205878882169,-1.4279796228174861,-1.8987949947281368,1.5537227896586245,-2.0880160623337076,-3.6577273408533753,-0.03204134542282098,-0.07388425470594502,0.10466919802569304,0.0017643473084145963,0.1410000000000001,0.14099944061754394,1.8785457012440763,3.9298416810040213,0.3193204868371502,0.0013827903396383065,0.028170323475761167,0.3605823076094123
1750925457.529372,-1.387484897822647,-1.4281279153287043,-1.8985849139973476,1.5537263308663427,-2.087733062333708,-3.6574443419761073,-0.03226858900737999,-0.07440825651237015,0.10541153276346392,0.0017768604098927139,0.1420000000000001,0.14199943665029247,1.8792938900219343,3.930129870979502,0.31931617630047415,0.001385101264485713,0.028170323474677295,0.36062971344243683
1750925457.531179,-1.387549662244247,-1.4282772558435362,-1.898373348597083,1.553729897100264,-2.0874480623337073,-3.657159343106774,-0.03249583259193901,-0.0749322583187953,0.10615386750123479,0.0017893735113708317,0.1430000000000001,0.142999432683041,1.8800472422333077,3.9304199108499343,0.31931183616950615,0.001387427589979079,0.028170323473587264,0.3606774399470599
1750925457.5331898,-1.3876148811530147,-1.4284276443619799,-1.8981602985273422,1.5537334883603882,-2.087161062333708,-3.656872344245375,-0.03272307617649802,-0.07545626012522044,0.10689620223900566,0.0018018866128489493,0.1440000000000001,0.14399942871578955,1.8808057552215018,3.930711796640968,0.3193074664630339,0.0013897692963461663,0.0281703234724911,0.36072548679449146
1750925457.53512,-1.3876805545489521,-1.4285790808840364,-1.897945763788127,1.5537371046467154,-2.0868720623337076,-3.656583345391911,-0.032950319761057036,-0.07598026193164559,0.10763853697677653,0.001814399714327067,0.1450000000000001,0.14499942474853808,1.8815694263100098,3.931005524349382,0.31930306719998935,0.0013921263636723462,0.02817032347138883,0.36077385365271775
1750925457.5371416,-1.3877466824320592,-1.4287315654097057,-1.8977297443794354,1.5537407459592456,-2.086581062333707,-3.656292346546381,-0.03317756334561605,-0.07650426373807073,0.1083808717145474,0.0018269128158051847,0.1460000000000001,0.1459994207812866,1.8823382528024355,3.9313010899430716,0.3192986383994528,0.0013944987719009063,0.0281703234702805,0.3608225401865685
1750925457.539284,-1.3877466824320592,-1.4287315654097057,-1.8977297443794354,1.5537407459592456,-2.086581062333707,-3.656292346546381,-0.03317756334561605,-0.07650426373807073,0.1083808717145474,0.0018269128158051847,0.1460000000000001,0.1459994207812866,1.8823382528024355,3.9313010899430716,0.3192986383994528,0.0013944987719009063,0.0281703234702805,0.3608225401865685
1750925457.5411575,-1.3878132648023351,-1.4288850979389887,-1.8975122403012685,1.5537444122979787,-2.0862880623337077,-3.6559993477087858,-0.033404806930175064,-0.07702826554449586,0.10912320645231828,0.0018394259172833025,0.1470000000000001,0.14699941681403517,1.8831122319824933,3.931598489361023,0.31929418008065186,0.0013968865008325618,0.02817032346916613,0.3608715460576122
1750925457.5430536,-1.3878803016597798,-1.4290396784718844,-1.8972932515536263,1.5537481036629146,-2.0859930623337073,-3.655704348879125,-0.03363205051473408,-0.07755226735092101,0.10986554119008915,0.00185193901876142,0.1480000000000001,0.1479994128467837,1.8838913611139887,3.931897718513295,0.3192896922629604,0.001399289530125281,0.02817032346804576,0.3609208709241387
1750925457.545096,-1.3879477930043933,-1.429195307008392,-1.8970727781365078,1.5537518200540537,-2.0856960623337075,-3.655407350057399,-0.03385929409929309,-0.07807626915734615,0.11060787592786002,0.001864452120239538,0.1490000000000001,0.14899940887953222,1.8846756374407831,3.932198773281012,0.31928517496590314,0.0014017078392948865,0.02817032346691942,0.360970514441226
1750925457.5471542,-1.3880157388361773,-1.4293519835485133,-1.8968508200499148,1.5537555614713956,-2.0853970623337075,-3.655108351243607,-0.03408653768385211,-0.0786002709637713,0.11135021066563089,0.0018769652217176555,0.1500000000000001,0.14999940491228078,1.885465058186789,3.9325016495163285,0.31928062820915093,0.001404141407714279,0.02817032346578714,0.36102047626063644
1750925457.5490952,-1.3880841391551293,-1.4295097080922474,-1.8966273772938456,1.5537593279149406,-2.085096062333708,-3.6548073524377496,-0.03431378126841112,-0.07912427277019644,0.11209254540340177,0.0018894783231957733,0.1510000000000001,0.1509994009450293,1.8862596205558977,3.9328063430424107,0.31927605201252496,0.0014065902146135091,0.028170323464648955,0.3610707560307964
1750925457.551159,-1.388152993961251,-1.4296684806395943,-1.896402449868301,1.5537631193846884,-2.0847930623337074,-3.654504353639827,-0.034541024852970136,-0.07964827457662157,0.11283488014117264,0.0019019914246738911,0.1520000000000001,0.15199939697777784,1.8870593217320086,3.933112849653424,0.3192714463959932,0.0014090542390801197,0.0281703234635049,0.3611213533968655
1750925457.5573952,-1.3882223032545413,-1.429828301190554,-1.896176037773281,1.5537669358806392,-2.0844880623337074,-3.6541993548498386,-0.03476826843752915,-0.08017227638304672,0.11357721487894351,0.0019145045261520087,0.1530000000000001,0.1529993930105264,1.887864158878961,3.933421165114494,0.3192668113796754,0.0014115334600586793,0.028170323462355006,0.36117226800062996
1750925457.5578282,-1.3882920670350005,-1.4299891697451264,-1.8959481410087857,1.5537707774027931,-2.084181062333707,-3.653892356067785,-0.034995512022088164,-0.08069627818947187,0.11431954961671438,0.0019270176276301265,0.1540000000000001,0.15399938904327493,1.8886741291405476,3.9337312851617257,0.31926214698384014,0.0014140278563505903,0.028170323461199312,0.3612234994804842
1750925457.558092,-1.3882920670350005,-1.4299891697451264,-1.8959481410087857,1.5537707774027931,-2.084181062333707,-3.653892356067785,-0.034995512022088164,-0.08069627818947187,0.11431954961671438,0.0019270176276301265,0.1540000000000001,0.15399938904327493,1.8886741291405476,3.9337312851617257,0.31926214698384014,0.0014140278563505903,0.028170323461199312,0.3612234994804842
1750925457.5612352,-1.3882920670350005,-1.4299891697451264,-1.8959481410087857,1.5537707774027931,-2.084181062333707,-3.653892356067785,-0.034995512022088164,-0.08069627818947187,0.11431954961671438,0.0019270176276301265,0.1540000000000001,0.15399938904327493,1.8886741291405476,3.9337312851617257,0.31926214698384014,0.0014140278563505903,0.028170323461199312,0.3612234994804842
1750925457.5620885,-1.3882920670350005,-1.4299891697451264,-1.8959481410087857,1.5537707774027931,-2.084181062333707,-3.653892356067785,-0.034995512022088164,-0.08069627818947187,0.11431954961671438,0.0019270176276301265,0.1540000000000001,0.15399938904327493,1.8886741291405476,3.9337312851617257,0.31926214698384014,0.0014140278563505903,0.028170323461199312,0.3612234994804842
1750925457.5634556,-1.3885040852993944,-1.4304780634305212,-1.895255542698445,1.553782452126472,-2.0832480623337073,-3.6529593597692305,-0.03567724277576521,-0.08226828360874729,0.116546553830027,0.0019645569320644795,0.1570000000000001,0.15699937714152054,1.8911348097493346,3.934672429745103,0.3192479777241641,0.0014216018829772453,0.02817032345769774,0.3613790915101151
1750925457.5651848,-1.3885756670285305,-1.4306431239995447,-1.8950217072560473,1.5537863937534377,-2.082933062333707,-3.6526443610189148,-0.03590448636032422,-0.08279228541517243,0.11728888856779787,0.001977070033542597,0.1580000000000001,0.15799937317426907,1.8919652835049856,3.934989724916191,0.31924319601594786,0.0014241567656773258,0.028170323456519177,0.3614315868107139
1750925457.567248,-1.3886477032448354,-1.430809232572182,-1.8947863871441744,1.5537903604066063,-2.0826160623337078,-3.6523273622765333,-0.036131729944883235,-0.08331628722159758,0.11803122330556876,0.001989583135020715,0.1590000000000001,0.15899936920701763,1.8928008757922354,3.9353088029174517,0.31923838503181323,0.001426726715552048,0.028170323455334975,0.36148439712842695
1750925457.5692594,-1.38872019394831,-1.430976389148432,-1.8945495823628251,1.5537943520859778,-2.0822970623337076,-3.6520083635420866,-0.03635897352944225,-0.08384028902802272,0.11877355804333962,0.0020020962364988328,0.16000000000000011,0.15999936523976616,1.8936415836339224,3.935629659310261,0.31923354479293303,0.001429311710543528,0.028170323454145177,0.36153752208106427
1750925457.5724235,-1.3887931391389534,-1.4311445937282938,-1.8943112929120005,1.5537983687915522,-2.081976062333707,-3.651687364815574,-0.036586217114001264,-0.08436429083444785,0.1195158927811105,0.0020146093379769504,0.16100000000000012,0.16099936127251468,1.8944874040326005,3.9359522896267922,0.31922867532063404,0.0014319117284508705,0.028170323452949817,0.36159096128299406
1750925457.5732217,-1.3888665388167656,-1.4313138463117694,-1.8940715187917005,1.5538024105233297,-2.0816530623337073,-3.6513643660969963,-0.03681346069856028,-0.084888292640873,0.12025822751888136,0.002027122439455068,0.16200000000000012,0.16199935730526324,1.8953383339705698,3.93627668937001,0.31922377663639356,0.0014345267469294146,0.028170323451748934,0.36164471434503564
1750925457.5753157,-1.3889403929817474,-1.4314841468988577,-1.8938302600019252,1.55380647728131,-2.081328062333707,-3.6510393673863533,-0.03704070428311929,-0.08541229444729814,0.12100056225665225,0.002039635540933186,0.16300000000000012,0.16299935333801177,1.8961943704098196,3.9366028540136417,0.31921884876184303,0.0014371567434906815,0.02817032345054256,0.36169878087444146
1750925457.577296,-1.389014701633898,-1.4316554954895588,-1.8935875165426737,1.5538105690654935,-2.0810010623337067,-3.6507123686836445,-0.03726794786767831,-0.08593629625372329,0.12174289699442312,0.0020521486424113036,0.16400000000000012,0.1639993493707603,1.8970555102919937,3.9369307790021546,0.31921389171876496,0.0014398016955028614,0.028170323449330726,0.3617531604749607
1750925457.5791683,-1.3890894647732184,-1.4318278920838718,-1.8933432884139476,1.5538146858758797,-2.080672062333708,-3.65038336998887,-0.03749519145223732,-0.08646029806014843,0.12248523173219399,0.002064661743889421,0.16500000000000012,0.16499934540350886,1.897921750538387,3.937260459750737,0.31920890552909803,0.0014424615801902085,0.02817032344811348,0.361807852746735
1750925457.5812848,-1.3891646823997075,-1.4320013366817994,-1.8930975756157453,1.553818827712469,-2.080341062333707,-3.6500523713020305,-0.037722435036796335,-0.08698429986657356,0.12322756646996486,0.0020771748453675388,0.16600000000000012,0.16599934143625739,1.8987930880498987,3.9375918916452783,0.3192038902149323,0.0014451363746329558,0.028170323446890855,0.36186285728627704
1750925457.5834165,-1.3892403545133654,-1.4321758292833389,-1.8928503781480677,1.5538229945752613,-2.0800080623337074,-3.649719372623125,-0.03794967862135535,-0.08750830167299871,0.12396990120773574,0.002089687946845657,0.16700000000000012,0.16699933746900592,1.8996695197070035,3.9379250700423305,0.31919884579851354,0.0014478260557677868,0.02817032344566288,0.361918173686537
1750925457.5854125,-1.389316481114193,-1.432351369888491,-1.8926016960109138,1.5538271864642563,-2.0796730623337076,-3.6493843739521545,-0.038176922205914364,-0.08803230347942385,0.12471223594550661,0.0021022010483237744,0.16800000000000012,0.16799933350175447,1.900551042369755,3.9382599902691235,0.31919377230224033,0.0014505306003871077,0.0281703234444296,0.3619738015367943
1750925457.5873826,-1.3893930622021893,-1.4325279584972561,-1.8923515292042854,1.5538314033794545,-2.0793360623337076,-3.649047375289118,-0.03840416579047338,-0.088556305285849,0.12545457068327748,0.002114714149801892,0.16900000000000012,0.168999329534503,1.9014376528777075,3.9385966476234957,0.31918866974866783,0.0014532499851391933,0.028170323443191043,0.3620297404226402
1750925457.5893674,-1.3894700977773544,-1.4327055951096348,-1.8920998777281817,1.5538356453208555,-2.0789970623337073,-3.6487083766340165,-0.03863140937503239,-0.08908030709227413,0.12619690542104836,0.0021272272512800096,0.17000000000000012,0.16999932556725153,1.902329348049934,3.938935037373919,0.3191835381605064,0.0014559841865284472,0.02817032344194726,0.3620859899260383
1750925457.591236,-1.3895475878396892,-1.4328842797256254,-1.8918467415826008,1.5538399122884596,-2.0786560623337076,-3.648367377986849,-0.0388586529595914,-0.08960430889869928,0.12693924015881922,0.0021397403527581276,0.17100000000000012,0.1709993216000001,1.9032261246849678,3.939275154759423,0.3191783775606185,0.001458733180914914,0.028170323440698277,0.36214254962522285
1750925457.593186,-1.3896255323891928,-1.4330640123452296,-1.8915921207675463,1.5538442042822667,-2.0783130623337076,-3.6480243793476164,-0.039085896544150414,-0.09012831070512442,0.1276815748965901,0.002152253454236245,0.17200000000000013,0.17199931763274862,1.9041279795607864,3.939616994989636,0.3191731879720287,0.0014614969445140348,0.028170323439444134,0.3621994190946751
1750925457.5952036,-1.3897039314258661,-1.4332447929684458,-1.8913360152830148,1.5538485213022766,-2.0779680623337073,-3.647679380716318,-0.03931314012870943,-0.09065231251154957,0.12842390963436096,0.002164766555714363,0.17300000000000013,0.17299931366549717,1.9050349094347905,3.9399605532447075,0.3191679694179113,0.0014642754533974115,0.02817032343818487,0.36225659790519715
1750925457.5972042,-1.3897827849497073,-1.4334266215952756,-1.8910784251290087,1.5538528633484896,-2.077621062333707,-3.647332382092954,-0.03954038371326844,-0.09117631431797471,0.12916624437213184,0.0021772796571924804,0.17400000000000013,0.1739993096982457,1.9059469110437475,3.940305824675313,0.31916272192160317,0.0014670686834916207,0.028170323436920525,0.3623140856237491
1750925457.602077,-1.389862092960719,-1.4336094982257181,-1.8908193503055264,1.5538572304209053,-2.077272062333707,-3.646983383477525,-0.03976762729782746,-0.09170031612439984,0.12990857910990272,0.0021897927586705984,0.17500000000000013,0.17499930573099423,1.9068639811038108,3.9406528044026308,0.31915744550659303,0.0014698766105791245,0.028170323435651134,0.3623718818135709
1750925457.6024528,-1.389862092960719,-1.4336094982257181,-1.8908193503055264,1.5538572304209053,-2.077272062333707,-3.646983383477525,-0.03976762729782746,-0.09170031612439984,0.12990857910990272,0.0021897927586705984,0.17500000000000013,0.17499930573099423,1.9068639811038108,3.9406528044026308,0.31915744550659303,0.0014698766105791245,0.028170323435651134,0.3623718818135709
1750925457.6044922,-1.3899418554588987,-1.4337934228597735,-1.8905587908125687,1.553861622519524,-2.0769210623337075,-3.6466323848700304,-0.03999487088238647,-0.09222431793082499,0.13065091384767358,0.002202305860148716,0.17600000000000013,0.1759993017637428,1.9077861163104162,3.9410014875182973,0.3191521401965288,0.001472699210297572,0.02817032343437674,0.36242998603406523
1750925457.6066387,-1.390022072444248,-1.4339783954974408,-1.8902967466501357,1.553866039644346,-2.076568062333708,-3.64627938627047,-0.040222114466945486,-0.09274831973725013,0.13139324858544446,0.0022148189616268336,0.17700000000000013,0.17699929779649132,1.9087133133383476,3.941351869084423,0.3191468060152197,0.0014755364581397624,0.028170323433097375,0.3624883978407753
1750925457.6076317,-1.390102743916767,-1.4341644161387226,-1.8900332178182273,1.5538704817953708,-2.076213062333707,-3.6459243876788445,-0.0404493580515045,-0.09327232154367528,0.13213558332321534,0.0022273320631049512,0.17800000000000013,0.17799929382923985,1.9096455688416303,3.9417039441335375,0.3191414429866271,0.00147838832945402,0.028170323431813086,0.3625471167854508
1750925457.609974,-1.390183869876454,-1.4343514847836154,-1.8897682043168427,1.5538749489725985,-2.075856062333708,-3.645567389095153,-0.040676601636063514,-0.09379632335010042,0.1328779180609862,0.0022398451645830693,0.17900000000000013,0.1789992898619884,1.9105828794535178,3.9420577076685697,0.3191360511348741,0.0014812547994436493,0.02817032343052391,0.3626061424159392
1750925457.6112223,-1.3902654503233114,-1.4345396014321228,-1.8895017061459836,1.553879441176029,-2.0754970623337075,-3.6452083905193966,-0.04090384522062253,-0.09432032515652555,0.13362025279875708,0.002252358266061187,0.18000000000000013,0.17999928589473693,1.9115252417865176,3.942413154662849,0.3191306304842442,0.0014841358431667768,0.028170323429229878,0.36266547427616525
1750925457.6133816,-1.3903474852573368,-1.434728766084242,-1.8892337233056473,1.5538839584056625,-2.0751360623337067,-3.6448473919515743,-0.04113108880518154,-0.0948443269629507,0.13436258753652794,0.0022648713675393044,0.18100000000000013,0.18099928192748546,1.9124726524322573,3.942770280060035,0.3191251810591755,0.0014870314355369476,0.02817032342793104,0.3627251119061932
1750925457.6168892,-1.3904299746785318,-1.434918978739974,-1.8889642557958375,1.553888500661499,-2.0747730623337075,-3.6444843933916866,-0.04135833238974056,-0.09536832876937584,0.13510492227429882,0.002277384469017422,0.18200000000000013,0.18199927796023402,1.9134251079615705,3.9431290787741595,0.3191197028842716,0.0014899415513223806,0.028170323426627432,0.36278505484212076
1750925457.6173928,-1.3904299746785318,-1.434918978739974,-1.8889642557958375,1.553888500661499,-2.0747730623337075,-3.6444843933916866,-0.04135833238974056,-0.09536832876937584,0.13510492227429882,0.002277384469017422,0.18200000000000013,0.18199927796023402,1.9134251079615705,3.9431290787741595,0.3191197028842716,0.0014899415513223806,0.028170323426627432,0.36278505484212076
1750925457.619479,-1.3905963169824291,-1.4353025480622774,-1.8884208667677882,1.553897660251781,-2.0740410623337073,-3.6437523962957146,-0.041812819558858585,-0.09641633238222612,0.13658959174984056,0.0023024106719736577,0.18400000000000014,0.18399927002573108,1.915345139849721,3.9438516756608135,0.319108660384154,0.0014958052514854445,0.028170323424006067,0.36290585475618226
1750925457.6211565,-1.3906801698651314,-1.4354959047288487,-1.8881469452495514,1.5539022775862266,-2.0736720623337073,-3.64338339775963,-0.0420400631434176,-0.09694033418865126,0.13733192648761144,0.0023149237734517753,0.18500000000000014,0.18499926605847963,1.9163127092456547,3.944215463512836,0.31910309610894505,0.0014987587846734228,0.02817032342268839,0.36296671078664855
1750925457.6233106,-1.3907644772350025,-1.4356903093990319,-1.8878715390618384,1.553906919946875,-2.073301062333707,-3.6430123992314805,-0.042267306727976614,-0.09746433599507641,0.13807426122538233,0.002327436874929893,0.18600000000000014,0.18599926209122816,1.9172853095993039,3.9445809040407456,0.31909750318390473,0.0015017267388966072,0.02817032342136611,0.3630278702275491
1750925457.6252098,-1.3908492390920433,-1.4358857620728287,-1.88759464820465,1.5539115873337264,-2.072928062333707,-3.6426394007112655,-0.04249455031253563,-0.09798833780150155,0.13881659596315318,0.002339949976408011,0.18700000000000014,0.1869992581239767,1.9182629373767865,3.9449479920098915,0.3190918816344377,0.0015047090881966747,0.028170323420039254,0.36308933259498505
1750925457.6272655,-1.3908492390920433,-1.4358857620728287,-1.88759464820465,1.5539115873337264,-2.072928062333707,-3.6426394007112655,-0.04249455031253563,-0.09798833780150155,0.13881659596315318,0.002339949976408011,0.18700000000000014,0.1869992581239767,1.9182629373767865,3.9449479920098915,0.3190918816344377,0.0015047090881966747,0.028170323420039254,0.36308933259498505
1750925457.6292238,-1.3909344554362528,-1.4360822627502383,-1.8873162726779853,1.5539162797467807,-2.072553062333707,-3.6422644021989847,-0.04272179389709464,-0.0985123396079267,0.13955893070092407,0.0023524630778861285,0.18800000000000014,0.18799925415672525,1.9192455890231737,3.945316722155807,0.3190862314861128,0.0015077058064694305,0.028170323418707878,0.36315109740095763
1750925457.6311874,-1.391020126267632,-1.4362798114312607,-1.8870364124818462,1.553920997186038,-2.072176062333707,-3.6418874036946387,-0.04294903748165366,-0.09903634141435183,0.14030126543869492,0.002364976179364246,0.18900000000000014,0.18899925018947378,1.9202332609624928,3.9456870891842013,0.3190805527646552,0.0015107168674649018,0.028170323417372016,0.3632131641533442
1750925457.6331315,-1.3911062515861792,-1.4364784081158959,-1.8867550676162308,1.553925739651498,-2.071797062333707,-3.641508405198227,-0.04317628106621267,-0.09956034322077698,0.1410436001764658,0.0023774892808423637,0.19000000000000014,0.1899992462222223,1.921225949597654,3.9460590877709274,0.31907484549595994,0.0015137422447876869,0.028170323416031713,0.363275532355963
1750925457.635177,-1.391192831391896,-1.4366780528041438,-1.88647223808114,1.5539305071431613,-2.0714160623337072,-3.6411274067097494,-0.043403524650771685,-0.10008434502720212,0.1417859349142367,0.0023900023823204817,0.19100000000000014,0.19099924225497086,1.922223651310476,3.946432712561974,0.3190691097060795,0.0015167819118963963,0.028170323414687004,0.36333820150846363
1750925457.6372116,-1.3912798656847825,-1.4368787454960046,-1.886187923876574,1.5539352996610274,-2.071033062333708,-3.640744408229207,-0.0436307682353307,-0.10060834683362727,0.14252826965200754,0.0024025154837985993,0.19200000000000014,0.1919992382877194,1.9232263624616086,3.9468079581734172,0.31906334542123205,0.0015198358421034367,0.028170323413337937,0.3634011711063039
1750925457.639456,-1.3913673544648377,-1.437080486191478,-1.8859021250025325,1.5539401172050964,-2.0706480623337074,-3.6403594097565986,-0.043858011819889714,-0.10113234864005241,0.14327060438977843,0.002415028585276717,0.19300000000000014,0.19299923432046792,1.924234079390505,3.9471848191914094,0.3190575526678022,0.0015229040085756782,0.02817032341198455,0.36346444064081357
1750925457.641127,-1.3914552977320618,-1.4372832748905644,-1.8856148414590148,1.5539449597753685,-2.0702610623337074,-3.639972411291925,-0.04408525540444873,-0.10165635044647754,0.14401293912754928,0.0024275416867548345,0.19400000000000014,0.19399923035321648,1.9252467984154062,3.9475632901721522,0.3190517314723337,0.0015259863843336806,0.028170323410626898,0.36352800959908477
1750925457.6431358,-1.3915436954864555,-1.4374871115932635,-1.8853260732460217,1.5539498273718435,-2.0698720623337072,-3.639583412835186,-0.04431249898900774,-0.10218035225290269,0.14475527386532017,0.0024400547882329525,0.19500000000000015,0.194999226385965,1.9262645158333191,3.947943365641874,0.31904588186154065,0.0015290829422516274,0.028170323409265008,0.3635918774639503
1750925457.648192,-1.391632547728018,-1.4376919962995762,-1.8850358203635533,1.5539547199945214,-2.0694810623337077,-3.639192414386381,-0.04453974257356676,-0.10270435405932783,0.14549760860309105,0.00245256788971107,0.19600000000000015,0.19599922241871354,1.9272872279199462,3.9483250400968064,0.3190400038622972,0.0015321936550577902,0.02817032340789893,0.3636560437140443
1750925457.6485744,-1.391632547728018,-1.4376919962995762,-1.8850358203635533,1.5539547199945214,-2.0694810623337077,-3.639192414386381,-0.04453974257356676,-0.10270435405932783,0.14549760860309105,0.00245256788971107,0.19600000000000015,0.19599922241871354,1.9272872279199462,3.9483250400968064,0.3190400038622972,0.0015321936550577902,0.02817032340789893,0.3636560437140443
1750925457.6498835,-1.3917218544567493,-1.4378979290095018,-1.8847440828116095,1.5539596376434022,-2.069088062333707,-3.638799415945511,-0.04476698615812577,-0.10322835586575298,0.1462399433408619,0.0024650809911891877,0.19700000000000015,0.1969992184514621,1.9283149309296932,3.9487083080031598,0.3190340975016461,0.0015353184953339864,0.02817032340652871,0.363720507823694
1750925457.6529582,-1.391901831375721,-1.4383129384401903,-1.884156153699295,1.553969548019773,-2.068296062333707,-3.6380074190875744,-0.0452214733272438,-0.10427635947860325,0.14772461281640367,0.0024901071941454233,0.19900000000000015,0.19899921051695915,1.9303852946294178,3.949479601884687,0.3190221998051231,0.0015416104478910403,0.028170323403776003,0.3638503274973835
1750925457.6533263,-1.3919925015659596,-1.4385220151609541,-1.8838599621389243,1.5539745407472627,-2.0678970623337074,-3.6376084206705075,-0.045448716911802814,-0.1048003612850284,0.14846694755417453,0.002502620295623541,0.20000000000000015,0.1999992065497077,1.9314279477213314,3.9498676166419364,0.31901620852416496,0.0015447775046031238,0.028170323402393605,0.3639156819885049
1750925457.6554089,-1.3920836262433678,-1.4387321398853299,-1.8835622859090781,1.5539795585009555,-2.0674960623337073,-3.6372074222613753,-0.04567596049636183,-0.10532436309145354,0.1492092822919454,0.0025151333971016585,0.20100000000000015,0.20099920258245624,1.932475576540213,3.950257202414708,0.3190101889916337,0.001547958577647098,0.02817032340100723,0.363981332193214
1750925457.6574502,-1.3921752054079448,-1.4389433126133193,-1.8832631250097567,1.5539846012808511,-2.067093062333708,-3.6368044238601778,-0.04590320408092084,-0.10584836489787869,0.14995161702971627,0.002527646498579776,0.20200000000000015,0.20199919861520477,1.9335281772334112,3.950648353518723,0.3190041412354025,0.001551153638871937,0.02817032339961694,0.3640472775641233
1750925457.6593885,-1.3922672390596915,-1.4391555333449215,-1.882962479440959,1.5539896690869497,-2.066688062333707,-3.6363994254669145,-0.04613044766547986,-0.10637236670430382,0.15069395176748715,0.002540159600057894,0.20300000000000015,0.20299919464795332,1.9345857459267837,3.9510410642395333,0.31899806528351904,0.001554362659979629,0.028170323398222757,0.3641135175493977
1750925457.6617827,-1.3922672390596915,-1.4391555333449215,-1.882962479440959,1.5539896690869497,-2.066688062333707,-3.6363994254669145,-0.04613044766547986,-0.10637236670430382,0.15069395176748715,0.002540159600057894,0.20300000000000015,0.20299919464795332,1.9345857459267837,3.9510410642395333,0.31899806528351904,0.001554362659979629,0.028170323398222757,0.3641135175493977
1750925457.6634166,-1.392359727198607,-1.4393688020801365,-1.8826603492026868,1.5539947619192513,-2.066281062333708,-3.635992427081586,-0.04635769125003887,-0.10689636851072896,0.15143628650525803,0.0025526727015360118,0.20400000000000015,0.20399919068070185,1.9356482787246394,3.9514353288324817,0.3189919611641932,0.0015575856125249982,0.028170323396824744,0.36418005159273
1750925457.6651328,-1.3924526698246922,-1.4395831188189643,-1.8823567342949383,1.5539998797777559,-2.065872062333707,-3.6355834287041917,-0.046584934834597885,-0.10742037031715411,0.1521786212430289,0.0025651858030141294,0.20500000000000015,0.2049991867134504,1.9367157717097243,3.9518311415227076,0.3189858289058073,0.0015608224679163495,0.028170323395422938,0.3642468791334123
1750925457.667149,-1.3925460669379452,-1.4397984835614057,-1.8820516347177145,1.5540050226624633,-2.065461062333707,-3.635172430334732,-0.0468121784191569,-0.10794437212357925,0.15292095598079977,0.002577698904492247,0.20600000000000016,0.20599918274619894,1.9377882209431683,3.9522284965050916,0.31897966853691484,0.0015640731974143343,0.028170323394017382,0.364313999606168
1750925457.669182,-1.392639918538368,-1.440014896307459,-1.8817450504710154,1.5540101905733739,-2.065048062333707,-3.634759431973207,-0.047039422003715914,-0.1084683739300044,0.15366329071857066,0.002590212005970365,0.20700000000000016,0.20699917877894747,1.938865622464476,3.9526273879442395,0.3189734800862338,0.0015673377721329234,0.028170323392608124,0.36438141244127265
1750925457.6711047,-1.3927342246259604,-1.4402323570571252,-1.88143698155484,1.5540153835104873,-2.064633062333707,-3.6343444336196162,-0.04726666558827492,-0.10899237573642953,0.1544056254563415,0.0026027251074484826,0.20800000000000016,0.20799917481169602,1.9399479722914859,3.9530278099744725,0.3189672635826561,0.0015706161630385344,0.02817032339119521,0.36444911706443267
1750925457.673523,-1.3928289852007216,-1.440450865810405,-1.88112742796919,1.5540206014738036,-2.064216062333708,-3.6339274352739603,-0.047493909172833935,-0.10951637754285468,0.1551479601941124,0.0026152382089266,0.20900000000000016,0.20899917084444455,1.9410352664203032,3.953429756699765,0.31896101905524454,0.0015739083409501298,0.028170323389778682,0.36451711289676325
1750925457.6752994,-1.3929242002626516,-1.4406704225672966,-1.880816389714064,1.554025844463323,-2.063797062333707,-3.6335084369362387,-0.04772115275739295,-0.11004037934927982,0.15589029493188325,0.0026277513104047178,0.21000000000000016,0.20999916687719308,1.942127500825329,3.9538332221937686,0.31895474653323,0.0015772142765395876,0.028170323388358592,0.3645853993548456
1750925457.677317,-1.3930198698117504,-1.440891027327802,-1.8805038667894625,1.5540311124790454,-2.063376062333708,-3.6330874386064513,-0.047948396341951964,-0.11056438115570497,0.15663262966965413,0.002640264411882836,0.21100000000000016,0.21099916290994164,1.9432246714591768,3.954238200499748,0.3189484460460196,0.0015805339403310561,0.02817032338693498,0.36465397585062115
1750925457.6792,-1.3931159938480189,-1.4411126800919192,-1.8801898591953847,1.5540364055209706,-2.0629530623337073,-3.6326644402845987,-0.04817563992651098,-0.1110883829621301,0.15737496440742502,0.0026527775133609534,0.21200000000000016,0.21199915894269017,1.9443267742526682,3.9546446856305693,0.3189421176231872,0.001583867302700852,0.0281703233855079,0.36472284179136455
1750925457.68128,-1.393212572371457,-1.44133538085965,-1.8798743669318325,1.5540417235890986,-2.0625280623337074,-3.6322394419706807,-0.04840288351106999,-0.11161238476855524,0.15811729914519587,0.002665290614839071,0.21300000000000016,0.2129991549754387,1.9454338051147722,3.955052671568666,0.31893576129448054,0.0015872143338780584,0.028170323384077392,0.3647919965797467
1750925457.683163,-1.393309605382064,-1.4415591296309938,-1.879557389998805,1.5540470666834298,-2.0621010623337073,-3.631812443664697,-0.04863012709562901,-0.11213638657498039,0.15885963388296676,0.0026778037163171886,0.21400000000000016,0.21399915100818725,1.9465457599325902,3.955462152266038,0.31892937708982466,0.0015905750039437406,0.028170323382643504,0.36486143961372075
1750925457.6851254,-1.3934070928798397,-1.4417839264059502,-1.8792389283963011,1.554052434803964,-2.0616720623337077,-3.631383445366648,-0.04885737068018802,-0.11266038838140553,0.15960196862073764,0.0026903168177953066,0.21500000000000016,0.21499914704093578,1.9476626345713202,3.955873121644192,0.3189229650393112,0.001593949282830906,0.028170323381206282,0.364931170286502
1750925457.6871111,-1.3935050348647842,-1.4420097711845195,-1.878918982124322,1.5540578279507011,-2.061241062333707,-3.6309524470765333,-0.049084614264747035,-0.11318439018783068,0.1603443033585085,0.0027028299192734242,0.21600000000000016,0.2159991430736843,1.9487844248742172,3.9562855735941413,0.318916525173209,0.0015973371403249744,0.02817032337976578,0.36500118798662523
1750925457.6922634,-1.3936034313368983,-1.4422366639667015,-1.8785975511828665,1.554063246123641,-2.0608080623337077,-3.6305194487943533,-0.04931185784930605,-0.11370839199425581,0.16108663809627938,0.002715343020751542,0.21700000000000016,0.21699913910643287,1.9499111266625702,3.9566995019763693,0.3189100575219629,0.0016007385460631576,0.028170323378322037,0.36507149209783557
1750925457.6926675,-1.3936034313368983,-1.4422366639667015,-1.8785975511828665,1.554063246123641,-2.0608080623337077,-3.6305194487943533,-0.04931185784930605,-0.11370839199425581,0.16108663809627938,0.002715343020751542,0.21700000000000016,0.21699913910643287,1.9499111266625702,3.9566995019763693,0.3189100575219629,0.0016007385460631576,0.028170323378322037,0.36507149209783557
1750925457.694035,-1.3936034313368983,-1.4422366639667015,-1.8785975511828665,1.554063246123641,-2.0608080623337077,-3.6305194487943533,-0.04931185784930605,-0.11370839199425581,0.16108663809627938,0.002715343020751542,0.21700000000000016,0.21699913910643287,1.9499111266625702,3.9566995019763693,0.3189100575219629,0.0016007385460631576,0.028170323378322037,0.36507149209783557
1750925457.6960263,-1.3937022822961822,-1.4424646047524963,-1.8782746355719366,1.554068689322784,-2.0603730623337073,-3.6300844505201075,-0.049539101433865064,-0.11423239380068095,0.16182897283405023,0.0027278561222296594,0.21800000000000017,0.2179991351391814,1.951042735735651,3.957114900620793,0.31890356211618615,0.0016041534695343748,0.028170323376875108,0.36514208199906395
1750925457.6974175,-1.393801587742634,-1.4426935935419039,-1.8779502352915305,1.55407415754813,-2.0599360623337075,-3.6296474522537965,-0.04976634501842408,-0.1147563956071061,0.16257130757182112,0.0027403692237077774,0.21900000000000017,0.21899913117192993,1.95217924787068,3.957531763326766,0.318897038986675,0.001607581880079698,0.028170323375425035,0.3652129570644852
1750925457.6993415,-1.3939013476762554,-1.442923630334925,-1.877624350341649,1.5540796507996788,-2.0594970623337074,-3.6292084539954197,-0.04999358860298309,-0.11528039741353124,0.163313642309592,0.002752882325185895,0.22000000000000017,0.21999912720467849,1.9533206588228205,3.957950083863026,0.3188904881643942,0.0016110237468916415,0.028170323373971864,0.3652841166634109
1750925457.7011592,-1.3940015620970456,-1.4431547151315582,-1.8772969807222921,1.5540851690774307,-2.059056062333708,-3.6287674557449776,-0.05022083218754211,-0.11580439921995639,0.16405597704736286,0.0027653954266640126,0.22100000000000017,0.22099912323742701,1.9544669643251082,3.958369855967679,0.3188839096804875,0.0016144790390142747,0.028170323372515654,0.36535556016026177
1750925457.7031093,-1.3941022310050055,-1.443386847931805,-1.87696812643346,1.5540907123813856,-2.0586130623337073,-3.6283244575024702,-0.05044807577210112,-0.11632840102638152,0.16479831178513374,0.0027779085281421307,0.22200000000000017,0.22199911927017554,1.955618160088444,3.9587910733481793,0.3188773035662776,0.0016179477253435188,0.028170323371056447,0.3654272869146279
1750925457.70509,-1.3942033544001342,-1.4436200287356638,-1.8766377874751514,1.5540962807115433,-2.0581680623337073,-3.627879459267897,-0.050675319356660135,-0.11685240283280666,0.1655406465229046,0.0027904216296202483,0.22300000000000017,0.2229991153029241,1.9567742418015286,3.9592137296812786,0.31887066985325785,0.0016214297746264764,0.028170323369594286,0.36549929628115896
1750925457.7094827,-1.3942033544001342,-1.4436200287356638,-1.8766377874751514,1.5540962807115433,-2.0581680623337073,-3.627879459267897,-0.050675319356660135,-0.11685240283280666,0.1655406465229046,0.0027904216296202483,0.22300000000000017,0.2229991153029241,1.9567742418015286,3.9592137296812786,0.31887066985325785,0.0016214297746264764,0.028170323369594286,0.36549929628115896
1750925457.7100554,-1.3944069646518997,-1.4440895343542213,-1.8759726555501093,1.5541074924504676,-2.0572720623337073,-3.626983462822554,-0.051129806525778164,-0.11790040644565696,0.16702531599844636,0.0028154478325764835,0.22500000000000017,0.22499910736842116,1.959101045720693,3.9600633337587614,0.3188573197576708,0.0016284338362987216,0.02817032336666133,0.36564416024454205
1750925457.7114275,-1.3945094515085348,-1.4443258591689183,-1.8756378625833747,1.5541131358592344,-2.0568210623337073,-3.6265324646117847,-0.05135705011033718,-0.11842440825208209,0.16776765073621722,0.0028279609340546015,0.22600000000000017,0.22599910340116972,1.9602717591929508,3.960490268703004,0.3188506034389833,0.0016319557854389925,0.028170323365190625,0.3657170135259298
1750925457.7132638,-1.3946123928523404,-1.444563231987229,-1.875301584947164,1.554118804294204,-2.056368062333707,-3.6260794664089495,-0.05158429369489619,-0.11894841005850723,0.1685099854739881,0.002840474035532719,0.22700000000000017,0.22699909943391824,1.9614473411472955,3.9609186169995194,0.3188438596492542,0.0016354909710342182,0.028170323363717168,0.3657901467884183
1750925457.7152903,-1.3947157886833148,-1.4448016528091525,-1.8749638226414778,1.5541244977553765,-2.0559130623337074,-3.625624468214049,-0.05181153727945521,-0.11947241186493238,0.16925232021175898,0.0028529871370108367,0.22800000000000017,0.22799909546666677,1.9626277871609843,3.961348372171255,0.31883708842086983,0.0016390393610877254,0.028170323362241012,0.36586355936173964
1750925457.7173,-1.394819639001458,-1.4450411216346888,-1.8746245756663171,1.554130216242752,-2.0554560623337075,-3.625167470027083,-0.05203878086401422,-0.11999641367135752,0.16999465494952984,0.0028655002384889543,0.22900000000000018,0.22899909149941533,1.9638130927888962,3.961779527710303,0.31883028978639716,0.0016426009234535332,0.0281703233607622,0.3659372505705317
1750925457.71935,-1.3949239438067709,-1.4452816384638378,-1.8742838440216802,1.5541359597563305,-2.0549970623337073,-3.6247084718480513,-0.052266024448573235,-0.12052041547778267,0.17073698968730072,0.0028780133399670723,0.23000000000000018,0.22999908753216386,1.9650032535634945,3.9622120770778975,0.3188234637785868,0.00164617562583635,0.028170323359280793,0.36601121973431266
1750925457.7214303,-1.3949239438067709,-1.4452816384638378,-1.8742838440216802,1.5541359597563305,-2.0549970623337073,-3.6247084718480513,-0.052266024448573235,-0.12052041547778267,0.17073698968730072,0.0028780133399670723,0.23000000000000018,0.22999908753216386,1.9650032535634945,3.9622120770778975,0.3188234637785868,0.00164617562583635,0.028170323359280793,0.36601121973431266
1750925457.7234411,-1.3950287030992525,-1.4455232032965997,-1.873941627707568,1.5541417282961119,-2.054536062333707,-3.624247473676954,-0.05249326803313225,-0.1210444172842078,0.17147932442507158,0.00289052644144519,0.23100000000000018,0.2309990835649124,1.9661982649947514,3.9626460137043673,0.3188166104303639,0.0016497634357919395,0.028170323357796838,0.3660854661675387
1750925457.7253625,-1.395133916878903,-1.4457658161329743,-1.8735979267239795,1.5541475218620961,-2.054073062333707,-3.6237844755137916,-0.052720511617691264,-0.12156841909063294,0.17222165916284246,0.0029030395429233075,0.23200000000000018,0.23199907959766095,1.9673981225701436,3.963081330989107,0.3188097297748405,0.0016533643207266345,0.028170323356310378,0.3661599891794946
1750925457.7273755,-1.395239585145723,-1.4460094769729626,-1.8732527410709165,1.5541533404542835,-2.0536080623337067,-3.6233194773585637,-0.05294775520225028,-0.12209242089705809,0.17296399390061334,0.002915552644401425,0.23300000000000018,0.23299907563040947,1.9686028217546365,3.96351802230059,0.31880282184530523,0.001656978247897121,0.028170323354821468,0.36623478807426507
1750925457.729248,-1.395345707899713,-1.4462541858165627,-1.8729060707483773,1.5541591840726738,-2.053141062333707,-3.62285247921127,-0.05317499878680929,-0.12261642270348323,0.1737063286383842,0.002928065745879543,0.23400000000000018,0.233999071663158,1.9698123579905957,3.9639560809762893,0.31879588667523145,0.001660605184410957,0.02817032335333017,0.36630986215079775
1750925457.7312632,-1.3954522851408706,-1.4464999426637766,-1.8725579157563628,1.554165052717267,-2.0526720623337074,-3.622383481071911,-0.05340224237136831,-0.12314042450990838,0.17444866337615508,0.0029405788473576607,0.23500000000000018,0.23499906769590656,1.9710267266977708,3.9643955003226785,0.3187889242982761,0.0016642450972258836,0.02817032335183652,0.3663852107027879
1750925457.7333045,-1.395559316869198,-1.4467467475146023,-1.8722082760948728,1.5541709463880633,-2.0522010623337072,-3.6219124829404863,-0.05362948595592732,-0.12366442631633351,0.17519099811392597,0.0029530919488357783,0.23600000000000018,0.2359990637286551,1.972245923273299,3.964836273615209,0.31878193474827576,0.001667897953149864,0.028170323350340577,0.36646083301865356
1750925457.7424462,-1.3956668030846942,-1.4469946003690417,-1.8718571517639067,1.5541768650850625,-2.051728062333707,-3.6214394848169964,-0.053856729540486335,-0.12418842812275865,0.17593333285169682,0.002965605050313896,0.23700000000000018,0.23699905976140365,1.9734699430915996,3.965278394098258,0.3187749180592513,0.0016715637188414673,0.02817032334884239,0.36653672838160606
1750925457.742915,-1.39577474378736,-1.4472435012270939,-1.871504542763466,1.5541828088082645,-2.051253062333707,-3.6209644867014408,-0.05408397312504535,-0.1247124299291838,0.1766756675894677,0.002978118151792014,0.23800000000000018,0.23799905579415218,1.9746987815044064,3.9657218549851403,0.31876787426541103,0.0016752423608089309,0.02817032334734201,0.36661289606947767
1750925457.7432234,-1.3958831389771946,-1.4474934500887588,-1.871150449093549,1.5541887775576695,-2.050776062333707,-3.62048748859382,-0.054311216709604364,-0.12523643173560894,0.17741800232723856,0.0029906312532701315,0.23900000000000018,0.2389990518269007,1.975932433840665,3.966166649458038,0.3187608034011414,0.0016789338454109646,0.028170323345839493,0.3666893353548401
1750925457.7452784,-1.395991988654198,-1.4477444469540366,-1.8707948707541568,1.5541947713332775,-2.0502970623337076,-3.620008490494133,-0.05453846029416338,-0.1257604335420341,0.17816033706500944,0.003003144354748249,0.24000000000000019,0.23999904785964926,1.977170895406553,3.966612770668013,0.31875370550102083,0.001682638138856149,0.028170323344334895,0.36676604550488257
1750925457.747184,-1.3961012928183711,-1.4479964918229271,-1.8704378077452892,1.5542007901350885,-2.049816062333708,-3.6195274924023813,-0.05476570387872239,-0.12628443534845923,0.17890267180278033,0.0030156574562263667,0.2410000000000002,0.2409990438923978,1.9784141614854154,3.967060211734948,0.31874658059980654,0.0016863552072026832,0.02817032334282826,0.36684302578138417
1750925457.7507937,-1.396211051469713,-1.4482495846954304,-1.8700792600669462,1.5542068339631026,-2.049333062333707,-3.6190444943185636,-0.05499294746328141,-0.12680843715488438,0.17964500654055118,0.0030281705577044848,0.2420000000000002,0.24199903992514632,1.9796622273377185,3.967508965747537,0.3187394287324444,0.001690085016359014,0.028170323341319643,0.3669202754407747
1750925457.75136,-1.3963212646082246,-1.4485037255715465,-1.869719227719127,1.5542129028173193,-2.0488480623337075,-3.6185594962426806,-0.05522019104784042,-0.1273324389613095,0.18038734127832207,0.0030406836591826024,0.2430000000000002,0.24299903595789488,1.9809150882010462,3.9679590257632653,0.31873224993406996,0.0016938275320830087,0.0281703233398091,0.3669977937340204
