mathias31415/primitives_from_planned_trajectory_python/data/saved_trajectories/trajectory_20250618_171607_planned.csv
time_from_start,shoulder_pan_joint_pos,shoulder_lift_joint_pos,elbow_joint_pos,wrist_1_joint_pos,wrist_2_joint_pos,wrist_3_joint_pos,shoulder_pan_joint_vel,shoulder_lift_joint_vel,elbow_joint_vel,wrist_1_joint_vel,wrist_2_joint_vel,wrist_3_joint_vel,shoulder_pan_joint_acc,shoulder_lift_joint_acc,elbow_joint_acc,wrist_1_joint_acc,wrist_2_joint_acc,wrist_3_joint_acc,fk_x,fk_y,fk_z,fk_qx,fk_qy,fk_qz,fk_qw
0.0,-0.45208088724362305,-1.0138278670646246,0.5544450609826149,-1.099495196983101,-1.6042573253129948,-2.023277277272024,0.0003549800893478637,-0.00017952455375927316,0.0005000000000000001,-0.00031352390913757296,9.521957013584025e-06,0.0003549263271736934,0.3549800893478637,-0.17952455375927315,0.5000000000000001,-0.31352390913757294,0.009521957013584026,0.3549263271736934,-0.9331009996927813,0.26387199483432916,0.8363149978203552,-0.00029969447463646835,0.9998422552466836,0.012443439978876649,0.012670264714667161
0.1,-0.4503059867968838,-1.014725489833421,0.5569450609826149,-1.1010628165287888,-1.6042097155279271,-2.0215026456361556,0.03549800893478631,-0.017952455375927285,0.049999999999999926,-0.031352390913757244,0.000952195701358401,0.03549263271736928,0.35498008934786685,-0.17952455375927473,0.5000000000000069,-0.3135239091375805,0.009521957013584222,0.354926327173696,-0.9335111738304855,0.2621818470441617,0.8357799947087767,-0.0002999774055631054,0.999842549436201,0.012436912178984507,0.01265344087300002
0.2,-0.4449812854566658,-1.01741835813981,0.5644450609826149,-1.1057656751658524,-1.6040668861727232,-2.0161787507285505,0.07099601786957391,-0.03590491075185522,0.10000000000000166,-0.06270478182751563,0.0019043914027168365,0.07098526543473985,0.354980089349213,-0.17952455375995474,0.5000000000019013,-0.31352390913876704,0.009521957013620217,0.35492632717504213,-0.9347147888665551,0.25710360343984706,0.8341685880877728,-0.0003008212336145701,0.9998434267935418,0.012417206931567604,0.012603347823163368
0.30000000000000004,-0.43610678322296925,-1.0219064719837918,0.5769450609826149,-1.1136037728942918,-1.6038288372473835,-2.007305592549208,0.10649402680435763,-0.0538573661277812,0.14999999999999794,-0.09405717274127057,0.002856587104075168,0.10647789815210654,0.35498008934667336,-0.17952455375867105,0.49999999999833467,-0.3135239091365119,0.009521957013552346,0.3549263271725025,-0.9366308178769339,0.24861463504618353,0.8314616989273862,-0.0003022110645603277,0.9998448716850692,0.012383970892847145,0.012521122092889131
0.4,-0.42368248009579407,-1.0281898313653663,0.5944450609826147,-1.1245771097141068,-1.603495568751908,-1.9948831710981287,0.1419920357391475,-0.07180982150371028,0.20000000000000287,-0.12540956365503095,0.0038087828054336643,0.1419705308694794,0.35498008935030934,-0.17952455376049598,0.5000000000034139,-0.31352390913971767,0.009521957013649057,0.3549263271761246,-0.9391232322803191,0.2366798157119413,0.8276279066011241,-0.00030412207454154794,0.9998468580547155,0.012336655820785889,0.012408661129909923
0.5,-0.40770837607514027,-1.0362684362845336,0.6169450609826146,-1.1386856856252976,-1.603067080686297,-1.978911486375313,0.17749004467393126,-0.08976227687963627,0.2499999999999992,-0.15676195456878594,0.004760978506791997,0.1774631635868461,0.3549800893477836,-0.1795245537592331,0.499999999999889,-0.3135239091374972,0.00952195701358227,0.3549263271736266,-0.9419996403042431,0.22125546088625017,0.8226240212536967,-0.0003065195098607686,0.999849349423975,0.012274579551205742,0.01226862661772577
0.6000000000000001,-0.38820220821952744,-1.0461333165550457,0.6444200778088369,-1.1559138349832532,-1.6025438488279633,-1.9594082727529798,0.2094395102393182,-0.10592012268729967,0.29500177126001764,-0.18498021705589768,0.005617988369738071,0.20940779036610416,-1.3311395519573697e-12,6.655697759786849e-13,-1.885781031939607e-12,1.1647471079626985e-12,-3.4665092498889835e-14,-1.3034074779582577e-12,-0.9450071321128367,0.20231222104817065,0.8164016097523452,-0.0003093561528027733,0.9998522962600691,0.012197082499907301,0.012104591720838814
0.7000000000000001,-0.36725825719559557,-1.0567253288237757,0.6739202549348388,-1.1744118566888428,-1.6019820499909896,-1.9384674937163693,0.2094395102393182,-0.10592012268729967,0.29500177126001764,-0.18498021705589768,0.005617988369738071,0.20940779036610416,-1.3311395519573697e-12,6.655697759786849e-13,-1.885781031939607e-12,1.1647471079626985e-12,-3.4665092498889835e-14,-1.3034074779582577e-12,-0.94761253257079,0.1818590662184169,0.8095860725693376,-0.0003122906176153566,0.9998553435196668,0.012112087481691172,0.011936994872043659
0.8,-0.3463143061716637,-1.0673173410925056,0.7034204320608406,-1.1929098783944327,-1.6014202511540157,-1.9175267146797588,0.2094395102393182,-0.10592012268729967,0.29500177126001764,-0.18498021705589768,0.005617988369738071,0.20940779036610416,-1.3311395519573697e-12,6.655697759786849e-13,-1.885781031939607e-12,1.1647471079626985e-12,-3.4665092498889835e-14,-1.3034074779582577e-12,-0.9495662877874602,0.161309977674495,0.8026344143533902,-0.00031510986181870174,0.9998582698429047,0.012025568362645591,0.011778227289514987
0.9,-0.325370355147731,-1.0779093533612363,0.7329206091868435,-1.2114079001000233,-1.6008584523170417,-1.8965859356431476,0.20943951023933993,-0.10592012268731066,0.2950017712600483,-0.18498021705591688,0.005617988369738654,0.2094077903661259,2.0383074389349483e-11,-1.0316331527670759e-11,2.8730428663083084e-11,-1.8025848099424714e-11,5.477084614825201e-13,2.04108064633486e-11,-0.9508633456647211,0.1406874677166233,0.7955498778235628,-0.0003178138843509867,0.9998610752298351,0.011937856873103937,0.011628276220060765
1.0,-0.30442640412379807,-1.0885013656299667,0.7624207863128469,-1.2299059218056139,-1.600296653480068,-1.8756451566065362,0.20943951023929347,-0.10592012268728715,0.29500177125998295,-0.18498021705587545,0.0056179883697374065,0.2094077903660794,-2.6040417485166044e-11,1.3172735149578137e-11,-3.6717265974824114e-11,2.301762141926285e-11,-6.985016138526302e-13,-2.6040417485166044e-11,-0.9514994640749198,0.12001429798688094,0.7883357384538631,-0.0003204026841782556,0.9998637596805384,0.01184928347567013,0.01148711890474608
1.1,-0.2834824530998651,-1.099093377898697,0.7919209634388502,-1.2484039435112047,-1.5997348546430938,-1.8547043775699243,0.20943951023933993,-0.10592012268731066,0.29500177126004845,-0.1849802170559165,0.005617988369738654,0.2094077903661259,2.0383074389349483e-11,-1.0316331527670759e-11,2.8730428663083084e-11,-1.79981160254256e-11,5.477084614825201e-13,2.04108064633486e-11,-0.9514712222486691,0.0993134494921174,0.7809953032168984,-0.0003228762602941252,0.9998663231951224,0.011760177091953905,0.011354722627772248
1.2,-0.2625385020759321,-1.1096853901674277,0.8214211405648537,-1.2669019652167954,-1.5991730558061201,-1.833763598533313,0.20943951023933993,-0.10592012268731066,0.29500177126004845,-0.1849802170559165,0.005617988369738654,0.2094077903661259,2.0383074389349483e-11,-1.0316331527670759e-11,2.8730428663083084e-11,-1.79981160254256e-11,5.477084614825201e-13,2.04108064633486e-11,-0.9507760310299642,0.0786080921325063,0.7735319093179283,-0.00032523461172076783,0.999868765773723,0.011670864830827072,0.011231044772410643
1.3,-0.24159455105199912,-1.1202774024361584,0.8509213176908572,-1.2853999869223862,-1.5986112569691464,-1.8128228194967013,0.20943951023933993,-0.10592012268731066,0.29500177126004845,-0.1849802170559165,0.005617988369738654,0.2094077903661259,2.0383074389349483e-11,-1.0316331527670759e-11,2.8730428663083084e-11,-1.79981160254256e-11,5.477084614825201e-13,2.04108064633486e-11,-0.9494121419778484,0.05792155377919882,0.7659489229197892,-0.00032747773750754376,0.999871087416504,0.011581671718374265,0.011116032883940113
1.4,-0.22065060002806697,-1.1308694147048883,0.8804214948168594,-1.3038980086279761,-1.5980494581321727,-1.7918820404600906,0.20943951023929652,-0.1059201226872887,0.2950017712599873,-0.18498021705587814,0.005617988369737488,0.20940779036608245,-2.2989889345261188e-11,1.1619739005626583e-11,-3.2391062430959067e-11,2.0327610241346745e-11,-6.170386464801706e-13,-2.2989889345261188e-11,-0.9473786552955319,0.037277288945400715,0.7582497378591488,-0.00032960563673220614,0.9998732881236577,0.011492920429714905,0.01100962473954722
1.5,-0.19970664900413618,-1.1414614269736179,0.9099216719428598,-1.322396030333565,-1.5974876592951988,-1.7709412614234812,0.20943951023929652,-0.1059201226872887,0.2950017712599873,-0.18498021705587814,0.005617988369737488,0.20940779036608245,-2.2989889345261188e-11,1.1619739005626583e-11,-3.2391062430959067e-11,2.0327610241346745e-11,-6.170386464801706e-13,-2.2989889345261188e-11,-0.9446755265695981,0.016698847095972125,0.750437774354562,-0.0003316183084999561,0.9998753678954032,0.011404931022867382,0.010911748425135025
1.6,-0.1787626979802054,-1.1520534392423474,0.9394218490688601,-1.340894052039154,-1.596925860458225,-1.7500004823868718,0.2094395102392966,-0.10592012268728873,0.2950017712599872,-0.18498021705587822,0.005617988369737491,0.20940779036608254,-2.2906693123263862e-11,1.157814089462792e-11,-3.2224669986964416e-11,2.021668194535031e-11,-6.144387645427542e-13,-2.2878961049264752e-11,-0.9413035723036824,-0.0037901593586191678,0.7425164777067976,-0.0003335157519441768,0.999877326731988,0.01131802067482837,0.010822322418985541
1.7000000000000002,-0.15781874695627457,-1.162645451511077,0.9689220261948603,-1.3593920737447427,-1.5963640616212513,-1.7290597033502624,0.2094395102392966,-0.10592012268728873,0.2950017712599872,-0.18498021705587822,0.005617988369737491,0.20940779036608254,-2.2906693123263862e-11,1.157814089462792e-11,-3.2224669986964416e-11,2.021668194535031e-11,-6.144387645427542e-13,-2.2878961049264752e-11,-0.9372644742327887,-0.02416608733750641,0.7344893169919112,-0.00033529796622601546,0.9998791646336881,0.01123250342003549,0.01074125568221648
1.8,-0.13687479593234378,-1.1732374637798062,0.9984222033208607,-1.3778900954503315,-1.5958022627842774,-1.708118924313653,0.2094395102392966,-0.10592012268728873,0.2950017712599872,-0.18498021705587822,0.005617988369737491,0.20940779036608254,-2.2906693123263862e-11,1.157814089462792e-11,-3.2224669986964416e-11,2.021668194535031e-11,-6.144387645427542e-13,-2.2878961049264752e-11,-0.9325607824062224,-0.04440529558674165,0.7263597837475362,-0.00033696495053447994,0.9998808816008066,0.01114868989138443,0.010668447755968202
1.9,-0.11593084490841296,-1.1838294760485357,1.027922380446861,-1.3963881171559205,-1.5952404639473037,-1.6871781452770436,0.2094395102392966,-0.10592012268728873,0.2950017712599872,-0.18498021705587822,0.005617988369737491,0.20940779036608254,-2.2906693123263862e-11,1.157814089462792e-11,-3.2224669986964416e-11,2.021668194535031e-11,-6.144387645427542e-13,-2.2878961049264752e-11,-0.9271959170289509,-0.06448417735114263,0.7181313906528758,-0.00033851670408649594,0.9998824776336745,0.011066887063966375,0.010603788865251854
2.0,-0.0949868938844822,-1.1944214883172652,1.0574225575728613,-1.4148861388615093,-1.59467866511033,-1.6662373662404344,0.2094395102392966,-0.10592012268728873,0.2950017712599872,-0.18498021705587822,0.005617988369737491,0.20940779036608254,-2.2906693123263862e-11,1.157814089462792e-11,-3.2224669986964416e-11,2.021668194535031e-11,-6.144387645427542e-13,-2.2878961049264752e-11,-0.9211741690530593,-0.08437919317265674,0.7098076702028692,-0.00033995322612695135,0.9998839527326514,0.010987398001689401,0.010547160029391102
2.1,-0.07404294286054676,-1.205013500585997,1.0869227346988681,-1.433384160567102,-1.594116866273356,-1.6452965872038203,0.20943951023938953,-0.10592012268733574,0.2950017712601181,-0.1849802170559603,0.005617988369739983,0.20940779036617546,6.994029062576789e-11,-3.538612642287067e-11,9.855979099285451e-11,-6.17870608700281e-11,1.8762481315026206e-12,6.996802269976701e-11,-0.9145006995128371,-0.10406690376686628,0.7013921733770193,-0.00034127451592829274,0.9998853068981239,0.010910521606950423,0.010498433178974401
2.2,-0.05309899183661121,-1.215605512854729,1.1164229118248754,-1.4518821822726953,-1.5935550674363823,-1.6243558081672063,0.20943951023938945,-0.1059201226873357,0.295001771260118,-0.1849802170559606,0.005617988369739981,0.20940779036617538,6.985709440377054e-11,-3.533066227487244e-11,9.839339854885982e-11,-6.170386464803075e-11,1.8736482495652035e-12,6.985709440377054e-11,-0.9071815375989307,-0.12352400292893934,0.692888468303371,-0.0003424805727912429,0.9998865401305076,0.010836552373516875,0.010457471279244927
2.3,-0.03215504081267573,-1.2261975251234607,1.1459230889508822,-1.470380203978288,-1.5929932685994082,-1.603415029130592,0.20943951023938945,-0.1059201226873357,0.295001771260118,-0.1849802170559606,0.005617988369739981,0.20940779036617538,6.985709440377054e-11,-3.533066227487244e-11,9.839339854885982e-11,-6.170386464803075e-11,1.8736482495652035e-12,6.985709440377054e-11,-0.8992235774688789,-0.14272735042017706,0.6843001389181045,-0.0003435713960440125,0.9998876524302448,0.01076578014277736,0.010424128459840934
2.4,-0.01121108978874031,-1.2367895373921924,1.175423266076889,-1.488878225683881,-1.5924314697624344,-1.582474250093978,0.20943951023938945,-0.1059201226873357,0.295001771260118,-0.1849802170559606,0.005617988369739981,0.20940779036617538,6.985709440377054e-11,-3.533066227487244e-11,9.839339854885982e-11,-6.170386464803075e-11,1.8736482495652035e-12,6.985709440377054e-11,-0.8906345737932821,-0.16165400478607794,0.6756307836212535,-0.0003445469850431334,0.9998886437978064,0.010698489863521595,0.010398250150798479
2.5,0.009732861235195078,-1.2473815496609242,1.2049234432028957,-1.507376247389474,-1.5918696709254605,-1.561533471057364,0.20943951023938945,-0.1059201226873357,0.295001771260118,-0.1849802170559606,0.005617988369739981,0.20940779036617538,6.985709440377054e-11,-3.533066227487244e-11,9.839339854885982e-11,-6.170386464803075e-11,1.8736482495652035e-12,6.985709440377054e-11,-0.8814231360387563,-0.18028125605683262,0.6668840139290241,-0.0003454073391727928,0.9998895142336911,0.010634961355399705,0.010379673224727272
2.6,0.03067681225913056,-1.257973561929656,1.2344236203289027,-1.525874269095067,-1.5913078720884866,-1.54059269202075,0.20943951023938945,-0.1059201226873357,0.295001771260118,-0.1849802170559606,0.005617988369739981,0.20940779036617538,6.985709440377054e-11,-3.533066227487244e-11,9.839339854885982e-11,-6.170386464803075e-11,1.8736482495652035e-12,6.985709440377054e-11,-0.871598721490749,-0.19858665828114566,0.6580634531232044,-0.00034615245784489775,0.9998902637384257,0.010575469076219562,0.010368226145063338
2.7,0.05162076328306602,-1.268565574198388,1.2639237974549096,-1.54437229080066,-1.5907460732515126,-1.519651912984136,0.20943951023938945,-0.1059201226873357,0.295001771260118,-0.1849802170559606,0.005617988369739981,0.20940779036617538,6.985709440377054e-11,-3.533066227487244e-11,9.839339854885982e-11,-6.170386464803075e-11,1.8736482495652035e-12,6.985709440377054e-11,-0.8611716270212184,-0.21654806184436518,0.6491727348981564,-0.00034678234049942966,0.9998908923125644,0.010520281893227892,0.010363729120298074
2.8,0.07256471430700145,-1.2791575864671196,1.2934239745809164,-1.5628703125062529,-1.5901842744145387,-1.4987111339475219,0.20943951023938953,-0.10592012268733605,0.295001771260118,-0.18498021705596057,0.005617988369739626,0.20940779036617538,6.994029062576789e-11,-3.537226038587111e-11,9.855979099285451e-11,-6.17870608700281e-11,1.8762481315026206e-12,6.994029062576789e-11,-0.8501529796080922,-0.23414364552205857,0.6402155020058756,-0.0003472969866042175,0.9998913999566897,0.010469662858525797,0.010365994264086098
2.9,0.09350866533093694,-1.2897495987358516,1.3229241517069235,-1.5813683342118459,-1.589622475577565,-1.4777703549109078,0.20943951023938953,-0.10592012268733605,0.295001771260118,-0.18498021705596057,0.005617988369739626,0.20940779036617538,6.994029062576789e-11,-3.537226038587111e-11,9.855979099285451e-11,-6.17870608700281e-11,1.8762481315026206e-12,6.994029062576789e-11,-0.8385547256153376,-0.2513519482204054,0.6311954048996178,-0.00034769639565497,0.9998917866714118,0.01042386898876326,0.010374825761118844
3.0,0.11445261635487232,-1.3003416110045833,1.35242432883293,-1.5998663559174386,-1.589060676740591,-1.456829575874294,0.20943951023938953,-0.10592012268733605,0.295001771260118,-0.18498021705596057,0.005617988369739626,0.20940779036617538,6.994029062576789e-11,-3.537226038587111e-11,9.855979099285451e-11,-6.17870608700281e-11,1.8762481315026206e-12,6.994029062576789e-11,-0.8263896188443821,-0.26815190035508507,0.6221161003765743,-0.00034798056717534425,0.9998920524573687,0.010383151049255114,0.010390020038661267
3.1,0.1353965673788078,-1.310933623273315,1.3819245059589371,-1.6183643776230319,-1.588498877903617,-1.4358887968376797,0.20943951023938953,-0.10592012268733605,0.295001771260118,-0.18498021705596057,0.005617988369739626,0.20940779036617538,6.994029062576789e-11,-3.537226038587111e-11,9.855979099285451e-11,-6.17870608700281e-11,1.8762481315026206e-12,6.994029062576789e-11,-0.813671207369515,-0.28452285482072315,0.6129812502200928,-0.0003481495007165016,0.9998921973152267,0.010347753342659988,0.010411365943633703
3.2,0.15634051840274318,-1.3215256355420468,1.411424683084944,-1.6368623993286247,-1.5879370790666432,-1.4149480178010658,0.20943951023938953,-0.10592012268733605,0.295001771260118,-0.18498021705596057,0.005617988369739626,0.20940779036617538,6.994029062576789e-11,-3.537226038587111e-11,9.855979099285451e-11,-6.17870608700281e-11,1.8762481315026206e-12,6.994029062576789e-11,-0.8004138191717856,-0.3004446175034116,0.6037945198419326,-0.0003482031958582239,0.9998922212456798,0.010317913502357556,0.01043864492512557
3.3,0.17728446942667866,-1.3321176478107788,1.4409248602109508,-1.6553604210342177,-1.5873752802296692,-1.3940072387644515,0.20943951023938953,-0.10592012268733605,0.295001771260118,-0.18498021705596057,0.005617988369739626,0.20940779036617538,6.994029062576789e-11,-3.537226038587111e-11,9.855979099285451e-11,-6.17870608700281e-11,1.8762481315026206e-12,6.994029062576789e-11,-0.7866325465877689,-0.315897477289358,0.5945595769250479,-0.0003481416522072647,0.9998921242494496,0.010293862290659839,0.010471631222218565
3.4,0.19822842045061415,-1.3427096600795105,1.4704250373369576,-1.6738584427398107,-1.5868134813926955,-1.3730664597278377,0.20943951023938953,-0.10592012268733605,0.295001771260118,-0.18498021705596057,0.005617988369739626,0.20940779036617538,6.994029062576789e-11,-3.537226038587111e-11,9.855979099285451e-11,-6.17870608700281e-11,1.8762481315026206e-12,6.994029062576789e-11,-0.7723432295914221,-0.33086223552331456,0.5852800900673832,-0.0003479648693991967,0.9998919063272861,0.010275823401987818,0.01051009205700007
3.5,0.21917237147454952,-1.3533016723482425,1.4999252144629642,-1.6923564644454037,-1.5862516825557216,-1.3521256806912236,0.2094395102393897,-0.1059201226873355,0.29500177126011806,-0.18498021705596052,0.00561798836973999,0.20940779036617568,7.010668306976257e-11,-3.545545660786846e-11,9.87261834368492e-11,-6.192572124002368e-11,1.8805812680649823e-12,7.010668306976257e-11,-0.7575624379290674,-0.345320234871122,0.575959727427179,-0.0003476728470965723,0.9998915674799668,0.010264013271140812,0.010553787832636302
3.6,0.240116322498485,-1.363893684616974,1.5294253915889713,-1.7108544861509964,-1.5856898837187476,-1.3311849016546096,0.2094395102393897,-0.1059201226873355,0.29500177126011806,-0.18498021705596052,0.00561798836973999,0.20940779036617568,7.010668306976257e-11,-3.545545660786846e-11,9.87261834368492e-11,-6.192572124002368e-11,1.8805812680649823e-12,7.010668306976257e-11,-0.7423074521293372,-0.35925338754144964,0.5666021553702705,-0.0003472655849905274,0.9998911077082973,0.010258640886786054,0.010602472336380637
3.7,0.26106027352242045,-1.374485696885706,1.5589255687149781,-1.7293525078565894,-1.5851280848817737,-1.3102441226179955,0.2094395102393897,-0.1059201226873355,0.29500177126011806,-0.18498021705596052,0.00561798836973999,0.20940779036617568,7.010668306976257e-11,-3.545545660786846e-11,9.87261834368492e-11,-6.192572124002368e-11,1.8805812680649823e-12,7.010668306976257e-11,-0.726596243411677,-0.3726442028226312,0.557211037119872,-0.0003467430827996441,0.999890527013111,0.010259907610287273,0.010655892947378785
3.8,0.282004224546356,-1.3850777091544377,1.588425745840985,-1.7478505295621827,-1.5845662860448,-1.2893033435813814,0.2094395102393897,-0.1059201226873355,0.29500177126011806,-0.18498021705596052,0.00561798836973999,0.20940779036617568,7.010668306976257e-11,-3.545545660786846e-11,9.87261834368492e-11,-6.192572124002368e-11,1.8805812680649823e-12,7.010668306976257e-11,-0.7104474525187449,-0.3854758138913901,0.5477900314093284,-0.0003461053402707215,0.9998898253952694,0.01026800699999493,0.01071379084914496
3.9,0.30294817557029147,-1.3956697214231695,1.617925922966992,-1.7663485512677755,-1.5840044872078258,-1.2683625645447674,0.2094395102393897,-0.1059201226873355,0.29500177126011806,-0.18498021705596052,0.00561798836973999,0.20940779036617568,7.010668306976257e-11,-3.545545660786846e-11,9.87261834368492e-11,-6.192572124002368e-11,1.8805812680649823e-12,7.010668306976257e-11,-0.6938803674997345,-0.3977320038511977,0.5383427911383281,-0.0003453523571780761,0.9998890028556615,0.01028312464110993,0.010775901246561113
4.0,0.32389212659422684,-1.4062617336919012,1.6474261000929986,-1.7848465729733685,-1.5834426883708521,-1.2474217855081533,0.2094395102393897,-0.1059201226873355,0.29500177126011806,-0.18498021705596052,0.00561798836973999,0.20940779036617568,7.010668306976257e-11,-3.545545660786846e-11,9.87261834368492e-11,-6.192572124002368e-11,1.8805812680649823e-12,7.010668306976257e-11,-0.6769149004733235,-0.409397230959043,0.5288729620330533,-0.00034448413332412506,0.9998880593952048,0.010305437981236383,0.010841953587263304
4.1,0.3448360776181623,-1.4168537459606332,1.6769262772190057,-1.8033445946789612,-1.5828808895338782,-1.2264810064715392,0.20943951023938934,-0.10592012268733594,0.295001771260118,-0.1849802170559604,0.005617988369739976,0.20940779036617516,6.974616610777409e-11,-3.527519812687421e-11,9.822700610486513e-11,-6.16206684260334e-11,1.8710483676277864e-12,6.974616610777409e-11,-0.6595715634005631,-0.42045665300047214,0.5193841813107557,-0.0003435006685392767,0.9998869950148438,0.010335116171728704,0.010911671787274662
4.2,0.3657800286420977,-1.427445758229365,1.7064264543450123,-1.8218426163845542,-1.5823190906969042,-1.2055402274349254,0.20943951023938934,-0.10592012268733594,0.295001771260118,-0.1849802170559604,0.005617988369739976,0.20940779036617516,6.974616610777409e-11,-3.527519812687421e-11,9.822700610486513e-11,-6.16206684260334e-11,1.8710483676277864e-12,6.974616610777409e-11,-0.6418714428996182,-0.4308961507739164,0.5098800763492362,-0.0003424019626816397,0.999885809715552,0.010372319914941185,0.010984774460730958
4.3,0.38672397966603306,-1.4380377704980964,1.735926631471019,-1.8403406380901473,-1.5817572918599303,-1.1845994483983113,0.20943951023938934,-0.10592012268733594,0.295001771260118,-0.1849802170559604,0.005617988369739976,0.20940779036617516,6.974616610777409e-11,-3.527519812687421e-11,9.822700610486513e-11,-6.16206684260334e-11,1.8710483676277864e-12,6.974616610777409e-11,-0.6238361741357861,-0.4407023506465435,0.5003642633617098,-0.00034118801563710833,0.9998845034983297,0.010417201317479845,0.011060975153558772
4.4,0.40766793068996865,-1.4486297827668286,1.7654268085970264,-1.8588386597957403,-1.5811954930229564,-1.1636586693616973,0.20943951023938934,-0.10592012268733594,0.295001771260118,-0.1849802170559604,0.005617988369739976,0.20940779036617516,6.974616610777409e-11,-3.527519812687421e-11,9.822700610486513e-11,-6.16206684260334e-11,1.8710483676277864e-12,6.974616610777409e-11,-0.6054879138217362,-0.4498626461451419,0.49084034607753146,-0.0003398588273197375,0.999883076364206,0.01046990374955425,0.011139982580947488
4.5,0.4286118817139041,-1.4592217950355604,1.794926985723033,-1.8773366815013333,-1.5806336941859824,-1.1427178903250832,0.20943951023938934,-0.10592012268733594,0.295001771260118,-0.1849802170559604,0.005617988369739976,0.20940779036617516,6.974616610777409e-11,-3.527519812687421e-11,9.822700610486513e-11,-6.16206684260334e-11,1.8710483676277864e-12,6.974616610777409e-11,-0.5868493123643291,-0.4583652185468859,0.4813119144292551,-0.000338414397671218,0.9998815283142375,0.010530561710525141,0.011221500868468428
4.6,0.44955583273783545,-1.4698138073042901,1.8244271628490343,-1.8958347032069225,-1.580071895349009,-1.1217771112884733,0.2094395102391913,-0.1059201226872358,0.2950017712598391,-0.1849802170557855,0.005617988369734664,0.20940779036597718,-1.2812218187591104e-10,6.47821248619325e-11,-1.8042487343824184e-10,1.1314686191638897e-10,-3.436177293952836e-12,-1.280667177279128e-10,-0.5679434851957829,-0.46619905643621906,0.4717825432465047,-0.00033685472666139055,0.9998798593495083,0.010599300700736907,0.011305229796680577
4.7,0.47049978376176077,-1.4804058195730168,1.853927339975027,-1.9143327249125064,-1.5795100965120352,-1.1008363322518695,0.20943951023919113,-0.10592012268723544,0.2950017712598392,-0.18498021705578516,0.005617988369734665,0.20940779036597718,-1.2828857431990574e-10,6.489305315792897e-11,-1.80702194178233e-10,1.1334098643438278e-10,-3.4413770578276703e-12,-1.2828857431990574e-10,-0.5487939833282663,-0.4733539741955507,0.46225579095711683,-0.000335179814287623,0.9998780694711313,0.01067623709972069,0.011390865049066586
4.8,0.49144373478568654,-1.4909978318417436,1.8834275171010204,-1.932830746618091,-1.5789482976750615,-1.0798955532152652,0.20943951023919113,-0.10592012268723544,0.2950017712598392,-0.18498021705578516,0.005617988369734665,0.20940779036597718,-1.2828857431990574e-10,6.489305315792897e-11,-1.80702194178233e-10,1.1334098643438278e-10,-3.4413770578276703e-12,-1.2828857431990574e-10,-0.529424763172297,-0.4798206293989454,0.45273519829602665,-0.0003333896605754792,0.9998761586802466,0.010761478050854777,0.011478098463140289
4.9,0.512387685809612,-1.5015898441104705,1.912927694227013,-1.951328768323675,-1.5783864988380878,-1.0589547741786607,0.20943951023919113,-0.10592012268723544,0.2950017712598392,-0.18498021705578516,0.005617988369734665,0.20940779036597718,-1.2828857431990574e-10,6.489305315792897e-11,-1.80702194178233e-10,1.1334098643438278e-10,-3.4413770578276703e-12,-1.2828857431990574e-10,-0.5098601556605609,-0.48559053907954186,0.44322428702237293,-0.0003314842655780393,0.9998741269780222,0.010855121352555666,0.011566618284561701
5.0,0.5333316368335375,-1.5121818563791973,1.9424278713530059,-1.9698267900292592,-1.5778247000011143,-1.038013995142057,0.20943951023919113,-0.10592012268723544,0.2950017712598392,-0.18498021705578516,0.005617988369734665,0.20940779036597718,-1.2828857431990574e-10,6.489305315792897e-11,-1.80702194178233e-10,1.1334098643438278e-10,-3.4413770578276703e-12,-1.2828857431990574e-10,-0.4901248347198589,-0.49065609484305134,0.4337265586452569,-0.00032946362937713835,0.9998719743656544,0.010957255356079438,0.01165610942409782
5.1,0.5542755878574632,-1.5227738686479242,1.9719280484789992,-1.9883248117348433,-1.5772629011641406,-1.0170732161054525,0.20943951023919113,-0.10592012268723544,0.2950017712598392,-0.18498021705578516,0.005617988369734665,0.20940779036597718,-1.2828857431990574e-10,6.489305315792897e-11,-1.80702194178233e-10,1.1334098643438278e-10,-3.4413770578276703e-12,-1.2828857431990574e-10,-0.47024378513506254,-0.49501057680130983,0.4242454931586352,-0.00032732775208110473,0.9998697008443672,0.011067958870000819,0.011746253717261233
5.2,0.5752195388813884,-1.5333658809166508,2.001428225604992,-2.0068228334404274,-1.576701102327167,-0.9961324370688486,0.20943951023919113,-0.10592012268723544,0.2950017712598392,-0.18498021705578516,0.005617988369734665,0.20940779036597718,-1.2828857431990574e-10,6.489305315792897e-11,-1.80702194178233e-10,1.1334098643438278e-10,-3.4413770578276703e-12,-1.2828857431990574e-10,-0.4502422698499539,-0.4986481663015541,0.4147845477857888,-0.00032507663382741426,0.9998673064154123,0.011187301071439457,0.011836730186459973
5.3,0.5961634899053144,-1.543957893185378,2.0309284027309853,-2.025320855146012,-1.5761393034901934,-0.9751916580322443,0.20943951023919175,-0.10592012268723566,0.295001771259839,-0.18498021705578588,0.005617988369734676,0.2094077903659776,-1.276784686919252e-10,6.457413430693914e-11,-1.7987023195825954e-10,1.1275861288040137e-10,-3.4249111388906954e-12,-1.276784686919252e-10,-0.43014579675079684,-0.501563957428828,0.4053471557338201,-0.0003227102747808458,0.9998647910800695,0.01131534142409447,0.011927215305492286
5.4,0.6171074409292397,-1.5545499054541043,2.060428579856978,-2.043818876851596,-1.5755775046532197,-0.9542508789956402,0.20943951023919175,-0.10592012268723566,0.295001771259839,-0.18498021705578588,0.005617988369734676,0.2094077903659776,-1.276784686919252e-10,6.457413430693914e-11,-1.7987023195825954e-10,1.1275861288040137e-10,-3.4249111388906954e-12,-1.276784686919252e-10,-0.40998008497940347,-0.5037539672606819,0.3959367249586291,-0.0003202286751339558,0.9998621548396465,0.011452129603146738,0.012017383266210893
5.5,0.6380513919531653,-1.5651419177228314,2.089928756982971,-2.0623168985571807,-1.575015705816246,-0.933310099959036,0.20943951023919175,-0.10592012268723566,0.295001771259839,-0.18498021705578588,0.005617988369734676,0.2094077903659776,-1.276784686919252e-10,6.457413430693914e-11,-1.7987023195825954e-10,1.1275861288040137e-10,-3.4249111388906954e-12,-1.276784686919252e-10,-0.3897710308232635,-0.5052151448551391,0.38655663694080444,-0.00031763183510755247,0.9998593976954789,0.011597705427081946,0.012106906247187871
5.6,0.658995342977091,-1.575733929991558,2.1194289341089636,-2.0808149202627644,-1.5744539069792722,-0.9123693209224318,0.20943951023919175,-0.10592012268723566,0.295001771259839,-0.18498021705578588,0.005617988369734676,0.2094077903659776,-1.276784686919252e-10,6.457413430693914e-11,-1.7987023195825954e-10,1.1275861288040137e-10,-3.4249111388906954e-12,-1.276784686919252e-10,-0.3695446732311023,-0.5059453789547359,0.37721024547287196,-0.0003149197549499767,0.9998565196489299,0.011752098796488239,0.012195454684209168
5.7,0.6786841215302467,-1.585691162213551,2.147161163526853,-2.098204354215158,-1.5739257767864563,-0.8926835242591722,0.17926494512077934,-0.0906598996484876,0.25250000000015194,-0.15832957411456977,0.0048085882918628324,0.17923779522282324,-0.3549800892395396,0.17952455370450163,-0.49999999984745536,0.3135239090419145,-0.009521957010678424,-0.35492632706538263,-0.3505380695699472,-0.505964248172049,0.3684576836284023,-0.00031226512263919735,0.9998537038341917,0.011905298030017756,0.012277511896071186
5.8,0.6948680046554456,-1.5938758589988864,2.1699566436267803,-2.1124982102783516,-1.5734916616232255,-0.8765020922031161,0.14376693618591901,-0.0727074442725229,0.20250000000004786,-0.1269771832007472,0.0038563925905024466,0.14374516250537997,-0.3549800893135915,0.17952455374193002,-0.4999999999517053,0.3135239091072789,-0.00952195701266425,-0.35492632713940675,-0.3349361172020371,-0.5054951082940176,0.3612896367914925,-0.00031000679366040176,0.9998513092700066,0.012037080074678753,0.012343903358231418
5.9,0.7075020868871658,-1.600265310246629,2.1877521237267064,-2.1236568272501692,-1.5731527660301303,-0.8638699234187973,0.10826892725105867,-0.054754988896558186,0.15249999999994376,-0.09562479228692458,0.0029041968891420603,0.10825252978793669,-0.3549800893876156,0.1795245537793723,-0.500000000055983,0.3135239091726849,-0.009521957014650508,-0.35492632721344475,-0.3227780260842177,-0.5048250879769145,0.355711464416242,-0.00030819598485002064,0.9998493897593875,0.012143629194586973,0.012394962000739347
6.0,0.7165863682254066,-1.6048595159567787,2.200547603826632,-2.131680205130611,-1.5729090900071707,-0.8547870179062158,0.07277091831632794,-0.03680253352065901,0.1025000000000222,-0.06427240137321644,0.0019520011877851504,0.072759897070623,-0.3549800893323781,0.17952455375145004,-0.499999999978198,0.31352390912390543,-0.009521957013168837,-0.35492632715820716,-0.3140513197877524,-0.5041788632330686,0.35171058279941225,-0.00030686804324756185,0.9998479823853805,0.01222223059880496,0.012431211971376213
6.1,0.7221208486701692,-1.607658476129336,2.2083430839265583,-2.1365683439196768,-1.5727606335543474,-0.849253375665371,0.03727290938153489,-0.018850078144728322,0.05250000000001287,-0.03292001045945326,0.000999805486426569,0.03726726435324698,-0.3549800893378893,0.17952455375422963,-0.49999999998594874,0.31352390912876593,-0.009521957013316503,-0.3549263271637255,-0.30874202163575853,-0.5037177831271443,0.34927732383420296,-0.0003060483843620095,0.9998471138115229,0.012270932916249156,0.01245309369268648
6.2,0.7241055282214529,-1.6086621907643,2.2111385640264842,-2.138321243617367,-1.5727073966716596,-0.8472689966962632,0.0017749004467389334,-0.0008976227687961705,0.0024999999999994536,-0.0015676195456875237,4.760978506790978e-05,0.001774631635868081,-0.3549800893361533,0.1795245537533507,-0.49999999998350453,0.3135239091272298,-0.009521957013269902,-0.3549263271619845,-0.30683956388360945,-0.5035400201427808,0.348405544627304,-0.0003057524922340205,0.999846800282113,0.012288548042880177,0.01246090157379169
6.205909601,0.7241117267765305,-1.6086653255678218,2.21114729487543,-2.13832671827715,-1.572707230402123,-0.8472627990799646,-3.527581188791489e-17,1.7840083367233772e-17,-4.968702885944993e-17,3.115614304289232e-17,-9.462355058647833e-19,-3.5270469322515783e-17,-0.3549800893358002,0.17952455375317217,-0.4999999999830073,0.3135239091269181,-0.00952195701326043,-0.3549263271616315,-0.3068336233843305,-0.5035394546874176,0.3484028225467734,-0.0003057515664821385,0.9998467993011968,0.01228860318277925,0.012460925926598415
