mathias31415/primitives_from_planned_trajectory_python/data/saved_trajectories/trajectory_20250624_153828_executed.csv
timestamp,shoulder_lift_joint_pos,elbow_joint_pos,wrist_1_joint_pos,wrist_2_joint_pos,wrist_3_joint_pos,shoulder_pan_joint_pos,shoulder_lift_joint_vel,elbow_joint_vel,wrist_1_joint_vel,wrist_2_joint_vel,wrist_3_joint_vel,shoulder_pan_joint_vel,shoulder_lift_joint_eff,elbow_joint_eff,wrist_1_joint_eff,wrist_2_joint_eff,wrist_3_joint_eff,shoulder_pan_joint_eff
1750772312.8858263,-1.7246217831288586,-2.4908137604040776,-0.5303657986640866,1.5826074495071563,-0.4526945327377536,-2.022627309940816,0.0,0.0,0.0,0.0,0.0,0.0,2.861360272035287,2.2166154426285387,0.2998485327565585,0.000974502781380225,0.0,-4.1224332386919925e-18
1750772312.8882093,-1.7246217831288586,-2.4908137604040776,-0.5303657986640866,1.5826074495071563,-0.4526945327377536,-2.022627309940816,0.0,0.0,0.0,0.0,0.0,0.0,2.861360272035287,2.2166154426285387,0.2998485327565585,0.000974502781380225,0.0,-4.1224332386919925e-18
1750772312.8888338,-1.7246217831288586,-2.4908137604040776,-0.5303657986640866,1.5826074495071563,-0.4526945327377536,-2.022627309940816,0.0,0.0,0.0,0.0,0.0,0.0,2.861360272035287,2.2166154426285387,0.2998485327565585,0.000974502781380225,0.0,-4.1224332386919925e-18
1750772312.8894083,-1.7246217831288586,-2.4908137604040776,-0.5303657986640866,1.5826074495071563,-0.4526945327377536,-2.022627309940816,0.0,0.0,0.0,0.0,0.0,0.0,2.861360272035287,2.2166154426285387,0.2998485327565585,0.000974502781380225,0.0,-4.1224332386919925e-18
1750772312.8897474,-1.7246217831288586,-2.4908137604040776,-0.5303657986640866,1.5826074495071563,-0.4526945327377536,-2.022627309940816,0.0,0.0,0.0,0.0,0.0,0.0,2.861360272035287,2.2166154426285387,0.2998485327565585,0.000974502781380225,0.0,-4.1224332386919925e-18
1750772312.8900688,-1.7246217831288586,-2.4908137604040776,-0.5303657986640866,1.5826074495071563,-0.4526945327377536,-2.022627309940816,0.0,0.0,0.0,0.0,0.0,0.0,2.861360272035287,2.2166154426285387,0.2998485327565585,0.000974502781380225,0.0,-4.1224332386919925e-18
1750772312.8903966,-1.7246217831288586,-2.4908137604040776,-0.5303657986640866,1.5826074495071563,-0.4526945327377536,-2.022627309940816,0.0,0.0,0.0,0.0,0.0,0.0,2.861360272035287,2.2166154426285387,0.2998485327565585,0.000974502781380225,0.0,-4.1224332386919925e-18
1750772312.8908231,-1.7246217831288586,-2.4908137604040776,-0.5303657986640866,1.5826074495071563,-0.4526945327377536,-2.022627309940816,0.0,0.0,0.0,0.0,0.0,0.0,2.861360272035287,2.2166154426285387,0.2998485327565585,0.000974502781380225,0.0,-4.1224332386919925e-18
1750772312.892846,-1.7246217831288586,-2.4908137604040776,-0.5303657986640866,1.5826074495071563,-0.4526945327377536,-2.022627309940816,0.0,0.0,0.0,0.0,0.0,0.0,2.861360272035287,2.2166154426285387,0.2998485327565585,0.000974502781380225,0.0,-4.1224332386919925e-18
1750772312.895042,-1.7246217831288586,-2.4908137604040776,-0.5303657986640866,1.5826074495071563,-0.4526945327377536,-2.022627309940816,0.0,0.0,0.0,0.0,0.0,0.0,2.861360272035287,2.2166154426285387,0.2998485327565585,0.000974502781380225,0.0,-4.1224332386919925e-18
1750772312.8970263,-1.7246217831288586,-2.4908137604040776,-0.5303657986640866,1.5826074495071563,-0.4526945327377536,-2.022627309940816,0.0,0.0,0.0,0.0,0.0,0.0,2.861360272035287,2.2166154426285387,0.2998485327565585,0.000974502781380225,0.0,-4.1224332386919925e-18
1750772312.898941,-1.7246217831288586,-2.4908137604040776,-0.5303657986640866,1.5826074495071563,-0.4526945327377536,-2.022627309940816,0.0,0.0,0.0,0.0,0.0,0.0,2.861360272035287,2.2166154426285387,0.2998485327565585,0.000974502781380225,0.0,-4.1224332386919925e-18
1750772312.901021,-1.7246217831288586,-2.4908137604040776,-0.5303657986640866,1.5826074495071563,-0.4526945327377536,-2.022627309940816,0.0,0.0,0.0,0.0,0.0,0.0,2.861360272035287,2.2166154426285387,0.2998485327565585,0.000974502781380225,0.0,-4.1224332386919925e-18
1750772312.9070332,-1.7246217831288586,-2.4908137604040776,-0.5303657986640866,1.5826074495071563,-0.4526945327377536,-2.022627309940816,0.0,0.0,0.0,0.0,0.0,0.0,2.861360272035287,2.2166154426285387,0.2998485327565585,0.000974502781380225,0.0,-4.1224332386919925e-18
1750772312.907613,-1.7246217831288586,-2.4908137604040776,-0.5303657986640866,1.5826074495071563,-0.4526945327377536,-2.022627309940816,0.0,0.0,0.0,0.0,0.0,0.0,2.861360272035287,2.2166154426285387,0.2998485327565585,0.000974502781380225,0.0,-4.1224332386919925e-18
1750772312.9080048,-1.7246217831288586,-2.4908137604040776,-0.5303657986640866,1.5826074495071563,-0.4526945327377536,-2.022627309940816,0.0,0.0,0.0,0.0,0.0,0.0,2.861360272035287,2.2166154426285387,0.2998485327565585,0.000974502781380225,0.0,-4.1224332386919925e-18
1750772312.908842,-1.7246217831288586,-2.4908137604040776,-0.5303657986640866,1.5826074495071563,-0.4526945327377536,-2.022627309940816,0.0,0.0,0.0,0.0,0.0,0.0,2.861360272035287,2.2166154426285387,0.2998485327565585,0.000974502781380225,0.0,-4.1224332386919925e-18
1750772312.9109757,-1.7246217831288586,-2.4908137604040776,-0.5303657986640866,1.5826074495071563,-0.4526945327377536,-2.022627309940816,0.0,0.0,0.0,0.0,0.0,0.0,2.861360272035287,2.2166154426285387,0.2998485327565585,0.000974502781380225,0.0,-4.1224332386919925e-18
1750772312.9133537,-1.7246217831288586,-2.4908137604040776,-0.5303657986640866,1.5826074495071563,-0.4526945327377536,-2.022627309940816,0.0,0.0,0.0,0.0,0.0,0.0,2.861360272035287,2.2166154426285387,0.2998485327565585,0.000974502781380225,0.0,-4.1224332386919925e-18
1750772312.917174,-1.7246217831288586,-2.4908137604040776,-0.5303657986640866,1.5826074495071563,-0.4526945327377536,-2.022627309940816,0.0,0.0,0.0,0.0,0.0,0.0,2.861360272035287,2.2166154426285387,0.2998485327565585,0.000974502781380225,0.0,-4.1224332386919925e-18
1750772312.9177444,-1.7246217831288586,-2.4908137604040776,-0.5303657986640866,1.5826074495071563,-0.4526945327377536,-2.022627309940816,0.0,0.0,0.0,0.0,0.0,0.0,2.861360272035287,2.2166154426285387,0.2998485327565585,0.000974502781380225,0.0,-4.1224332386919925e-18
1750772312.91922,-1.7246217831288586,-2.4908137604040776,-0.5303657986640866,1.5826074495071563,-0.4526945327377536,-2.022627309940816,0.0,0.0,0.0,0.0,0.0,0.0,2.861360272035287,2.2166154426285387,0.2998485327565585,0.000974502781380225,0.0,-4.1224332386919925e-18
1750772312.9210746,-1.7246217831288586,-2.4908137604040776,-0.5303657986640866,1.5826074495071563,-0.4526945327377536,-2.022627309940816,0.0,0.0,0.0,0.0,0.0,0.0,2.861360272035287,2.2166154426285387,0.2998485327565585,0.000974502781380225,0.0,-4.1224332386919925e-18
1750772312.923213,-1.7246217831288586,-2.4908137604040776,-0.5303657986640866,1.5826074495071563,-0.4526945327377536,-2.022627309940816,0.0,0.0,0.0,0.0,0.0,0.0,2.861360272035287,2.2166154426285387,0.2998485327565585,0.000974502781380225,0.0,-4.1224332386919925e-18
1750772312.925051,-1.7246217831288586,-2.4908137604040776,-0.5303657986640866,1.5826074495071563,-0.4526945327377536,-2.022627309940816,0.0,0.0,0.0,0.0,0.0,0.0,2.861360272035287,2.2166154426285387,0.2998485327565585,0.000974502781380225,0.0,-4.1224332386919925e-18
1750772312.9271126,-1.7246217831288586,-2.4908137604040776,-0.5303657986640866,1.5826074495071563,-0.4526945327377536,-2.022627309940816,0.0,0.0,0.0,0.0,0.0,0.0,2.861360272035287,2.2166154426285387,0.2998485327565585,0.000974502781380225,0.0,-4.1224332386919925e-18
1750772312.9291618,-1.7246217831288586,-2.4908137604040776,-0.5303657986640866,1.5826074495071563,-0.4526945327377536,-2.022627309940816,0.0,0.0,0.0,0.0,0.0,0.0,2.861360272035287,2.2166154426285387,0.2998485327565585,0.000974502781380225,0.0,-4.1224332386919925e-18
1750772312.9311001,-1.7246217831288586,-2.4908137604040776,-0.5303657986640866,1.5826074495071563,-0.4526945327377536,-2.022627309940816,0.0,0.0,0.0,0.0,0.0,0.0,2.861360272035287,2.2166154426285387,0.2998485327565585,0.000974502781380225,0.0,-4.1224332386919925e-18
1750772312.935276,-1.7246217831288586,-2.4908137604040776,-0.5303657986640866,1.5826074495071563,-0.4526945327377536,-2.022627309940816,0.0,0.0,0.0,0.0,0.0,0.0,2.861360272035287,2.2166154426285387,0.2998485327565585,0.000974502781380225,0.0,-4.1224332386919925e-18
1750772312.9359636,-1.7246217831288586,-2.4908137604040776,-0.5303657986640866,1.5826074495071563,-0.4526945327377536,-2.022627309940816,0.0,0.0,0.0,0.0,0.0,0.0,2.861360272035287,2.2166154426285387,0.2998485327565585,0.000974502781380225,0.0,-4.1224332386919925e-18
1750772312.9375446,-1.7246217831288586,-2.4908137604040776,-0.5303657986640866,1.5826074495071563,-0.4526945327377536,-2.022627309940816,0.0,0.0,0.0,0.0,0.0,0.0,2.861360272035287,2.2166154426285387,0.2998485327565585,0.000974502781380225,0.0,-4.1224332386919925e-18
1750772312.939323,-1.7246217831288586,-2.4908137604040776,-0.5303657986640866,1.5826074495071563,-0.4526945327377536,-2.022627309940816,0.0,0.0,0.0,0.0,0.0,0.0,2.861360272035287,2.2166154426285387,0.2998485327565585,0.000974502781380225,0.0,-4.1224332386919925e-18
1750772312.9412026,-1.7246217831288586,-2.4908137604040776,-0.5303657986640866,1.5826074495071563,-0.4526945327377536,-2.022627309940816,0.0,0.0,0.0,0.0,0.0,0.0,2.861360272035287,2.2166154426285387,0.2998485327565585,0.000974502781380225,0.0,-4.1224332386919925e-18
1750772312.9468577,-1.7246217831288586,-2.4908137604040776,-0.5303657986640866,1.5826074495071563,-0.4526945327377536,-2.022627309940816,0.0,0.0,0.0,0.0,0.0,0.0,2.861360272035287,2.2166154426285387,0.2998485327565585,0.000974502781380225,0.0,-4.1224332386919925e-18
1750772312.9474158,-1.7246217831288586,-2.4908137604040776,-0.5303657986640866,1.5826074495071563,-0.4526945327377536,-2.022627309940816,0.0,0.0,0.0,0.0,0.0,0.0,2.861360272035287,2.2166154426285387,0.2998485327565585,0.000974502781380225,0.0,-4.1224332386919925e-18
1750772312.949213,-1.7246217831288586,-2.4908137604040776,-0.5303657986640866,1.5826074495071563,-0.4526945327377536,-2.022627309940816,0.0,0.0,0.0,0.0,0.0,0.0,2.861360272035287,2.2166154426285387,0.2998485327565585,0.000974502781380225,0.0,-4.1224332386919925e-18
1750772312.9497783,-1.7246217831288586,-2.4908137604040776,-0.5303657986640866,1.5826074495071563,-0.4526945327377536,-2.022627309940816,0.0,0.0,0.0,0.0,0.0,0.0,2.861360272035287,2.2166154426285387,0.2998485327565585,0.000974502781380225,0.0,-4.1224332386919925e-18
1750772312.9510925,-1.7246217831288586,-2.4908137604040776,-0.5303657986640866,1.5826074495071563,-0.4526945327377536,-2.022627309940816,0.0,0.0,0.0,0.0,0.0,0.0,2.861360272035287,2.2166154426285387,0.2998485327565585,0.000974502781380225,0.0,-4.1224332386919925e-18
1750772312.953173,-1.724622128623749,-2.490811881254412,-0.5303673373196256,1.582607429353664,-0.4526951173286209,-2.0226278946687337,-0.000345496485202685,0.0018791497657549739,-0.001538654024844133,-2.0153455750309164e-05,-0.0005845897502036616,-0.0005847268000977519,2.780245254650299,2.603809140790392,0.26652037507834986,-0.0007545526375440302,-0.016468085077676282,-0.142065239306298
1750772312.9550486,-1.7246231651275572,-2.490806243804215,-0.5303719532680731,1.5826073688936244,-0.452696871087821,-2.0226296488390796,-0.0006910121072723911,0.0037583007307158047,-0.0030772898809259585,-4.030647454532856e-05,-0.00116916610049403,-0.0011694401949414578,2.7802591686593936,2.6038251754402553,0.26652092731087085,-0.0007545527814968814,-0.016467707597786332,-0.14206188862866598
1750772312.9609327,-1.7246231651275572,-2.490806243804215,-0.5303719532680731,1.5826073688936244,-0.452696871087821,-2.0226296488390796,-0.0006910121072723911,0.0037583007307158047,-0.0030772898809259585,-4.030647454532856e-05,-0.00116916610049403,-0.0011694401949414578,2.7802591686593936,2.6038251754402553,0.26652092731087085,-0.0007545527814968814,-0.016467707597786332,-0.14206188862866598
1750772312.962407,-1.724624892697693,-2.49079684804989,-0.5303796464549251,1.5826072681283483,-0.4526997939751567,-2.0226325724116396,-0.0010365660016470966,0.005637454094342831,-0.004615889401177911,-6.045861945042438e-05,-0.0017537156517103993,-0.001754126780072645,2.7802798179133585,2.603851964807013,0.26652199210114824,-0.0007545399970210118,-0.01646695265920362,-0.14205467868856683
1750772312.963012,-1.7246273114298338,-2.490783693985439,-0.530390416789345,1.5826071270600204,-0.4527038859236301,-2.022636665319391,-0.001382177300898186,0.007516611056635603,-0.006154434421971805,-8.060945360583004e-05,-0.0023382250063047434,-0.002338773152585077,2.7803072036531744,2.6038895084748663,0.26652356934893584,-0.0007545142855862679,-0.01646582030735878,-0.14204360994592227
1750772312.9649901,-1.7246342229541378,-2.4907461108901647,-0.5304211883559447,1.5826067240273158,-0.4527155766020501,-2.0226483587383655,-0.0020736486214861342,0.011274940581397818,-0.009231288338006403,-0.0001209054424261977,-0.003507069547969626,-0.0035078916607903655,2.7803821925521555,2.603996856239569,0.26652826057691853,-0.0007544240848121002,-0.016462423650358965,-0.14200989913607565
1750772312.9668803,-1.7246387161289185,-2.4907216818353355,-0.5304411892248915,1.5826064620716764,-0.45272317506406434,-2.0226559589815487,-0.002419546880819796,0.013154115548853828,-0.010769560938465868,-0.0001410497238103642,-0.004091377954866812,-0.004092337005623399,2.780429801208696,2.6040666587095274,0.26653137411655514,-0.0007543596015392027,-0.016460159545723888,-0.1419872591953636
1750772312.9689422,-1.7246387161289185,-2.4907216818353355,-0.5304411892248915,1.5826064620716764,-0.45272317506406434,-2.0226559589815487,-0.002419546880819796,0.013154115548853828,-0.010769560938465868,-0.0001410497238103642,-0.004091377954866812,-0.004092337005623399,2.780429801208696,2.6040666587095274,0.26653137411655514,-0.0007543596015392027,-0.016460159545723888,-0.1419872591953636
1750772312.9708343,-1.7246439012309134,-2.4906934944223633,-0.5304642665149748,1.5826061598304588,-0.4527319420513667,-2.0226647280238588,-0.0027655790181849785,0.015033298925470668,-0.012307706453295203,-0.00016119094783085603,-0.00467559260631484,-0.0046766885577240866,2.7804841573351666,2.6041472122213727,0.2665349992334365,-0.0007542821995723972,-0.016457518424389837,-0.14196076472330976
1750772312.9730012,-1.7246497785469757,-2.490661548633223,-0.5304904199538996,1.5826058173102142,-0.45274187736306715,-2.0226746656643284,-0.003111764130433207,0.016912491917823565,-0.013845706761609263,-0.0001813286782212433,-0.0052597001243943385,-0.0052609329338467944,2.7805452651910154,2.6042385155687198,0.2665391355859756,-0.0007541918843864707,-0.016454500442738804,-0.14193041737989376
1750772312.9752617,-1.7246563484021422,-2.4906258444474756,-0.5305196492331445,1.5826054345183658,-0.45275298077152737,-2.022685771675226,-0.0034581213030191417,0.01879169573457969,-0.01538354375613007,-0.000201462478882955,-0.005843687137519197,-0.005845056757022288,2.7806131296227323,2.6043405673826654,0.2665437827871201,-0.0007540886600966621,-0.01645110577918167,-0.14189621906563646
1750772312.977038,-1.7246636111596096,-2.4905863818422613,-0.5305519540079873,1.582605011463209,-0.4527652520223704,-2.022698045802075,-0.0038046696085480163,0.020670911586796476,-0.01692119934501894,-0.00022159191392492414,-0.006427540281074844,-0.006429046657364185,2.7806877560903915,2.604453366144065,0.26654894039843036,-0.0007539725319902019,-0.01644733463010729,-0.14185817192755978
1750772312.979014,-1.724671567220704,-2.4905431607922957,-0.5305873338975378,1.582604548153911,-0.4527786908345002,-2.022711487763665,-0.004151428105363771,0.022550140688133682,-0.018458655453396935,-0.0002417165477049138,-0.007011246198359952,-0.0070128892728292935,2.780769150650506,2.604576910166936,0.26655460793852925,-0.0007538435064842316,-0.016443187218435427,-0.14181627834486232
1750772312.98081,-1.7246802170248543,-2.4904961812698647,-0.5306257884847758,1.5826040446005094,-0.45279329690011405,-2.0227260972520735,-0.004498415836145222,0.024429384255159163,-0.019995894025219153,-0.00026183594483909436,-0.007594791541265378,-0.007596571250013593,2.780857319953963,2.60471119761545,0.26656078487312185,-0.000753701590293038,-0.01643866378620994,-0.14177054093854582
1750772312.983057,-1.7246895610495558,-2.490445443244818,-0.5306673173165901,1.5826035008139128,-0.45280906988472314,-2.0227418739326772,-0.004845651826471879,0.026308643507594792,-0.021532897024884333,-0.0002819496702356313,-0.008178162971107497,-0.00818007924490693,2.7809522712569787,2.60485622649506,0.2665674706227608,-0.0007535467910315375,-0.016433764598951323,-0.1417209625599538
1750772312.984819,-1.7246995998103385,-2.490390946684562,-0.5307119199038182,1.5826029168058995,-0.452826009427171,-2.022758817444176,-0.005193155083438034,0.02818791966857269,-0.023069646438882326,-0.00030205728909400237,-0.008761347159406845,-0.00876339992370582,2.7810540124038674,2.605011994651669,0.2665746645614091,-0.0007533791163568346,-0.016428489944114007,-0.14166754630827544
1750772312.9880707,-1.7247103338607257,-2.4903326915540536,-0.5307595957212943,1.582602292589117,-0.45284411513965495,-2.0227769273986125,-0.00554094459422084,0.030067213964906934,-0.024606124277583973,-0.0003221583669715211,-0.009344330788654898,-0.009346519963572168,2.781162551843083,2.605178499776923,0.26658236601265284,-0.0007531985757802337,-0.016422840130753177,-0.14161029551407153
1750772312.9889598,-1.7247217637921954,-2.4902706778157917,-0.5308103442079011,1.5826016281770816,-0.4528633866077483,-2.0227962033813967,-0.005889039324698383,0.03194652762734751,-0.02614231257680752,-0.00034225246975836765,-0.009927100553018741,-0.009929426053417647,2.7812778986094764,2.605355739404292,0.2665905742559527,-0.0007530051781091021,-0.01641681548777329,-0.14154921374651036
1750772312.9908834,-1.724733890234134,-2.49020490542981,-0.5308641647666175,1.5826009235841771,-0.45288382339042776,-2.0228166449513267,-0.006237458218020484,0.03382586189086494,-0.027678193399671747,-0.0003623391636978146,-0.010509643159258853,-0.01051210489468026,2.781400062341449,2.605543710915326,0.26659928851859194,-0.0007527989327242426,-0.01641041636993544,-0.1414843048117143
1750772312.9929698,-1.724746713853789,-2.490135374353668,-0.5309210567645763,1.5826001788256547,-0.45290542502009323,-2.0228382516406187,-0.006586220193243085,0.03570521799485711,-0.029213748838003106,-0.0003824180155276087,-0.011091945327420808,-0.011094543202080845,2.7815290532566634,2.6057424115249748,0.26660850798808816,-0.0007525798530021649,-0.016403643151485174,-0.1414155727463197
1750772312.994884,-1.7247602353562241,-2.490062084542441,-0.5309810195331268,1.5825993939176317,-0.4529281910026013,-2.022861022954931,-0.006935344143921187,0.03758459718347846,-0.03074896101430145,-0.0004024885923432882,-0.011673993791589012,-0.011676727704419045,2.781664882168763,2.605951838304755,0.26661823179662364,-0.0007523479484577251,-0.016396496227900348,-0.1413430218287066
1750772312.9967752,-1.7247744554842601,-2.489985035948712,-0.5310440523678945,1.5825985688770905,-0.4529521208172893,-2.022884958373395,-0.007284848936711362,0.03946400070585667,-0.03228381208320515,-0.000422550461664559,-0.01225577530070959,-0.012258645145348692,2.781807560483516,2.606171988162448,0.26662845903520466,-0.0007521032305033839,-0.01638897601784055,-0.1412666565745979
1750772312.998836,-1.7247893750184256,-2.489904228522559,-0.5311101545288466,1.5825977037218781,-0.45297721391701007,-2.0229100573486445,-0.007634753410008316,0.0413434298163632,-0.03381828423320987,-0.00044260319155700004,-0.012837276619314747,-0.012840282284113796,2.781957100184412,2.606402857852263,0.26663918874625336,-0.000751845713954351,-0.016381082960370767,-0.14118648172262754
1750772313.0008352,-1.7248049947768944,-2.489819662211548,-0.5311793252403634,1.582596798470705,-0.4530034697281602,-2.0229363193068473,-0.007985076372544007,0.04322288577487476,-0.03535235968835111,-0.00046264635053939866,-0.013418484528354153,-0.013421625896352377,2.782113513848976,2.606644443972903,0.26665041992486876,-0.0007515754110466634,-0.016372817517976618,-0.14110250225723533
1750772313.002692,-1.7248213156154275,-2.4897313369607175,-0.5312515636913098,1.5825958531431439,-0.45303088765071475,-2.0229637436477397,-0.008335836602035667,0.045102369847044334,-0.036886020709851926,-0.00048267950766927876,-0.013999385825842061,-0.014002662774844557,2.7822768146289154,2.6068967429703727,0.2666621515196824,-0.000751292336417507,-0.01636418017137181,-0.14101472338953355
1750772313.0046823,-1.7248383384273112,-2.48963925271257,-0.5313268690351132,1.582594867759629,-0.4530594670582655,-2.022992329744664,-0.008687052843813192,0.04698188330452766,-0.03841924959765082,-0.0005027022325055651,-0.01457996732778408,-0.014583379730288571,2.782447016258537,2.6071597511292715,0.2666743824362548,-0.0007509965036567199,-0.01635517142737996,-0.1409231505676717
1750772313.006712,-1.7248560641432862,-2.4895434094070574,-0.5314052403898382,1.5825938423414552,-0.4530892072980519,-2.0230220769445983,-0.009038743809423664,0.04886142742529467,-0.03995202869227426,-0.0005227140952447884,-0.015160215868816496,-0.0151637635920303,2.78262413306251,2.607433464591285,0.26668711152760705,-0.0007506879301722268,-0.016345791810832955,-0.14082778946115568
1750772313.008677,-1.724874493731483,-2.4894438069815705,-0.5314866768382736,1.5825927769107757,-0.45312010769100297,-2.023052984568201,-0.009390928175321816,0.05074100349383924,-0.04148434037625917,-0.0005427146665989456,-0.015740118302981426,-0.015743801208883128,2.782808179925079,2.607717879331607,0.26670033760630363,-0.0007503666300008091,-0.016336041868398543,-0.14072864598962326
1750772313.0106912,-1.7248936281973481,-2.489340445370923,-0.5315711774280185,1.582591671490602,-0.45315216753177534,-2.023085051909849,-0.009743624581494118,0.05262061280146017,-0.0430161670758353,-0.0005627035179434913,-0.016319661504553686,-0.01632347944982794,2.7829991723131284,2.6080129911784344,0.26671405943780896,-0.0007500326212829251,-0.01632592217003946,-0.14062572628478454
1750772313.0127194,-1.724913468583571,-2.48923332450734,-0.5316587411715679,1.5825905261048026,-0.4531853860887951,-2.0231182782376766,-0.01009685163010361,0.05450025664652824,-0.04454749126265169,-0.0005826802212700621,-0.01689883236872029,-0.01690278520479435,2.7831971262695667,2.608318795807027,0.26672827573884467,-0.0007496859208561327,-0.01631543330485853,-0.1405190367164644
1750772313.0150797,-1.7249340159700068,-2.489122444320442,-0.5317493670464053,1.5825893407781007,-0.4532197626043022,-2.0231526627936187,-0.010450627884179655,0.056379936334726335,-0.046078295455211,-0.0006026443492192718,-0.017477617812323782,-0.017481705385418145,2.7834020583965793,2.60863528873608,0.26674298518573575,-0.0007493265464981056,-0.016304575882898475,-0.14040858388440433
1750772313.016787,-1.7249552714735943,-2.48900780473723,-0.5318430539951029,1.5825881155360737,-0.4532552962943903,-2.023188204793457,-0.010804971866253479,0.058259653179313246,-0.04760856222064072,-0.0006225954751424886,-0.018056004774759937,-0.018060226925788826,2.7836139858749473,2.6089624653323815,0.2667581864048443,-0.0007489545177392911,-0.01629335053949263,-0.14029437461634373
1750772313.0207884,-1.7249552714735943,-2.48900780473723,-0.5318430539951029,1.5825881155360737,-0.4532552962943903,-2.023188204793457,-0.010804971866253479,0.058259653179313246,-0.04760856222064072,-0.0006225954751424886,-0.018056004774759937,-0.018060226925788826,2.7836139858749473,2.6089624653323815,0.2667581864048443,-0.0007489545177392911,-0.01629335053949263,-0.14029437461634373
1750772313.024115,-1.7249772362482778,-2.4888894056820727,-0.5319398009254144,1.5825868504051521,-0.453291986349055,-2.0232249034268657,-0.011159902057069286,0.06013940850137955,-0.04913827417614723,-0.0006425331730401618,-0.01863398021853915,-0.01863833678319623,2.783832926436618,2.609300320810184,0.26677387798159774,-0.0007485698523411861,-0.016281757925786105,-0.14017641596570793
1750772313.0250745,-1.7249772362482778,-2.4888894056820727,-0.5319398009254144,1.5825868504051521,-0.453291986349055,-2.0232249034268657,-0.011159902057069286,0.06013940850137955,-0.04913827417614723,-0.0006425331730401618,-0.01863398021853915,-0.01863833678319623,2.783832926436618,2.609300320810184,0.26677387798159774,-0.0007485698523411861,-0.016281757925786105,-0.14017641596570793
1750772313.027,-1.725047398291597,-2.488511650888748,-0.532248390163498,1.5825828159560793,-0.45340898621000125,-2.023341930634606,-0.01222839403448995,0.06577891866636178,-0.053723908141524716,-0.0007022614501521173,-0.020365307426671402,-0.020370066194079852,2.7845320124626745,2.6103779104136855,0.2668238800102805,-0.000747340247257835,-0.016244783312858484,-0.13980011763646027
1750772313.0293138,-1.725072212427146,-2.4883782131362278,-0.5323573654051232,1.582581391550882,-0.4534502931026525,-2.0233832471785282,-0.012585852985420224,0.06765884127499687,-0.05525122808858046,-0.000722141191304984,-0.020941506910984866,-0.020946399382506423,2.7847791939691136,2.610758430535081,0.26684151795171684,-0.0007469052469777065,-0.01623172857305085,-0.13966723650696738
1750772313.0307388,-1.7250977421554996,-2.4882410154935086,-0.5324693946485741,1.5825799274016785,-0.4534927519200904,-2.0234257159144544,-0.012943989875757981,0.06953880909308346,-0.05677790711968022,-0.0007420053859704159,-0.021517230063164673,-0.021522256048400752,2.785033485627256,2.6111496033387063,0.26685963849966415,-0.0007464577159758114,-0.016218310142735056,-0.13953064464369938
1750772313.0329432,-1.7251239888507452,-2.4881000578688,-0.5325844765949581,1.5825784235399833,-0.45353636169676204,-2.023469335876447,-0.01330282290794777,0.0714188234941114,-0.058303928186181665,-0.000761853612871307,-0.02209246400050862,-0.022097623303830048,2.7852949085169194,2.6115514231347974,0.26687823996922944,-0.0007459976784737395,-0.016204528802530507,-0.1393903504521151
1750772313.03487,-1.7251509539233272,-2.487955340167555,-0.5327026099113485,1.5825768799981523,-0.4535811214413785,-2.023514106072822,-0.013662370233589695,0.07329888586118083,-0.05982927430049662,-0.0007816854516743177,-0.022667195868616107,-0.022672488289194746,2.785563484236901,2.61196388407915,0.26689732063647664,-0.0007455251605604488,-0.01619038534970218,-0.13924636254312103
1750772313.0367677,-1.7251786388199424,-2.4878068622924494,-0.5328237932309072,1.5825752968093818,-0.4536270301369729,-2.023560025486203,-0.014022649952136942,0.07517899758727858,-0.06135392853770089,-0.0008015004827625465,-0.023241412842202824,-0.023246838174020644,2.785839234943973,2.6123869801822535,0.26691687873238135,-0.0007450401819635681,-0.016175880604465325,-0.13909868976934495
1750772313.0387418,-1.7252070450234296,-2.4876546241433646,-0.5329480251530061,1.5825736740077057,-0.45367408674095344,-2.0236070930735846,-0.014383680109628923,0.07705916007552413,-0.06287787403708774,-0.0008212982875884602,-0.023815102125701555,-0.02382066015761472,2.7861221833352974,2.6128207053060493,0.2669369124441724,-0.0007445427723503902,-0.0161610154039592,-0.13894734118174032
1750772313.0407367,-1.725236174052669,-2.487498625617364,-0.5330753042433658,1.5825720116279942,-0.45372229018517096,-2.0236553077663864,-0.014745478697495755,0.07893937473940622,-0.06440109400357653,-0.000841078448428747,-0.02438825095419647,-0.024393941469830725,2.786412352624263,2.6132650531587043,0.2669574199190782,-0.0007440329544798029,-0.016145790611645068,-0.13879232606277092
1750772313.0448475,-1.7252660274624647,-2.487338866608674,-0.5332056290341791,1.5825703097059525,-0.45377163937597675,-2.023704668470522,-0.015108063651268756,0.08081964300306929,-0.0659235717093565,-0.0008608405485666995,-0.02496084659395622,-0.02496666937177067,2.786709766575325,2.6137200173091073,0.2669783992584193,-0.0007435107562851572,-0.016130207105999,-0.13863365390798668
1750772313.045533,-1.7252660274624647,-2.487338866608674,-0.5332056290341791,1.5825703097059525,-0.45377163937597675,-2.023704668470522,-0.015108063651268756,0.08081964300306929,-0.0659235717093565,-0.0008608405485666995,-0.02496084659395622,-0.02496666937177067,2.786709766575325,2.6137200173091073,0.2669783992584193,-0.0007435107562851572,-0.016130207105999,-0.13863365390798668
1750772313.0478497,-1.7252966068434379,-2.487175347008662,-0.5333389980242549,1.5825685682781176,-0.45382213319428644,-2.0237551740664603,-0.015471452849396142,0.08269996630152755,-0.06744529049525319,-0.000880584172229265,-0.02553287634319541,-0.025538831156491287,2.7870144494632565,2.61418559117026,0.2669998485246604,-0.0007429762038885512,-0.016114265786948703,-0.13847133442614776
1750772313.0491955,-1.725327913821907,-2.487008066705814,-0.533475409679153,1.5825667873818579,-0.45387377049564304,-2.023806823409286,-0.01583566411199151,0.08458034608095598,-0.06896623377232315,-0.0009003089046110134,-0.026104327532754944,-0.026110414149718743,2.78732642610016,2.614661768017297,0.26702176573569525,-0.0007424293241043735,-0.016097967573587196,-0.13830537754249253
1750772313.0512273,-1.7253599500597705,-2.4868370255857126,-0.5336148624313255,1.5825649670553694,-0.45392655011028626,-2.023859615328771,-0.016200715199648552,0.08646078379889488,-0.0704863850231881,-0.000920014331958338,-0.026675187526917922,-0.026681405710554936,2.787645721809039,2.615148540969146,0.26704414887156597,-0.00074187014615115,-0.01608131340799296,-0.13813579339635473
1750772313.053117,-1.7253927172543904,-2.4866622235310136,-0.5337573546802634,1.5825631073376754,-0.45398047084321824,-2.0239135486294355,-0.016566623812240895,0.0883412809245399,-0.07200572780365516,-0.0009397000415737456,-0.027245443723923554,-0.027251793232162976,2.787972362429609,2.6156459030070383,0.26706699586671473,-0.0007412986993347423,-0.016064304246719237,-0.13796259233322652
1750772313.0547717,-1.7254262171384624,-2.486483660421422,-0.5339028847926448,1.582561208268623,-0.4540355314742719,-2.0239686220906243,-0.016933407587715808,0.09022183893897755,-0.07352424574407501,-0.0009593656217524548,-0.02781508355693071,-0.027821564142509775,2.78830637432249,2.616153846964108,0.2670903046175009,-0.000740715011237677,-0.016046941073466037,-0.13778578492461135
1750772313.0568004,-1.7254604514799006,-2.48630133613367,-0.5340514511024823,1.5825592698888817,-0.454091730758182,-2.024024834466573,-0.017301084100947682,0.09210245933542585,-0.07504192255079402,-0.0009790106619084647,-0.028384094494423563,-0.02839070590500978,2.788647784343179,2.6166723655271054,0.2671140729790985,-0.0007401191129390497,-0.016029224883356768,-0.13760538193489277
1750772313.0588212,-1.7254954220816998,-2.486115250541489,-0.5342030519112804,1.5825572922399416,-0.45414906742465533,-2.0240821844864776,-0.017669670862531194,0.09398314361949683,-0.0765587420076196,-0.0009986347525588913,-0.028952464041081604,-0.028959206019231305,2.788996619867671,2.617201451242384,0.26713829876572576,-0.0007395110350998797,-0.016011156696026107,-0.13742139434275752
1750772313.0607064,-1.725531130781814,-2.4859254035155884,-0.5343576854881862,1.5825552753641101,-0.45420754017844533,-2.0241406708545746,-0.01803918531767029,0.09586389330942124,-0.07807468797713389,-0.0010182374853416032,-0.029520179738461983,-0.029527052021602017,2.7893529087553333,2.617741096506508,0.267162979754274,-0.0007388908089223047,-0.015992737550330042,-0.13723383333956124
1750772313.0627158,-1.7255675794530205,-2.4857317949236273,-0.5345153500701576,1.5825532193045104,-0.45426714769942755,-2.024200292250205,-0.01840964484499296,0.09774470993633663,-0.07958974440230387,-0.0010378184529935403,-0.0300872291655707,-0.03009423148606405,2.7897166793763697,2.6182912935824043,0.2671881136765125,-0.0007382584649319546,-0.015973968501213884,-0.13704271031381285
1750772313.0650387,-1.7256047700027848,-2.485534424630189,-0.5346760438621141,1.582551124105079,-0.4543278886426716,-2.024261047327901,-0.0187810667554308,0.09962559504450362,-0.08110389530771041,-0.0010573772494629572,-0.030653599939618924,-0.0306607320247811,2.7900879605886764,2.6188520345840662,0.26721369822955426,-0.0007376140369157997,-0.01595485062492959,-0.13684803686827443
1750772313.066829,-1.7256427043731275,-2.485333292496757,-0.5348397650371117,1.5825489898105631,-0.4543897616385211,-2.0243229347174534,-0.019153468291114438,0.10150655019153787,-0.08261712480092152,-0.001076913469860976,-0.031219279716741842,-0.031226541288776263,2.7904667817295374,2.6194233114809107,0.2672397310716198,-0.0007369575572032163,-0.015935385017980367,-0.13664982479674384
1750772313.0688243,-1.725681384540482,-2.485128398381683,-0.535006511736503,1.5825468164665193,-0.45445276529267087,-2.024385953023998,-0.01952686662422898,0.10338757694869681,-0.08412941707397127,-0.001096426710505475,-0.03178425619256699,-0.03179164696864335,2.790853172633942,2.620005116109519,0.26726620981960675,-0.0007362890594579578,-0.01591557279287743,-0.1364480861083519
1750772313.0707278,-1.7257208125155579,-2.4849197421401654,-0.5351762820701111,1.5825446041193094,-0.4545168981862471,-2.0244501008280915,-0.019901278855938502,0.1052686769010933,-0.08564075640466101,-0.0011159165689500355,-0.03234851710295613,-0.03235603679517124,2.7912471636049228,2.620597440159616,0.2672931320534615,-0.0007356085780864166,-0.015895415083033,-0.13624283299918447
1750772313.0728278,-1.7257609903431925,-2.484707323624216,-0.5353490741164011,1.5825423528160991,-0.4545821588758887,-2.024515376685791,-0.020276722015267496,0.10714985164795802,-0.08715112715793037,-0.001135382643970641,-0.032912050224574024,-0.03291969854003394,2.7916487854329297,2.6212002751851076,0.26732049531481245,-0.0007349161471712821,-0.01587491303787918,-0.13603407787400448
1750772313.078306,-1.7258019201022092,-2.4844911426826353,-0.5355248859226585,1.5825400626048558,-0.4546485458938303,-2.024581779128738,-0.020653213058063526,0.1090311028028615,-0.08866051378712922,-0.0011548245356182713,-0.03347484337570205,-0.03348262001644461,2.7920580693630552,2.6218136125950835,0.2673482971091179,-0.0007342118022910793,-0.015854067829771182,-0.1358218333336639
1750772313.0788424,-1.72584360390527,-2.4842711991609807,-0.5357037155051607,1.5825377335343447,-0.4547160577479845,-2.024649306664246,-0.02103076886589589,0.11091243199399074,-0.09016890083547414,-0.0011742418452405916,-0.034036884416740104,-0.03404478907980334,2.792475047120202,2.622437443667652,0.26737653490108443,-0.0007334955796327243,-0.015832880645200356,-0.13560611217389082
1750772313.081092,-1.72584360390527,-2.4842711991609807,-0.5357037155051607,1.5825377335343447,-0.4547160577479845,-2.024649306664246,-0.02103076886589589,0.11091243199399074,-0.09016890083547414,-0.0011742418452405916,-0.034036884416740104,-0.03404478907980334,2.792475047120202,2.622437443667652,0.26737653490108443,-0.0007334955796327243,-0.015832880645200356,-0.13560611217389082
1750772313.0815046,-1.725886043898722,-2.48404749290154,-0.5358855608493673,1.5825353656541277,-0.4547846929220256,-2.0247179577753798,-0.021409406245022314,0.11279384086434723,-0.0916762729371703,-0.0011936341754304573,-0.03459816125092488,-0.034606193628335634,2.792899750882606,2.6230717595342385,0.26740520612369595,-0.0007327675138931963,-0.01581135269089348,-0.13538692738215027
1750772313.0827286,-1.7259292422624517,-2.4838200237432986,-0.5360704199100947,1.5825329590145598,-0.45485444987548007,-2.0247877309210436,-0.02178914192534579,0.11467533107202357,-0.09318261481885043,-0.001213001130197892,-0.035158661824938015,-0.03516682160374213,2.793332213286146,2.6237165511954577,0.2674343081694147,-0.0007320276446925802,-0.015789485190708316,-0.13516429214083647
1750772313.084732,-1.7259732012097277,-2.4835887915219117,-0.5362582906117073,1.5825305136667869,-0.45492532704381183,-2.024858624536069,-0.022169992559373818,0.11655690429043111,-0.09468791130083548,-0.0012323423148691995,-0.035718374129595096,-0.03572666099183953,2.793772467423212,2.624371809512769,0.2674638383952144,-0.0007312760087743559,-0.01576727938791308,-0.13493821982505994
1750772313.0867035,-1.726017922987043,-2.4833537960696708,-0.5364491708483063,1.5825280296627426,-0.45499732283850847,-2.0249306370313054,-0.02255197472119747,0.11843856220855968,-0.0961921472984342,-0.0012516573360499335,-0.03627728620042612,-0.03628569982321767,2.7942205468361463,2.6250375252153972,0.2674937941215882,-0.0007305126418710076,-0.01574473654212629,-0.13470872400719444
1750772313.088739,-1.7260634098739622,-2.483115037215475,-0.536643058483917,1.5825255070551463,-0.4550704356471771,-2.0250037667937075,-0.02293510490553706,0.12032030653115869,-0.09769530782298251,-0.001270945801853333,-0.03683538611834659,-0.03684392617381245,2.794676485488986,2.625713688885904,0.26752417263939354,-0.0007297375861246902,-0.01572185793187322,-0.1344758184300708
1750772313.090736,-1.7261096641829585,-2.4828725147847965,-0.5368399513526869,1.5825229458974992,-0.4551446638336305,-2.0250780121864267,-0.023319399526673303,0.12220213897905795,-0.09919737798344515,-0.001290207321692258,-0.03739266201028869,-0.037401328165584086,2.795140317814899,2.6264002909886495,0.2675549711948536,-0.0007289508778447461,-0.01569864485345877,-0.13423951704114093
1750772313.0926883,-1.72615668825925,-2.482626228599651,-0.537039847259078,1.5825203462440829,-0.45522000573798227,-2.0251533715489085,-0.0237048749175359,0.12408406128933204,-0.1006983429873162,-0.0013094415064912467,-0.037949102049710276,-0.03795789396710508,2.7956120786531855,2.6270973218391314,0.2675861870084255,-0.000728152559333014,-0.015675098617525023,-0.13399983396301718
1750772313.0947099,-1.7262044844806432,-2.4823761784785625,-0.5372427439780676,1.582517708149955,-0.45529645967673993,-2.0252298431969784,-0.024091547328703992,0.12596607521559167,-0.10219818814205589,-0.0013286479685345402,-0.03850469445736023,-0.038513611794184235,2.7960918032845785,2.6278047716307436,0.26761781726034434,-0.0007273426685712276,-0.01565122055627631,-0.13375678350477052
1750772313.0967085,-1.7262530552573585,-2.4821223642365315,-0.5374486392553504,1.582515031670948,-0.45537402394290183,-2.0253074254229437,-0.024479432927457367,0.1278481825281867,-0.10369689885618077,-0.0013478263216239873,-0.03905942750184582,-0.03906846991048474,2.7965795274113923,2.628522630417541,0.2676498591000562,-0.0007265212480680056,-0.015627012017899244,-0.1335103801612868
1750772313.0987103,-1.7263024030318688,-2.481864785685001,-0.5376575308075378,1.5825123168636643,-0.4554526968060495,-2.025386116495687,-0.024868547796850552,0.1297303850144587,-0.1051944606404824,-0.0013669761810040494,-0.03961328950012846,-0.039622456628112895,2.797075287148516,2.6292508881253727,0.2676823096426833,-0.0007256883381598563,-0.015602474364544594,-0.1332606386020443
1750772313.1015043,-1.726352530278727,-2.4816034426318216,-0.5378694163223665,1.5825095637854754,-0.455532476512448,-2.0254659146607636,-0.025258907934781565,0.13161268447897154,-0.10669085910918626,-0.001386097163410406,-0.04016626881824849,-0.04017556030823193,2.7975791190261203,2.6299895345480673,0.26771516597073414,-0.0007248439806014144,-0.015577608978782001,-0.1330075736804325
1750772313.1031134,-1.7264034395043968,-2.4813383348812184,-0.5380842934589074,1.5825067724945165,-0.4556133612851445,-2.0255468181405014,-0.02565052925307396,0.13349508274372693,-0.10818607998109032,-0.0014051888871705119,-0.04071835387192263,-0.04072776936162896,2.79809105998319,2.630738559346033,0.26774842513459496,-0.0007239882199648124,-0.015552417260012611,-0.13275120041888755
1750772313.1052392,-1.7264551332470779,-2.4810694622337537,-0.538302159847774,1.582503943049686,-0.45569534932406874,-2.025628825134099,-0.02604342757659041,0.13537758164845495,-0.1096801090808345,-0.001424250972020831,-0.04126953312701563,-0.041279072249352226,2.7986111473583195,2.6314979520603967,0.26778208414901056,-0.0007231210957030507,-0.015526900620920539,-0.13249153402935906
1750772313.1068459,-1.7265076140765334,-2.4807968244862932,-0.5385230130913348,1.5825010755106401,-0.45577843880613056,-2.0257119338177283,-0.02643761864233715,0.13726018305077267,-0.1111729323398378,-0.0014432830393619383,-0.04181979510019685,-0.04182945748323899,2.79913941888938,2.632267702090326,0.2678161400022216,-0.0007222426544415946,-0.015501060492688746,-0.13222858988158628
1750772313.1087646,-1.7265608845939093,-2.4805204214319687,-0.5387468507639301,1.5824981699377916,-0.4558626278853257,-2.025796142344637,-0.026833118098597564,0.13914288882646822,-0.11266453579755879,-0.001462284712117107,-0.04236912835958056,-0.04237891362653223,2.7996759127057715,2.6330477987164307,0.26785058964705494,-0.0007213529388478505,-0.015474898324537849,-0.13196238352853876
1750772313.110735,-1.7266149474315622,-2.480240252860143,-0.5389736704120871,1.582495226392305,-0.4559479146928389,-2.025881448845249,-0.027229941504095922,0.14102570086970162,-0.11415490560247056,-0.0014812556147916728,-0.04291752152516201,-0.042927429294438074,2.8002206673150156,2.633838231086174,0.2678854300087473,-0.0007204519932551722,-0.015448415577970918,-0.13169293068862178
1750772313.112699,-1.7266698052528726,-2.47995631855637,-0.5392034695547414,1.582492244936095,-0.45603429733714496,-2.025967851427275,-0.027628104327108386,0.14290862109328142,-0.1156440280133702,-0.0015001953735053197,-0.043464963269534584,-0.043474993154700825,2.80077372162377,2.634638988230386,0.26792065797591574,-0.0007195398629355913,-0.01542161373469517,-0.13142024725168155
1750772313.1147864,-1.7267254607520686,-2.479668618302362,-0.539436245683456,1.582489225631822,-0.456121773904119,-2.0260553481758095,-0.028027621944687015,0.1447916514288285,-0.11713188940013898,-0.0015191036159643047,-0.04401144231825554,-0.044021593928150866,2.80133511489385,2.6354500590409553,0.26795627041548714,-0.0007186165923424813,-0.015394494286718642,-0.13114434926958868
1750772313.1168306,-1.7267254607520686,-2.479668618302362,-0.539436245683456,1.582489225631822,-0.456121773904119,-2.0260553481758095,-0.028027621944687015,0.1447916514288285,-0.11713188940013898,-0.0015191036159643047,-0.04401144231825554,-0.044021593928150866,2.80133511489385,2.6354500590409553,0.26795627041548714,-0.0007186165923424813,-0.015394494286718642,-0.13114434926958868
1750772313.118869,-1.7267819166540397,-2.479377151875947,-0.5396719962626451,1.582486168542889,-0.45621034245713954,-2.026143937153445,-0.028428509641813593,0.14667479382705084,-0.11861847624501477,-0.0015379799716309921,-0.0445569474506089,-0.044567220389263265,2.801904886769646,2.6362714322944147,0.26799226415872374,-0.0007176822307764524,-0.015367058747543228,-0.13086525296022197
1750772313.1208582,-1.7268391757141526,-2.4790819190510325,-0.5399107187298027,1.5824830737334392,-0.4563000010371985,-2.0262336164003765,-0.028830782610608344,0.14855805025797764,-0.12010377514362698,-0.001556824071470113,-0.04510146750007687,-0.04511186136673981,2.8024830772579556,2.637103096643684,0.26802863600772125,-0.0007167368203592172,-0.015339308643948977,-0.1305829747140557
1750772313.1228707,-1.7268972407180643,-2.4787829195975672,-0.5401524104957272,1.582479941268352,-0.4563907476630087,-2.0263243839345106,-0.029234455949553664,0.15044142271114444,-0.12158777280585804,-0.001575635548225238,-0.04564499135478633,-0.04565550574400304,2.8030697267199276,2.6379450406115836,0.2680653827402694,-0.0007157804110054054,-0.015311245515292997,-0.1302975310673073
1750772313.1249108,-1.7269561144815349,-2.4784801532815006,-0.5403970689447499,1.5824767712132388,-0.456482580331115,-2.026416237751577,-0.02963954466271017,0.1523249131958626,-0.12307045605703983,-0.0015944140363010775,-0.04618750795823851,-0.046198142459772044,2.8036648758763474,2.638797252606137,0.268102501100511,-0.0007148130493457191,-0.015282870921490296,-0.13000893872693348
1750772313.1268113,-1.7270157998502391,-2.4781736198647435,-0.5406446914349727,1.5824735636344418,-0.4565754970160061,-2.026509175825238,-0.030046063658976933,0.15420852374142044,-0.12455181183881818,-0.0016131591718123064,-0.04672900630964195,-0.046739760508578664,2.8042685657894384,2.639659720909484,0.2681399878081981,-0.0007138347833723321,-0.015254186431831927,-0.12971721455197913
1750772313.1290202,-1.7270762996995703,-2.4778633191051282,-0.5408952752984959,1.5824703185990283,-0.45666949567022197,-2.0266031961071995,-0.030454027751322728,0.15609225639731722,-0.12603182721019218,-0.0016318705925771875,-0.04726947546462812,-0.04728034894130832,2.804880837874694,2.640532433685235,0.2681778395539573,-0.0007128456609243387,-0.015225193635772152,-0.1294223755620586
1750772313.1369705,-1.7271376169344546,-2.477549250756368,-0.5411488178416555,1.5824670361747883,-0.4567645742244739,-2.0266982965273295,-0.030863451656105236,0.15797611323348967,-0.12751048934844533,-0.0016505479382242288,-0.04780890453554784,-0.047819896865701914,2.805501733866267,2.6414153789771135,0.268216053001961,-0.0007118457328491192,-0.015195894131110969,-0.1291244389231062
1750772313.1373775,-1.7273265024405262,-2.476584437649685,-0.541927170230867,1.5824569652577773,-0.45705626826946855,-2.0269900575901705,-0.03210062794406344,0.16362844983423155,-0.13193822993169055,-0.0017063719465190057,-0.049420843232319135,-0.049432189530188145,2.8074165876981088,2.6441254886078136,0.2683328298000111,-0.0007087816001029771,-0.015106171618334817,-0.12821221710709962
1750772313.1387906,-1.7273911188506377,-2.4762552963976354,-0.5421925200490172,1.5824535339704622,-0.4571556452983421,-2.027089457428823,-0.03251603630467918,0.16551282450735863,-0.1334113533090886,-0.00172490942276067,-0.049956004246605804,-0.0499674676540291,2.808072403313658,2.645049242033892,0.26837245617112343,-0.0007077389413439052,-0.015075661594872421,-0.12790206460159792
1750772313.1407065,-1.7274565676070273,-2.4759223862617596,-0.5424608147004077,1.5824500656439866,-0.4572560915573529,-2.0271899267313866,-0.03293297658550143,0.1673973340247614,-0.13488306114683846,-0.0017434110484471114,-0.050490071609683156,-0.05050165167914323,2.8087370564215015,2.6459831664320417,0.2684124271721362,-0.0007066857274433237,-0.015044853086465927,-0.12758890254270222
1750772313.142763,-1.7275228517876764,-2.475585706970176,-0.5427320513418463,1.5824465603504019,-0.45735760484865473,-2.027291463299113,-0.03335146290865974,0.16928198058363997,-0.1363533413512522,-0.0017618764739347741,-0.05102303478577125,-0.051034731065113054,2.8094105906485125,2.6469272491401252,0.26845273931711,-0.0007056220094151571,-0.015013747781730327,-0.12727274898553964
1750772313.1448176,-1.7275899744987067,-2.475245258246585,-0.5430062271060754,1.5824430181624562,-0.45746018295338686,-2.027394064912233,-0.03377150929495119,0.17116676640320339,-0.13782218195330165,-0.0017803053514267478,-0.051554883299313334,-0.05156669533187962,2.810093049947577,2.647881477394473,0.2684933890911326,-0.0007045478392017516,-0.014982347377170637,-0.12695362212605207
1750772313.146908,-1.72765793887418,-2.474901039810229,-0.5432833391020262,1.582439439153592,-0.4575638236317996,-2.0274977293300793,-0.03419312966327776,0.1730516937248332,-0.13928957110932144,-0.0017986973350489954,-0.05208560673571277,-0.05209753406019451,2.8107844785440346,2.6488458383067988,0.2685343729589983,-0.0007034632708826588,-0.014950653590055325,-0.1266315402916162
1750772313.1488109,-1.7277267480758942,-2.4745530513758425,-0.5435633844150676,1.5824358233979414,-0.45766852462337404,-2.0276024542912072,-0.034616337830052774,0.17493676481235812,-0.14075549710190058,-0.00181705208072628,-0.052615194741509184,-0.052627236892126256,2.8114849209511465,2.649820318888615,0.2685756873607421,-0.0007023683550771191,-0.014918668142610525,-0.12630652195742484
1750772313.1507802,-1.7277964052931765,-2.4742012926536114,-0.5438463601072616,1.5824321709703226,-0.45777428364694916,-2.0277082375135187,-0.03504114750860972,0.17682198195222096,-0.1422199483406239,-0.0018353692463180858,-0.05314363702510152,-0.05315579353148314,2.812194421965258,2.650804906031493,0.26861732871536653,-0.0007012631462107794,-0.014886392777434932,-0.125978585722177
1750772313.1527686,-1.7278669137426785,-2.473845763349126,-0.5441322632176169,1.5824284819462364,-0.457881098400839,-2.027815076694381,-0.03546757230865823,0.17870734745373015,-0.14368291336292374,-0.0018536484916184628,-0.053670923356953525,-0.053683193744283514,2.8129130266503406,2.651799586523796,0.2686592934179439,-0.0007001476987399286,-0.01485382924291255,-0.12564775032087477
1750772313.1547744,-1.7279382766681648,-2.473486463163334,-0.5444210907623441,1.5824247564018619,-0.4579889665629633,-2.0279229695107617,-0.035895625735726876,0.18059286364925478,-0.1451443808347931,-0.0018718894783196279,-0.05419704357030329,-0.05420942735922709,2.8136407803426975,2.6528043470408362,0.2687015778434903,-0.0006990220661315273,-0.014820979307418415,-0.125314034626963
1750772313.1568503,-1.7280104973403088,-2.4731233917924964,-0.5447128397351166,1.582420994414053,-0.45809788579097077,-2.028031913619346,-0.03632532119065528,0.18247853289444166,-0.1466043395515277,-0.0018900918700399056,-0.054721987561410744,-0.05473448426809781,2.8143777286305935,2.653819174151096,0.26874417834606296,-0.000697886302573738,-0.014787844746297381,-0.12497745762877344
1750772313.1591227,-1.7280104973403088,-2.4731233917924964,-0.5447128397351166,1.582420994414053,-0.45809788579097077,-2.028031913619346,-0.03632532119065528,0.18247853289444166,-0.1466043395515277,-0.0018900918700399056,-0.054721987561410744,-0.05473448426809781,2.8143777286305935,2.653819174151096,0.26874417834606296,-0.000697886302573738,-0.014787844746297381,-0.12497745762877344
1750772313.161062,-1.7281575251405297,-2.472385934257002,-0.5453050898283527,1.582413361418898,-0.4583188679746373,-2.0282529462392294,-0.03718969126082754,0.18625034007410174,-0.14951968655201262,-0.0019263795329051527,-0.055768306779944744,-0.055781027852899234,2.815879392650031,2.6558789738967072,0.2688303128888648,-0.0006955846055013573,-0.014720728916448269,-0.12429579633373326
1750772313.1628058,-1.7282323389425889,-2.472011547461003,-0.5456055848258092,1.5824094905685977,-0.4584309261453843,-2.028365029963645,-0.03762439214969366,0.1881364828381923,-0.15097505307957398,-0.0019444641411341518,-0.056289662119256886,-0.05630249463182222,2.816644200814915,2.656923919136622,0.268873839535437,-0.0006944187823157176,-0.01468675126415004,-0.12395075065224974
1750772313.1647255,-1.7283080238388466,-2.471633388217177,-0.5459089890058237,1.5824055835889472,-0.458544025812448,-2.0284781554067557,-0.03806078761270422,0.19002278831160382,-0.15242886734101163,-0.0019625088286015957,-0.056809801460874366,-0.056822744911498475,2.8174183884414425,2.6579788761836776,0.2689176674706133,-0.0006932430512256989,-0.014652496215667067,-0.12360292089379558
1750772313.1667616,-1.728384583231338,-2.471251456197634,-0.5462152992532952,1.582401640560115,-0.4586581645340395,-2.0285923201257656,-0.03849889051979343,0.19190925896958597,-0.15388111878903118,-0.0019805132688556653,-0.05732871502288541,-0.05734176890564664,2.8182020023404264,2.659043831085083,0.268961792946694,-0.0006920574689413768,-0.014617965607564249,-0.12325232666200284
1750772313.1687436,-1.728462020547732,-2.4708657510695096,-0.5465245124321587,1.5823976615629198,-0.45877333984887425,-2.028707521658373,-0.03893871363335869,0.19379589731192315,-0.15533179700976332,-0.0019984771374432684,-0.05784639308903666,-0.05785955689361585,2.8189950895415428,2.660118769778876,0.26900621220169324,-0.0006908620918035491,-0.01458316128946114,-0.12289898768154604
1750772313.1707568,-1.728540339241114,-2.4704762724949143,-0.5468366253856596,1.582393646678828,-0.45888954927629744,-2.0288237575228987,-0.03938026960782806,0.195682705863158,-0.15678089172348234,-0.0020164001119758667,-0.05836282600901856,-0.05837609922077193,2.8197976972980348,2.6612036781051525,0.2690509214534592,-0.0006896569780140766,-0.014548085119015043,-0.12254292378764872
1750772313.17275,-1.7286195427897706,-2.470083020130885,-0.5471516349366157,1.5823895959899483,-0.45900679031642255,-2.0289410252184226,-0.03982357098925906,0.19756968717280685,-0.15822839278521422,-0.0020342818720876336,-0.05887800419900745,-0.058891386298908784,2.8206098730757736,2.6622985418049643,0.26909591690277995,-0.0006884421846265854,-0.01451273896915627,-0.12218415493386459
1750772313.174792,-1.7286996346969694,-2.469685993629335,-0.5474695378876904,1.5823855095790282,-0.45912506045026014,-2.0290593222249127,-0.040268630214958384,0.19945684381554954,-0.15967429018529458,-0.0020521220994676207,-0.0593919181418322,-0.05940540860660653,2.8214316645435176,2.6634033465170104,0.2691411947346514,-0.0006872177695644424,-0.01447712471750697,-0.12182270117522166
1750772313.176773,-1.728780618490747,-2.4692851926370016,-0.5477903310216643,1.58238138752945,-0.45924435713985723,-2.0291786460033645,-0.04071545961310302,0.2013441783914526,-0.16111857405003757,-0.002069920477901749,-0.05990455838760569,-0.059918156689632227,2.822263119573809,2.6645180777843342,0.2691867511152409,-0.0006859837920018735,-0.014441244259480342,-0.1214585826819747
1750772313.1788228,-1.7288624977236848,-2.4688806167953974,-0.5481140111017062,1.5823772299252254,-0.4593646778284235,-2.029298993995929,-0.041164071402370946,0.20323169352616327,-0.16256123464222913,-0.00208767669323952,-0.06041591555389283,-0.06042962116129129,2.823104286238474,2.6656427210517197,0.2692325821970066,-0.0006847403101263928,-0.014405099495221639,-0.12109181972400856
1750772313.1810608,-1.7288624977236848,-2.4688806167953974,-0.5481140111017062,1.5823772299252254,-0.4593646778284235,-2.029298993995929,-0.041164071402370946,0.20323169352616327,-0.16256123464222913,-0.00208767669323952,-0.06041591555389283,-0.06042962116129129,2.823104286238474,2.6656427210517197,0.2692325821970066,-0.0006847403101263928,-0.014405099495221639,-0.12109181972400856
1750772313.1828482,-1.7289452759726922,-2.4684722657407576,-0.5484405748716483,1.5823730368509938,-0.4594860199404751,-2.0294203636260546,-0.0416144776916256,0.20511939187112313,-0.16400226236172227,-0.0021053904333923215,-0.060925980326177104,-0.06093979270282536,2.8239552127887766,2.6667772616675247,0.2692786841154243,-0.0006834873821511379,-0.014368692338018676,-0.12072243268489953
1750772313.184865,-1.7290289568387864,-2.4680601391039887,-0.5487700190562599,1.5823688083920153,-0.4596083808819662,-2.029542752298619,-0.04206669047957274,0.20700727610375794,-0.1654416477459261,-0.0021230613884522373,-0.06143474345822635,-0.06144866206372124,2.8248159476642076,2.667921684883866,0.2693250529923559,-0.0006822250695854668,-0.014332024711464811,-0.12035044203453768
1750772313.1868439,-1.7291135439468714,-2.467644236510616,-0.5491023403615225,1.5823645446341685,-0.4597317580404283,-2.029666157400067,-0.04252072165444799,0.20889534892770542,-0.16687938147043,-0.0021406892505942267,-0.061942195772322795,-0.06195622006210378,2.825686539482867,2.6690759758621487,0.2693716849320737,-0.000680953431236252,-0.014295098545630706,-0.11997586835525897
1750772313.1929708,-1.7291990409455158,-2.467224557580731,-0.5494375354749081,1.5823602456639454,-0.4598561487851036,-2.0297905762985486,-0.04297658299373637,0.21078361307299284,-0.16831545434937956,-0.0021582737141108586,-0.06244832815983057,-0.06246245758507486,2.8265670370280236,2.6702401196656895,0.26941857602823066,-0.000679672526895692,-0.01425791578657837,-0.11959873232493845
1750772313.1945643,-1.729285451506735,-2.466801101928939,-0.5497756010656563,1.582355911568447,-0.4599815504670888,-2.0299160063440596,-0.043434286163891195,0.21267207129624557,-0.16974985733600706,-0.0021758144754370928,-0.06295313158130196,-0.06296736558904278,2.827457489248073,2.671414101266926,0.2694657223595421,-0.000678382417051153,-0.014220478383358583,-0.11921905471376723
1750772313.1949413,-1.7293727793257645,-2.4663738691643053,-0.55011653378505,1.5823515424353793,-0.46010796041947,-2.0300424448685748,-0.043893842720046136,0.21456072638091275,-0.17118258152318466,-0.002193311233185999,-0.06345659706693453,-0.06347093510004295,2.828357945259502,2.672597905552946,0.2695131199893888,-0.000677083163192575,-0.014182788297902087,-0.1188368563816955
1750772313.1964056,-1.7294610281208378,-2.465942858890301,-0.5504603302667013,1.5823471383530494,-0.4602353759574642,-2.030169889186194,-0.04435526410579685,0.21644958113742097,-0.17261361814373807,-0.0022107636881244443,-0.06395871571688411,-0.06397315721409182,2.829268454320194,2.6737915173095463,0.2695607649719785,-0.0006757748261822914,-0.014144847500955694,-0.11845215828931856
1750772313.196855,-1.7295502016329642,-2.46550807070475,-0.5508069871268271,1.5823426994103602,-0.46036379437855945,-2.030298336593276,-0.044818561652963815,0.2183386384034163,-0.17404295857098034,-0.002228171543173308,-0.06445947870158944,-0.06447402309748614,2.830189065836545,2.6749949212426887,0.26960865334671946,-0.0006744574668553129,-0.014106657972412501,-0.11806498147918597
1750772313.1987703,-1.7296403036257058,-2.465069504199772,-0.5511565009645301,1.5823382256968066,-0.46049321296265333,-2.0304277843685856,-0.04528374658136075,0.22022790104394432,-0.17547059431912473,-0.0022455345034580994,-0.06495887726200668,-0.06497352398712354,2.8311198293610684,2.6762081019661395,0.2696567811413599,-0.0006731311475166454,-0.014068221698769427,-0.11767534708445856
1750772313.2007115,-1.7297313378849513,-2.46462715896173,-0.5515088683620846,1.5823337173024714,-0.4606236289721979,-2.0305582297734324,-0.04575082999860702,0.22211737195165274,-0.17689651704365755,-0.0022628522762681695,-0.06545690271006274,-0.06547165119081007,2.8320607945758303,2.6774310440072733,0.26970514437316523,-0.0006717959293185638,-0.01402954067929734,-0.11728327632330345
1750772313.202718,-1.729823308218692,-2.4641810345711743,-0.5518640858852173,1.5823291743180203,-0.460755039652339,-2.0306896700518102,-0.04621982289993049,0.2240070540469764,-0.17832071854170325,-0.0022801245711417664,-0.06595354642875485,-0.06596839608752941,2.833012011294959,2.678663731805824,0.26975373904918,-0.0006704518757884192,-0.013990616916068304,-0.11688879048763626
1750772313.204754,-1.7299162184567978,-2.4637311306027856,-0.5522221500833906,1.5823245968346977,-0.46088744223106115,-2.030822102430543,-0.04669073616801073,0.22589695027835902,-0.179743190752502,-0.002297351099805184,-0.06644879987267602,-0.06646375012778472,2.833973529451023,2.6799061497192698,0.26980256116286494,-0.0006690990488270763,-0.01395145242596025,-0.11649191096544043
1750772313.2066057,-1.7300100724507903,-2.4632774466253196,-0.5525830574900876,1.5823199849443226,-0.4610208339193296,-2.03095552411943,-0.047163580572805605,0.2277870636224251,-0.1811639257576476,-0.002314531576234288,-0.06694265456808939,-0.06695770483384779,2.834945399099603,2.6811582820181954,0.26985160670119895,-0.0006677375120247595,-0.013912049227943056,-0.11609265921235773
1750772313.2087193,-1.7301048740736205,-2.4628199822015513,-0.5529468046230974,1.5823153387392834,-0.4611552119112323,-2.0310899323113842,-0.047638366771431656,0.22967739708419588,-0.18258291578151742,-0.002331665716590696,-0.0674351021133073,-0.06745025180003966,2.8359276703990495,2.6824201128931597,0.26990087163890114,-0.000666367327162023,-0.01387240935166632,-0.11569105676006525
1750772313.210627,-1.7302006272194372,-2.462358736888216,-0.5533133879848018,1.5823106583125346,-0.4612905733841277,-2.0312253241825804,-0.04811510530801914,0.23156795369727062,-0.1840001531915249,-0.002348753239304836,-0.06792613417897746,-0.06794138269303053,2.8369203936212357,2.683691626450292,0.26995035194375844,-0.0006649885584564971,-0.013832534834839868,-0.1152871252246591
1750772313.2137535,-1.7302006272194372,-2.462358736888216,-0.5533133879848018,1.5823106583125346,-0.4612905733841277,-2.0312253241825804,-0.04811510530801914,0.23156795369727062,-0.1840001531915249,-0.002348753239304836,-0.06792613417897746,-0.06794138269303053,2.8369203936212357,2.683691626450292,0.26995035194375844,-0.0006649885584564971,-0.013832534834839868,-0.1152871252246591
1750772313.2147527,-1.7302973358033675,-2.4618937102359535,-0.5536828040624586,1.5823059437575908,-0.4614269154987891,-2.031361696892599,-0.04859380661361866,0.2334587365240142,-0.18541563049845539,-0.0023657938650732883,-0.06841574250830347,-0.06843108925206552,2.8379236191292287,2.6849728067134477,0.27000004357390694,-0.0006636012699773752,-0.01379242772138825,-0.11488088628119998
1750772313.2166955,-1.7303950037612852,-2.4614249017892504,-0.5540550493284933,1.5823011951685235,-0.46156423539954616,-2.031499047584573,-0.04907448100609449,0.23534974865577885,-0.18682934035680226,-0.002382787316845261,-0.06890391891734086,-0.06891936328925227,2.83893739738512,2.6862636376322584,0.27004994247825403,-0.0006622055254756128,-0.01375209006357297,-0.11447236168410647
1750772313.218773,-1.730493635049588,-2.460952311086381,-0.5544301202407826,1.582296412639956,-0.46170253021443575,-2.0316373733853297,-0.049557138690055215,0.23724099321307063,-0.1882412755649829,-0.0023997333198182993,-0.06939065529518103,-0.06940619668980122,2.8399617789335916,2.6875641030719795,0.27010004459947323,-0.0006608013885650259,-0.013711523918837383,-0.11406157325225295
1750772313.220663,-1.7305932336449699,-2.4604759376593486,-0.5548080132429458,1.5822915962670585,-0.4618417970553468,-2.031776671405545,-0.050041789756780704,0.23913247334574228,-0.18965142906558413,-0.002416631601490474,-0.06987594360428892,-0.06989158141227605,2.8409968144042597,2.688874186820498,0.2701503458734371,-0.0006593889243691132,-0.013670731354139381,-0.1136485428724431
1750772313.222704,-1.7306938035441917,-2.4599957810338284,-0.555188724764629,1.5822867461455443,-0.4619820330181632,-2.0319169387398803,-0.0505284441841746,0.2410241922331998,-0.1910597939456703,-0.0024334818916280725,-0.07035977588065881,-0.07037550948881213,2.8420425545009236,2.690193872592196,0.2702008422273575,-0.0006579681970565204,-0.013629714440823032,-0.11323329248829708
1750772313.2247283,-1.7307953487638583,-2.459511840729107,-0.5555722512217995,1.582281862371665,-0.46212323518291853,-2.0320581724671385,-0.05101711183673418,0.24291615308459635,-0.19246636343704637,-0.002450283922330631,-0.07084214423415557,-0.07085797302538575,2.843099049996109,2.6915231440249556,0.2702515295809435,-0.0006565392727401342,-0.013588475259847944,-0.11281584411746143
1750772313.226667,-1.7308978733401919,-2.4590241162580218,-0.5559585890170329,1.5822769450422052,-0.46226540061393884,-2.0322003696504076,-0.051507802465531945,0.24480835913899948,-0.19387113091631397,-0.0024670374279555374,-0.07132304084853973,-0.07133896420199838,2.8441663517250593,2.692861984679224,0.27030240385249665,-0.0006551022153043547,-0.013547015892877308,-0.11239621982394565
1750772313.2287107,-1.7310013813287988,-2.4585326071269034,-0.556347734539802,1.5822719942544787,-0.4624085263599911,-2.0323435273372077,-0.05200052570819113,0.24670081366559415,-0.19527408990517522,-0.0024837421451742872,-0.0718024579819258,-0.07181847527292856,2.8452445105892665,2.6942103780436875,0.2703534609517873,-0.000653657090318983,-0.013505338434487991,-0.11197444174070839
1750772313.2307124,-1.7311058768044516,-2.458037312835512,-0.556739684166768,1.582267010106324,-0.4625526094544332,-2.032487642559646,-0.05249529108893057,0.2485935199638818,-0.19667523407066134,-0.0025003978130077324,-0.07228038796686483,-0.07229649856692051,2.846333577528157,2.6955683075356562,0.2704046967819111,-0.0006522039643230338,-0.013463444981580905,-0.11155053204753074
1750772313.2327318,-1.7312113638608562,-2.4575382328769804,-0.5571344342620739,1.5822619926960988,-0.4626976469153625,-2.032632712334559,-0.052992108018551726,0.25048648136384893,-0.19807455722520068,-0.002517004172770942,-0.07275682321048092,-0.072773026487391,2.847433603542586,2.6969357564986076,0.2704561072443761,-0.0006507429022939256,-0.01342133763490314,-0.11112451297933593
1750772313.2347116,-1.731317846610426,-2.457035366737749,-0.5575319811776307,1.582256942122676,-0.4628436357457675,-2.0327787336636636,-0.053490985794500796,0.2523797012261714,-0.19947205332680468,-0.002533560968118516,-0.073231756194839,-0.07324805151264255,2.848544639665793,2.6983127082077685,0.27050768823535454,-0.0006492739705445177,-0.013379018505561814,-0.11069640682639276
1750772313.236721,-1.7314253291840567,-2.456528713897507,-0.5579323212534124,1.5822518584854386,-0.4629905729336725,-2.0329257035337136,-0.05399193360091762,0.2542731829423985,-0.20086771647925844,-0.0025500679450672324,-0.07370517947701169,-0.07372156619604255,2.849666736967249,2.6996991458681836,0.27055943564556867,-0.0006477972360186482,-0.01333648970654818,-0.11026623592425946
1750772313.2387264,-1.7315338157308995,-2.456018273829129,-0.5583354508177454,1.5822467418842756,-0.4631384554522935,-2.033073618916638,-0.05449496050870161,0.2561669299351363,-0.2022615409321571,-0.0025665248519419906,-0.07417708568930176,-0.07419356316619836,2.8507999465469682,2.7010950526169886,0.27061134536490733,-0.0006463127641062662,-0.013293753357119872,-0.10983402265230785
1750772313.246336,-1.731643310418133,-2.4555040459986133,-0.5587413661876015,1.582241592419577,-0.46328728026018684,-2.033222476769703,-0.05500007547559334,0.2580609456582273,-0.20365352108103038,-0.0025829314394226212,-0.07464746753943359,-0.07466403512717762,2.851944319529868,2.7025004115212203,0.2706634132796359,-0.0006448206216320499,-0.013250811581927901,-0.10939978944901882
1750772313.2476046,-1.731643310418133,-2.4555040459986133,-0.5587413661876015,1.582241592419577,-0.46328728026018684,-2.033222476769703,-0.05500007547559334,0.2580609456582273,-0.20365352108103038,-0.0025829314394226212,-0.07464746753943359,-0.07466403512717762,2.851944319529868,2.7025004115212203,0.2706634132796359,-0.0006448206216320499,-0.013250811581927901,-0.10939978944901882
1750772313.2478526,-1.731865340971277,-2.4544642248804043,-0.5595615395567526,1.5822311953036086,-0.4635877445056149,-2.033523007642887,-0.05601660485245403,0.26184979726820795,-0.20643192677931207,-0.0026155926708452426,-0.07558362936211384,-0.07560037521591731,2.8542667602877296,2.705339417752076,0.27076800722178523,-0.0006418135947088972,-0.013164320273778321,-0.10852535314294745
1750772313.2487478,-1.7319778852596546,-2.4539386304897595,-0.5599757901358453,1.582225947855581,-0.46373937778832097,-2.0336746745055585,-0.05652803661304856,0.26374464022068617,-0.20781834185032283,-0.002631846827993232,-0.07604939512862038,-0.07606622913042628,2.8554449303798117,2.7067730308881974,0.2708205250122027,-0.0006402988445609805,-0.013120775012708967,-0.10808519510642489
1750772313.250646,-1.732091454532906,-2.4534092461309474,-0.5603928116806438,1.582220667950492,-0.463891941050945,-2.0338272715237835,-0.0570415911342617,0.265639766035069,-0.20920289166070002,-0.0026480496921761974,-0.07651360812123184,-0.07653052960956015,2.8566344685001557,2.708216027809636,0.2708731845178771,-0.000638776692039978,-0.013077032869697738,-0.10764310725530782
1750772313.2526498,-1.7322060530449637,-2.4528760712346367,-0.560812600455729,1.5822153556911658,-0.46404543118101316,-2.033980795583761,-0.05755727680976499,0.26753517832421014,-0.21058557133685724,-0.0026642010259668703,-0.07697626142705921,-0.07699326973693604,2.8578354258093706,2.709668391266229,0.2709259816167886,-0.000637247206215777,-0.01303309598836592,-0.10719911220357546
1750772313.2546647,-1.7323216850664371,-2.452339105224238,-0.5612351527160806,1.5822100111808985,-0.4641998450523035,-2.0341352435579356,-0.058075101920878225,0.26943088073330707,-0.21196637615144265,-0.002680300594259434,-0.07743734820970359,-0.07745444267255579,2.8590478534524864,2.711130103943767,0.2709789121867869,-0.0006357104530113707,-0.012988966523466169,-0.10675323261399833
1750772313.2566757,-1.732438354884386,-2.451798347515839,-0.5616604647073702,1.5822046345234542,-0.46435517952499517,-2.0342906123051456,-0.05859507463670076,0.27132687694010793,-0.21334530152348857,-0.0026963481644133556,-0.07789686170907317,-0.07791404165288594,2.860271802577532,2.712601148475384,0.27103197210183916,-0.0006341665023585585,-0.012944646624592064,-0.10630549116392463
1750772313.258863,-1.7325560668020943,-2.4512537975181394,-0.5620885326662535,1.58219922582306,-0.4645114314458265,-2.034446898670783,-0.05911720301435531,0.2732231706550598,-0.21472234301818627,-0.0027123435061193837,-0.078354795241786,-0.07837205999103301,2.861507324294511,2.71408150742673,0.27108515724200904,-0.0006326154204794795,-0.012900138452686286,-0.10585591057481104
1750772313.260647,-1.73267482513885,-2.450705454632385,-0.5625193528206633,1.5821937851844008,-0.4646685976482452,-2.0346040994869403,-0.05964149499917314,0.275119765621523,-0.21609749634705924,-0.002728286391532878,-0.07881114220110472,-0.0788284910767994,2.8627544696947744,2.715571163313676,0.27113846348257764,-0.0006310572772832512,-0.012855444166851783,-0.10540451357417796
1750772313.2626922,-1.7327946342297205,-2.450153318252302,-0.5629529213901003,1.582188312712615,-0.4648266749525609,-2.0347622115725654,-0.06016795842491398,0.2770166656159409,-0.21747075736781896,-0.002744176595171644,-0.079265896057133,-0.07928332837685644,2.8640132898412203,2.7170700985922767,0.27119188670298344,-0.0006294921399004807,-0.012810565931724876,-0.1049513229341692
1750772313.2668023,-1.7329154984253279,-2.4495973877640305,-0.5633892345859284,1.58218280851329,-0.46498566016610177,-2.034921231733618,-0.060696601014000436,0.27891387444801014,-0.21884212208431902,-0.00276001389398733,-0.07971905035689422,-0.07973656543482575,2.865283835759645,2.7185782956611537,0.27124542278387664,-0.0006279200774615009,-0.012765505914158887,-0.10449636144176923
1750772313.26715,-1.7329154984253279,-2.4495973877640305,-0.5633892345859284,1.58218280851329,-0.46498566016610177,-2.034921231733618,-0.060696601014000436,0.27891387444801014,-0.21884212208431902,-0.00276001389398733,-0.07971905035689422,-0.07973656543482575,2.865283835759645,2.7185782956611537,0.27124542278387664,-0.0006279200774615009,-0.012765505914158887,-0.10449636144176923
1750772313.269017,-1.7331604096096909,-2.448474141969149,-0.5642700796632729,1.5821717053565834,-0.4653063414861771,-2.0352419834418196,-0.06176045401673078,0.28270923403134784,-0.22157914735051906,-0.0027915288969455497,-0.08062053486090297,-0.08063821338429522,2.8678603087982175,2.7216224045087376,0.27135281705501385,-0.0006247554502009185,-0.012674849212986576,-0.10358121713683664
1750772313.2707634,-1.7332844653754744,-2.4479068253962866,-0.5647146039294535,1.582166106612575,-0.46546803114383906,-2.0354037085373253,-0.062295679320837204,0.284607392569966,-0.2229448006381004,-0.0028072061670921557,-0.0810688525446929,-0.08108661174863067,2.8691663377442813,2.7231582808210377,0.27140666701596605,-0.0006231630240921373,-0.012629256877400194,-0.10312107999370708
1750772313.2727246,-1.7334095937996068,-2.4473357121825945,-0.5651618575919368,1.5821604765677637,-0.46563061581328924,-2.035566328805282,-0.06283311356977034,0.2865058755213067,-0.2243085430969968,-0.002822829664355736,-0.08151554563144123,-0.0815333848167118,2.870484296099798,2.7247033479942226,0.2714606133817221,-0.0006215639470264091,-0.012583491453113247,-0.10265926332394784
1750772313.274653,-1.7335357993071652,-2.4467608016752744,-0.5656118368257745,1.5821548153299068,-0.4657940922392543,-2.0357298409890134,-0.06337276393324356,0.2884046868641136,-0.22567037146069183,-0.0028383991778186284,-0.08196060805414034,-0.0819785265182495,2.871814234632462,2.726257588171173,0.2715146520421446,-0.0006199582895916627,-0.01253755511925864,-0.10219578999593983
1750772313.2766423,-1.733663086337458,-2.446182093213536,-0.5660645377996323,1.5821491230071807,-0.465958457154402,-2.035894241819781,-0.06391463747131709,0.29030383061145043,-0.22703028260811428,-0.002853914498955169,-0.08240403382321804,-0.08242203086040922,2.873156204041689,2.7278209834375082,0.27156877889765335,-0.0006183461198082434,-0.01249145005721767,-0.10173068289185627
1750772313.2786477,-1.733791459343803,-2.445599586128528,-0.5665199566760766,1.5821433997081766,-0.46612370727950125,-2.0360595280169367,-0.0644587411346974,0.2922033108109254,-0.22838827356370095,-0.0028693754216959563,-0.08284581702659277,-0.08286389192785558,2.8745102549643544,2.7293935158404277,0.27162298984707534,-0.0006167275075097835,-0.012445178449926559,-0.10126396489716415
1750772313.28063,-1.7339209227933106,-2.4450132797432698,-0.5669780896118697,1.5821376455418954,-0.46628983932357304,-2.0362256962880814,-0.06500508176511374,0.29410313154484,-0.22974434149710188,-0.002884781742417632,-0.08328595182967623,-0.0833041038828158,2.875876437945124,2.7309751673730984,0.2716772807972738,-0.0006151025222708774,-0.012398742480394487,-0.10079565890658958
1750772313.2826505,-1.7340514811666656,-2.444423173372581,-0.5674389327582574,1.5821318606177426,-0.4664568499840467,-2.036392743329218,-0.06555366609563422,0.29600329693038324,-0.23109848372307887,-0.0029001332599105823,-0.08372443247548839,-0.08374266096512337,2.877254803459813,2.7325659199869015,0.2717316476582271,-0.0006134712327466176,-0.01235214433487264,-0.10032578781869504
1750772313.28464,-1.7341831389579117,-2.443829266323013,-0.5679024822612604,1.582126045045524,-0.4666247359469162,-2.0365606658249042,-0.06610450075103465,0.29790381111979697,-0.23245069770128624,-0.0029154297754244423,-0.08416125328468321,-0.08417955749224999,2.8786454018942647,2.734165755585885,0.27178608634601964,-0.0006118337088838233,-0.012305386200335756,-0.09985437453180424
1750772313.2867289,-1.7343159006742335,-2.4432315578927755,-0.5683687342619637,1.5821201989354399,-0.4667934938868923,-2.036729460448412,-0.06665759224818119,0.29980467830056845,-0.2338009810360943,-0.0029306710926769804,-0.0845964086555735,-0.08461478785936623,2.8800482835401273,2.735774656032408,0.2718405927817164,-0.0006101900209491214,-0.012258470264457791,-0.09938144195303555
1750772313.2887433,-1.7344497708357407,-2.4426300473716687,-0.5688376848968053,1.5821143223980814,-0.46696312046756194,-2.0368991238618825,-0.0672129469964025,0.30170590269558817,-0.23514933147634515,-0.0029458570178265138,-0.08502989306414653,-0.08504834653934346,2.8814634985969647,2.7373926031431175,0.2718951628933005,-0.0006085402383769116,-0.012211398715354692,-0.09890701298020568
1750772313.2907684,-1.7345847539752564,-2.442024734041012,-0.5693093302978651,1.5821084155444243,-0.4671336123415415,-2.037069652716477,-0.06777057129789936,0.3036074885633588,-0.23649574691522274,-0.0029609873594402003,-0.0854617010640815,-0.08548022808279546,2.882891097159205,2.73901957869835,0.2719497926124011,-0.0006068844297487413,-0.01216417374163186,-0.0984311105134679
1750772313.2988594,-1.7345847539752564,-2.442024734041012,-0.5693093302978651,1.5821084155444243,-0.4671336123415415,-2.037069652716477,-0.06777057129789936,0.3036074885633588,-0.23649574691522274,-0.0029609873594402003,-0.0854617010640815,-0.08548022808279546,2.882891097159205,2.73901957869835,0.2719497926124011,-0.0006068844297487413,-0.01216417374163186,-0.0984311105134679
1750772313.299274,-1.7347208546381,-2.4414156171735715,-0.5697836665931542,1.5821024784858253,-0.4673049661506319,-2.037241043652539,-0.06833047134813822,0.30550944019814164,-0.23784022538990732,-0.0029760619286030507,-0.08589182728678756,-0.08591042711808157,2.884331129221143,2.7406555644327932,0.27200447788049126,-0.0006052226667426705,-0.012116797532967226,-0.09795375744488669
1750772313.2995138,-1.7347208546381,-2.4414156171735715,-0.5697836665931542,1.5821024784858253,-0.4673049661506319,-2.037241043652539,-0.06833047134813822,0.30550944019814164,-0.23784022538990732,-0.0029760619286030507,-0.08589182728678756,-0.08591042711808157,2.884331129221143,2.7406555644327932,0.27200447788049126,-0.0006052226667426705,-0.012116797532967226,-0.09795375744488669
1750772313.2997086,-1.7349964267762612,-2.440185969876209,-0.5707403963598381,1.5820905142010988,-0.4676502460882084,-2.0375863982772646,-0.06945712294563142,0.3093144581257168,-0.2405233643141966,-0.0030060430059851697,-0.08674701331499197,-0.08676575656641519,2.887248693247128,2.743954493189733,0.2721139988577482,-0.0006018815531260167,-0.012021600173420995,-0.0969947910410893
1750772313.3007233,-1.7351359074027934,-2.439565437948409,-0.5712227820694933,1.5820844871995419,-0.46782416544762206,-2.0377603551939067,-0.07002388635402948,0.3112175331874904,-0.2418620215561718,-0.003020949148591347,-0.0871720627719771,-0.08719087662499708,2.8887263246263455,2.7456173994931046,0.272168826482301,-0.0006002023430731607,-0.01197378340006171,-0.09651322345111596
1750772313.302713,-1.7352765238546608,-2.438941099487923,-0.571707843150473,1.5820784304421738,-0.46799893320431263,-2.037935160648285,-0.07059294923436076,0.3131209915545891,-0.2431987354181122,-0.0030357987874950394,-0.08759540975482583,-0.08761429346647774,2.8902165883205186,2.7472892425379936,0.2722236934882062,-0.0005985174577190903,-0.011925824152817515,-0.09603029674633887
1750772313.3047082,-1.7354182807364928,-2.4383129537236705,-0.5721955757147459,1.582072344042179,-0.4681745459483375,-2.0381108112289708,-0.07116431725499116,0.3150248377027927,-0.24453350465354773,-0.003050591746036269,-0.08801704928359287,-0.08803600210800978,2.891719533725131,2.7489700038745513,0.27227859585271624,-0.0005968269670934771,-0.011877724618903159,-0.09554603377028768
1750772313.3066466,-1.7355611826641528,-2.437680999875583,-0.5726859758719307,1.5820662281130926,-0.4683510002598741,-2.038287303514645,-0.07173799598025261,0.3169290761447218,-0.24586632815844,-0.0030653278499921774,-0.0884369764560603,-0.08845599764445439,2.893235210100605,2.750659665019857,0.272333529561426,-0.00059513094062952,-0.011829486987923615,-0.09506045734375894
1750772313.3086312,-1.7357052342645263,-2.43704523715453,-0.5731790397295811,1.5820600827687965,-0.46852829270937324,-2.038464634074259,-0.072313990870925,0.3188337114299802,-0.24719720497071895,-0.003080006927629275,-0.08885518644772966,-0.08887427524837972,2.894763666572733,2.752358207450954,0.2723884906130334,-0.0005934294493167148,-0.011781113449262493,-0.09457359027879107
1750772313.3106155,-1.7358504401753203,-2.436405664762244,-0.5736747633934689,1.5820539081235125,-0.4687064198577122,-2.0386427994671825,-0.07289230728473926,0.3207387481454054,-0.24852613427028417,-0.0030946288096700275,-0.08927167451155087,-0.08929083016999592,2.8963049521227404,2.7540656126270866,0.2724434750061698,-0.0005917225631336377,-0.01173260618466271,-0.09408545535538929
1750772313.312758,-1.735996805044853,-2.4357622818912463,-0.5741731429678651,1.5820477042917995,-0.4688853782563527,-2.0388217962433677,-0.07347295047687953,0.32264419091515967,-0.249853115378284,-0.0031091933292465455,-0.08968643597832415,-0.08970565773718009,2.897859115590101,2.7557818619591563,0.2724984787598407,-0.0005900103508826759,-0.011683967387196365,-0.09359607535475083
1750772313.3157969,-1.7361443335318505,-2.4351150877247734,-0.5746741745558266,1.582041471388547,-0.4690651644474979,-2.0390016209434974,-0.0740559256005054,0.3245500444009655,-0.2511781477570766,-0.003123700322038147,-0.0900994662562116,-0.09011875335534028,2.899426205660041,2.7575069368406484,0.27255349789408984,-0.0005882928851112299,-0.011635199236169241,-0.09310547300347562
1750772313.3169365,-1.7362930303052462,-2.4344640814367,-0.5751778542594739,1.5820352095289707,-0.46924577496424114,-2.0391822700991433,-0.0746412377072884,0.32645631330225744,-0.25250123100966837,-0.0031381496261094948,-0.09051076083100232,-0.09053011250745241,2.9010062708634217,2.7592408186298303,0.2726085284448819,-0.0005865702339416866,-0.011586303918361627,-0.09261367103196394
1750772313.3187454,-1.7364429000439712,-2.4338092621914633,-0.575684178180274,1.582028918828608,-0.4694272063307272,-2.039363740232922,-0.07522889174792521,0.3283630023563713,-0.25382236487950094,-0.0031525410820235126,-0.09092031526586794,-0.09093973075395306,2.9025993595808925,2.760983488660606,0.27266356645423045,-0.0005848424686233104,-0.011537283613662849,-0.09212069212753403
1750772313.3208199,-1.736593947436762,-2.4331506291439897,-0.5761931424193225,1.5820225994033128,-0.46960945506230356,-2.0395460278586466,-0.07581889257273323,0.33027011633870534,-0.2551415492499586,-0.0031668745327886375,-0.09132812520140311,-0.09134760373269696,2.9042055200130217,2.7627349282352456,0.27271860797777686,-0.0005831096589526961,-0.011488140503105105,-0.09162655895434842
1750772313.3227544,-1.7367461771819537,-2.4324881814396146,-0.5767047430776202,1.5820162513692502,-0.46979251766567653,-2.0397291294814828,-0.07641124493215666,0.3321776600629268,-0.256458784144085,-0.0031811498238781084,-0.09173418635547118,-0.09175372715888262,2.9058248002147544,2.7644951186379347,0.2727736490796135,-0.0005813718752731416,-0.011438876763371662,-0.09113129414490041
1750772313.3247159,-1.7368995939872836,-2.431821918214009,-0.5772189762563533,1.582009874842892,-0.46997639063906593,-2.0399130415981066,-0.07700595347737435,0.3340856383811089,-0.25777406972407363,-0.0031953668032179156,-0.092138494523256,-0.09215809682499969,2.9074572480550582,2.7662640411179766,0.27282868583778286,-0.0005796291876405894,-0.011389494572607607,-0.09063492030630402
1750772313.3267348,-1.7370542025696905,-2.431151838593101,-0.5777358380571718,1.5820034699410117,-0.47016107047235867,-2.0400977606968542,-0.07760302276085283,0.3359940561839427,-0.2590874062909728,-0.003209525321168696,-0.09254104557707993,-0.0925607086007204,2.9091029112379743,2.7680416769093377,0.27288371433893743,-0.0005778816655418053,-0.011339996103828884,-0.09013746000212455
1750772313.328849,-1.7372100076551238,-2.430477941692998,-0.5782553245824653,1.5819970367806797,-0.4703465536472633,-2.040283283257879,-0.07820245723696906,0.33790291840089615,-0.2603987942841831,-0.003223625230588553,-0.09294183546634208,-0.09296155843283278,2.9107618372757775,2.7698280072180155,0.27293873068365615,-0.0005761293803075263,-0.011290383528312221,-0.08963893576604653
1750772313.3308754,-1.7373670139783401,-2.4298002266199097,-0.5787774319356416,1.5819905754792583,-0.4705328366374637,-2.0404696057533043,-0.07880426126255495,0.3398122300003942,-0.2617082342810896,-0.003237666386765583,-0.09334086021743887,-0.0933606423451522,2.912434073519098,2.771623013230117,0.2729937309831941,-0.000574372401356154,-0.011240659015097132,-0.08913937009648921
1750772313.332675,-1.737525226282715,-2.42911869247007,-0.5793021562213996,1.5819840861543963,-0.4707199159087754,-2.040656724647379,-0.0794084390975609,0.3417219959900142,-0.2630157269966394,-0.003251648647403422,-0.09373811593370993,-0.0937579564384343,2.9141196671105254,2.773426676112553,0.2730487113604197,-0.0005726107977247233,-0.011190824731698568,-0.08863878545424142
1750772313.334757,-1.7376846493200473,-2.428433338329659,-0.579829493546006,1.5819775689240254,-0.4709077879192938,-2.0408446363966295,-0.08001499490562845,0.3436322214166303,-0.26432127328281935,-0.00326557187274764,-0.09413359879525642,-0.09415349689023958,2.915818665018494,2.7752389770079646,0.27310366795315955,-0.0005708446419965716,-0.011140882840514134,-0.08813720425034384
1750772313.3368032,-1.7378452878503667,-2.4277441632747223,-0.5803594400175678,1.5819710239063538,-0.47109644911955595,-2.0410333374500134,-0.08062393275473878,0.3455429113666193,-0.26562487412825875,-0.0032794359254011882,-0.09452730505887137,-0.09454725995487408,2.917531114010042,2.7770598970438862,0.27315859691035743,-0.0005690740015990627,-0.011090835501977947,-0.08763464886817979
1750772313.3387532,-1.7378452878503667,-2.4277441632747223,-0.5803594400175678,1.5819710239063538,-0.47109644911955595,-2.0410333374500134,-0.08062393275473878,0.3455429113666193,-0.26562487412825875,-0.0032794359254011882,-0.09452730505887137,-0.09454725995487408,2.917531114010042,2.7770598970438862,0.27315859691035743,-0.0005690740015990627,-0.011090835501977947,-0.08763464886817979
1750772313.340823,-1.7380071466417446,-2.427051166371094,-0.5808919917463058,1.5819644512198623,-0.47128589595268533,-2.0412228242490755,-0.08123525661783348,0.34745407096604863,-0.26692653065787536,-0.0032932406704309124,-0.09491923105800236,-0.09493924196326153,2.919257060659164,2.778889417332087,0.2732134943909192,-0.0005672989469787499,-0.011040684875473907,-0.08713114164271439
1750772313.3437366,-1.7381702304701019,-2.4263543466743154,-0.5814271448448265,1.5819578509832988,-0.4714761248545498,-2.0414130932280994,-0.08184897037346778,0.34936570538080475,-0.26822624413213625,-0.0033069859754036785,-0.09530937320244855,-0.09532943932279182,2.9209965513340417,2.7807275189591283,0.2732683565746529,-0.0005655195495518179,-0.010990433111850093,-0.08662670485302547
1750772313.3455143,-1.7383345441190254,-2.4256537032295573,-0.581964895428392,1.581951223315674,-0.47166713225391455,-2.041604140814256,-0.08246507780646248,0.351277819816828,-0.2695240159468434,-0.0033206717102540434,-0.09569772797847566,-0.09571784851725074,2.9227496321991886,2.7825741830045603,0.2733231796473159,-0.0005637358770809404,-0.010940082365195622,-0.08612136074772395
1750772313.3480551,-1.7383345441190254,-2.4256537032295573,-0.581964895428392,1.581951223315674,-0.47166713225391455,-2.041604140814256,-0.08246507780646248,0.351277819816828,-0.2695240159468434,-0.0033206717102540434,-0.09569772797847566,-0.09571784851725074,2.9227496321991886,2.7825741830045603,0.2733231796473159,-0.0005637358770809404,-0.010940082365195622,-0.08612136074772395
1750772313.3487828,-1.7386668800501068,-2.424240941224441,-0.5830481735266106,1.5819378861645665,-0.4720514682255956,-2.0419885574820356,-0.08370448837902307,0.3551035097776577,-0.272113740854018,-0.0033478639616591143,-0.09646906175104145,-0.09648928872721382,2.9262967481375326,2.7862931225809824,0.27343269328390557,-0.000560155989001663,-0.010839092502578225,-0.08510803932040052
1750772313.350782,-1.7388349119360775,-2.42352882070184,-0.5835936932874954,1.5819311769203734,-0.4722447896212927,-2.0421819193838324,-0.08432779862548952,0.3570170959161073,-0.2734056974098084,-0.0033613702303294116,-0.09685203410055866,-0.09687231309097434,2.9280908744869003,2.788165360194599,0.27348737629500686,-0.0005583599125409138,-0.010788457668968314,-0.0846001062311499
1750772313.3527105,-1.7390041928498725,-2.4228128725066114,-0.584141795026424,1.5819244407236892,-0.47243887516155425,-2.042376045533418,-0.08495351676446701,0.35893118330348356,-0.2746957192317225,-0.003374816433070524,-0.09723320578735697,-0.09725353598593674,2.9298987735811193,2.7900460843933597,0.27354200508878196,-0.0005565598395612727,-0.010737732417585901,-0.08409135430511011
1750772313.354711,-1.7391747276106164,-2.422093095630855,-0.5846924748759736,1.5819176776947637,-0.47263372124190894,-2.042570932324705,-0.0855816461221102,0.36084577734858825,-0.27598380838434844,-0.0033882024520541327,-0.09761257367736896,-0.09763295427572538,2.931720490515612,2.791935276190928,0.27359657592317177,-0.0005547558416591549,-0.010686918878510362,-0.0835818055162791
1750772313.3566105,-1.7393465210439985,-2.4213694890558126,-0.5852457289729776,1.5819108879540804,-0.4728293242516921,-2.042766576145409,-0.08621218993492306,0.3627608835013236,-0.27726996706436857,-0.0034015281717844218,-0.09799013471205345,-0.09801056489953117,2.933556070154319,2.793832916586152,0.27365108507538344,-0.0005529479856986298,-0.010636019179340463,-0.08307148180640338
1750772313.358654,-1.739519577982093,-2.4206420517517846,-0.5858015534587988,1.5819040716223514,-0.4730256805741968,-2.0429629733772003,-0.08684515135044443,0.3646765072529041,-0.27855419760024885,-0.003414793479259017,-0.0983658859081964,-0.09838636487190874,2.9354055571400486,2.7957389865755617,0.2737055288313831,-0.0005511363430561281,-0.010585035442065372,-0.08256040504554614
1750772313.3606548,-1.739693903263177,-2.4199107826780475,-0.5863599444795868,1.581897228820512,-0.4732227865868257,-2.0431601203958536,-0.08748053342796543,0.36659265413602277,-0.27983650245155856,-0.0034279982638522563,-0.09873982435777759,-0.0987603512826281,2.9372689958841187,2.797653467145031,0.27375990349643997,-0.0005493209818196094,-0.010533969784920301,-0.08204859704998686
1750772313.3626544,-1.7398695017315617,-2.4191756807827707,-0.5869208981865395,1.5818903596697167,-0.4734206386612403,-2.043358013571398,-0.08811833913926859,0.36850932972503253,-0.28111688420846764,-0.0034411424173386982,-0.0991119472278373,-0.09913252129651028,2.9391464305564696,2.7995763392719297,0.273814205389753,-0.0005475019707704201,-0.010482824322383209,-0.08153607957686819
1750772313.364701,-1.7400463782374151,-2.4184367450029334,-0.5874844107361685,1.581883464291334,-0.47361923316351096,-2.0435566492682664,-0.08875857136933926,0.37042653963613714,-0.2823953455912156,-0.003454225833928465,-0.09948225176017168,-0.09950287215324302,2.9410379050965587,2.8015075839300487,0.27386843084566387,-0.0005456793796869723,-0.010431601160350953,-0.0810228743183842
1750772313.3670313,-1.7402245376365864,-2.4176939742642403,-0.5880504782905529,1.5818765428069412,-0.47381856645426534,-2.0437560238454484,-0.08940123291709626,0.37234428952756676,-0.28367188944947824,-0.0034672484102200992,-0.09985073527132499,-0.09987140116721599,2.9429434632062828,2.803447182086859,0.27392257621647753,-0.0005438532770425998,-0.010380302404501976,-0.08050900290832341
1750772313.3689437,-1.7404039847904391,-2.416947367481037,-0.5886190970175997,1.5818695953383206,-0.4740186348888411,-2.043956133656632,-0.09004632649616111,0.3742625850997803,-0.2849465187619347,-0.003480210045204292,-0.10021739515230062,-0.10023810572732862,2.944863148333194,2.805395114707722,0.27397663786639403,-0.000542023731410507,-0.010328930152374951,-0.07999448691201722
1750772313.3707204,-1.7405847245656796,-2.4161969235562264,-0.5891902630913055,1.5818626220074536,-0.4742194348174298,-2.0441569750503623,-0.09069385473557649,0.3761814320956257,-0.2862192366355759,-0.003493110640297207,-0.10058222886843052,-0.10060298329681838,2.9467970036916546,2.80735136275118,0.27403061217936614,-0.0005401908123613734,-0.01027748649782889,-0.07947934783560014
1750772313.3726478,-1.7407667618341867,-2.415442641381183,-0.5897639726920039,1.5818556229365168,-0.4744209625852296,-2.0443585443701826,-0.0913438201805835,0.37810083630054825,-0.2874900463051687,-0.003505950099249346,-0.1009452339591056,-0.10096603141305184,2.9487450722386646,2.809315907177884,0.2740844955544149,-0.0005383545868405103,-0.010225973527128196,-0.07896360711132362
1750772313.3747137,-1.7409501014728486,-2.4146845198356672,-0.5903402220066285,1.5818485982478767,-0.47462321453259015,-2.0445608379547853,-0.09199622529337484,0.38002080354276546,-0.28875895113271244,-0.003518728328250602,-0.10130640803768157,-0.10132724768733231,2.9507073966827764,2.8112887289445263,0.2741382844057696,-0.0005365151248153437,-0.010174393323886265,-0.07844728610516898
1750772313.3766842,-1.7411347483633932,-2.4139225577877403,-0.5909190072289636,1.5818415480640848,-0.47482618699516266,-2.044763852138159,-0.09265107245386493,0.38194133969346444,-0.2900259546067967,-0.003531445235822916,-0.10166574879115947,-0.10168662980471266,2.952684019478713,2.813269809009918,0.27419197516594246,-0.0005346724932316204,-0.010122747962714559,-0.07793040611759852
1750772313.3789425,-1.7413207073922292,-2.413156754093679,-0.5915003245598944,1.5818344725078737,-0.4750298763040437,-2.044967583249737,-0.09330836396047398,0.3838624506669648,-0.2912910603419866,-0.003544100732911887,-0.10202325398011851,-0.1020441755237686,2.9546749828193444,2.815259128328183,0.27424556428454344,-0.0005328267616190061,-0.010071039516334881,-0.07741298837144832
1750772313.3806462,-1.7415079834502798,-2.4123871075978864,-0.5920841702076629,1.5818273717021514,-0.47523427878592717,-2.0451720276145426,-0.09396810203088815,0.38578414242095105,-0.2925542720783418,-0.0035566947327913784,-0.102378921438397,-0.10239988267640573,2.9566803286472236,2.8172566678642537,0.2742990482250358,-0.0005309779968334523,-0.01001927004847969,-0.07689505402252424
1750772313.3826938,-1.741696581432822,-2.411613617132808,-0.5926705403881156,1.581820245769997,-0.47543939076324726,-2.0453771815533344,-0.09463028880286767,0.38770642095662816,-0.2938155936807026,-0.003569227151103947,-0.10273274907291384,-0.10275374916764389,2.958700098633857,2.819262408578083,0.27435242347076527,-0.0005291262668969996,-0.009967441617852563,-0.0763766241528432
1750772313.3848019,-1.7418865062393323,-2.4108362815188427,-0.5932594313249533,1.581813094834656,-0.47564520855432146,-2.0455830413827556,-0.09529492633503488,0.38962929231892535,-0.2950750291381362,-0.003581697905866831,-0.10308473486348652,-0.10310577297539547,2.960734334187847,2.821276331435876,0.27440568652073394,-0.0005272716400101894,-0.009915556278030504,-0.07585771976855069
1750772313.3869412,-1.7418865062393323,-2.4108362815188427,-0.5932594313249533,1.581813094834656,-0.47564520855432146,-2.0455830413827556,-0.09529492633503488,0.38962929231892535,-0.2950750291381362,-0.003581697905866831,-0.10308473486348652,-0.10310577297539547,2.960734334187847,2.821276331435876,0.27440568652073394,-0.0005272716400101894,-0.009915556278030504,-0.07585771976855069
1750772313.3891835,-1.7420777627733237,-2.410055099564256,-0.5938508392499777,1.5818059190195357,-0.4758517284735051,-2.0457896034154786,-0.09596201660766686,0.3915527625966649,-0.29633258256319434,-0.0035941069174504716,-0.10343487686253061,-0.10345595215023522,2.9627830764528595,2.8232984174047715,0.27445883389498915,-0.0005254141837581271,-0.009863616074125144,-0.07533836179782706
1750772313.390806,-1.7422703559421935,-2.409270070065091,-0.5944447604033396,1.5817987184482,-0.4760589468313263,-2.045996863960349,-0.09663156152349595,0.39347683792281307,-0.2975882581915894,-0.003606454108544991,-0.10378317319488405,-0.10380428481518146,2.9648463663043105,2.8253286474676718,0.2745118621226374,-0.0005235539648019618,-0.009811623046297084,-0.07481857109349163
1750772313.395421,-1.7424642906570655,-2.4084811918050812,-0.5950411910337827,1.5817914932443653,-0.47626685993463713,-2.0462048193225284,-0.09730356290853526,0.39540152447460036,-0.2988420603812124,-0.003618739404209607,-0.10412962205759378,-0.10415076916546091,2.9669242443391597,2.827367002600057,0.27456476776044275,-0.0005216910512196688,-0.009759579228698934,-0.07429836842960093
1750772313.398233,-1.7428562043870484,-2.406891884075378,-0.5962415657653217,1.581776969434797,-0.47668475558760726,-2.046622799701927,-0.09865494201153781,0.39925275618673717,-0.30134406248402185,-0.0036431240210944133,-0.10481697052171408,-0.10483818606260048,2.9711239259918916,2.8314680120462614,0.2746701975558855,-0.0005179574076946344,-0.009655347322690097,-0.07325680992836398
1750772313.3988361,-1.7430541932416865,-2.406091452110799,-0.5968455024090655,1.5817696710772151,-0.4768947307338749,-2.04683281731236,-0.09933432300524199,0.40117931392481354,-0.3025922717191675,-0.003655223204072111,-0.10515786687595302,-0.10517911535882578,2.973245809425709,2.8335306283615367,0.2747227149081682,-0.0005160868111835587,-0.009603163268602995,-0.07273549523457587
1750772313.4007905,-1.7432535433210852,-2.4052871663954254,-0.5974519336156661,1.5817623485834287,-0.47710538581913386,-2.047043514926817,-0.10001616702128373,0.4031065080443936,-0.30383862615827006,-0.003667260215085696,-0.1054969092657219,-0.10551818983864161,2.9753824406830356,2.8356012937594883,0.2747750960538859,-0.0005142137870609322,-0.009550936489644744,-0.07221385087121832
1750772313.4027185,-1.7434542595527578,-2.4044790256501,-0.5980608556804725,1.581755002077845,-0.4773167171339967,-2.047254888834205,-0.10070047551436295,0.4050343449471391,-0.30508313076150545,-0.0036792349907713772,-0.10583409624535522,-0.10585540805471959,2.977533858962925,2.837679989263287,0.2748273376362743,-0.0005123384012939338,-0.009498668985821497,-0.07169189720451541
1750772313.4047596,-1.7436563468670512,-2.4036670285828174,-0.5986722649088714,1.5817476316849963,-0.47752872096625687,-2.0474669353206076,-0.10138724986739443,0.40696283108019976,-0.3063257906076069,-0.003691147470139619,-0.10616942643990251,-0.10619076863045505,2.979700103193826,2.8397666959144754,0.27487943631438355,-0.0005104607221718138,-0.009446362749198856,-0.07116965450994248
1750772313.4067981,-1.7438598101970095,-2.4028511738886316,-0.5992861576165263,1.5817402375295344,-0.4777413936010282,-2.047679650669428,-0.10207649139239736,0.4088919729364031,-0.30756661089316384,-0.0037029975944054155,-0.10650289854485369,-0.10652427025974094,2.9818812119992613,2.841861394762627,0.27493138876664797,-0.000508580813226767,-0.00939401976410492,-0.0706471429864482
1750772313.4087598,-1.7440646544782314,-2.402031460249565,-0.5999025301296106,1.5817328197362264,-0.4779547313208852,-2.0478930311615233,-0.10276820133130803,0.41082177705445116,-0.3088055969319435,-0.0037147853070962906,-0.10683451132583192,-0.10685591170666267,2.9840772237264988,2.8439640668723842,0.2749831916909448,-0.0005066987409967702,-0.009341642006215841,-0.07012438273258949
1750772313.4107804,-1.7442708846487278,-2.401207886334517,-0.6005213787850412,1.5817253784299499,-0.47816873040600516,-2.0481070730753537,-0.10346238085682707,0.41275225001914184,-0.3100427541543582,-0.0037265105540646368,-0.10716426361849604,-0.10718569180526809,2.986288176434197,2.846074693325067,0.27503484180008364,-0.0005048145724685202,-0.009289231448459936,-0.06960139377068825
1750772313.412695,-1.7444785056487868,-2.400380450799171,-0.6011426999307128,1.5817179137356885,-0.4783833871343024,-2.048321772687114,-0.10415903107331784,0.4146833984615409,-0.311278088106618,-0.0037381732834161755,-0.10749215432806025,-0.10751360945925302,2.9885141078701047,2.8481932552112186,0.2750863358305775,-0.0005029283725053832,-0.009236790050234017,-0.06907819601802745
1750772313.4148471,-1.7446875224208407,-2.3995491522859016,-0.6017664899257262,1.5817104257785277,-0.4785986977815764,-2.048537126270876,-0.10485815301763021,0.41661522905921494,-0.3125116044501996,-0.0037497734454871885,-0.10781818242911258,-0.10783966364174206,2.9907550555029867,2.8503197336426087,0.2751376705341164,-0.0005010402054565166,-0.009184319765820391,-0.06855480932029326
1750772313.4171405,-1.7446875224208407,-2.3995491522859016,-0.6017664899257262,1.5817104257785277,-0.4785986977815764,-2.048537126270876,-0.10485815301763021,0.41661522905921494,-0.3125116044501996,-0.0037497734454871885,-0.10781818242911258,-0.10783966364174206,2.9907550555029867,2.8503197336426087,0.2751376705341164,-0.0005010402054565166,-0.009184319765820391,-0.06855480932029326
1750772313.4190176,-1.7448979399093245,-2.398713989423682,-0.602392745140623,1.5817029146836497,-0.4788146586216415,-2.048753130098727,-0.10555974765996508,0.4185477485364349,-0.3137433089611897,-0.0037613109928943548,-0.10814234696537975,-0.10816385339497545,2.9930110565036165,2.8524541097481317,0.27518884268089294,-0.0004991501370318759,-0.009131822542879645,-0.06803125341983744
1750772313.420776,-1.74510976306055,-2.3978749608279895,-0.6030214619576073,1.5816953805763292,-0.4790312659264684,-2.048969780440909,-0.10626381590476809,0.42048096366436527,-0.31497320752950264,-0.003772785880535947,-0.10846464704939157,-0.10848617783002407,2.9952821477339233,2.854596364670512,0.2752398490630211,-0.0004972582329834069,-0.009079300319616646,-0.06750754796486239
1750772313.4228485,-1.7453229968225727,-2.3970320651007127,-0.6036526367707786,1.5816878235819292,-0.479248515966324,-2.049187073565953,-0.10697035859158538,0.4224148812612938,-0.31620130615832276,-0.0037841980654896856,-0.10878508186216575,-0.10880663612652286,2.9975683657622763,2.856746479574947,0.27529068648839994,-0.0004953645562021436,-0.00902675502535682,-0.06698371251603874
1750772313.4248226,-1.7455376461450625,-2.3961853008300555,-0.6042862659863557,1.5816802438258961,-0.47946640500990156,-2.0494050057408195,-0.10767937649593332,0.4243495081928298,-0.31742761096338934,-0.003795547507124042,-0.10910365065299028,-0.10912522753236609,2.9998697468567257,2.8589044356445292,0.2753413517851168,-0.0004934691727363432,-0.008974188583297384,-0.06645976653456331
