mathias31415/primitives_from_planned_trajectory_python/data/saved_trajectories/trajectory_20250617_163544_executed.csv
timestamp,shoulder_lift_joint_pos,elbow_joint_pos,wrist_1_joint_pos,wrist_2_joint_pos,wrist_3_joint_pos,shoulder_pan_joint_pos,shoulder_lift_joint_vel,elbow_joint_vel,wrist_1_joint_vel,wrist_2_joint_vel,wrist_3_joint_vel,shoulder_pan_joint_vel,shoulder_lift_joint_eff,elbow_joint_eff,wrist_1_joint_eff,wrist_2_joint_eff,wrist_3_joint_eff,shoulder_pan_joint_eff
1750170956.5112612,-1.9552282595871953,-1.6781124099660554,-3.1166349920279592,0.9395129598786522,-2.100803370866826,-1.4890545234082015,0.0,0.0,0.0,0.0,0.0,0.0,5.239252778221662,3.277841124426077,-0.1957701998495102,0.021926229275119596,0.0,-9.525134263148163e-18
1750170956.5133672,-1.9552282595871953,-1.6781124099660554,-3.1166349920279592,0.9395129598786522,-2.100803370866826,-1.4890545234082015,0.0,0.0,0.0,0.0,0.0,0.0,5.239252778221662,3.277841124426077,-0.1957701998495102,0.021926229275119596,0.0,-9.525134263148163e-18
1750170956.5142703,-1.9552282595871953,-1.6781124099660554,-3.1166349920279592,0.9395129598786522,-2.100803370866826,-1.4890545234082015,0.0,0.0,0.0,0.0,0.0,0.0,5.239252778221662,3.277841124426077,-0.1957701998495102,0.021926229275119596,0.0,-9.525134263148163e-18
1750170956.514964,-1.9552282595871953,-1.6781124099660554,-3.1166349920279592,0.9395129598786522,-2.100803370866826,-1.4890545234082015,0.0,0.0,0.0,0.0,0.0,0.0,5.239252778221662,3.277841124426077,-0.1957701998495102,0.021926229275119596,0.0,-9.525134263148163e-18
1750170956.5155263,-1.9552282595871953,-1.6781124099660554,-3.1166349920279592,0.9395129598786522,-2.100803370866826,-1.4890545234082015,0.0,0.0,0.0,0.0,0.0,0.0,5.239252778221662,3.277841124426077,-0.1957701998495102,0.021926229275119596,0.0,-9.525134263148163e-18
1750170956.5160222,-1.9552282595871953,-1.6781124099660554,-3.1166349920279592,0.9395129598786522,-2.100803370866826,-1.4890545234082015,0.0,0.0,0.0,0.0,0.0,0.0,5.239252778221662,3.277841124426077,-0.1957701998495102,0.021926229275119596,0.0,-9.525134263148163e-18
1750170956.5174518,-1.9552282595871953,-1.6781124099660554,-3.1166349920279592,0.9395129598786522,-2.100803370866826,-1.4890545234082015,0.0,0.0,0.0,0.0,0.0,0.0,5.239252778221662,3.277841124426077,-0.1957701998495102,0.021926229275119596,0.0,-9.525134263148163e-18
1750170956.5196,-1.9552282595871953,-1.6781124099660554,-3.1166349920279592,0.9395129598786522,-2.100803370866826,-1.4890545234082015,0.0,0.0,0.0,0.0,0.0,0.0,5.239252778221662,3.277841124426077,-0.1957701998495102,0.021926229275119596,0.0,-9.525134263148163e-18
1750170956.520804,-1.9552282595871953,-1.6781124099660554,-3.1166349920279592,0.9395129598786522,-2.100803370866826,-1.4890545234082015,0.0,0.0,0.0,0.0,0.0,0.0,5.239252778221662,3.277841124426077,-0.1957701998495102,0.021926229275119596,0.0,-9.525134263148163e-18
1750170956.523309,-1.9552282595871953,-1.6781124099660554,-3.1166349920279592,0.9395129598786522,-2.100803370866826,-1.4890545234082015,0.0,0.0,0.0,0.0,0.0,0.0,5.239252778221662,3.277841124426077,-0.1957701998495102,0.021926229275119596,0.0,-9.525134263148163e-18
1750170956.5255992,-1.9552282595871953,-1.6781124099660554,-3.1166349920279592,0.9395129598786522,-2.100803370866826,-1.4890545234082015,0.0,0.0,0.0,0.0,0.0,0.0,5.239252778221662,3.277841124426077,-0.1957701998495102,0.021926229275119596,0.0,-9.525134263148163e-18
1750170956.5271773,-1.9552282595871953,-1.6781124099660554,-3.1166349920279592,0.9395129598786522,-2.100803370866826,-1.4890545234082015,0.0,0.0,0.0,0.0,0.0,0.0,5.239252778221662,3.277841124426077,-0.1957701998495102,0.021926229275119596,0.0,-9.525134263148163e-18
1750170956.5286198,-1.9552282595871953,-1.6781124099660554,-3.1166349920279592,0.9395129598786522,-2.100803370866826,-1.4890545234082015,0.0,0.0,0.0,0.0,0.0,0.0,5.239252778221662,3.277841124426077,-0.1957701998495102,0.021926229275119596,0.0,-9.525134263148163e-18
1750170956.530537,-1.9552282595871953,-1.6781124099660554,-3.1166349920279592,0.9395129598786522,-2.100803370866826,-1.4890545234082015,0.0,0.0,0.0,0.0,0.0,0.0,5.239252778221662,3.277841124426077,-0.1957701998495102,0.021926229275119596,0.0,-9.525134263148163e-18
1750170956.5323496,-1.9552282595871953,-1.6781124099660554,-3.1166349920279592,0.9395129598786522,-2.100803370866826,-1.4890545234082015,0.0,0.0,0.0,0.0,0.0,0.0,5.239252778221662,3.277841124426077,-0.1957701998495102,0.021926229275119596,0.0,-9.525134263148163e-18
1750170956.5344672,-1.9552282595871953,-1.6781124099660554,-3.1166349920279592,0.9395129598786522,-2.100803370866826,-1.4890545234082015,0.0,0.0,0.0,0.0,0.0,0.0,5.239252778221662,3.277841124426077,-0.1957701998495102,0.021926229275119596,0.0,-9.525134263148163e-18
1750170956.5370243,-1.9552282595871953,-1.6781124099660554,-3.1166349920279592,0.9395129598786522,-2.100803370866826,-1.4890545234082015,0.0,0.0,0.0,0.0,0.0,0.0,5.239252778221662,3.277841124426077,-0.1957701998495102,0.021926229275119596,0.0,-9.525134263148163e-18
1750170956.5388052,-1.9552282595871953,-1.6781124099660554,-3.1166349920279592,0.9395129598786522,-2.100803370866826,-1.4890545234082015,0.0,0.0,0.0,0.0,0.0,0.0,5.239252778221662,3.277841124426077,-0.1957701998495102,0.021926229275119596,0.0,-9.525134263148163e-18
1750170956.5407758,-1.9552282595871953,-1.6781124099660554,-3.1166349920279592,0.9395129598786522,-2.100803370866826,-1.4890545234082015,0.0,0.0,0.0,0.0,0.0,0.0,5.239252778221662,3.277841124426077,-0.1957701998495102,0.021926229275119596,0.0,-9.525134263148163e-18
1750170956.542893,-1.9552282595871953,-1.6781124099660554,-3.1166349920279592,0.9395129598786522,-2.100803370866826,-1.4890545234082015,0.0,0.0,0.0,0.0,0.0,0.0,5.239252778221662,3.277841124426077,-0.1957701998495102,0.021926229275119596,0.0,-9.525134263148163e-18
1750170956.5445623,-1.9552282595871953,-1.6781124099660554,-3.1166349920279592,0.9395129598786522,-2.100803370866826,-1.4890545234082015,0.0,0.0,0.0,0.0,0.0,0.0,5.239252778221662,3.277841124426077,-0.1957701998495102,0.021926229275119596,0.0,-9.525134263148163e-18
1750170956.5464728,-1.9552282595871953,-1.6781124099660554,-3.1166349920279592,0.9395129598786522,-2.100803370866826,-1.4890545234082015,0.0,0.0,0.0,0.0,0.0,0.0,5.239252778221662,3.277841124426077,-0.1957701998495102,0.021926229275119596,0.0,-9.525134263148163e-18
1750170956.5487819,-1.9552282595871953,-1.6781124099660554,-3.1166349920279592,0.9395129598786522,-2.100803370866826,-1.4890545234082015,0.0,0.0,0.0,0.0,0.0,0.0,5.239252778221662,3.277841124426077,-0.1957701998495102,0.021926229275119596,0.0,-9.525134263148163e-18
1750170956.5560558,-1.9552282595871953,-1.6781124099660554,-3.1166349920279592,0.9395129598786522,-2.100803370866826,-1.4890545234082015,0.0,0.0,0.0,0.0,0.0,0.0,5.239252778221662,3.277841124426077,-0.1957701998495102,0.021926229275119596,0.0,-9.525134263148163e-18
1750170956.5574863,-1.9552282595871953,-1.6781124099660554,-3.1166349920279592,0.9395129598786522,-2.100803370866826,-1.4890545234082015,0.0,0.0,0.0,0.0,0.0,0.0,5.239252778221662,3.277841124426077,-0.1957701998495102,0.021926229275119596,0.0,-9.525134263148163e-18
1750170956.5579014,-1.9552282595871953,-1.6781124099660554,-3.1166349920279592,0.9395129598786522,-2.100803370866826,-1.4890545234082015,0.0,0.0,0.0,0.0,0.0,0.0,5.239252778221662,3.277841124426077,-0.1957701998495102,0.021926229275119596,0.0,-9.525134263148163e-18
1750170956.5586975,-1.9552249992649067,-1.6781152682186882,-3.1166324044979974,0.9394997314990837,-2.1007989472660817,-1.4890532128392868,0.001630166055882267,-0.0014291325916879068,0.0012937539693719264,-0.00661419485568404,0.0022118028653518767,0.000655280842327535,5.574735284494144,3.20821942557516,-0.1820275078831756,-0.07096069809699401,0.031179725143564766,0.10190369357343598
1750170956.560592,-1.9552209238344185,-1.678118841069777,-3.1166291701474855,0.9394831959960961,-2.1007934177511265,-1.489051574648478,0.0024452675009606416,-0.0021437224196866698,0.0019405896601588958,-0.009921311301619176,0.0033177136487513486,0.0009829077070441332,5.574717378066409,3.20821838533698,-0.1820269672352018,-0.07096078289738456,0.03117993597716717,0.10189740895769249
1750170956.5620968,-1.9552152181801699,-1.6781238431271905,-3.116624642172394,0.9394600462386623,-2.100785676404003,-1.4890492812193052,0.0032603910449920514,-0.0028583404842543966,0.0025873757952164884,-0.013228450569886275,0.0044236356580252285,0.0013105183027950417,5.574692963720463,3.2082166479513345,-0.18202632596883622,-0.07096094351257136,0.031180252315340343,0.10188806385664652
1750170956.5647304,-1.9552078822505967,-1.6781302744568105,-3.1166188206883576,0.9394302821735293,-2.1007757231985105,-1.48904633258973,0.00407554405163758,-0.0035729961941866426,0.003234095850838823,-0.016535620268960334,0.005529572643496394,0.0016381072045415991,5.574662040365693,3.208214213604576,-0.18202558416431724,-0.07096117997672424,0.03118067430981773,0.10187565784013798
1750170956.5662868,-1.9551989159794134,-1.6781381351433353,-3.116611705844062,0.9393939037322263,-2.1007635581009403,-1.4890427288085668,0.004890733882251503,-0.004287698955402082,0.0038807332989626324,-0.019842828008206716,0.006635528362645505,0.0019656689854818817,5.574624606542889,3.2082110825342953,-0.1820247419266515,-0.07096149233506481,0.031181202162229645,0.10186019033128671
1750170956.5684745,-1.9551883192856128,-1.678147425290268,-3.1166032978212557,0.9393509108310627,-2.1007491810700607,-1.4890384699354877,0.005705967895338096,-0.005002458170181131,0.004527271606026603,-0.023150081398093648,0.007741506581917529,0.002293198216618908,5.574580660464661,3.208207255052436,-0.1820237993891753,-0.07096188064328668,0.031181836125097347,0.1018416606108302
1750170956.5703619,-1.955176092073474,-1.6781581450199168,-3.116593596834759,0.9393013033711256,-2.1007325920570947,-1.4890335560410213,0.006521253445964971,-0.005717283236476656,0.0051736942319095605,-0.026457388050414293,0.008847511078497223,0.0026206894663307607,5.5745301999877395,3.2082027315263355,-0.18202275671080656,-0.07096234496787479,0.03118257650095747,0.10182006781847898
1750170956.573701,-1.9551622342325699,-1.678170294473377,-3.1165826031324806,0.9392450812382772,-2.1007137910057017,-1.4890279872065664,0.007336597885179714,-0.006432183547135437,0.005819984628787173,-0.02976475557851764,0.00995354564213153,0.0029481372998964163,5.574473222623304,3.208197512396982,-0.18202161407861042,-0.07096288538642732,0.031183423643684583,0.10179541093491166
1750170956.57578,-1.9551467456377765,-1.6781838738105268,-3.1165703169954337,0.939182244303151,-2.100692777851945,-1.4890217635243914,0.00815200855946575,-0.007147168489245088,0.006466126240076763,-0.033072191597519986,0.011059614076900155,0.003275536279099987,5.574409725544236,3.208191598157587,-0.18202037170535798,-0.07096350198691229,0.031184377957030763,0.1017676888126937
1750170956.5770085,-1.9551296261492812,-1.6781988832100092,-3.1165567387377546,0.9391127924211485,-2.1006695525242662,-1.4890148850976477,0.008967492810136177,-0.007862247443333994,0.007112102499282798,-0.03637970372453513,0.012165720203039685,0.0036028809617517556,5.574339705568429,3.208184989377415,-0.18201902983211857,-0.07096419486842492,0.031185439896134114,0.10173690014438251
1750170956.5784895,-1.9551108756125943,-1.6782153228692236,-3.116541868706723,0.9390367254324348,-2.1006441149434476,-1.4890073520403728,0.009783057972775904,-0.008577429782699236,0.007757896828932416,-0.039687299578888086,0.013271867858722967,0.003930165901278954,5.574263159170658,3.208177686680508,-0.1820175887258615,-0.07096496414052937,0.031186609966258435,0.1017030434894194
1750170956.5805094,-1.9550904938585623,-1.6782331930043064,-3.1165257072827846,0.9389540431619336,-2.100616465022574,-1.4889991644775051,0.010598711376657011,-0.009292724872646312,0.008403492639436478,-0.04299498678234737,0.014378060901878521,0.0042573856462605406,5.574180082478132,3.2081696907608155,-0.1820160486815713,-0.07096580992391528,0.031187888723920993,0.10166611725205274
1750170956.5828948,-1.9550684807033782,-1.6782524938501187,-3.1165082548795793,0.9388647454193231,-2.1005866026669953,-1.4889903225448888,0.011414460344169472,-0.01000814206977396,0.009048873327987718,-0.04630277295933275,0.0154843032119803,0.004584534740012525,5.574090471273074,3.2081610023750047,-0.18201441002117594,-0.07096673234958882,0.031189276776057075,0.10162611970208624
1750170956.5845027,-1.9550684807033782,-1.6782524938501187,-3.1165082548795793,0.9388647454193231,-2.1005866026669953,-1.4889903225448888,0.011414460344169472,-0.01000814206977396,0.009048873327987718,-0.04630277295933275,0.0154843032119803,0.004584534740012525,5.574090471273074,3.2081610023750047,-0.18201441002117594,-0.07096673234958882,0.031189276776057075,0.10162611970208624
1750170956.5879014,-1.9550195593811601,-1.6782953887068652,-3.1164694789560503,0.9386663026802203,-2.1005202402341636,-1.488970676168396,0.013046274221717884,-0.011439380164017316,0.010338922855171184,-0.05291867274622306,0.017696951269601788,0.0052385991180288905,5.573891626703127,3.2081415515547125,-0.18201083827741332,-0.07096880770755108,0.031192383448509185,0.10153690298484326
1750170956.589579,-1.9549926507733897,-1.678318983280957,-3.116448156429225,0.938557157226801,-2.1004837399285003,-1.4889598720508532,0.013862353736884494,-0.01215521972420942,0.010983558412000959,-0.056226801620281514,0.01880336490015911,0.005565503458566547,5.573782383163018,3.208130790956852,-0.18200890597552905,-0.070969960956181,0.03119410353824079,0.10148767962376894
1750170956.5910542,-1.9549926507733897,-1.678318983280957,-3.116448156429225,0.938557157226801,-2.1004837399285003,-1.4889598720508532,0.013862353736884494,-0.01215521972420942,0.010983558412000959,-0.056226801620281514,0.01880336490015911,0.005565503458566547,5.573782383163018,3.208130790956852,-0.18200890597552905,-0.070969960956181,0.03119410353824079,0.10148767962376894
1750170956.5927968,-1.954964109883031,-1.6783440096920499,-3.116425544910194,0.9384413953874045,-2.1004450267312063,-1.4889484142162548,0.014678558024767922,-0.01287121871626891,0.011627912281026493,-0.05953505999662377,0.019909843567376215,0.005892315259537065,5.573666584749268,3.2081193415634046,-0.1820068766203402,-0.07097119148042,0.03119593586199407,0.10143537655582194
1750170956.5944893,-1.9549339364532559,-1.6783704682683123,-3.1164016449790157,0.9383190168953857,-2.1004041005081975,-1.4889363028551674,0.015494894364627962,-0.01358738644227854,0.012271967776480118,-0.06284345551631643,0.021016391285718403,0.006219029031261791,5.57354422550864,3.2081072044580172,-0.1820047506727903,-0.07097249946536535,0.03119788128293858,0.10137999132125433
1750170956.596909,-1.954902130212691,-1.6783983593565015,-3.11637645724914,0.9381900214688136,-2.1003609611173317,-1.4889235381691472,0.016311370025330927,-0.014303732191217094,0.01291570819261927,-0.06615199582442789,0.02212301210210722,0.006545639276137823,5.573415299122383,3.2080943807848454,-0.182002528620559,-0.07097388510719223,0.031199940715370755,0.10132152131463726
1750170956.5987225,-1.9548686908754354,-1.6784276833219423,-3.1163499823674488,0.9380544088104629,-2.100315608408337,-1.4889101203707522,0.01712799226479624,-0.015020265238236798,0.01355911680256833,-0.0694606885702489,0.023229710097756776,0.006872140488210784,5.573279798936932,3.2080808717536806,-0.18200021098020994,-0.0709753486127111,0.031202115125316787,0.10125996379081707
1750170956.601302,-1.9548336181410821,-1.6784584405484937,-3.1163222210142996,0.9379121786078051,-2.100268042222744,-1.488896049683559,0.01794476832939048,-0.015736994843902327,0.01420217685715611,-0.07276954140751746,0.024336489390016043,0.00719852715271712,5.573137717941641,3.208066678642813,-0.18199779829692506,-0.07097689019961195,0.031204405530700974,0.10119531585411652
1750170956.6036687,-1.9547969116947446,-1.678490631438521,-3.1162931739035717,0.9377633305329997,-2.1002182623938097,-1.488881326342188,0.018761705453336115,-0.01645393025346862,0.014844871583777605,-0.07607856199465048,0.02544335413420456,0.007524793745641007,5.572989048772784,3.208051802792498,-0.1819952911438933,-0.07097851009660026,0.031206813001159853,0.1011275744637585
1750170956.6059997,-1.9547585712070807,-1.6785242564128637,-3.116262841782714,0.9376078642428844,-2.1001662687464435,-1.488865950592313,0.01957881085812885,-0.017171080696138943,0.015487184185233496,-0.07938775799495035,0.02655030852544392,0.007850934733302966,5.572833783718695,3.208036245610425,-0.18199269012300198,-0.07098020854261679,0.031209338657923878,0.10105673644758606
1750170956.6075406,-1.9547185963343185,-1.6785593159108032,-3.1162312254327955,0.9374457793789656,-2.1001120610971196,-1.4888499226906875,0.02039609175194217,-0.01788845538431813,0.016129097838540957,-0.08269713707685529,0.02765735680053953,0.008176944571875656,5.572671914716369,3.208020008570396,-0.18198999586576053,-0.07098198578820249,0.031211983675233007,0.1009827984713128
1750170956.6086595,-1.954676986718284,-1.6785958103900285,-3.1161983256685577,0.9372770755674069,-2.1000556392537995,-1.4888332429051614,0.021213555329031367,-0.01860606351287125,0.016770595693777403,-0.08600670691414289,0.028764503239805343,0.008502817706975533,5.572503433348418,3.2080030932124517,-0.1819872090321563,-0.07098384209404365,0.031214749278730334,0.10090575707125943
1750170956.6106756,-1.9546337419864273,-1.6786337403265996,-3.1161641433384704,0.9371017524190193,-2.099997003015835,-1.4888159115147053,0.022031208769135772,-0.01932391425837881,0.017411660872882713,-0.08931647518617433,0.029871752168958602,0.008828548573195406,5.572328330844749,3.2079855011424794,-0.181984330312034,-0.07098577773221104,0.031217636747435204,0.1008256086291248
1750170956.6141267,-1.954588861751855,-1.6786731062149114,-3.1161286793247878,0.936919809529249,-2.099936152173882,-1.488797928809432,0.022849059236879354,-0.020042016778393124,0.018052276468486353,-0.09262644957810934,0.030979107960956383,0.009154131593679306,5.5721465980804,3.2079672340325804,-0.18198136042425844,-0.07098779298525651,0.031220647412102075,0.10074234939039246
1750170956.6162112,-1.954542345613362,-1.678713908567655,-3.11609193454361,0.9367312464781662,-2.0998730865098025,-1.4887792950906196,0.023667113881169266,-0.020760380210684933,0.018692425542695023,-0.09593663778113747,0.03208657503789378,0.009479561179673825,5.571958225576488,3.2079482936225596,-0.1819783001179545,-0.07098988814670422,0.031223782656958438,0.10065597545450163
1750170956.6168385,-1.9544941931554574,-1.6787561479157747,-3.116053909944944,0.9365360628304522,-2.0998078057965603,-1.4887600106707364,0.024485379834599363,-0.021479013672485774,0.019332091125880465,-0.09924704749270466,0.033194157872883726,0.009804831730083232,5.571763203503096,3.207928681721391,-0.18197515017255547,-0.07099206352089545,0.031227043919187132,0.10056648277653335
1750170956.6186512,-1.954444403948406,-1.6787998248084293,-3.1160146065127683,0.9363342581353872,-2.099740309798122,-1.4887400758734657,0.025303864212832365,-0.02219792625976767,0.01997125621550186,-0.10255768641674207,0.03430186099192398,0.010129937631029064,5.571561521665696,3.207908400197585,-0.18197191139659188,-0.07099431942306038,0.031230432688563625,0.10047386716951023
1750170956.6206691,-1.954444403948406,-1.6787998248084293,-3.1160146065127683,0.9363342581353872,-2.099740309798122,-1.4887400758734657,0.025303864212832365,-0.02219792625976767,0.01997125621550186,-0.10255768641674207,0.03430186099192398,0.010129937631029064,5.571561521665696,3.207908400197585,-0.18197191139659188,-0.07099431942306038,0.031230432688563625,0.10047386716951023
1750170956.6226025,-1.954392977548257,-1.6788449398129472,-3.115974025265101,0.9361258319268366,-2.09967059826935,-1.4887194910337307,0.02612257411399739,-0.022917127046438987,0.02060990377483151,-0.10586856226389432,0.03540968897582102,0.010454873255404085,5.571353169520195,3.2078874509980846,-0.18196858463075488,-0.07099665617928404,0.031233950509061553,0.10037812430264084
1750170956.6246135,-1.9543399134968809,-1.678891493514782,-3.1159321672540696,0.9359107837232379,-2.099598670955885,-1.488698256497722,0.026941516618084714,-0.023636625083631905,0.02124801673175431,-0.10917968275175352,0.03651764646208524,0.010779632962426094,5.57113813616443,3.20786583612888,-0.18196517074569424,-0.07099907412665352,0.03123759897804114,0.10027924970039627
1750170956.6265326,-1.9542852113220084,-1.678939486517467,-3.115889033565981,0.9356891130275861,-2.0995245275940375,-1.488676372622928,0.027760698786319038,-0.024356429398923674,0.02188557797752778,-0.11249105560508003,0.03762573814683379,0.011104211097193187,5.570916410332914,3.207843557667015,-0.18196167064301952,-0.07100157361290634,0.031241379746467925,0.10017723874483553
1750170956.6283295,-1.954228870537265,-1.678988919442566,-3.1158446253213974,0.9354608193274193,-2.099448167910663,-1.488653839778161,0.028580127660556995,-0.025076548995572264,0.022522570365509562,-0.11580268855603468,0.03873396878671814,0.011428601990251044,5.570687980407965,3.207820617760001,-0.1819580852564944,-0.07100415499668182,0.031245294519606656,0.10007208667992204
1750170956.6305122,-1.9541708906422137,-1.6790397929296228,-3.115798943675214,0.9352259020948038,-2.0993695916230433,-1.4886306583435847,0.02939981026265498,-0.02579699285176036,0.023158976709918146,-0.11911458934440924,0.03984234320083972,0.011752799957140746,5.570452834404941,3.207797018621146,-0.18195441555084235,-0.07100681864753736,0.03124934505668572,0.09996378860424357
1750170956.6324303,-1.954111271122395,-1.679092107636115,-3.1157519898167365,0.9349843607863184,-2.0992887984387565,-1.4886068287107488,0.030219753593853045,-0.02651776991983359,0.02379477978455018,-0.12242676571787298,0.04095086627271123,0.01207679929793568,5.570210959981618,3.2077727625320547,-0.1819506625232459,-0.07100956494637921,0.0312535331721855,0.09985233946601313
1750170956.634311,-1.9540500114493655,-1.6791458642373946,-3.115703764969766,0.9347361948430386,-2.0992057880555484,-1.48858235128262,0.031039964634161102,-0.02723888912552242,0.024429962321493373,-0.1257392254321749,0.04205954295217597,0.012400594296824163,5.569962344439514,3.207747851847099,-0.18194682720342442,-0.07101239428412032,0.03125786073465372,0.09973773408307772
1750170956.6363494,-1.953987111080746,-1.6792010634266408,-3.1156542703926817,0.9344814036905199,-2.0991205601611984,-1.4885572264736115,0.03186045034170168,-0.027960359367175107,0.025064507009850467,-0.1290519762513988,0.04316837825737055,0.012724179221653925,5.569706974702724,3.2077222889866173,-0.1819429106530193,-0.07101530706328507,0.031262329667928516,0.09961996712793156
1750170956.638811,-1.9539225694602624,-1.679257705914801,-3.115603507378528,0.9342199867387814,-2.099033114433378,-1.4885314547096158,0.03268121765210943,-0.02868218951498807,0.02569839649441659,-0.13236502594818814,0.044277377276698456,0.013047548323478713,5.5694448373471035,3.207696076442633,-0.1819389139675368,-0.07101830369704981,0.03126694195144388,0.09949903312706448
1750170956.6402807,-1.9538563860177938,-1.6793157924305335,-3.115551477255106,0.9339519433822879,-2.09894345053951,-1.4885050364280428,0.033502273477876016,-0.02940438841021748,0.026331613374361955,-0.13567838230398693,0.04538654517080053,0.013370695836104386,5.569175918574675,3.2076692167779575,-0.18193483827571844,-0.0710213846097682,0.03127169962014284,0.09937492646291553
1750170956.6433713,-1.9537885601694143,-1.6793753237201487,-3.1154981813850644,0.9336772729999326,-2.098851568136623,-1.4884779720778525,0.034323624707726964,-0.03012696486441798,0.02696414020191621,-0.13899205310925972,0.04649588717452656,0.013693615975667659,5.568900204226874,3.2076417126239796,-0.18193068473974316,-0.07102455023625574,0.03127660476450917,0.09924764138676442
1750170956.6511312,-1.95371909131745,-1.679436300547552,-3.115443621165996,0.9333959749550182,-2.0987574668711995,-1.4884502621195903,0.035145278205957795,-0.03084992765865546,0.027595959481037713,-0.14230604616373602,0.04760540859893722,0.014016302940171692,5.568617679767967,3.2076135666817858,-0.18192645455543724,-0.07102780102260169,0.031281659531421126,0.09911717200203117
1750170956.6518862,-1.9535752221435878,-1.679562593958928,-3.115330713446458,0.9328134932526603,-2.0985626062850145,-1.4883929072791773,0.03678951933883151,-0.032297047234277114,0.028857405160145094,-0.1489350302669498,0.04982501134718578,0.014660954042655572,5.568032140580538,3.2075553606115874,-0.18191776920279815,-0.07103455991372908,0.03129222680386931,0.09884665601090703
1750170956.6537354,-1.9535752221435878,-1.679562593958928,-3.115330713446458,0.9328134932526603,-2.0985626062850145,-1.4883929072791773,0.03678951933883151,-0.032297047234277114,0.028857405160145094,-0.1489350302669498,0.04982501134718578,0.014660954042655572,5.568032140580538,3.2075553606115874,-0.18191776920279815,-0.07103455991372908,0.03129222680386931,0.09884665601090703
1750170956.6558282,-1.9535752221435878,-1.679562593958928,-3.115330713446458,0.9328134932526603,-2.0985626062850145,-1.4883929072791773,0.03678951933883151,-0.032297047234277114,0.028857405160145094,-0.1489350302669498,0.04982501134718578,0.014660954042655572,5.568032140580538,3.2075553606115874,-0.18191776920279815,-0.07103455991372908,0.03129222680386931,0.09884665601090703
1750170956.656684,-1.9535008205580233,-1.67962791215811,-3.115272368916787,0.9325123082437003,-2.0984618462030813,-1.4883632633763808,0.037612120574171036,-0.03302122141824597,0.029486996314336295,-0.1522500369635878,0.05093510369231743,0.014982906481940518,5.567729094947421,3.2075253062450417,-0.18191331660101742,-0.07103806896529583,0.031297743886799456,0.09870659690703709
1750170956.6579702,-1.9535008205580233,-1.67962791215811,-3.115272368916787,0.9325123082437003,-2.0984618462030813,-1.4883632633763808,0.037612120574171036,-0.03302122141824597,0.029486996314336295,-0.1522500369635878,0.05093510369231743,0.014982906481940518,5.567729094947421,3.2075253062450417,-0.18191331660101742,-0.07103806896529583,0.031297743886799456,0.09870659690703709
1750170956.6584208,-1.9532677399403102,-1.6798325627849282,-3.1150897912153597,0.9315689681475675,-2.098146241999908,-1.488270471860261,0.040081927992552724,-0.035196305263547056,0.031371030431061084,-0.16219720973540153,0.05426661250994751,0.015947200741376073,5.566778660673805,3.207431373925364,-0.18189953524696456,-0.07104912045484368,0.03131525759493998,0.09826713722722885
1750170956.6588206,-1.9531867521837531,-1.6799036812305808,-3.115026422642217,0.9312412573235885,-2.0980365978789637,-1.4882382565218943,0.04090588738253323,-0.035922215580682135,0.03199740263762136,-0.16551367775446424,0.055377545414811866,0.01626809140722435,5.566448027607128,3.207398817198912,-0.18189480497842367,-0.07105298076892533,0.03132142462010314,0.09811420074356092
1750170956.660562,-1.9531041161532956,-1.6799762519508485,-3.1149618021710883,0.9309069131798772,-2.0979247316683205,-1.4882053996814975,0.041730202998100964,-0.03664858129375405,0.03262292542360212,-0.1688305307824346,0.05648870321558404,0.01658870177542974,5.566110454855582,3.207365642906377,-0.1818900089106282,-0.0710569302055693,0.03132776050451349,0.09795802771477714
1750170956.664711,-1.9531041161532956,-1.6799762519508485,-3.1149618021710883,0.9309069131798772,-2.0979247316683205,-1.4882053996814975,0.041730202998100964,-0.03664858129375405,0.03262292542360212,-0.1688305307824346,0.05648870321558404,0.01658870177542974,5.566110454855582,3.207365642906377,-0.1818900089106282,-0.0710569302055693,0.03132776050451349,0.09795802771477714
1750170956.6653926,-1.9530198311298665,-1.6800502758650016,-3.1148959315187974,0.9305659349385238,-2.0978106429121137,-1.4881719019056474,0.042554881454300454,-0.03737541087367586,0.03324758079576783,-0.17214777671308623,0.05760009200088398,0.01690902586058984,5.565765924530848,3.2073318544084866,-0.18188514856578267,-0.07106096930962212,0.03133426791550647,0.09779861097862488
1750170956.6665576,-1.9529338963811949,-1.680125753909211,-3.114828812438217,0.9302183218058196,-2.097694331142206,-1.4881377637729152,0.04337992933514036,-0.03810271275288665,0.03387135069841737,-0.17546542345184046,0.058711717956137235,0.017229057654676635,5.565414418373351,3.2072974551365196,-0.18188022550471336,-0.071065098636829,0.03134094958012024,0.0976359432383834
1750170956.6684546,-1.9528463111618732,-1.6802026870364752,-3.114760446718395,0.9298640729722331,-2.0975757958779884,-1.48810298587391,0.04420535319288449,-0.03883049532452174,0.0344942170118949,-0.17878347891600602,0.05982358736570497,0.017548791126579692,5.565055917732378,3.207262448597302,-0.18187524132663133,-0.07106931875391431,0.03134780828539642,0.0974700170574447
1750170956.6719122,-1.952757074713424,-1.6802810762165397,-3.114690836184684,0.9295031876123859,-2.097455036626185,-1.488067568811326,0.04503115954737509,-0.039558766941583216,0.03511616155104931,-0.1821019510350286,0.06093570661503199,0.01786822022164706,5.564690403583097,3.2072268383760596,-0.18187019767101725,-0.07107363023879518,0.03135484687888716,0.09730082485749988
1750170956.673628,-1.952666186264361,-1.6803609224358134,-3.1146199826988736,0.9291356648850287,-2.0973320528806454,-1.488031513199993,0.045857354885326704,-0.04028753591610476,0.0357371660636927,-0.18542084775073095,0.06204808219281777,0.018187338861230473,5.564317856512657,3.207190628135169,-0.18186509621741662,-0.07107803368032148,0.03136206826930345,0.09712835892172236
1750170956.6745756,-1.9525736450302578,-1.6804422266972896,-3.114547888159326,0.9287615039330158,-2.097206844122134,-1.4879948196669197,0.04668394565963421,-0.04101681051834876,0.036357212229071866,-0.18874017701755608,0.06316072069317402,0.018506140942247888,5.563938256724698,3.2071538216090394,-0.18185993868518893,-0.07108252967829906,0.03136947542613485,0.09695261140163275
1750170956.6765237,-1.9524794502138185,-1.6805249900204586,-3.1144745545011148,0.9283807038832798,-2.097079409818125,-1.4879574888513476,0.04751093828865034,-0.04174659897594365,0.03697628165627882,-0.19205994680281757,0.06427362881782904,0.01882462033670357,5.563551584030843,3.2071164226132756,-0.1818547268351971,-0.07108711884377578,0.0313770713809691,0.09677357430091081
1750170956.6808515,-1.9523836010049438,-1.6806092134412207,-3.114399983696167,0.9279932638468055,-2.096949749422574,-1.487919521404799,0.048338339155492065,-0.04247690947305572,0.0375943558826489,-0.19538016508694403,0.06538681337834264,0.019142770891253727,5.563157817861746,3.207078435040905,-0.18184946247038852,-0.0710918017987354,0.031384859227788615,0.09659123949382765
1750170956.6823635,-1.9521869361059174,-1.6807820448006696,-3.1142471387189086,0.9271984601776841,-2.0966837481037857,-1.487841679286574,0.04999439095457944,-0.04393912910016398,0.0388274445138724,-0.20202197914056005,0.0676140396156311,0.01977806073773031,5.562348920845332,3.2070007101201927,-0.18183878361709127,-0.07110145162036562,0.03140102328560946,0.09621664355307344
1750170956.6854625,-1.9521869361059174,-1.6807820448006696,-3.1142471387189086,0.9271984601776841,-2.0966837481037857,-1.487841679286574,0.04999439095457944,-0.04393912910016398,0.0388274445138724,-0.20202197914056005,0.0676140396156311,0.01977806073773031,5.562348920845332,3.2070007101201927,-0.18183878361709127,-0.07110145162036562,0.03140102328560946,0.09621664355307344
1750170956.6863017,-1.9520861187322076,-1.6808706548924217,-3.1141688686760407,0.9267910946870276,-2.09654740601888,-1.4878018059798146,0.05082305447035633,-0.044671054373571925,0.03944242162007722,-0.20534359093870969,0.06872809548475142,0.020095187592072038,5.561933746894831,3.2069609809512376,-0.18183337294760377,-0.07110641978641631,0.03140940599966036,0.09602436547565459
1750170956.6919556,-1.9519836435990996,-1.6809607293877153,-3.1140893697456278,0.9263770854935585,-2.0964088355186323,-1.487761298772016,0.051652151389545486,-0.045403533971622806,0.04005632892485218,-0.20866568329353796,0.06984245617894039,0.02041196073043053,5.5615113932502895,3.206920679561519,-0.18182791740162,-0.07111148434053002,0.03141799361221071,0.09582875580547365
1750170956.6928322,-1.9518795098335824,-1.6810522694031613,-3.1140086440861046,0.9259564316281161,-2.0962680359860197,-1.4877201583768942,0.052481687908182216,-0.04613657584843911,0.04066914758224305,-0.21198826425477707,0.0709571290926024,0.020728373865815594,5.561081837377449,3.2068798102389455,-0.1818224189992612,-0.07111664596032517,0.03142678953563321,0.09562980572300467
1750170956.6936965,-1.9517737165502949,-1.6811452760712324,-3.11392669389368,0.9255291321054259,-2.096125006789106,-1.4876783855207645,0.0533116701826542,-0.04687018790954672,0.04128085866459099,-0.21531134188676215,0.07207212174356906,0.02104442068315187,5.560645056326375,3.2068383773532307,-0.18181687980516476,-0.07112190533404646,0.03143579724690427,0.09542750628683463
1750170956.6944606,-1.951666262851603,-1.6812397505401613,-3.1138435214025018,0.9250951859240695,-2.0959797472807935,-1.4876359809426019,0.05414210432898228,-0.04760437801100527,0.04189144316076584,-0.21863492426869544,0.0731874417754586,0.021360094838788743,5.560201026763286,3.206796385357702,-0.18181130193125516,-0.07112726316137437,0.03144502028946882,0.09522184840584157
1750170956.696862,-1.95155714782768,-1.6813356939738417,-3.1137591288848236,0.9246545920664553,-2.0958322567985714,-1.4875929453940984,0.05497299642203418,-0.04833915395853218,0.04250088197443901,-0.22195901949489738,0.07430309696000949,0.021675389960058505,5.559749724936364,3.2067538387855414,-0.18180568753489038,-0.07113272015305272,0.031454462272506485,0.09501282286249735
1750170956.6989846,-1.951446370556594,-1.6814331075517295,-3.1136735186511793,0.9242073494987876,-2.0956825346642534,-1.487549279639719,0.05580435249477891,-0.049074523506639225,0.043109155922300045,-0.22528363567505438,0.07541909519945574,0.021990299644815234,5.559291126696766,3.2067107422505776,-0.18180003882103304,-0.07113827703072637,0.03146412687211362,0.09480042030346432
1750170956.7008808,-1.9513339301043873,-1.681531992468738,-3.1135866930505576,0.9237534571710359,-2.0955305801837163,-1.4875049844567645,0.05663617853751296,-0.04981049435771483,0.04371624573222394,-0.2286087809344835,0.07653544452893585,0.022304817460957475,5.55882520749006,3.2066671004559857,-0.1817943580435522,-0.07114393452746759,0.03147401783224518,0.09458463123456187
1750170956.7029223,-1.9512198255251656,-1.6816323499351302,-3.113498654470582,0.9232929140169029,-2.0953763926466333,-1.4874600606354287,0.05746848049707566,-0.05054707416114739,0.0443221320414715,-0.23193446341437995,0.0776521531188896,0.022618936945985983,5.558351942347064,3.20662291818544,-0.18178864750412496,-0.07114969338721544,0.03148413896437475,0.09436544603604935
1750170956.7049,-1.9512198255251656,-1.6816323499351302,-3.113498654470582,0.9232929140169029,-2.0953763926466333,-1.4874600606354287,0.05746848049707566,-0.05054707416114739,0.0443221320414715,-0.23193446341437995,0.0776521531188896,0.022618936945985983,5.558351942347064,3.20662291818544,-0.18178864750412496,-0.07114969338721544,0.03148413896437475,0.09436544603604935
1750170956.706755,-1.951104055861185,-1.6817341811764157,-3.1134094053376935,0.9228257189537934,-2.0952199713261983,-1.487414508978862,0.05830126427607664,-0.05128427051244114,0.04492679539483017,-0.23526069127208152,0.0787692292775107,0.02293265160652122,5.557871305892809,3.206578200305185,-0.1817829095542847,-0.0711555543652664,0.03149449414906907,0.0941428549453845
1750170956.7091103,-1.9509866201429418,-1.6818374874332402,-3.1133189481173376,0.9223518708827806,-2.0950613154788487,-1.4873683303032346,0.05913453573209205,-0.05202209095228884,0.045530216242732284,-0.23858747268132136,0.07988668145319436,0.02324595491785404,5.557383272333935,3.206532951770981,-0.18177714659579458,-0.07116151822791392,0.03150508733584128,0.09391684807339597
1750170956.7107415,-1.9508675173892627,-1.681942269961275,-3.1132272853141547,0.9218713686885738,-2.094900424343983,-1.4873215254377943,0.05996830067688418,-0.05276054296567921,0.04613237493935221,-0.2419148158324801,0.08100451823701955,0.023558840323483876,5.556887815469012,3.2064871776228228,-0.18177136108159486,-0.07116758575237507,0.03151592254413391,0.0936874153981049
1750170956.712512,-1.9507467466073978,-1.6820485300311052,-3.113134419472175,0.9213842112394848,-2.0947372971436735,-1.4872740952249366,0.06080256487558266,-0.053499633980974376,0.04673325174067501,-0.24524272893286442,0.08212274836526681,0.0238713012346283,5.556384908673357,3.2064408829874425,-0.18176555551642984,-0.07117375772761515,0.03152700386431369,0.0934545467544212
1750170956.714605,-1.9506243067931122,-1.6821562689281153,-3.113040353175016,0.9208903973873935,-2.0945719330823724,-1.487226040520266,0.061637334045880135,-0.05423937136899642,0.04733282680254766,-0.24857122020694739,0.08324138072193052,0.024183331029786353,5.555874524904801,3.2063940730787284,-0.18175973245745478,-0.07118003495311861,0.031538335457521084,0.0932182318570357
1750170956.7163703,-1.9505001969307854,-1.6822654879523729,-3.1129450890460864,0.9203899259677136,-2.094404331346614,-1.4871773621926634,0.06247261385720204,-0.0549797624420955,0.04793108017869595,-0.2519002978966452,0.08436042434128103,0.024494923054251026,5.555356636694598,3.2063467531985443,-0.18175389451520674,-0.07118641824001155,0.03154992155707177,0.09297846028005026
1750170956.718589,-1.9503744159935081,-1.6823761884185098,-3.11284862974879,0.9198827957993572,-2.094234491104711,-1.4871280611243538,0.0633084099298975,-0.05572081445322789,0.04852799181871244,-0.2552299702615689,0.08547988841043938,0.024806070619654612,5.554831216157231,3.206298928737227,-0.1817480443546651,-0.07119290841022922,0.031561766468811384,0.09273522147066587
1750170956.7203944,-1.9502469629431776,-1.682488371655607,-3.112750977986738,0.9193690056846991,-2.0940624115064477,-1.487078138210972,0.06414472783439633,-0.05646253459500426,0.04912354156601288,-0.25856024557929014,0.08659978227197446,0.025116767003496306,5.554298234977168,3.206250605176632,-0.18174218469599512,-0.07119950629695913,0.03157387457174978,0.09248850474343834
1750170956.7223094,-1.9501178367306018,-1.6826020390070662,-3.112652136503962,0.9188485544095413,-2.0938880916827642,-1.4870275943616313,0.06498157309035779,-0.0572049299987477,0.04971770915577528,-0.26189113214560894,0.08772011542654345,0.02542700544866834,5.553757664404985,3.2062017880874762,-0.18173631831507267,-0.07120621274467738,0.03158625031927827,0.09223829928019779
1750170956.7242336,-1.9499870362956013,-1.6827171918304904,-3.112552108085134,0.9183214407430751,-2.0937115307454413,-1.4869764304989967,0.06581895116583245,-0.057948007733553034,0.05031047421284604,-0.2652226382748175,0.08884089753553531,0.025736779162986514,5.553209475264666,3.20615248313044,-0.1817304480446532,-0.07121302860896997,0.03159889823925497,0.09198459413190901
1750170956.7264795,-1.9498545605671138,-1.6828338314975593,-3.1124508955557886,0.917787663437845,-2.093532727786773,-1.486924647559352,0.06665686747640853,-0.05869177480533485,0.05090181624961242,-0.26855477229996105,0.0899621384237575,0.026046081318730076,5.552653637947478,3.2061026960574552,-0.181724576775298,-0.07121995475641994,0.03161182293522562,0.09172737822372688
1750170956.7289522,-1.9497204084632962,-1.6829519593938986,-3.1123485017825483,0.9172472212297103,-2.093351681879236,-1.4868722464926698,0.06749532738432854,-0.059436238155829116,0.051491714663829485,-0.271887542573112,0.09108384808215297,0.026354905052158286,5.552090122402352,3.2060524327185314,-0.18171870745658547,-0.07122699206503463,0.03162502908727378,0.0914666403469678
1750170956.7302835,-1.9495845788916384,-1.6830715769189544,-3.1122449296733583,0.9167001128378066,-2.0931683920751603,-1.486819228262691,0.06833433619762318,-0.06018140466166129,0.05208014873645597,-0.2752209574656389,0.09220603667052467,0.026663243463029087,5.551518898140371,3.206001699049545,-0.18171284309709498,-0.07123414142402035,0.03163852145223196,0.09120236915906048
1750170956.7321377,-1.9494470707490663,-1.6831926854858574,-3.1121401821777197,0.9161463369645078,-2.0929828574063833,-1.4867655938469904,0.0691738991692367,-0.06092728113334879,0.052667097629416515,-0.2785550253684624,0.09332871452031105,0.02697108961415926,5.55093993423535,3.205950501086088,-0.18170698676650254,-0.07124140373332477,0.031652304865121855,0.09093455320283106
1750170956.7342384,-1.9493078829220565,-1.683315286521295,-3.112034262286931,0.9155858922953857,-2.0927950768839043,-1.4867113442370563,0.07001402149611301,-0.061673874314327144,0.05325254038336742,-0.281889754692342,0.09445189213738323,0.027278436530909576,5.5503531993056665,3.205898844953883,-0.18170114159538273,-0.07124877990465328,0.03166638423975984,0.0906631808758039
1750170956.7364883,-1.9491670142867505,-1.683439381465373,-3.1119271730343314,0.9150187774991708,-2.0926050494975366,-1.4866564804383637,0.07085470831831123,-0.06242119087994278,0.05383645591539109,-0.2852251538681312,0.0955755802048622,0.02758527720073927,5.549758661530716,3.205846736879731,-0.1816953107775334,-0.07125627086036523,0.031680764569325955,0.09038824045977274
1750170956.7432427,-1.9490244637090637,-1.6835649717714771,-3.1118189174955537,0.9144449912277115,-2.0924127742155463,-1.4866010034704509,0.0716959647181015,-0.0631692374364698,0.05441882301667848,-0.28856123134706196,0.0966997895859941,0.027891604572715435,5.549156288641522,3.2057941831841257,-0.1816894975703427,-0.07126387753438104,0.03169545092799524,0.09010972010228728
1750170956.7441945,-1.948880230044809,-1.6836920589061384,-3.111709498788774,0.913864532115933,-2.09221824998429,-1.4865449143669967,0.07253779571901796,-0.06391802052010474,0.0549996203502026,-0.2918979956010102,0.09782453132702325,0.028197411557039188,5.548546047901524,3.20574119028247,-0.1816837052947232,-0.07127160087161985,0.031710448470879934,0.08982760782598288
1750170956.7446916,-1.94873431213981,-1.683820644348887,-3.111598920074974,0.913277398781796,-2.0920214757278472,-1.4864882141758997,0.07338020628496116,-0.06466754659593527,0.055578826448285185,-0.2952354551227674,0.09894981666012233,0.028502691024567095,5.547927906134965,3.205687764695071,-0.1816779373388502,-0.07127944182807949,0.03172576243563353,0.08954189152567775
1750170956.7450638,-1.9485867088300228,-1.6839507295921141,-3.1114871845582024,0.9126835898262545,-2.091822450347644,-1.4864309039593557,0.07422320131923796,-0.06541782205693586,0.05615641971020775,-0.29857361842632113,0.10007565700634333,0.028807435806337194,5.547301829694143,3.2056339130361033,-0.1816721971563504,-0.07128740137112657,0.03174139814304043,0.08925255897253152
1750170956.7467346,-1.9485867088300228,-1.6839507295921141,-3.1114871845582024,0.9126835898262545,-2.091822450347644,-1.4864309039593557,0.07422320131923796,-0.06541782205693586,0.05615641971020775,-0.29857361842632113,0.10007565700634333,0.028807435806337194,5.547301829694143,3.2056339130361033,-0.1816721971563504,-0.07128740137112657,0.03174139814304043,0.08925255897253152
1750170956.7511294,-1.9484374189416584,-1.6840823161409197,-3.111374295485845,0.912083103833213,-2.091621172722075,-1.4863729847939373,0.07506678566361971,-0.06616885322292944,0.05673237839973286,-0.3019124940471251,0.10120206397860995,0.02911163869308139,5.546667784473082,3.2055796420223586,-0.1816664882692794,-0.07129548047914172,0.03175736099818151,0.08895959780849956
1750170956.7518158,-1.948286441291307,-1.6842154055129743,-3.1112602561488982,0.9114759393694835,-2.091417641706111,-1.4863144577706784,0.07591096409739077,-0.06692064633957376,0.05730668064261642,-0.3052520905423845,0.10232904938474369,0.02941529243474096,5.546025735901789,3.2055249584673904,-0.18166081426839087,-0.07130368014192419,0.03177365649138278,0.08866299554812997
1750170956.75291,-1.948133774686064,-1.6843499992383606,-3.111145069882246,0.9108620949847415,-2.091211856130913,-1.486255323995155,0.0767557413363626,-0.0676732075772652,0.057879304424050745,-0.30859241649131686,0.10345662523051002,0.029718389740001752,5.545375648936062,3.2054698692962704,-0.1816551788149377,-0.07131200135997663,0.031790290198783586,0.08836273958964497
1750170956.7550097,-1.9479794179236558,-1.6844860988594288,-3.111028740064945,0.9102415692114818,-2.091003814803429,-1.4861955845875645,0.0776011220319209,-0.06842654303014728,0.058450227586112985,-0.3119334804954421,0.10458480372272058,0.030020923275803888,5.54471748806793,3.2054143815263387,-0.18164958564098305,-0.07132044514526349,0.031807267783910784,0.08805881720210204
1750170956.7574,-1.947823369792573,-1.6846237059306377,-3.1109112701205137,0.9096143605649739,-2.0907935165059888,-1.486135240682814,0.07844711077000079,-0.06918065871499585,0.05901942782512856,-0.315275291178861,0.10571359727237067,0.030322885666843796,5.544051217300776,3.2053585022866855,-0.18164403855139294,-0.07132901252096031,0.03182459499867768,0.08775121552648756
1750170956.759017,-1.9476656290721994,-1.6847628220184037,-3.1107926635172247,0.9089804675432159,-2.0905809599958936,-1.4860742934306046,0.07929371207012945,-0.0699355605702037,0.05958688268903731,-0.31861785718853014,0.10684301849779804,0.030624269495105976,5.543376800175681,3.2053022388040033,-0.18163854142441438,-0.0713377045211635,0.03184227768397983,0.08743992158551413
1750170956.760468,-1.9475061945329486,-1.6849034487009398,-3.1106729237684063,0.9083398886268893,-2.0903661440049994,-1.4860127439955155,0.08014093038437448,-0.0706912544546438,0.060152569574669704,-0.3219611871945445,0.10797308022789222,0.03092506729937268,5.542694199735728,3.2052455984194346,-0.18163309821365,-0.07134652219122181,0.03186032177112225,0.0871249222792142
1750170956.762461,-1.9475061945329486,-1.6849034487009398,-3.1106729237684063,0.9083398886268893,-2.0903661440049994,-1.4860127439955155,0.08014093038437448,-0.0706912544546438,0.060152569574669704,-0.3219611871945445,0.10797308022789222,0.03092506729937268,5.542694199735728,3.2052455984194346,-0.18163309821365,-0.07134652219122181,0.03186032177112225,0.0871249222792142
1750170956.7648494,-1.9473450649363961,-1.6850455875680952,-3.110552054432746,0.9076926222793117,-2.090149067239288,-1.4859505935570922,0.08098877009635193,-0.07144774614662394,0.06071646572502709,-0.32530528989041957,0.10910379550534842,0.03122527157473707,5.54200337854996,3.205188588575005,-0.18162771294858884,-0.07135546658759065,0.03187873328307193,0.08680620438388564
1750170956.7664251,-1.9471822390354205,-1.685189240221197,-3.110430059114602,0.90703866694639,-2.0899297283784444,-1.4858878433099338,0.08183723552017236,-0.0722050413427824,0.061278548226502985,-0.32865017399337315,0.11023517758994161,0.031524874772111654,5.541304298688423,3.205131216820532,-0.1816223897359229,-0.07136453877785409,0.0318975183350284,0.08648375455331146
1750170956.7683654,-1.9470177155743436,-1.6853344082728805,-3.110306941464318,0.9063780210565731,-2.0897081260754087,-1.4858244944637837,0.08268633089940049,-0.07296314565696224,0.06183879400603329,-0.33199584824460804,0.11136723996187281,0.03182386929774042,5.540596921732066,3.2050734908195997,-0.181617132761893,-0.07137373984069062,0.03191668313645694,0.08615755932066547
1750170956.7705827,-1.9468514932890697,-1.685481093346925,-3.1101827051785462,0.9057106830208028,-2.089484258955941,-1.4857605482436158,0.08353606040601455,-0.07372206461912745,0.06239717982825342,-0.33534232140959397,0.1124999963251164,0.03212224751271756,5.5398812087703,3.2050154183410826,-0.1816119462921802,-0.07138307086577952,0.03193623399111813,0.08582760510138303
1750170956.7724845,-1.9466835709072337,-1.685629297078087,-3.1100573540005736,0.9050366512324659,-2.089258125618165,-1.4856960058897286,0.08438642813931557,-0.07448180367422777,0.06295368229256794,-0.33868960227835887,0.11363346061085432,0.0324200017324804,5.539157120382387,3.2049570072651536,-0.18160683467424518,-0.0713925329541217,0.03195617729951464,0.08549387818484767
1750170956.7749298,-1.9465139471483432,-1.6857790211119248,-3.1099308917206567,0.9043559240673441,-2.0890297246321126,-1.485630868657836,0.08523743812485468,-0.07524236818104356,0.06350827783018384,-0.34203769966576736,0.1147676469809201,0.03271712422632855,5.538424616648494,3.2048982655897795,-0.1816018023386201,-0.07140212721756826,0.03197651955916839,0.08515636474588349
1750170956.7763712,-1.9463426207239305,-1.685930267104629,-3.10980332217636,0.9036684998835642,-2.088799054539259,-1.485565137819158,0.0860890943133397,-0.07600376341108041,0.06406094270112092,-0.34538662241180895,0.11590256983130326,0.03301360721692957,5.537683657137445,3.2048392014183937,-0.1815968537995753,-0.07141185477907794,0.03199726736632179,0.08481505083949178
1750170956.7782378,-1.9461695903377025,-1.6860830367228425,-3.109674649252902,0.9029743770215479,-2.0885661138520497,-1.4854988146605193,0.08694140057953019,-0.07676599454738639,0.06461165299112734,-0.34873637938189017,0.1170382437957014,0.03330944287981462,5.536934200908817,3.204779822975126,-0.18159199365797615,-0.0714217167728129,0.03201842741727997,0.08446992239849496
1750170956.7819605,-1.9459948546856936,-1.6862373316434862,-3.109544876883507,0.9022735538039603,-2.088330901053422,-1.4854319004844374,0.08779436072111849,-0.07752906668341247,0.06516038460860236,-0.3520869794671133,0.11817468374910232,0.03360462334289968,5.536176206503173,3.204720138595169,-0.18158722660101456,-0.07143171434368123,0.032040006509259075,0.08412096524493276
1750170956.7825434,-1.9458184124564202,-1.6863931535535794,-3.1094140090497606,0.9015660285356585,-2.088093414596319,-1.485364396609226,0.08864797845760052,-0.07829298482182809,0.06570711328141263,-0.35543843158457655,0.11931190481144552,0.03389914068596718,5.535409631943405,3.2046601567327904,-0.18158255740551346,-0.07144184864795738,0.03206201154261822,0.0837681650745245
1750170956.784326,-1.9456402623310387,-1.686550504150051,-3.1092820497819775,0.9008517995036388,-2.0878536529031964,-1.4852963043690854,0.0895022574291182,-0.0790577538733193,0.06625181455369544,-0.3587907446776461,0.12044992235128696,0.03419298694019462,5.534634434721811,3.2045998859634905,-0.18157799093806865,-0.07145212085240767,0.032084449520957084,0.08341150747852909
1750170956.7863607,-1.9454604029835059,-1.6867093851395616,-3.1091490031595708,0.9001308649769847,-2.08761161436552,-1.4852276251142023,0.0903572011953068,-0.0798233786554308,0.06679446378260692,-0.362143927716267,0.12158875198956134,0.03448615408762993,5.533850571802566,3.2045393349745654,-0.18157353215700994,-0.07146253213538907,0.032107327553857645,0.08305097792075138
1750170956.7886581,-1.9452788330807405,-1.6868697982383107,-3.109014873311428,0.8994032232068127,-2.0873672973432598,-1.4851583602108507,0.09121281323412944,-0.08058986389134047,0.06733503613499334,-0.3654979896972411,0.12272840960336698,0.03477863406070009,5.533057999621151,3.2044785125788766,-0.1815691861146233,-0.07147308368583039,0.03213065285752348,0.08268656175362367
1750170956.7907946,-1.9450955512827885,-1.6870317451718497,-3.1088796644162957,0.8986688724262186,-2.0871207001643706,-1.4850885110414866,0.09206909694067926,-0.08135721420864657,0.06787350658403712,-0.3688529396445147,0.12386891132980005,0.03507041874172069,5.532256674068688,3.2044174277095974,-0.18156495795775088,-0.07148377670349455,0.032154432756170935,0.08231824422007783
1750170956.7927215,-1.9449105562429896,-1.6871952276748887,-3.108743380703172,0.8979278108502232,-2.0868718211242703,-1.4850180790048562,0.0929260556259874,-0.08212543413814175,0.06840984990581409,-0.37220878660948886,0.1250102735698716,0.03536149996236598,5.531446550499047,3.204356089423029,-0.18156085293072755,-0.07149461239960206,0.03217867468435892,0.08194601043714062
1750170956.7943225,-1.944723846608147,-1.6873602474911014,-3.1086060264517026,0.8971800366757166,-2.086620658485309,-1.4849470655160895,0.09378369251579598,-0.08289452811256846,0.06894404067583487,-0.3755655396712881,0.12615251299243438,0.03565186950320132,5.530627583712255,3.2042945069006903,-0.18155687637552573,-0.07150559199554866,0.03220338618726639,0.08156984542464113
1750170956.7959762,-1.9445354210186956,-1.6875268063729267,-3.1084676059925846,0.8964255480814025,-2.086367210476224,-1.4848754720068094,0.09464201074933921,-0.0836645004653842,0.06947605326549279,-0.3789232079370743,0.12729564653821415,0.03594151909314271,5.529799727962115,3.2042326894469984,-0.18155303373494408,-0.07151671672421599,0.032228574923636136,0.08118973407417202
1750170956.7979047,-1.9443452781088837,-1.6876949060813722,-3.1083281237079805,0.8956643432277425,-2.0861114752916015,-1.4848032999252325,0.09550101337807933,-0.08443535542949542,0.07000586183849415,-0.3822818005423244,0.12843969142384465,0.036230440408973566,5.52896293693575,3.2041706464930084,-0.1815493305527285,-0.07152798782886094,0.03225424866587627,0.08080566117604558
1750170956.7998765,-1.9441534165069427,-1.6878645483858081,-3.1081875840319357,0.8948964202568981,-2.0858534510913103,-1.4847305507362725,0.09636070336446126,-0.0852070971359581,0.07053344034715354,-0.38564132665113926,0.12958466514602177,0.0365186250748282,5.528117163768804,3.2041083876047454,-0.1815457724779982,-0.0715394065639543,0.03228041530342055,0.0804176114053875
1750170956.801935,-1.9439598348352707,-1.6880357350637656,-3.1080459914508056,0.8941217772926741,-2.085593135999945,-1.4846572259216515,0.09722108358063296,-0.08597972961273984,0.07105876252872333,-0.38900179545653163,0.13073058548566546,0.03680606466167258,5.527262361025052,3.204045922467498,-0.1815423652640837,-0.07155097419457222,0.032307082842944174,0.08002556932202728
1750170956.804091,-1.9437645317106114,-1.6882084679007239,-3.107903350503689,0.8933404124404599,-2.0853305281062493,-1.4845833269799993,0.09808215680714574,-0.08675325678337606,0.07158180190158518,-0.3923632161807111,0.1318774705121536,0.0370927506868205,5.526398480695576,3.203983260907047,-0.18153911477251822,-0.07156269199621945,0.03233425941039092,0.07962951938811542
1750170956.8061936,-1.9435675057442419,-1.688382748689909,-3.10775966578287,0.8925523237871714,-2.085065625462537,-1.4845088554269683,0.09894392573164373,-0.08752768246570629,0.07210253176143953,-0.3957255980754066,0.13302533858764876,0.03737867461338696,5.5255254741908795,3.2039204128711387,-0.18153602697332039,-0.07157456125592619,0.032361953253593166,0.07922944594129118
1750170956.8081498,-1.9433687555421555,-1.6885585792320708,-3.107614941934268,0.8917575094011909,-2.084798426084099,-1.4844338127953378,0.09980639294754497,-0.08830301037048832,0.07262092517734345,-0.39908895042213255,0.13417420837144495,0.037663827849808054,5.52464329234625,3.2038573884556985,-0.1815331079494348,-0.07158658327050882,0.03239017274283013,0.07882533322547261
1750170956.810083,-1.9431682797052563,-1.6887359613352757,-3.107469183657893,0.8909559673323078,-2.084528927948611,-1.4843582006351266,0.10066956095268659,-0.08907924410013694,0.07313695498780855,-0.4024532825325068,0.13532409882440316,0.03794820174930275,5.523751885397565,3.203794197874843,-0.18153036389492813,-0.07159875934807437,0.03241892637333281,0.07841716536631706
1750170956.8143892,-1.9429660768295491,-1.6889148968146852,-3.1073223957083127,0.8901476956116577,-2.0842571289955174,-1.4842820205136995,0.10153343214797222,-0.08985638714730458,0.07365059379668581,-0.4058186037485371,0.13647502921346488,0.03823178760937031,5.522851202996023,3.2037308514950436,-0.181527801121438,-0.07161109080702867,0.032448222767479266,0.07800492638886738
1750170956.8161597,-1.9427621455063342,-1.6890953874923333,-3.107174582895125,0.889332692251662,-2.083983027125421,-1.4842052740158866,0.10239800883599628,-0.09063444289356475,0.07416181396910115,-0.40918492344292867,0.13762701911619768,0.03851457667125612,5.521941194191211,3.2036673598113046,-0.18152542605670022,-0.07162357897665415,0.03247807067569779,0.07758860020426693
1750170956.818174,-1.9423490918602555,-1.6894610417635167,-3.1068759021943704,0.8876824825693738,-2.0834279060386462,-1.4840500883183978,0.10412928740064115,-0.09219330544590426,0.07517688664622996,-0.415920595912831,0.1399342573539774,0.03907772908118428,5.52009299051846,3.203539983224357,-0.18152126536459978,-0.07164903081645074,0.032539456691448726,0.07674362136738934
1750170956.8201609,-1.9423490918602555,-1.6894610417635167,-3.1068759021943704,0.8876824825693738,-2.0834279060386462,-1.4840500883183978,0.10412928740064115,-0.09219330544590426,0.07517688664622996,-0.415920595912831,0.1399342573539774,0.03907772908118428,5.52009299051846,3.203539983224357,-0.18152126536459978,-0.07164903081645074,0.032539456691448726,0.07674362136738934
1750170956.8219452,-1.9421399666982708,-1.6896462090334694,-3.106725044205527,0.8868472721777921,-2.083146882423274,-1.4839716523767077,0.10499599337821063,-0.09297411844719533,0.07568068264952206,-0.4192899675898802,0.1410895464393882,0.03935807462584247,5.519154690698248,3.2034761200226347,-0.18151949319982785,-0.07166199719732891,0.03257101296095147,0.07631493602270406
1750170956.8241692,-1.941929107410946,-1.6898329388540327,-3.106573181151532,0.8860053220081602,-2.082863547092213,-1.483892656574831,0.10586341304751883,-0.09375585653516952,0.07618194700479197,-0.4226603755489588,0.1422459765488193,0.039637587764517423,5.518206854544876,3.2034121549239805,-0.18151793567265012,-0.07167512571012405,0.03260315707262907,0.07588209809578246
1750170956.8260462,-1.9417165125690907,-1.6900212330782072,-3.10642031812453,0.8851566299783885,-2.0825778977422686,-1.483813102586618,0.106731548198265,-0.09453852251500507,0.07668065081931787,-0.4260318293206977,0.14340356888395048,0.03991625944943445,5.517249428020968,3.203348099137481,-0.18151659983057952,-0.07168841773628427,0.032635898450101085,0.07544509098058698
1750170956.8281755,-1.9415021807400414,-1.6902110935644803,-3.106266460274715,0.8843011939872941,-2.082289932027507,-1.4837329921040734,0.10760040051316908,-0.09532211907228472,0.07717676493543443,-0.4294043384682031,0.1445623449859916,0.04019408057344748,5.516282356449601,3.203283964029108,-0.18151549285234653,-0.07170187466732013,0.03266924665802967,0.0750038979763668
1750170956.8301961,-1.9412861104878765,-1.6904025221765933,-3.1061116128108663,0.8834390119145351,-2.081999647558564,-1.4836523268374755,0.10846997156646815,-0.09610664877158587,0.0776702599259287,-0.43277791258736464,0.14572232674076172,0.04047104196950638,5.515305584510953,3.203219761103582,-0.18151462204900753,-0.07171549790526174,0.03270321140415826,0.07455850227882059
1750170956.8319259,-1.9410683003736384,-1.6905955207832921,-3.1059557810008904,0.8825700816205448,-2.081707041901959,-1.4835711085154974,0.10934026282236889,-0.09689211405494562,0.07816110608930096,-0.43615256130715085,0.14688353638384968,0.04074713441012177,5.514319056232425,3.203155502026978,-0.18151399486774997,-0.07172928886227971,0.03273780254160669,0.07410888698271026
1750170956.8338826,-1.9408487489555482,-1.6907900912580835,-3.105798970172375,0.8816944009464652,-2.0814121125793834,-1.4834893388853292,0.11021127563351761,-0.09767851724040122,0.07864927344497133,-0.43952829428991047,0.14804599650586603,0.04102234860684118,5.513322714993664,3.2030911986129693,-0.18151361889386472,-0.07174324896072416,0.032773030071440466,0.07365503508579997
1750170956.8361661,-1.9406274547892384,-1.6909862354789862,-3.1056411857131523,0.8808119677140799,-2.0811148570669893,-1.4834070197127982,0.11108301123940045,-0.09846586052047747,0.07913473172842408,-0.44290512123166376,0.14920973005775517,0.041296675209723785,5.51231650349805,3.203026862828044,-0.18151350185216872,-0.07175737963285309,0.032808904144372625,0.07319692949188814
1750170956.837989,-1.9404044164279757,-1.6911839553282748,-3.105482433071872,0.8799227797257465,-2.0808152727946627,-1.483324152782493,0.11195547076477032,-0.09925414596063412,0.07961745038619365,-0.4462830518624092,0.15037476035623254,0.04157010480679177,5.511300363792633,3.202962506802175,-0.18151365161222846,-0.07177168232117422,0.03284543506428116,0.07273455300109563
1750170956.8403957,-1.9401796324228915,-1.691383252692229,-3.1053227177585834,0.8790268347643286,-2.080513357145282,-1.48324073989789,0.1128286552180098,-0.10004337549774134,0.08009739857084455,-0.44966209594642315,0.151541111089268,0.04184262792349796,5.510274237235637,3.2028981428178844,-0.18151407618813817,-0.07178615847822375,0.03288263328951419,0.07226788831923113
1750170956.8421345,-1.9399531013232219,-1.691584129460871,-3.105162045345329,0.8781241305931267,-2.08020910745398,-1.4831567828814762,0.11370256548950305,-0.10083355093851662,0.0805745451358178,-0.45304226328254915,0.15270880632167916,0.04211423502220264,5.509238064506344,3.202833783319562,-0.18151478374277644,-0.0718008095661469,0.032920509435985804,0.07179691806255409
1750170956.844044,-1.9397248216765384,-1.6917865875277052,-3.1050004214667473,0.8772146649558085,-2.079902521007373,-1.483072283574879,0.11457720234996646,-0.1016246739579291,0.08104885863017125,-0.45642356370450726,0.15387787050083465,0.04238491650161462,5.508191785590804,3.202769440916406,-0.1815157825908954,-0.07181563705728823,0.0329590742802708,0.07132162474492847
1750170956.8459902,-1.9394947920289942,-1.6919906287894522,-3.104837851820689,0.8762984355763395,-2.0795935950427964,-1.4829872438389922,0.11545256644876473,-0.10241674609762369,0.08152030729328161,-0.45980600708118496,0.15504832846240274,0.042654662696271044,5.507135339774144,3.2027051283779526,-0.18151708120026483,-0.07183064243353593,0.03299833876088659,0.07084199079531302
1750170956.848004,-1.9392630109255649,-1.6921962551457828,-3.1046743421688388,0.8753754401589117,-2.0792823267475224,-1.4829016655541025,0.11632865831219788,-0.10320976876429419,0.08198885904940145,-0.4631896033169294,0.15622020543623963,0.0429234638759835,5.506068665633949,3.20264085864196,-0.18151868819604028,-0.07184582718634752,0.03303831398222491,0.07035799854560301
1750170956.849897,-1.9390294769102985,-1.6924034684990428,-3.1045098983373536,0.8744456763878729,-2.0789687132579644,-1.4828155506200265,0.11720547834175568,-0.10400374322804348,0.08245448150212545,-0.46657436235186817,0.15739352705237078,0.04319131024528776,5.504991701027566,3.2025766448146507,-0.1815206123633932,-0.07186119281750973,0.03307901121717327,0.06986963023405328
1750170956.8518643,-1.9387941885265674,-1.6926122707539832,-3.1043445262175076,0.8735091419276546,-2.07865275165887,-1.4827289009562348,0.1180830268123762,-0.10479867062075063,0.08291714192879215,-0.4699602941621696,0.15856831934704066,0.043458191942927354,5.5039043830951595,3.2025125001705326,-0.1815228626496325,-0.07187674083725176,0.033120441909042383,0.06937686802027422
1750170956.8539848,-1.938557144317321,-1.6928226638174761,-3.104178231766352,0.8725658344226996,-2.078334438982501,-1.482641718501987,0.11896130387065079,-0.10559455193437133,0.08337680727472183,-0.4733474087603706,0.15974460876890628,0.04372409904127615,5.502806648243085,3.2024484381609626,-0.18152544816898036,-0.07189247276623933,0.033162617675617054,0.0688796939623661
1750170956.8566904,-1.9383183428253457,-1.6930346495982382,-3.1040110210073837,0.8716157514973891,-2.0780137722078074,-1.482554005216464,0.11984030953300887,-0.10639138801927651,0.0838334441474238,-0.47673571619565625,0.16092242218530092,0.043989021545800824,5.50169843213217,3.202384472405393,-0.18152837820346016,-0.07190839013405931,0.03320555031113262,0.06837809003490451
1750170956.8602955,-1.9383183428253457,-1.6930346495982382,-3.1040110210073837,0.8716157514973891,-2.0780137722078074,-1.482554005216464,0.11984030953300887,-0.10639138801927651,0.0838334441474238,-0.47673571619565625,0.16092242218530092,0.043989021545800824,5.50169843213217,3.202384472405393,-0.18152837820346016,-0.07190839013405931,0.03320555031113262,0.06837809003490451
1750170956.8625576,-1.9380777825935276,-1.6932482300065423,-3.103842900031228,0.8706588907559689,-2.0776907482595774,-1.4824657630789062,0.1207200436838848,-0.1071891795825278,0.08428701881063996,-0.48012522655416334,0.1621017868886379,0.04425294939451546,5.50057966967703,3.2023206167032505,-0.18153166220787798,-0.07192449447984,0.03324925179022154,0.0678720381275671
1750170956.8640325,-1.937591380083993,-1.6936801823529262,-3.1035039521296652,0.8687248261406609,-2.077037616265727,-1.482287700265731,0.12248169631774358,-0.10878763124536961,0.08518484480841634,-0.48690789657184885,0.16446528149018347,0.044777780535986425,5.498310241591461,3.2021932915516564,-0.18153933082484958,-0.0719572703065143,0.03333901009372554,0.06684651750009556
1750170956.8659847,-1.9373455348949538,-1.6938985581167305,-3.1033331377274505,0.8677476173739179,-2.076707501791116,-1.4821978836500982,0.1233636138926934,-0.10958829202686224,0.08562902689669899,-0.4903010765906755,0.16564946815759327,0.04503866336251059,5.4971594419610375,3.202129850603317,-0.1815437352372924,-0.07197394491134843,0.033385091794962726,0.06632701212959424
1750170956.8679366,-1.9370979251439735,-1.6941185361589293,-3.1031614381558805,0.8667636210052035,-2.0763750172832136,-1.4821075463026734,0.12424625813623713,-0.11038990964694188,0.08607000827030631,-0.493695500252581,0.16683531966388152,0.045298510599662535,5.495997827967757,3.2020665767141727,-0.1815485332250683,-0.07199081274097648,0.033431992098563575,0.06580298548765028
1750170956.8701322,-1.936848549378496,-1.6943401183931899,-3.1029888598518696,0.8657728345369627,-2.0760401593828988,-1.4820166903050298,0.1251296282442997,-0.11119248406975599,0.08650775338126865,-0.4970911778328286,0.16802286552653067,0.045557311839864015,5.494825330638882,3.2020034845987246,-0.18155373515370715,-0.07200787537979877,0.03347972392660192,0.06527441904259212
1750170956.8721645,-1.9365974061477154,-1.6945633067329542,-3.1028154093238087,0.8647752554510514,-2.075702924671557,-1.4819253177596288,0.12601372326920324,-0.11199601510544152,0.08694222629987791,-0.5004881196453749,0.16921213572879662,0.0458150566047359,5.493641880200553,3.20194058916319,-0.1815593515814085,-0.07202513442053193,0.03352830040005467,0.06474129418155489
1750170956.8740835,-1.9363444940028671,-1.6947881030911267,-3.1026410931523354,0.8637708812086584,-2.07536330967013,-1.4818334307899592,0.1268985421176323,-0.11280050240827968,0.08737339070796071,-0.5038863360431609,0.17040316072692369,0.04607173434455846,5.492447406062803,3.2018779055040447,-0.18156539326215193,-0.07204259146454903,0.033577734843148695,0.06420359222219212
1750170956.876022,-1.9360898114975207,-1.6950145093797655,-3.102465917991118,0.8627597092502278,-2.0750213108381708,-1.4817410315406807,0.12778408354855042,-0.11360594547479805,0.08780120989200041,-0.5072858374184006,0.17159597145747368,0.04632733443768522,5.4912418368040985,3.2018154489143296,-0.1815718711501604,-0.07206024812182871,0.03362804078657156,0.06366129439590104
1750170956.8779762,-1.9358333571878754,-1.6952425275097625,-3.1022898905676524,0.8617417369953795,-2.074676924572872,-1.4816481221777682,0.12867034617110815,-0.11441234364185907,0.08822564673612568,-0.5106866342028629,0.17279059934480498,0.046581846189985114,5.490025100170729,3.2017532348866604,-0.18157879640402566,-0.07207810601061482,0.03367923197169881,0.06311438186099318
1750170956.8803515,-1.935575129633067,-1.69547215939052,-3.102113017684075,0.86071696184283,-2.0743301472080837,-1.4815547048886577,0.12955732844251705,-0.11521969608475646,0.08864666371500546,-0.514088736868162,0.17398707630866478,0.0468352588342682,5.488797123063026,3.201691279108696,-0.1815861803895309,-0.07209616675760205,0.033731322353782955,0.06256283569744622
1750170956.8821228,-1.9353151273954676,-1.6957034069296295,-3.101935306217989,0.8596853811703126,-2.073980975013315,-1.4814607818823955,0.1304450286658801,-0.11602800181523519,0.08906422288655577,-0.5174921559260369,0.175185434771938,0.04708756152972324,5.487557831522793,3.2016295974759355,-0.18159403468513427,-0.07211443199752632,0.0337843261063643,0.06200663691499378
1750170956.8840432,-1.9350533490410013,-1.6959362720325402,-3.1017567631233027,0.8586469923344968,-2.073629404192719,-1.4813663553897802,0.1313334449879865,-0.11683725967952766,0.08947828588457613,-0.5208969019286225,0.17638570766850864,0.04733874336135274,5.4863071507176935,3.2015682060855712,-0.18160237108406385,-0.07213290337288446,0.033838257624442085,0.061445766453801266
1750170956.8861604,-1.9347897931394549,-1.6961707566022266,-3.101577395431089,0.8576017926709072,-2.0732754308840615,-1.4812714276635175,0.13222257539709076,-0.11764746835633764,0.0898888139111719,-0.5243029854687451,0.17758792845130428,0.04758879333937498,5.485045004942402,3.201507121245907,-0.18161120160094443,-0.07215158253453363,0.033893131529628,0.06088020517219487
1750170956.888158,-1.9345244582648,-1.6964068625388506,-3.1013972102504543,0.8565497794938417,-2.0729190511576796,-1.4811760009783672,0.13311241772063565,-0.11845862635482227,0.09029576772909828,-0.5277104171801874,0.17879213110044948,0.04783770039867411,5.483771317592651,3.201446359473096,-0.18162053847383866,-0.0721704711407069,0.03394896267322124,0.06030993386976362
1750170956.8901746,-1.934257342995516,-1.696644591739422,-3.1012162147694253,0.8554909500962896,-2.0725602610154166,-1.4810800776312938,0.1340029696229558,-0.11927073201253152,0.09069910765392133,-0.5311192077379686,0.17999835013159604,0.048085453398209216,5.482486011164059,3.2013859374980513,-0.1816303941699423,-0.07218957085739998,0.034005766141185306,0.059734933271717174
1750170956.8921897,-1.9339884459149195,-1.6968839460974525,-3.101034416255851,0.8544253017498487,-2.072199056389538,-1.4809836599416242,0.1348942286029335,-0.120083783493323,0.09109879354603065,-0.5345293678586202,0.1812066206044006,0.048332041120433225,5.481189007233713,3.20132587226807,-0.18164078138988785,-0.07220888335815077,0.034063557258299695,0.05915518403569018
1750170956.8940885,-1.9337177656114957,-1.6971249275026068,-3.100851822058322,0.8533528317046418,-2.071835433141641,-1.4808867502511927,0.1357861919916254,-0.12089777878523779,0.09149478480251477,-0.5379409083004401,0.18241697813113666,0.04857745227073064,5.479880226451727,3.2012661809531586,-0.1816517130718557,-0.0722284103233149,0.03412235159194894,0.058570666761897726
1750170956.8960514,-1.9337177656114957,-1.6971249275026068,-3.100851822058322,0.8533528317046418,-2.071835433141641,-1.4808867502511927,0.1357861919916254,-0.12089777878523779,0.09149478480251477,-0.5379409083004401,0.18241697813113666,0.04857745227073064,5.479880226451727,3.2012661809531586,-0.1816517130718557,-0.0722284103233149,0.03412235159194894,0.058570666761897726
1750170956.8981206,-1.933445300679237,-1.6973675378403446,-3.1006684396071043,0.8522735371892334,-2.0714693870615397,-1.4807893509245025,0.1366788569498428,-0.12171271569838193,0.09188704034886744,-0.5413538398637902,0.18362945888551713,0.048821675476800025,5.4785595885237255,3.201206880940355,-0.18166320239668782,-0.07224815344126705,0.03418216495804931,0.05798136197176536
1750170956.9001048,-1.9331710497179877,-1.697611778991571,-3.1004842764150924,0.8511874154105447,-2.07110091386613,-1.4806914643488795,0.13757222046570758,-0.12252859186277064,0.09227551863055788,-0.544768173391339,0.1848440996116293,0.04906469928809942,5.477227012203185,3.201147989840834,-0.1816752627919144,-0.07226811440666583,0.03424301342422,0.057387250136692096
1750170956.902149,-1.9328950113337893,-1.6978576528322655,-3.100299340078777,0.8500944635537692,-2.0707300091982415,-1.4805930929346314,0.13846627935214298,-0.12334540472607086,0.09266017760438008,-0.5481839197683329,0.18606093763307457,0.049306512175243275,5.47588241527275,3.2010895255052247,-0.18168790793820946,-0.07228829492127353,0.0343049133155491,0.056788311661532996
1750170956.9040341,-1.9326171841392377,-1.698105161233121,-3.1001136382792303,0.8489946787822871,-2.0703566686254717,-1.480494239115199,0.13936103024435975,-0.12416315155145667,0.09304097472972611,-0.5516010899228536,0.1872800108622541,0.049547102529428004,5.474525714536248,3.201031506000445,-0.1817011517719419,-0.07230869669335993,0.034367881218701025,0.05618452689621474
1750170956.906381,-1.9323375667538345,-1.6983543060591675,-3.099927178783111,0.8478880582375794,-2.0699808876389936,-1.4803949053473264,0.14025646959727672,-0.12498182941528757,0.09341786695957183,-0.5550196948260908,0.18850135780987382,0.049786458661808045,5.473156825805727,3.2009739496407357,-0.1817150084936089,-0.07232932143816088,0.03443193398810419,0.055575876119741165
1750170956.909757,-1.9320561578043565,-1.6986050891694031,-3.0997399694436862,0.8467745990391413,-2.069602661652354,-1.4802950941112112,0.14115259368289443,-0.12580143520487058,0.09379081073143414,-0.5584397454925714,0.18972501759455734,0.05002456880294989,5.471775663872943,3.2009168749677794,-0.1817294925684767,-0.07235017087643482,0.03449708874898255,0.0549623395745914
1750170956.912039,-1.9317729559252204,-1.6988575124164056,-3.099552018201871,0.8456542982843956,-2.0692219860002456,-1.4801948079106744,0.1420493985876391,-0.1266219656160821,0.09415976195797424,-0.5618612529804405,0.1909510299527385,0.05026142110218591,5.470382142513657,3.200860300776272,-0.1817446187374684,-0.07237124673595917,0.03456336290523597,0.05434389742744632
1750170956.9125352,-1.9317729559252204,-1.6988575124164056,-3.099552018201871,0.8456542982843956,-2.0692219860002456,-1.4801948079106744,0.1420493985876391,-0.1266219656160821,0.09415976195797424,-0.5618612529804405,0.1909510299527385,0.05026142110218591,5.470382142513657,3.200860300776272,-0.1817446187374684,-0.07237124673595917,0.03456336290523597,0.05434389742744632
1750170956.913959,-1.931201167956095,-1.699367286696634,-3.0991739222193444,0.8433931603847834,-2.068453266636638,-1.4799928207506898,0.1438450342561043,-0.12826578611588663,0.09488550774473314,-0.5687086828724168,0.19341027448458642,0.05073130436270009,5.4675576713947365,3.200748730201007,-0.18177685770908333,-0.07241408465711657,0.03469934043414443,0.05309221678732432
1750170956.916043,-1.9309125791765371,-1.6996246413994465,-3.098983793808332,0.8422523173236094,-2.0680652131889463,-1.4798911249184563,0.14474385624027314,-0.1290890686179539,0.0952422114199589,-0.5721346276130522,0.19464358931130069,0.05096431121122123,5.466126543930325,3.200693772634547,-0.18179400140469162,-0.07243585020239014,0.03476908004841079,0.05245893838467644
1750170956.9180279,-1.9306221920889595,-1.6998836435774054,-3.098792956156543,0.8411046208733354,-2.067674690600807,-1.4797889643765565,0.14564334147881608,-0.1299132605637554,0.09559474075999858,-0.5755620738486092,0.19587942203864336,0.05119601199113999,5.464682701580669,3.200639393176538,-0.18181184898899808,-0.07245784913550771,0.03484001155200607,0.05182067457920462
1750170956.9198844,-1.9303300053717036,-1.7001442950451366,-3.0986014176594083,0.8399500680196992,-2.067281693793552,-1.47968634174938,0.1465434850888438,-0.13073835765626596,0.09594304890740238,-0.5789910328589251,0.19711781564640926,0.05142639443673445,5.463226052776756,3.200585611875418,-0.18183041665008545,-0.0724800832118041,0.03491215381743644,0.0511774052909268
1750170956.9219737,-1.9300360177130766,-1.7004065976084641,-3.0984091868066574,0.838788655725834,-2.0668862176018745,-1.4795832596859313,0.147444281984978,-0.1315643553924396,0.09628708842010578,-0.5824215159688728,0.19835881379537423,0.05165544619746616,5.461756504820298,3.2005324490412064,-0.18184972088251217,-0.072502554190944,0.03498552602814421,0.05052911040800042
1750170956.9245336,-1.9297402278117621,-1.7006705530639987,-3.098216272183497,0.837620380932178,-2.0664882567724554,-1.4794797208600023,0.1483457268763572,-0.13239124906067443,0.0966268112607746,-0.5858535345486074,0.19960246083856786,0.05188315483735419,5.460273963872533,3.2004799252441636,-0.18186977849380323,-0.07252526383784148,0.035060147685126324,0.04987576976931675
1750170956.9262507,-1.929442634377236,-1.7009361631987172,-3.0980226824718122,0.8364452405563835,-2.0660878059625674,-1.479375727970342,0.14924781426361164,-0.1332190337381874,0.09696216878588901,-0.5892871000137742,0.20084880183276474,0.05210950783436635,5.458778334950444,3.200428061331788,-0.181890606612348,-0.0725482139214376,0.035136038613092814,0.049217363174640844
1750170956.9280949,-1.9291432361301801,-1.7012034297895378,-3.0978284264513913,0.8352632314932259,-2.0656848597386572,-1.4792712837408306,0.1501505384357772,-0.13404770428840135,0.09729311173464,-0.5927222238257344,0.20209788255021213,0.052334492579803854,5.45726952190071,3.2003768784213653,-0.1819122226929171,-0.07257140621509447,0.035213218967125835,0.04855387038425107
1750170956.9302979,-1.9288420318029154,-1.7014723546028883,-3.097633513001171,0.834074350614512,-2.0652794125749008,-1.4791663909206525,0.15105389346711795,-0.13487725535824502,0.09761959021761216,-0.5961589174917747,0.20334974949057463,0.05255809637768613,5.455747427366061,3.200326397910807,-0.18193464452266273,-0.07259484249606865,0.035291709238791685,0.04788527112387674
1750170956.9321036,-1.92853902013983,-1.701742939394273,-3.0974379511005043,0.8328785947689878,-2.0648714588517354,-1.4790610522844725,0.15195787321396692,-0.1357076813754739,0.09794155370521168,-0.5995971925653241,0.20460444989313953,0.05278030644412372,5.454211952798633,3.200276641476161,-0.1819578902293833,-0.07261852454550168,0.035371530263485905,0.04721154507934006
1750170956.933984,-1.9282341998978207,-1.7020151859078299,-3.097241749830454,0.8316759607822466,-2.064460992854375,-1.4789552706326106,0.15286247131144437,-0.13653897654588648,0.09825895101587145,-0.6030370606461423,0.20586203174925113,0.053001109906708574,5.452662998411817,3.2002276310837674,-0.18198197828749602,-0.07264245414760169,0.03545270322688295,0.04653267190996839
1750170956.9359548,-1.927927569846739,-1.7022890958758836,-3.0970449183751083,0.8304664454566351,-2.064048008771282,-1.4788490487912203,0.15376768117015077,-0.13737113485053642,0.09857173030400215,-0.6064785333805383,0.20712254381501993,0.05322049380387524,5.451100463174577,3.2001793889889547,-0.18200692752593964,-0.07266663309031866,0.03553524967267769,0.04584863123775008
1750170956.9379382,-1.9276191287698392,-1.7025646710184956,-3.09684746602292,0.8292500455711609,-2.063632500692636,-1.4787423896124707,0.15467349597280636,-0.13820415004290426,0.09887983904772579,-0.6099216224615446,0.20838603562425423,0.05343844508428207,5.449524244792763,3.200131937740777,-0.18203275713462852,-0.07269106316396282,0.035619191508853607,0.04515940265877491
1750170956.9400096,-1.927308875464246,-1.7028419130430006,-3.096649402168073,0.8280267578813987,-2.063214462608757,-1.4786352959747209,0.15557990867079652,-0.13903801564599727,0.09918322403633675,-0.6133663396291142,0.20965255750168676,0.05365495060619534,5.447934239673606,3.2000853001895244,-0.18205948667222213,-0.07271574616175912,0.03570455101599213,0.04446496574900935
1750170956.9421215,-1.9269968087414107,-1.7031208236435509,-3.0964507363118714,0.8267965791193962,-2.062793888408514,-1.478527770782705,0.1564869119807206,-0.13987272494945605,0.09948183135749056,-0.6168126966703029,0.2109221605764656,0.0538699971368317,5.446330342934164,3.200039499485444,-0.18208713607490307,-0.07274068387924276,0.03579135085471662,0.04376530004712957
1750170956.9440944,-1.9266829274275912,-1.7034014045006396,-3.0962514780641572,0.8255595059935796,-2.0623707718777045,-1.4784198169677154,0.15739449838078773,-0.14070827100653344,0.09977560638415653,-0.6202607054194414,0.21219489679591702,0.05408357135174121,5.4447124483394065,3.199994559093523,-0.18211572566243955,-0.07276587811396393,0.03587961407335673,0.04306038507894175
1750170956.946073,-1.926367230364331,-1.703683657280627,-3.096051637144752,0.8243155351886594,-2.061945106697399,-1.4783114374877844,0.15830266010723001,-0.14154464663111432,0.10006449376128998,-0.6237103777583081,0.2134708189395901,0.05429565983417453,5.443080448314542,3.199950502786728,-0.18214527614730228,-0.07279133066521916,0.03596936411588032,0.04235020035019145
1750170956.9480934,-1.9260497164089454,-1.7039675836352615,-3.095851223384927,0.8230646633655345,-2.0615168864422646,-1.4782026353278717,0.15921138915062252,-0.1423818443946543,0.10034843739221624,-0.6271617256162865,0.2147499806336097,0.054506249074431745,5.441434233911684,3.1999073546552066,-0.1821758086430019,-0.07281704333358441,0.03606062483058428,0.04163472534345296
1750170956.950161,-1.9257303844350186,-1.7042531852011873,-3.0956502467288995,0.8218068871611975,-2.061086104578858,-1.4780934135000479,0.16012067725210818,-0.14321985662302944,0.10062738042473665,-0.6306147609705248,0.21603243636530295,0.05471532546923584,5.439773694774722,3.199865139117692,-0.1822073446719998,-0.07284301792082795,0.036153420477799056,0.040913939533413775
1750170956.9552975,-1.9257303844350186,-1.7042531852011873,-3.0956502467288995,0.8218068871611975,-2.061086104578858,-1.4780934135000479,0.16012067725210818,-0.14321985662302944,0.10062738042473665,-0.6306147609705248,0.21603243636530295,0.05471532546923584,5.439773694774722,3.199865139117692,-0.1822073446719998,-0.07284301792082795,0.036153420477799056,0.040913939533413775
1750170956.955758,-1.9257303844350186,-1.7042531852011873,-3.0956502467288995,0.8218068871611975,-2.061086104578858,-1.4780934135000479,0.16012067725210818,-0.14321985662302944,0.10062738042473665,-0.6306147609705248,0.21603243636530295,0.05471532546923584,5.439773694774722,3.199865139117692,-0.1822073446719998,-0.07284301792082795,0.036153420477799056,0.040913939533413775
1750170956.9563267,-1.9254092333329016,-1.7045404635994537,-3.095448717235359,0.820542203188639,-2.060652754463888,-1.477983775043688,0.161030515899609,-0.1440586753934123,0.10090126523695134,-0.6340694958460921,0.217318241498156,0.05492287532107698,5.438098719138029,3.19982388091497,-0.18223990617468566,-0.07286925622963095,0.036247775739190115,0.04018782237520926
1750170956.9581797,-1.9250862620102298,-1.7048294204350114,-3.0952466450790195,0.8192706080367511,-2.0602168293424477,-1.4778737230256525,0.16194089632389597,-0.14489829253103068,0.1011700334227903,-0.6375259423160992,0.21860745228705702,0.0551288848375837,5.436409193770731,3.1997836051232205,-0.18227351551731047,-0.0728957600625345,0.036343715725822005,0.03945635332251251
1750170956.960008,-1.9247614693924362,-1.7051200572962077,-3.095044040552205,0.8179920982702317,-2.0597783223462134,-1.4777632605404838,0.1628518094946779,-0.14573869960592517,0.10143362577719192,-0.6409841125018599,0.21990012589391003,0.05533334013085295,5.43470500399458,3.199744337155883,-0.18230819550335256,-0.07292253122282132,0.03644126598860866,0.03871951181001551
1750170956.9619687,-1.9244348544232786,-1.705412375754273,-3.0948409140664603,0.8167066704294876,-2.059337226491623,-1.477652390710598,0.16376324611652623,-0.14657988792960447,0.10169198228102952,-0.6444440185729989,0.22119632040351042,0.05553622721681337,5.432986033615489,3.199706102772065,-0.182343969380072,-0.0729495715129746,0.03654045252567974,0.03797727727480984
1750170956.9639575,-1.9241064160653742,-1.7057063773627972,-3.094637276154196,0.8154143210305382,-2.0588935346780017,-1.4775411166864734,0.1646751966247896,-0.14742184855169627,0.10194504208569086,-0.6479056727475753,0.22249609483981564,0.05573753201458399,5.431252164926193,3.1996689280771573,-0.1823808608493932,-0.07297688273487854,0.03664130179351608,0.03722962915527986
1750170956.9659634,-1.9237761533007411,-1.7060020636572064,-3.0944331374703617,0.8141150465649182,-2.0584472396856786,-1.4774294416468488,0.1655876511813934,-0.14826457225650824,0.1021927434973175,-0.6513690872921915,0.22379950918252783,0.05593724034579307,5.42950327866432,3.199632839531662,-0.18241889407773476,-0.07300446668934715,0.03674384071573647,0.036476546879753886
1750170956.9679255,-1.9234440651313545,-1.706299436154227,-3.094228508794154,0.8128088434995802,-2.0579983341740533,-1.477317368798917,0.16650059967057826,-0.14910804955954235,0.10243502396073037,-0.6548342745221026,0.2251066243840566,0.056135337933938004,5.4277392539913825,3.1995978639570968,-0.18245809370533925,-0.07303232517591161,0.036848096693805676,0.03571800988694282
1750170956.9699123,-1.9231101505796975,-1.7065984963513445,-3.0940234010307543,0.8114957082767977,-2.0575468106796295,-1.4772049013785233,0.1674140316945674,-0.14995227070395134,0.10267182004297493,-0.658301246801297,0.22641750238683123,0.0563318104037217,5.425959968470182,3.1995640285421936,-0.18249848485769432,-0.07306045999184485,0.03695409761688003,0.034953997619521504
1750170956.9720223,-1.9227744086893361,-1.7068992457262544,-3.0938178252131023,0.8101756373140677,-2.0570926616140266,-1.4770920426503622,0.16832793656911346,-0.15079722565693846,0.10290306741657271,-0.6617700165425893,0.22773220614096845,0.05652664328039018,5.424165298016406,3.199531360845101,-0.1825400931538511,-0.07308887293244831,0.037061871871821056,0.03418448952989559
1750170956.9746485,-1.9224368385254973,-1.707201685736309,-3.0936117925037006,0.8088486270040124,-2.056635879261936,-1.4769787959081784,0.16924230331900242,-0.15164290410610648,0.10312870084235792,-0.6652405962076908,0.22905079962237584,0.05671982198906214,5.4223551168894355,3.1994998888008075,-0.18258294471911732,-0.07311756579014722,0.037171448355469136,0.0334094650792408
1750170956.9761608,-1.9220974391756513,-1.7075058178179514,-3.093405314196457,0.8075146737142815,-2.0561764557790605,-1.4768651644749662,0.17015712067346128,-0.15248929545570722,0.10334865415193978,-0.6687129983072694,0.23037334785118666,0.05691133185407366,5.420529297659381,3.1994696407346934,-0.18262706619598026,-0.07314654035404695,0.0372828564839795,0.032628903748780545
1750170956.9780035,-1.9217562097501082,-1.7078116433861492,-3.0931984017185603,0.8061737737874547,-2.0557143831900007,-1.4767511517031737,0.1710723770614506,-0.15333638882287787,0.1035628602298383,-0.6721872354010116,0.23169991691064334,0.057101158098291645,5.418687711159655,3.1994406453554696,-0.18267248475360617,-0.07317579840991364,0.037396126205462406,0.03184278503103191
1750170956.9800706,-1.9214131493826274,-1.7081191638338122,-3.092991066632392,0.8048259235409431,-2.0552496533861104,-1.4766367609749045,0.17198806060688895,-0.15418417303376378,0.10377125099517076,-0.6756633200976552,0.23303057396636617,0.057289285842458536,5.416830226469259,3.1994129317743694,-0.18271922810125035,-0.0732053417390733,0.03751128801083009,0.03105108844702019
1750170956.981995,-1.9210682572310267,-1.708428380531207,-3.092783320637477,0.8034711192668911,-2.054782258123316,-1.4765219957021234,0.17290415912379786,-0.1550326366196123,0.10397375738296144,-0.6791412650550331,0.23436538728606146,0.05747570010450172,5.414956710884732,3.1993865295044674,-0.18276732449959318,-0.07323517211858614,0.03762837294618267,0.030253793534799487
1750170956.9840598,-1.9207215324778115,-1.7087392948253681,-3.092575175572469,0.8021093572320787,-2.054312189019887,-1.4764068593268629,0.17382066011131733,-0.1558817678127987,0.10417030932506655,-0.6826210829800856,0.2357044262596556,0.05766038579886452,5.413067029868869,3.199361468464847,-0.182816802771755,-0.07326529132019548,0.03774741262480131,0.02945087986406999
1750170956.9862094,-1.9203729743308084,-1.7090519080394895,-3.0923666434171793,0.8007406336778224,-2.0538394375541777,-1.4762913553214307,0.17473755074864236,-0.15673155454271878,0.1043608357306115,-0.6861027866288739,0.237047761419879,0.057843327735823354,5.411161047030815,3.1993377790022235,-0.1828676923178851,-0.07329570111019265,0.03786843923982354,0.028642327034937683
1750170956.9880521,-1.9200225820238082,-1.709366221472318,-3.092157736294638,0.7993649448198781,-2.053363995062311,-1.4761754871886188,0.17565481788986742,-0.15758198443170868,0.1045452644660691,-0.6895863888065727,0.238395464463309,0.05802451062080425,5.409238624087044,3.199315491878078,-0.18292002312586028,-0.07332640324859019,0.037991485577173086,0.027828114680721158
1750170956.990087,-1.9196703548172236,-1.7096822363975361,-3.0919484664732035,0.7979822868483415,-2.052885852735839,-1.4760592584619134,0.17657244805871286,-0.15843304479082299,0.10472352233486312,-0.69307190236746,0.23974760827186167,0.05820391905369959,5.40729962082248,3.1992946382889142,-0.18297382578513072,-0.07335739948890578,0.038116585028201255,0.02700822247403983
1750170956.9922285,-1.9193162919987552,-1.7099999540631314,-3.091738846368707,0.7965926559275514,-2.0524050016193467,-1.475942672705708,0.17749042744314106,-0.15928472261553717,0.10489553505649377,-0.6965593402148853,0.24110426693481077,0.05838153752817446,5.405343895051231,3.1992752498732258,-0.18302913150082933,-0.07338869157738438,0.03824377160454392,0.026182630127264354
1750170956.994228,-1.9189603928840686,-1.7103193756907658,-3.0915288885466428,0.7951960481959902,-2.051921432608011,-1.4758257335155127,0.17840874188989594,-0.1601370045814206,0.1050612272452417,-0.7000487153012294,0.24246551577125514,0.05855735043098423,5.403371302589625,3.19925735871203,-0.1830859721064468,-0.07342028125246966,0.038373079950748505,0.025351317400490687
1750170956.9960759,-1.9186026568174803,-1.7106405024751261,-3.0913186057243993,0.7937924597661871,-2.051435136445125,-1.475708444518176,0.17932737689890393,-0.16098987703968345,0.10522052238836069,-0.7035400406278511,0.24383143135311375,0.05873134204126609,5.4013816972075,3.1992409973437486,-0.18314438007872602,-0.07345217024435881,0.038504545359140094,0.02451426409694313
1750170956.998092,-1.9182430831726593,-1.7109633355832745,-3.0911080107735365,0.7923818867246193,-2.0509461037195633,-1.4755908093720933,0.1802463176175606,-0.16184332601267004,0.1053733428238115,-0.7070333292450104,0.24520209152862849,0.05890349652986697,5.399374930584089,3.1992261987669757,-0.18320438855109533,-0.07348436027404545,0.038638203784124366,0.02367145008297555
1750170957.0035508,-1.9182430831726593,-1.7109633355832745,-3.0911080107735365,0.7923818867246193,-2.0509461037195633,-1.4755908093720933,0.1802463176175606,-0.16184332601267004,0.1053733428238115,-0.7070333292450104,0.24520209152862849,0.05890349652986697,5.399374930584089,3.1992261987669757,-0.18320438855109533,-0.07348436027404545,0.038638203784124366,0.02367145008297555
1750170957.0039673,-1.9178816713533369,-1.7112878761539854,-3.0908971167221067,0.7909643251316147,-2.0504543248632103,-1.4754728317674282,0.18116554883491956,-0.16269733718925372,0.10551960971745339,-0.7105285942517897,0.24657757544642345,0.05907379795862011,5.39735085227874,3.1992129964526668,-0.1832660313299497,-0.07351685305313822,0.03877409185786521,0.022822855271106893
1750170957.005977,-1.9175184207940301,-1.711614125297075,-3.090685936757022,0.7895397710212546,-2.0499597901483284,-1.4753545154263286,0.18208505497574431,-0.1635518959201552,0.10565924303974736,-0.7140258487959956,0.24795796358010483,0.05924223027965661,5.395309309677716,3.1992014243498295,-0.18332934290879196,-0.07354965028304616,0.03891224690551278,0.02196845964041736
1750170957.0079324,-1.9171533309607742,-1.7119420840927155,-3.090474484226468,0.7881082204012757,-2.049462489684892,-1.4752358641031513,0.18300482009446176,-0.16440698721316827,0.10579216154190962,-0.717525106074041,0.24934333775339976,0.05940877733469353,5.3932501479636015,3.199191516896912,-0.18339435848470012,-0.07358275365422892,0.03905270696038576,0.02110824323124613
1750170957.0099657,-1.9167864013518736,-1.7122717535907492,-3.0902627726423693,0.7866696692529734,-2.0489624134178523,-1.475116881584678,0.18392482786895759,-0.16526259572832241,0.1059182827315703,-0.7210263793308124,0.2507337811658977,0.05957342285434085,5.391173210051561,3.199183309022588,-0.18346111397256315,-0.07361616484558561,0.03919551078094555,0.020242186159258352
1750170957.011961,-1.916417631498657,-1.7126031348099886,-3.0900508156828974,0.7852241135311052,-2.048459551124365,-1.4749975716903423,0.18484506159427208,-0.16611870577290277,0.1060375228477822,-0.7245296818595237,0.2521293784193973,0.05973615045737296,5.389078336563074,3.199176836167391,-0.18352964602457833,-0.07364988552383217,0.03934069786785621,0.01937026860566723
1750170957.0139127,-1.9160470209662508,-1.712936228737501,-3.089838627195036,0.7837715491637939,-2.0479538924109573,-1.4748779382724528,0.1857655041761483,-0.1669753012964148,0.10614979683554568,-0.7280350270015503,0.25353021554481336,0.059896943650031426,5.3869653657665415,3.199172134284019,-0.1835999920442502,-0.0736839173427335,0.039488308479750815,0.018492470836067563
1750170957.0158737,-1.9156745693543655,-1.7132710363278925,-3.089626221197196,0.7823119720524313,-2.0474454267106434,-1.474757985216418,0.18668613812444637,-0.1678323658854553,0.10625501831970838,-0.731542428146248,0.25493638002976116,0.06005578582530408,5.384834133530409,3.1991692398459612,-0.18367219020489178,-0.07371826194245759,0.039638383652330876,0.017608773196080896
1750170957.0189955,-1.9153002762980949,-1.7136075585025736,-3.0894136118818794,0.780845378071583,-2.046934143279982,-1.4746377164409754,0.18760694554642987,-0.16868988275846278,0.10635309957824257,-0.7350518987307428,0.25634796084676514,0.06021266026220614,5.382684473280291,3.1991681898627085,-0.18374627946802233,-0.07375292094849496,0.03979096521594056,0.016719156117934744
1750170957.0201223,-1.914924141468724,-1.7139457961490194,-3.089200813618402,0.7793717630688928,-2.0464200311960763,-1.4745171358984166,0.1885279081399005,-0.16954783476038085,0.10644395151493602,-0.7385634522397226,0.2577650484821106,0.06036755012506337,5.380516215941991,3.1991690218859707,-0.183822299600517,-0.07378789597150674,0.03994609581368524,0.01582360012742294
1750170957.0220482,-1.914546164574558,-1.7142857501200197,-3.08898784095567,0.7778911228649873,-2.045903079353522,-1.4743962475748225,0.1894490071861838,-0.17040620435722392,0.106527483631434,-0.7420771022051914,0.25918773496540093,0.060520438462776056,5.3783291898878165,3.199171774017935,-0.18390029119373177,-0.07382318860603108,0.04010381892130542,0.01492208584190978
1750170957.0241785,-1.914166345361763,-1.7146274212329073,-3.088774708625012,0.7764034532533823,-2.0453832764612816,-1.474275055490291,0.19037022354296715,-0.17126497363049392,0.10660360399859986,-0.745592862206203,0.2606161138997909,0.060671308208116705,5.376123220885948,3.1991764849313764,-0.18398029568346197,-0.07385880042963477,0.04026417886622824,0.014014593991106269
1750170957.0262823,-1.9137846836152193,-1.7149708102687944,-3.08856143154307,0.7749087500003888,-2.0448606110395176,-1.474153563699172,0.1912915376370002,-0.17212412427158863,0.10667221922727715,-0.7491107458685874,0.2620502804929352,0.06082014217697934,5.373898132046806,3.199183193859709,-0.18406235536781174,-0.07389473300246134,0.040427220847705274,0.013101105401327752
1750170957.0284243,-1.913401179159389,-1.715315917971778,-3.0883480248147497,0.7734070088450196,-2.0443350714163433,-1.4740317762902997,0.19221292945661086,-0.17298363757594795,0.10673323443824262,-0.7526307668646411,0.2634903315887015,0.060966923067662396,5.371653743763682,3.1991919406377294,-0.18414651343064173,-0.07393098786599503,0.04059299095835412,0.012181601018692857
1750170957.0301917,-1.9130158318592052,-1.715662745048145,-3.0881345037362298,0.7718982254988962,-2.043806645724522,-1.4739096973872314,0.19313437854406726,-0.1738434944372352,0.10678655323158515,-0.756152938912814,0.2649363656995951,0.061111633460117956,5.369389873647469,3.1992027656814166,-0.1842328139585925,-0.07396756654269299,0.040761536204211246,0.011256061899547153
1750170957.0320985,-1.912628641620966,-1.7160112921655637,-3.0879208837980365,0.7703823956461581,-2.0432753218980952,-1.4737873311484817,0.1940558639878055,-0.17470367534132128,0.10683207765525432,-0.759677275777341,0.2663884830399876,0.06125425581523818,5.367106336487883,3.1992157100194523,-0.18432130196568705,-0.07400447053409627,0.04093290452736664,0.010324469232603892
1750170957.0339928,-1.9122396083932554,-1.7163615599522615,-3.087707180688179,0.7688595149433702,-2.0427410876689462,-1.4736646817677652,0.19497736441441677,-0.17556416036013042,0.10686970817290187,-0.7632037912678917,0.2678467855601423,0.06139477247408727,5.364802944159775,3.199230815301699,-0.18441202341357835,-0.07404170132122777,0.04110714482842545,0.009386804325552944
1750170957.0360913,-1.911848732167872,-1.716713548996191,-3.0874934102953504,0.7673295790194334,-2.042203930563293,-1.4735417534742332,0.19589885798053908,-0.17642492914543054,0.10689934363094772,-0.7667324992391548,0.26931137698104884,0.061533165657186646,5.362479505592754,3.199248123804602,-0.18450502523493043,-0.074079260362283,0.04128430698928589,0.00844304863083311
1750170957.0380514,-1.911848732167872,-1.716713548996191,-3.0874934102953504,0.7673295790194334,-2.042203930563293,-1.4735417534742332,0.19589885798053908,-0.17642492914543054,0.10689934363094772,-0.7667324992391548,0.26931137698104884,0.061533165657186646,5.362479505592754,3.199248123804602,-0.18450502523493043,-0.074079260362283,0.04128430698928589,0.00844304863083311
1750170957.0400743,-1.9114560129807776,-1.71706725984418,-3.0872795887121964,0.7657925834754943,-2.041663837898109,-1.4734185505327186,0.19682032236451108,-0.17728596092243615,0.10692088122486276,-0.7702634135904298,0.2707823628301026,0.06166941746375012,5.360135826683181,3.1992676784503384,-0.18460035535598068,-0.0741171490927335,0.04146444189695224,0.00749318373451648
1750170957.0421946,-1.9110614509130635,-1.7174226930010787,-3.0870657322386514,0.7642485238848566,-2.041120796777479,-1.473295077243976,0.1977417347578615,-0.1781472344833354,0.10693421646464607,-0.7737965482651676,0.2722598504776487,0.06180350987094327,5.357771710232646,3.199289522810107,-0.18469806272033937,-0.07415536892348541,0.04164760146788403,0.0065371913723761485
1750170957.044143,-1.9106650460919319,-1.7177798489288802,-3.0868518573853447,0.7626973957928938,-2.0405747940888723,-1.4731713379449287,0.19866307185661083,-0.17900872818060515,0.10693924313941094,-0.7773319172505078,0.2737439491744452,0.06193542473312914,5.3553869558865035,3.1993137011334105,-0.1847981973151602,-0.0741939212405647,0.04183383867388645,0.005575053432488771
1750170957.0501826,-1.9098667089347945,-1.7184993307255674,-3.086424119656378,0.7595739161463113,-2.0394738504516576,-1.4729230788459402,0.20050542442325534,-0.18073228715499576,0.10692393712783377,-0.7844094143169156,0.2767324263518193,0.062192648621405076,5.350554715837563,3.1993692400585445,-0.18500595350348378,-0.07427202874414311,0.0422157633041284,0.003632269180414914
1750170957.050534,-1.909464777092838,-1.7188616572961273,-3.0862102908871205,0.7580015555420081,-2.0389188821603312,-1.4727985679029132,0.20142639072455107,-0.18159430687697461,0.1069033830849449,-0.7879515705859993,0.27823703308578984,0.06231792073542113,5.348106812961094,3.199400692610524,-0.185113680511234,-0.07431158656628921,0.04241156218017869,0.0026515874693250514
1750170957.0520208,-1.9090610034876496,-1.7192257080390938,-3.085996511958235,0.7564221083368441,-2.0383608976075998,-1.4726738086639095,0.20234718337923652,-0.18245645561077478,0.10687407768697099,-0.7914960175405603,0.27974870745731606,0.06244094147876735,5.345637437692733,3.1994346630500914,-0.18522404563128045,-0.07435148214325422,0.04261066164961057,0.0016646894032026325
1750170957.0540621,-1.9086553884923525,-1.719591483188621,-3.0857828004874865,0.7548355699352577,-2.037799882539291,-1.4725488056504226,0.20326777646821026,-0.18331870940595887,0.1068359055572834,-0.7950427693780271,0.28126756871367387,0.06256169208042914,5.343146372752798,3.1994711991624767,-0.18533710445291057,-0.07439171671839909,0.04281312035908342,0.0006715577289523558
1750170957.0559366,-1.9082479325324568,-1.7199589829304802,-3.0855691743253377,0.753241935713252,-2.0372358224606195,-1.4724235634216125,0.20418814352036146,-0.18418104382953665,0.10678874936725213,-0.7985918403360269,0.2827937382273177,0.06268015364204642,5.340633397256765,3.199510349494971,-0.18545291377067472,-0.07443229150178916,0.043018998175527796,-0.0003278245950671482
