mathias31415/primitives_from_planned_trajectory_python/data/saved_trajectories/trajectory_20250617_163418_planned.csv
time_from_start,shoulder_pan_joint_pos,shoulder_lift_joint_pos,elbow_joint_pos,wrist_1_joint_pos,wrist_2_joint_pos,wrist_3_joint_pos,shoulder_pan_joint_vel,shoulder_lift_joint_vel,elbow_joint_vel,wrist_1_joint_vel,wrist_2_joint_vel,wrist_3_joint_vel,shoulder_pan_joint_acc,shoulder_lift_joint_acc,elbow_joint_acc,wrist_1_joint_acc,wrist_2_joint_acc,wrist_3_joint_acc,fk_x,fk_y,fk_z,fk_qx,fk_qy,fk_qz,fk_qw
0.0,-1.6006999999999998,-1.7271,-2.2029999999999994,-0.8079999999999998,1.5951,-0.030999999999999694,-9.463212788938697e-06,0.0002618136880692094,0.00023809823014026905,-0.0005,-3.4017390726583424e-07,-9.463133194173251e-06,-0.009463212788938696,0.2618136880692094,0.23809823014026904,-0.5,-0.0003401739072658342,-0.00946313319417325,-0.18963153692348156,-0.6096838816511918,0.2609711486943511,-0.0003918678270918309,0.9998434779226772,0.01247829832752396,0.012536274005463676
0.1,-1.6007473160639445,-1.725790931559654,-2.201809508849298,-0.8104999999999999,1.5950982991304636,-0.031047315665970562,-0.0009463212788938647,0.0261813688069208,0.023809823014026777,-0.04999999999999973,-3.4017390726583246e-05,-0.00094631331941732,-0.009463212788932761,0.2618136880690421,0.23809823014011763,-0.4999999999996808,-0.0003401739072656225,-0.009463133194167195,-0.18966716017412555,-0.6098944465936759,0.2621037387280274,-0.0003918758884968855,0.9998434854205248,0.012477951279830883,0.012536021190266377
0.2,-1.6008892642557784,-1.7218637262386158,-2.198238035397194,-0.8179999999999997,1.5950931965218547,-0.03118926266388316,-0.0018926425577877421,0.052362737613841956,0.04761964602805388,-0.10000000000000014,-6.803478145316695e-05,-0.001892626638834653,-0.009463212788939157,0.26181368806921906,0.2380982301402807,-0.5000000000000139,-0.00034017390726585287,-0.0094631331941737,-0.18977366660720835,-0.610510003453148,0.26551041786662666,-0.00039190007495720156,0.9998435079094363,0.012476910447879139,0.012535262716021067
0.30000000000000004,-1.601125844575502,-1.7153183840368857,-2.1922855796436878,-0.8304999999999998,1.595084692174173,-0.03142584099373749,-0.0028389638366816336,0.07854410642076351,0.07142946904208133,-0.1500000000000013,-0.00010205217217975116,-0.002838939958252,-0.00946321278895954,0.261813688069795,0.23809823014080111,-0.5000000000011102,-0.00034017390726659826,-0.0094631331941943,-0.18994993442267136,-0.6114818440433554,0.27121751994453874,-0.0003919403932076035,0.9998435453755181,0.012475176765033649,0.012533998497028066
0.4,-1.601457057023115,-1.7061549049544635,-2.183952141588778,-0.8479999999999999,1.5950727860874188,-0.03175705065553355,-0.003785285115575524,0.10472547522768502,0.09523929205610876,-0.2000000000000024,-0.00013606956290633534,-0.0037852532776693456,-0.009463212788979056,0.26181368807032235,0.23809823014128684,-0.5000000000021372,-0.00034017390726728944,-0.009463133194213382,-0.1901939874460841,-0.6127278207922189,0.27926761215975043,-0.0003919968544736708,0.999843597795614,0.012472751786834825,0.012532228391322746
0.5,-1.6018829015986171,-1.694373288991349,-2.1732377212324656,-0.8704999999999998,1.5950574782615918,-0.03218289164927135,-0.004731606394469833,0.1309068440346181,0.1190491150701467,-0.2500000000000256,-0.00017008695363293454,-0.004731566597087109,-0.009463212789417166,0.2618136880824383,0.23809823015229128,-0.5000000000252576,-0.0003401739072830293,-0.009463133194651491,-0.1905028341731456,-0.6141309442758214,0.289717471303951,-0.00039206947447075564,0.9998436651373058,0.01246963769090257,0.012529952201977916
0.6000000000000001,-1.6024033783020086,-1.6799735361475423,-2.160142318574751,-0.8979999999999999,1.5950387686966923,-0.03270336397495088,-0.005677927673363093,0.15708821284152216,0.14285893808415825,-0.2999999999999934,-0.00020410434435949603,-0.0056778799165038245,-0.00946321278880515,0.2618136880654929,0.23809823013690146,-0.4999999999929501,-0.00034017390726102817,-0.009463133194039476,-0.19087224031698577,-0.6155375185599212,0.30263517276052987,-0.00039215827340418035,0.9998437473589122,0.012465837276795615,0.012527169678926716
0.7000000000000001,-1.6029941740090867,-1.6636283047324425,-2.1452776615743128,-0.929215387429971,1.5950175313760744,-0.03329415471286595,-0.0059459119554170605,0.16450239180948736,0.14960153012827274,-0.3141592653589636,-0.0002137375696018454,-0.005945861944550983,2.972685173602057e-13,-8.236851279858295e-12,-7.488046618052995e-12,1.56971643919185e-11,1.0670899766756656e-14,2.972685173602057e-13,-0.19127993468906362,-0.6167160550982826,0.3174812714835934,-0.0003922591243808679,0.9998438405758927,0.012461531009296105,0.012524010545051631
0.8,-1.6035887652046286,-1.6471780655514934,-2.1303175085614856,-0.9606313139658682,1.5949961576191143,-0.03388874090732107,-0.0059459119554170605,0.16450239180948736,0.14960153012827274,-0.3141592653589636,-0.0002137375696018454,-0.005945861944550983,2.972685173602057e-13,-8.236851279858295e-12,-7.488046618052995e-12,1.56971643919185e-11,1.0670899766756656e-14,2.972685173602057e-13,-0.1916767438276892,-0.6174453155553998,0.3326060005886729,-0.00039236068215998797,0.9998439342702335,0.012457205236727062,0.012520830396028389
0.9,-1.6041833564001702,-1.630727826370544,-2.115357355548658,-0.9920472405017653,1.594974783862154,-0.03448332710177618,-0.0059459119554170605,0.16450239180948736,0.14960153012827274,-0.3141592653589636,-0.0002137375696018454,-0.005945861944550983,2.972685173602057e-13,-8.236851279858295e-12,-7.488046618052995e-12,1.56971643919185e-11,1.0670899766756656e-14,2.972685173602057e-13,-0.19205892262773872,-0.617708290777754,0.3479002880848485,-0.0003924622990265411,0.9998440278426857,0.012452887649582764,0.012517649533580453
1.0,-1.604777947595712,-1.6142775871895947,-2.10039720253583,-1.0234631670376633,1.5949534101051939,-0.035077913296231306,-0.0059459119554179166,0.16450239180951107,0.1496015301282943,-0.31415926535900884,-0.0002137375696018762,-0.005945861944551839,-5.58136808104876e-13,1.54475628379834e-11,1.4060887538343957e-11,-2.950845037632736e-11,-2.0095958443993497e-14,-5.58136808104876e-13,-0.19242538238348175,-0.6174974403344987,0.3633495364001429,-0.0003925639749802878,0.9998441212932491,0.012448578247180316,0.01251446796631797
1.1,-1.6053331927098604,-1.598915915169751,-2.0864270127153755,-1.0528001969942151,1.594933450720978,-0.03563315374023192,-0.0050817452676594,0.14059395049314663,0.12785874958530735,-0.26849999999996405,-0.00018267338820172853,-0.005081702525270355,0.009463212789624625,-0.2618136880881956,-0.23809823015755294,0.5000000000363043,0.00034017390729050784,0.009463133194859818,-0.19275243594625976,-0.6168664539610758,0.37790324948320064,-0.0003926589760491138,0.9998442084498202,0.0124445614019332,0.012511496305170273
1.2,-1.6057941729588552,-1.5861622191673337,-2.0748285647185702,-1.0771566317101988,1.5949168798738493,-0.03609413011193699,-0.004135423988766379,0.11441258168624918,0.10404892657130181,-0.2185000000000089,-0.00014865599747517562,-0.004135389205853879,0.009463212788777578,-0.2618136880647309,-0.23809823013620626,0.4999999999914513,0.00034017390726000886,0.009463133194011904,-0.19301219119722,-0.6160200970994562,0.3900701537655953,-0.0003927378877789747,0.999844280728924,0.012441231924800202,0.012509028691530978
1.3,-1.6061605210799603,-1.5760266600456088,-2.0656110990231675,-1.0965130664261824,1.594903710765793,-0.03646047515170034,-0.0031891027098728143,0.08823121287933668,0.08023910355728259,-0.16850000000002502,-0.00011463860674860317,-0.0031890758864368592,0.009463212788470532,-0.26181368805625155,-0.23809823012847633,0.4999999999752698,0.00034017390724899065,0.009463133193704858,-0.1932106428084599,-0.6151367550981652,0.39978864126269487,-0.00039280062547703194,0.9998443381179957,0.01243858944553069,0.012507067348553549
1.4,-1.6064322370731758,-1.5685092378045757,-2.0587746156291677,-1.1108695011421659,1.5948939433968097,-0.036732188859521946,-0.0022427814309782515,0.06204984407239655,0.05642928054323823,-0.11849999999998839,-8.062121602199482e-05,-0.0022427625670188404,0.009463212789160153,-0.26181368807533784,-0.23809823014584702,0.500000000011699,0.000340173907273784,0.009463133194394912,-0.19335310286910726,-0.6143601567211587,0.40702256733613373,-0.0003928471717608171,0.999844380652893,0.012436631556754096,0.01250561247815654
1.5,-1.6066093209385022,-1.563609952444235,-2.0543191145365705,-1.1202259358581492,1.5948875777668987,-0.03690927123540182,-0.001296460152084528,0.035868475265479656,0.03261945752921501,-0.06849999999999612,-4.660382529541665e-05,-0.001296449247601662,0.009463212789010382,-0.2618136880711927,-0.2380982301420749,0.5000000000037886,0.0003401739072684162,0.009463133194244924,-0.19344372383014785,-0.6137980719232423,0.41174813626773404,-0.0003928775137377613,0.9998444083602113,0.012435356473090874,0.012504664228420857
1.6,-1.606691772675939,-1.5613288039645863,-2.0522445957453757,-1.1245823705741327,1.5948846138760606,-0.03699172227933996,-0.000350138873190719,0.009687106458560394,0.008809634515189632,-0.018499999999999323,-1.2586434568835408e-05,-0.0003501359281843975,0.00946321278895677,-0.2618136880697096,-0.2380982301407234,0.5000000000009576,0.0003401739072664839,0.009463133194191313,-0.19348530918528858,-0.6135212444913032,0.41395123354777263,-0.0003928916430057183,0.9998444212572828,0.012434763031029798,0.01250422269508503
1.637128694,-1.6066982953843432,-1.5611483436514186,-2.0520804817852056,-1.1249270055596037,1.5948843794044014,-0.03699824493288173,6.731600210781503e-19,-1.86239611969016e-17,-1.693697618289201e-17,3.5567203025646293e-17,2.4198068847502604e-20,6.731543591517855e-19,0.009463212788898386,-0.26181368806809424,-0.23809823013925485,0.4999999999978702,0.00034017390726438524,0.009463133194132941,-0.1934885823419912,-0.6134989342272841,0.41412559417411104,-0.0003928927608122806,0.9998444222774624,0.012434716090893277,0.012504187765093789
