mathias31415/primitives_from_planned_trajectory_python/data/saved_trajectories/trajectory_20250617_162524_planned.csv
time_from_start,shoulder_pan_joint_pos,shoulder_lift_joint_pos,elbow_joint_pos,wrist_1_joint_pos,wrist_2_joint_pos,wrist_3_joint_pos,shoulder_pan_joint_vel,shoulder_lift_joint_vel,elbow_joint_vel,wrist_1_joint_vel,wrist_2_joint_vel,wrist_3_joint_vel,shoulder_pan_joint_acc,shoulder_lift_joint_acc,elbow_joint_acc,wrist_1_joint_acc,wrist_2_joint_acc,wrist_3_joint_acc,fk_x,fk_y,fk_z,fk_qx,fk_qy,fk_qz,fk_qw
0.0,-1.606961743329428,-1.7195671217876205,-2.1907346949257014,-0.8091137195013409,1.5942574971995402,-0.02990427021094301,0.00029811017171874825,0.00026150291785525517,0.00042189001504891054,-0.00012432532612009358,-2.134739729905978e-05,0.0005,0.29811017171874826,0.26150291785525515,0.42189001504891055,-0.12432532612009357,-0.02134739729905978,0.5,-0.19374599990092908,-0.6140755854587484,0.2719288481222955,0.0031715448080376564,0.999919997454217,0.0031236760658296075,0.011839875105976677
0.1,-1.6054711924708345,-1.7182596071983443,-2.188625244850457,-0.8097353461319413,1.594150760213045,-0.027404270210943014,0.029811017171874666,0.02615029178552538,0.04218900150489083,-0.01243253261200929,-0.002134739729905967,0.04999999999999973,0.29811017171859466,0.2615029178551218,0.4218900150486922,-0.12432532612002822,-0.021347397299048797,0.49999999999974326,-0.19287377730717206,-0.6152532853299603,0.27378609060520653,0.003659737320683633,0.9999228873036804,0.0017520556722134106,0.011736953179443456
0.2,-1.600999539895053,-1.7143370634305153,-2.182296894624723,-0.8116002260237427,1.5938305492535592,-0.01990427021094301,0.05962203434374955,0.05230058357105095,0.08437800300978196,-0.02486506522401867,-0.004269479459811949,0.09999999999999983,0.2981101717184975,0.2615029178550316,0.42189001504855345,-0.12432532611998659,-0.021347397299041424,0.4999999999995698,-0.1902375632117396,-0.61874349496947,0.27938475582523564,0.005125171192462936,0.9999183867695842,-0.0023651164220868694,0.011461179898686483
0.30000000000000004,-1.5936197111390944,-1.7077507833934424,-2.1716758422275824,-0.8147053048042789,1.5932903450490814,-0.007450985742763039,0.08574748144860574,0.08090744586532225,0.13028897240391987,-0.03714201263812254,-0.006733171518330541,0.14763567907632538,0.17990085895408497,0.3142777830527907,0.5003975833835768,-0.11301828293261419,-0.02918709827959187,0.40671315373180766,-0.1858274100100083,-0.6244344189845773,0.28887567082627336,0.007582655193382149,0.9998663445109142,-0.00929700590089212,0.011106850853368232
0.4,-1.5843933437356812,-1.6981030423880772,-2.1561767880796823,-0.8189305208595488,1.5924676843956516,0.009066619202910825,0.09654915629762299,0.11250437956550588,0.18032704461882185,-0.047018086145352654,-0.009811827933157248,0.18059445839820812,0.038055042588150366,0.3176075629374023,0.5003516021504779,-0.08488251390880573,-0.03234241225795288,0.2545195764447892,-0.18023627669097675,-0.6321592393084514,0.3029838505072925,0.011116504063749736,0.9996876581890215,-0.019611401158578613,0.010788991915279648
0.5,-1.574500864357713,-1.6852821281159236,-2.135674459455095,-0.8240544473574405,1.5913268797651594,0.02840326716273439,0.10371684377211503,0.1444906989796284,0.230528722400112,-0.055866052170193005,-0.013036553235021578,0.20811650680292684,0.09356300287078301,0.32126100229542076,0.5002148387883427,-0.08742389901645253,-0.0324754850316179,0.2732015426229067,-0.17413470528319702,-0.6414251850556633,0.3220932568147733,0.01569754786769704,0.9992566919009342,-0.03355156528887638,0.010674415619081334
0.6000000000000001,-1.563786722261047,-1.6692516977585332,-2.110169989191319,-0.8300396819578095,1.589860361183066,0.05039639312903793,0.10949803955637441,0.17682655278711598,0.2805492876356576,-0.06368938345855325,-0.016397906725245923,0.23058625831632568,0.022633885012474077,0.3254205675415897,0.5001937204187064,-0.06918965526159221,-0.03473314052086782,0.17697000251987155,-0.1673636385876166,-0.6517816865334625,0.34650380585122514,0.02117177489724405,0.9984063272545673,-0.051144373168017024,0.0109915758195386
0.7000000000000001,-1.5523394684681662,-1.6501397901484633,-2.079916916035672,-0.8367656064651552,1.5880732707594465,0.07454668337882753,0.11547239002421987,0.19895694616621584,0.3141592653589913,-0.06833283178785332,-0.01876090014083287,0.24325410935396424,-0.06897808108579284,0.010043587188786016,1.1980873258943708e-11,0.030816100764691327,-0.004142000843715006,-0.15347182852303182,-0.15993627344840358,-0.6625252130897261,0.37629858674821126,0.027338025562216768,0.9969406873724688,-0.07223727828414357,0.011986402536556652
0.8,-1.5410354712072158,-1.6301997955465966,-2.048500989164802,-0.8434675085099113,1.586179203227635,0.09822927062879128,0.11232165769972105,0.19978192602053643,0.3141592653589989,-0.06598881959378572,-0.019089091525155824,0.2320539505225062,0.001148556509386819,0.007252393697359962,1.957985408820141e-11,0.018458910856228673,-0.002747125992227963,-0.08233462597125596,-0.15242829549230752,-0.6720019054588207,0.40811026001602874,0.033341821243098514,0.9948927073799422,-0.09428016435430775,0.013714020844623127
0.9,-1.5297974823988603,-1.6101859803897347,-2.0170850625067014,-0.8499757225478197,1.584256799385086,0.12103029624032935,0.11259128756867474,0.20047383357930337,0.3141592653589937,-0.06422685099832644,-0.019352311504575236,0.22423735732550606,0.04067472471218568,0.004401401795194492,1.436595592979725e-11,0.011430860584157303,-0.001950224940144825,-0.04036115872347926,-0.14483997689938308,-0.6797941328929037,0.4407107905131255,0.03893915013238583,0.9923105877499755,-0.11637216417075678,0.016154238839392637
1.0,-1.5183394147862446,-1.5901170698806464,-1.9856691359251841,-0.8563424996660844,1.5823120297410536,0.14325662680766404,0.11660908859016848,0.2009085988227736,0.31415926535892413,-0.06309772415911397,-0.019544952408955655,0.22025052997854627,0.04043447698738356,0.004375404607388262,-5.513420931424636e-11,0.011363343535043452,-0.0019387058153508998,-0.040122763169348444,-0.13703312544298818,-0.6858913762527292,0.47400261296327295,0.04413527626525465,0.9891976329745646,-0.13844443242792984,0.019319923297377115
1.1,-1.5064418883020372,-1.5700087645614214,-1.9542532093344152,-0.8626025936504216,1.5803486681750054,0.16512352453588486,0.12208688916645197,0.20118508583569475,0.314159265359045,-0.06221022535793244,-0.019711512073917487,0.21778568261124792,0.068193617096517,0.0014040125550533824,6.561747703405261e-11,0.006847511672922333,-0.001454355834631342,-0.01154184189021665,-0.1289119601469005,-0.6902746796916676,0.5078887462040825,0.04892406567605612,0.9855589254006314,-0.16043761128259354,0.02323388144097111
1.2,-1.4938961122880814,-1.5498833157778042,-1.9228372827326132,-0.8687897683442626,1.5783703279541674,0.18684504049868622,0.12885730545984614,0.20132447936838843,0.31415926535895583,-0.061530388935110585,-0.019855903804902014,0.2166397824807345,-7.505572365038944e-10,6.533662186363904e-11,-2.7002824668607044e-11,-1.0006365878969631e-11,-1.9676393383299255e-10,3.457702123345391e-10,-0.12038929763571475,-0.692927314011078,0.5422646591563894,0.05330514966727115,0.9814019704556617,-0.18228671502130306,0.027933616511945963
1.3,-1.4805492477653126,-1.5297596459754619,-1.8914213560600341,-0.8749267090338472,1.5763794043397712,0.20856864211233733,0.1382016781191181,0.20114659833475143,0.3141592653589966,-0.06120417596308014,-0.019963975760000963,0.2178479826182273,0.09435272612091757,-0.0017961141918178222,1.725024194953568e-11,0.0032938629800473482,-0.0010912325483784847,0.012199532374037455,-0.11142175395060054,-0.6938278277362133,0.577027184855014,0.057274082495543964,0.9767353989942279,-0.2039315620846722,0.03345979395611112
1.4,-1.4662371405385375,-1.509657667131021,-1.8600054293267485,-0.8810351184235093,1.5743781739501497,0.23043977028064078,0.14883802710098698,0.20080304500709817,0.3141592653590405,-0.061052588698116715,-0.020050547137907857,0.2201898535323581,0.12090970457454336,-0.0052023269419430125,6.112465439530446e-11,-0.00029681752289070144,-0.0006490833609801656,0.03550774474497903,-0.10196604937996129,-0.6929597429847545,0.6120707878424168,0.060821198184781336,0.9715699731836489,-0.22530741746192973,0.039863977422318585
1.5,-1.4507535415335364,-1.4896031701585086,-1.8285895025194043,-0.8871418507137672,1.5723698994943365,0.2526349029006823,0.1608699336499475,0.20028309307072698,0.31415926535900146,-0.06108605681925343,-0.02011439136581888,0.22373983408385234,0.1511111140712845,-0.008760546350657606,2.2131341692834837e-11,-0.004299196933465982,-6.47752215903405e-05,0.060915354843034474,-0.09195981130135071,-0.6903160131031568,0.6472839405843891,0.06393289304998576,0.9659199642732703,-0.24633688858863192,0.047215941429301675
1.6,-1.4339025149861755,-1.4696191547393815,-1.7971735754938831,-0.8932721936612819,1.5703581328164034,0.27531688079453787,0.17639349402331037,0.1993831270341969,0.3141592653590046,-0.06152771091929878,-0.020121045688019836,0.22999763447272023,0.1592242749945976,-0.009230900384825326,2.529296237400286e-11,-0.004530020965372046,-6.825300559657076e-05,0.06418590234535983,-0.08136115969087637,-0.68588972697951,0.6825568003948789,0.06659548569580115,0.9598014031843439,-0.2669373959984922,0.05559437334703031
1.7000000000000002,-1.4154233514779684,-1.4497324015747433,-1.7657576482410122,-0.8994556271235704,1.5683471029952414,0.29868333460163177,0.1943787887361579,0.19824228927328044,0.3141592653589721,-0.0622707073221662,-0.02007972728766027,0.23820961603962576,0.2021589904415345,-0.013391112321160756,-7.21091995810512e-12,-0.009689553070065651,0.0007480554192190055,0.09786873059414318,-0.07009995681441748,-0.6796826432736494,0.7177766077117879,0.06878265906998482,0.9532344798811322,-0.2870101094589567,0.06510122307120988
1.8,-1.395038492047961,-1.4300494375115789,-1.7344581450998158,-0.905709753608564,1.566350636904722,0.3229147902206354,0.2094395102393584,0.19087154149452154,0.304709823234947,-0.06149917006489026,-0.019375708756784377,0.24158572449120566,3.881146176163491e-11,-0.24017310057452854,-0.35617001311714747,0.05647785114870339,0.024392442772438155,-0.1483614413290435,-0.058106938925012064,-0.6717384138329693,0.7526959352116451,0.07045459674537516,0.9462719899013543,-0.3063574026972226,0.07583279460886094
1.9,-1.3740945376897804,-1.4120578176123073,-1.7056118091856767,-0.9116020507707061,1.5645243305981207,0.3463966234049144,0.2094395102393101,0.1694474975075741,0.2729385632158715,-0.056461203846064456,-0.017199841577422305,0.2283515111763283,-9.425640714932124e-12,-0.19154682912750354,-0.28405860806512473,0.04504315128697367,0.019453864968878857,-0.11832367400476516,-0.046222892902740564,-0.6628747112939105,0.7846242734152465,0.07150506480344686,0.9395125336505115,-0.32347312638984266,0.08699632937447573
2.0,-1.3531505835685191,-1.396080725274305,-1.6797524531425871,-0.9170327618421084,1.5629054563770295,0.36868701714993185,0.2094395102392414,0.14986065711543511,0.24390245132089744,-0.05210901970413594,-0.015151350919778888,0.21735981263148074,-7.80387617354746e-11,-0.1822999413884778,-0.2702436120734034,0.040430129528862706,0.019083771248636226,-0.10196740575835817,-0.03473879893430019,-0.6536814117379139,0.8129574046078565,0.07200317683237524,0.9332008929644773,-0.33809484709026116,0.09820137609708368
2.1,-1.332206629862896,-1.3819461373097344,-1.656625248417543,-0.9220578391974988,1.5614802589881895,0.38996074158103256,0.20943951023922747,0.132355434024042,0.2179217756945452,-0.04834252067631456,-0.013288035365336119,0.20810642485520842,-9.195544478395848e-11,-0.17521170455080398,-0.2602851894557851,0.036788329201545164,0.01889255652564166,-0.08838526464657452,-0.023594755106841343,-0.6444708085440277,0.8379982405867996,0.07203860082225055,0.9273827150042212,-0.35044685059868463,0.10935604605340778
2.2,-1.3112626765537554,-1.3695160518856786,-1.6360296219728996,-0.9267229832681213,1.5602383084968192,0.4103651214937752,0.20943951023923868,0.11675842566900117,0.19474729975500363,-0.04507506641785329,-0.011604071670132072,0.20027462698295947,-8.072784461358616e-11,-0.16968079957369905,-0.25316183442361123,0.03379144818872139,0.018840161869565292,-0.07660939706746972,-0.012721313734608554,-0.6354882002257224,0.8600042631246134,0.0716854982586823,0.9220931819820369,-0.36071270089605073,0.12038147903196263
2.3,-1.2903187232350226,-1.3586275885716728,-1.617729652714861,-0.9310736858123507,1.559165326395832,0.43003709096245524,0.2094395102393307,0.10120725420431438,0.1715451277638167,-0.04197809489243185,-0.009877379030773804,0.19325340907439303,1.1144434848521398e-11,-0.142776613893191,-0.2130210935797344,0.028433556192904438,0.015852910428175767,-0.06446239246703132,-0.002054991506458759,-0.6268847831044124,0.879280167320915,0.07101058775543102,0.9173357019846171,-0.3690964845431389,0.1312268699196718
2.4,-1.269374770312301,-1.3491745737402074,-1.601572959143827,-0.9351401939981367,1.5582522580996176,0.44906951358805697,0.209439510239369,0.08755415918942662,0.15110729402741976,-0.03932957472902493,-0.008339018986429277,0.18744944321232107,4.9373728831038156e-11,-0.13953902156313,-0.20954630661796098,0.026375263096213963,0.015943172430716343,-0.05577220544439815,0.008475927405943696,-0.6187921769136652,0.8960378899286973,0.07005867026130852,0.9131220415028919,-0.37574281077871746,0.14183532772520796
2.5,-1.2484308175794916,-1.3410761224381527,-1.587448795972972,-0.9389489741012361,1.5574934183731577,0.46755187765309675,0.2094395102392503,0.07453945600918808,0.1315630622228702,-0.03686957309848233,-0.006852010874952721,0.18224761011994006,-6.913985595613053e-11,-0.12153712872367993,-0.18251279217225413,0.02297259728382741,0.013886347905735135,-0.04857704782334245,0.01894699802818885,-0.6113151301734938,0.9104431411801368,0.06887140256457354,0.9094639953676997,-0.3807639295345661,0.15215387278674525
2.6,-1.2274868650124704,-1.3342162159914097,-1.5751906039639605,-0.9425282033147744,1.5568775925034064,0.4855630419498178,0.20943951023935597,0.06234360970122515,0.11310818047719569,-0.03467012594799904,-0.0054236695417662776,0.17792648103846245,3.639961266958633e-11,-0.11940246653725323,-0.18085371452542848,0.021403369368548423,0.014026993127655167,-0.04162476869506385,0.029417865488477933,-0.6044866335980102,0.9227188235611447,0.06748425743661818,0.9063448457112663,-0.3843065225749729,0.16215237388697398
2.7,-1.2065429126818343,-1.3285455096057035,-1.5647338288500223,-0.9458943570900195,1.5564014999810643,0.5031601224842966,0.20943951023933136,0.051156379733393355,0.09612889568980529,-0.032685267610185094,-0.004102743079763598,0.17413297931839003,1.1809775791555172e-11,-0.11599744937422132,-0.17759245963705095,0.01966561866147292,0.013994887809716272,-0.03458190106299763,0.03996251815139777,-0.5983639702995879,0.932971807138853,0.06592200561034915,0.9037720149840773,-0.38644717808615425,0.1717818752289596
2.8,-1.185598960439543,-1.3239873912894704,-1.5559745035250787,-0.9490683649385137,1.5560584894490692,0.5204072100165039,0.20943951023923407,0.04008963425035632,0.07918567356617497,-0.03080906776541835,-0.0027675597435099625,0.17083369041543345,-8.53575141275688e-11,-0.10566988466896393,-0.16178092561613633,0.017914735784193437,0.012748885330459406,-0.03150298153219643,0.05064027531000108,-0.5929525513635627,0.9413474707356212,0.06421169956951785,0.9017326823988607,-0.38728499178827924,0.18101205006214885
2.9,-1.1646550083813123,-1.3204864048951968,-1.548835761629942,-0.9520642077689057,1.5558433535883756,0.5373444763584706,0.20943951023937907,0.029828454101185654,0.06338118125637365,-0.029116745987195363,-0.0015146201153575234,0.1680137368836779,5.94647211875483e-11,-0.10214163304505587,-0.15840030584712042,0.016305788220492824,0.01264256158774111,-0.025340736520549047,0.06151041758960138,-0.5882523444021053,0.9479549674306542,0.062369151489155006,0.9002173388738025,-0.3869004793305694,0.18980740456385695
3.0,-1.1437110564215178,-1.317994858071088,-1.5432595447599755,-0.9548974520611451,1.5557527019774562,0.5540239624837857,0.2094395102392635,0.019924636477712185,0.04802243190125534,-0.027535710438827174,-0.00028877693545605265,0.16555665815953177,-5.5943968342737956e-11,-0.09606553590737292,-0.14897755025433995,0.0153358061588062,0.01189049379613766,-0.023833292755576354,0.07262900390787615,-0.5842516555135924,0.9528798152891244,0.060415001273894424,0.8992170223719171,-0.38535867744486585,0.1981349641421277
3.1,-1.1227671045748309,-1.3164640559117098,-1.5391783865319977,-0.9575796353172263,1.5557816762433714,0.5704761727463874,0.20943951023940002,0.010606713884404298,0.03342219062529533,-0.02611563763546044,0.0008852578239366098,0.1635681705867989,8.039520146214186e-11,-0.09221602296565236,-0.14515024973891028,0.013758732533647875,0.011709653896588477,-0.01826426247727753,0.08404356169638667,-0.5809194736417038,0.9562101523518294,0.05836006394777009,0.8987158633565396,-0.3827304213123526,0.20596437674848278
3.2,-1.101823152799025,-1.3158551444931443,-1.5365472485246479,-0.9601237960820559,1.555927566824853,0.5867435150155885,0.20943951023924548,0.0015296534646104133,0.01913467805951807,-0.024761330188896175,0.0020378691867782737,0.16177037222951277,-7.396358839834623e-11,-0.08934292125575978,-0.14062791819406978,0.013330062601287426,0.01134482546764649,-0.017695217410436757,0.09579895583739743,-0.5782206377640409,0.9580071987464934,0.0562202415392137,0.8987010869456733,-0.37906953263908855,0.2132649295799026
3.3,-1.080879201098837,-1.316131295949222,-1.5353181152366648,-0.9625397291607959,1.556186941910149,0.6028523599648464,0.20943951023930713,-0.00713647753489542,0.0052903518645318936,-0.023555895801767073,0.003163452007083623,0.16043853155166254,-1.2391951166703058e-11,-0.08541113933381866,-0.13671075578738823,0.011766638224722249,0.011126143582163562,-0.01262642453637289,0.10793262003332484,-0.5761083362539323,0.9583289885725385,0.054004295287959136,0.8991560553453839,-0.37443169624733125,0.2200064296140597
3.4,-1.0599352494271748,-1.3172623045085976,-1.5354571407110449,-0.9648378320172664,1.5565576576547888,0.6188345568591629,0.2094395102392869,-0.01553000110664945,-0.008156389634376286,-0.022404744130021272,0.004258152814096146,0.1592179656708143,-3.2601644820711545e-11,-0.07991240067320764,-0.13028709337977093,0.009974384130123705,0.010672035149826387,-0.007766453159138282,0.12047765404906627,-0.57453175858325,0.9572153075876833,0.05172342559943151,0.9000655720354909,-0.3688621769768531,0.22615779375599981
3.5,-1.0389912978070528,-1.3192121806198485,-1.5369198359036482,-0.96702876983633,1.557036474411435,0.6347177826628778,0.20943951023929358,-0.023559839846670476,-0.02124802924112923,-0.021402487967139172,0.0053305110533900125,0.1584375690649904,-2.589280404769375e-11,-0.08062351794850015,-0.13144648043388213,0.010063143280659532,0.0107670024953103,-0.007835564567849822,0.13345561725301433,-0.5734252239870168,0.9547128457874228,0.04938720468310962,0.9014082747660195,-0.3624120960862644,0.23169268181644653
3.6,-1.0180473461934019,-1.321965239413509,-1.5396924624078634,-0.9691196638496941,1.557622596398402,0.6505236466344595,0.20943951023925328,-0.03144986514973248,-0.034160231285111226,-0.02044029820118502,0.006388888326477897,0.1577470647147033,-6.617358180573109e-11,-0.07461852895918708,-0.12408435657646458,0.008181583609848974,0.010199852112830407,-0.003432464888317874,0.1468904054538723,-0.5727333039851299,0.9508320982660902,0.04700256277933416,0.9031706711052956,-0.35511400971634205,0.2365745929946124
3.7,-0.9971033946066198,-1.3254800697364457,-1.543723504727259,-0.9711231420362385,1.558312040403043,0.666281340656603,0.2094395102392613,-0.038950574192378525,-0.04663328145593315,-0.01961787944052555,0.007414184912305298,0.15740203084164983,-5.818950739859056e-11,-0.07683456805657839,-0.1277694437701987,0.008424562255042749,0.010502769784784921,-0.003534403052099,0.16078325654767975,-0.5723711419205063,0.9456212179825684,0.044580382089297654,0.9053242461991979,-0.3470216571557382,0.24078323912081537
3.8,-0.9761594430233677,-1.3297532862213286,-1.5490169746058147,-0.9730441457780765,1.5591052575693365,0.6820060800359216,0.2094395102394092,-0.04633265392387986,-0.05898980569585834,-0.01885081547287278,0.008429928881440372,0.1571828727181022,8.954364585751649e-11,-0.07035854493271301,-0.11946018779382364,0.006424406041596197,0.00982053084976046,0.00043196568746104336,0.17514738037347044,-0.5722807235020653,0.9390659813795017,0.04212528442874032,0.9078568960313661,-0.33815722157346645,0.24427650365478168
3.9,-0.9552154914502549,-1.3347403728812821,-1.5555167002800925,-0.9748969201303184,1.559997636257579,0.6977265400014572,0.20943951023924645,-0.05353739906018088,-0.0712225800926841,-0.018192953541553963,0.009435555446589238,0.15722710618251842,-7.30210443932272e-11,-0.07366162622463693,-0.1250684150945899,0.00672600887777642,0.010281569543035987,0.0004522448019867048,0.189963752656169,-0.5723647932152311,0.9312153374192603,0.03964884136380543,0.9107346643792992,-0.3285764653310685,0.24703814868755436
4.0,-0.9342715398908364,-1.3404440230086005,-1.563235606108886,-0.9766858032410782,1.5609902024187032,0.7134550832008776,0.20943951023933258,-0.06039226588028311,-0.08297426272650846,-0.017635343649721212,0.010399929023736187,0.15743281664797446,1.3057293865670216e-11,-0.06675091380096965,-0.11581678199486321,0.004594213524311099,0.00948358398685472,0.004004958151778576,0.20523076882267827,-0.5725606326040668,0.9220419389212968,0.03715520739647914,0.9139441298970269,-0.3182971554410467,0.2490231692598686
4.1,-0.9133275883260102,-1.3468204927478267,-1.5721181691315544,-0.9784261264887524,1.562078108883303,0.7292185993634887,0.20943951023923837,-0.06726993426941805,-0.09490742401389397,-0.017161979685996604,0.01137706839288018,0.15784546678924397,-8.106057086540864e-11,-0.07073074892553971,-0.12272203124779041,0.004868130568609878,0.010049015955550168,0.004243742425506672,0.2209106157430493,-0.5727660565545452,0.911592094969977,0.03465625638682224,0.9174482577688697,-0.30737482452421316,0.2502166170717397
4.2,-0.8923836367981485,-1.3538718251883792,-1.582175972226592,-0.9801229894098735,1.5632620989351387,0.7450287243458721,0.2094395102394502,-0.07364178612618467,-0.10611066482795692,-0.01682574348350069,0.012289295367900967,0.15843726663741134,1.3051749774758058e-10,-0.06342746892292124,-0.11259527179488642,0.002602616389189383,0.009131174243417953,0.007415167931400213,0.23698216077322062,-0.5729116285067718,0.8998387170433219,0.03215689849591145,0.9212292438930558,-0.29582938634906547,0.25057451635728534
4.3,-0.8714396852469956,-1.3615591010834007,-1.5933605949780003,-0.9817923061723246,1.5645375423546741,0.7609102239893569,0.20943951023932234,-0.08020447389182268,-0.11776062698672787,-0.01655645701963936,0.013234076020571198,0.15920449623164717,2.7722494265506406e-12,-0.06775720500244681,-0.12028133936103926,0.002780278261784921,0.009754493684847133,0.007921347895261591,0.25339095129584294,-0.57289719766128,0.8868211514708803,0.029669258371230505,0.9252493352569562,-0.28371341144252643,0.250080192902008
4.4,-0.8504957337609548,-1.3698767895307975,-1.605671198968436,-0.9834411250840557,1.5659039080195172,0.7768750280121943,0.2094395102395035,-0.08610881825939398,-0.12843208448951898,-0.016462518389423822,0.014088679427002112,0.16016006392914311,1.8374468762817135e-10,-0.06007288421700756,-0.10930438781245232,0.0003869873556868618,0.008712673225486967,0.010739572873561275,0.2700918827192445,-0.5726458518374243,0.8725272967380956,0.027199720750691922,0.929483400896026,-0.2710557165694301,0.24869576024708256
4.5,-0.8295517822347793,-1.378794831434215,-1.6190732941864452,-0.9850853982495761,1.5673573249404777,0.7929459475143039,0.20943951023941101,-0.09233966452243539,-0.13976929337115387,-0.0164223795007403,0.014992370470089424,0.16127398791636022,9.137334232966736e-11,-0.06447546944359783,-0.11731502173015919,0.00041534865968662955,0.009351202353524825,0.01152664812549495,0.2870164944162454,-0.572065701005503,0.8569848912448094,0.024760748720298896,0.933895112568248,-0.25790311031948754,0.24639969507181578
4.6,-0.8086078308029029,-1.388292691069132,-1.6335412344522073,-0.9867352392703587,1.5688947930040813,0.8091353571469184,0.20943951023927543,-0.09775439935501731,-0.1498707538666423,-0.016601168403642678,0.015776714996280253,0.16258268987083907,-4.405104247825821e-11,-0.05635178830144232,-0.1054143942716783,-0.002107021260781183,0.008161634721337113,0.014012590500872559,0.3040922862648453,-0.5710733886914041,0.8402134499435701,0.022360484363087133,0.9384493752744792,-0.2443004056013307,0.24316679586039894
4.7,-0.7876638793390366,-1.3983520180127618,-1.6490594155850407,-0.9884060188112437,1.570513579101644,0.8254642888150059,0.20943951023946172,-0.10333453040682886,-0.16032759258582305,-0.016826458833802113,0.01658428325395741,0.16399463068166065,1.420223302306281e-10,-0.048484901885310426,-0.09376182884934822,-0.0045884115761026835,0.006918462725529182,0.016119694407856665,0.3212393139279907,-0.5695902126876016,0.8222264169045741,0.020011757450317986,0.9431126581574482,-0.2302870245799697,0.2389684705082372
4.8,-0.7667199279502879,-1.408932707874116,-1.6655702901379534,-0.9901120621820864,1.5722072864276502,0.8419459505216568,0.20943951023917,-0.10835263515186853,-0.17003178213957068,-0.01730135161449206,0.017300332359452403,0.16566299158168205,-1.4934362689105972e-10,-0.05180127623632827,-0.10017515165636628,-0.004902259586102774,0.007391686581018361,0.017222283666868607,0.33835823454067643,-0.5675315004829754,0.8030862840944828,0.01772471395128916,0.9478396208213429,-0.21592743363061678,0.23379741470404092
4.9,-0.7457759765630424,-1.4200245341518796,-1.6830708158222145,-0.991867579951217,1.5739738547161444,0.8585990858142162,0.20943951023918625,-0.11328890868016436,-0.17967373542495277,-0.017856911410365304,0.017998715007737184,0.16742738815339142,-1.331293020416718e-10,-0.04318030352986803,-0.087220276015046,-0.00750884870982474,0.005929668409852054,0.01912684301288834,0.3553578637110629,-0.564833373653717,0.7828016074814913,0.015512234853146211,0.9525980104759093,-0.2012580791226549,0.22762158639957497
5.0,-0.7248320252301725,-1.4315716452389726,-1.7014789742375778,-0.9936912185441897,1.5758036929746646,0.8754384860935966,0.20943951023929605,-0.11775128675981791,-0.18868733226965817,-0.018632897662006837,0.018611504177234322,0.16940401171440514,-2.3455906567555283e-11,-0.04599905363542935,-0.09291389419111594,-0.007999015899920843,0.006316748910666592,0.02037541676562021,0.37211966141512187,-0.5614203533774874,0.7614730754902558,0.013386592494432274,0.9573363333989662,-0.18635868444872886,0.22045041307774965
5.1,-0.7038880739301541,-1.4435602773463785,-1.720784461336412,-0.9955966038366525,1.5776937131190636,0.892480275742279,0.20943951023939014,-0.12179222149723277,-0.19708222518928742,-0.019545821518742575,0.019147407764888155,0.17148237697673752,7.05346436277117e-11,-0.03616686657434646,-0.07795736823645004,-0.010721640749455428,0.004565718194550491,0.022101322081735778,0.3885402813550424,-0.5572432567118419,0.7391283474558517,0.011360448269800257,0.9620198159894424,-0.17127336399789655,0.21225986112214595
5.2,-0.6829441226634618,-1.4559227908213777,-1.7408877666466729,-0.9976055225466833,1.5796315926624924,0.9097405216137586,0.20943951023937976,-0.12551913712305407,-0.20511555960363387,-0.020650662890120207,0.019617894928675116,0.17375986934192406,6.014063510510247e-11,-0.03831186937333085,-0.0825809032306641,-0.011357525238151568,0.0048365041161666416,0.023412118453504386,0.40449239162005873,-0.5522459016509244,0.7159006829849108,0.009447568567895338,0.966595105951062,-0.1560928492187296,0.20307552049025732
5.3,-0.6620001714584323,-1.4686292427991596,-1.7617510063740496,-0.9997326336935025,1.5816111907961552,0.9272333939145847,0.20943951023944102,-0.12841929754191878,-0.2118803698710091,-0.02195910889350557,0.01993701096507448,0.17615265563930327,1.2136150226125482e-10,-0.02675488928490556,-0.06481837643101317,-0.014177286474392002,0.0027232918009245273,0.0249873106403653,0.4198645945747171,-0.5463970980012184,0.6918607650367424,0.0076603613250535475,0.9710232745811931,-0.14087807677181544,0.19289501437585416
5.4,-0.6410562202683958,-1.481606710152198,-1.783267415314295,-1.0020003725375761,1.5836186870178632,0.9449752530107014,0.20943951023914403,-0.1311298830100017,-0.21847054965834328,-0.023415138536280904,0.0202107324438543,0.17871197696816454,-1.7531583649127045e-10,-0.013674750541366288,-0.04477672618033809,-0.01708942826259328,0.0003028182708930973,0.026665510512208307,0.43453483288539796,-0.5396692966033942,0.6671627116841616,0.0060128294618549466,0.9752544779717994,-0.12572430004562574,0.18175794193336622
5.5,-0.6201122691536369,-1.4947878118601585,-1.805337501340218,-1.0044270081151667,1.5856412685959986,0.9629792705569761,0.20943951023941246,-0.13252386394653168,-0.2230350133578527,-0.025157205930918036,0.020241601227608978,0.18143021399291526,9.283126446625406e-11,-0.014176814018952915,-0.046420687071074704,-0.0177168602028916,0.00031393615593775155,0.027644524902223515,0.4483926385660346,-0.5320542032266496,0.6419572321788152,0.004516960253495317,0.9792443646053027,-0.11072305275714434,0.16970703299204729
5.6,-0.5991683180538794,-1.508101666883347,-1.8278567526072713,-1.0070315734357567,1.587665460652265,0.9812594364010292,0.20943951023939766,-0.13340063356366294,-0.2268386028548652,-0.02702777942153503,0.020175376381233436,0.1842533176527657,7.807725039766049e-11,0.0022619069209909057,-0.020921746548871977,-0.020708069605126066,-0.002651209704492491,0.029406781351230715,0.46133856645371024,-0.52356018653478,0.6164044804487051,0.0031846373565210385,0.9829525792204546,-0.09596673913439419,0.15679435598475577
5.7,-0.5782243669915181,-1.521430566279031,-1.8506438753894394,-1.0098365592033178,1.589669912846169,0.9998299098323349,0.20943951023943766,-0.13317407904428497,-0.22893414271427812,-0.029101917224567418,0.019909828969287408,0.18719872579157104,1.1800437117979058e-10,0.0023100212641344827,-0.02136678550539846,-0.021148563275712937,-0.002707605159364228,0.03003231052203542,0.47328379231953577,-0.5142109009643977,0.5907521413740041,0.0020271710699118635,0.9863342910559921,-0.08158114861501271,0.14312607398787255
5.8,-0.5572804159372748,-1.534690313350733,-1.8735674302433645,-1.012855818515372,1.591639832198726,1.018699753873526,0.20943951023945054,-0.13152145341365343,-0.22877565749024495,-0.03137699307221465,0.019400641130110974,0.19027873089282332,1.308597110786041e-10,0.023536818382443574,0.012639967328988448,-0.023759932441573196,-0.006291987051968095,0.03149231682157778,0.4841686744223489,-0.5040529558046859,0.5651895229799206,0.0010519321549988905,0.989360426246517,-0.06766401974608101,0.1287882791555717
5.9,-0.5363364648839726,-1.547727110781632,-1.8963828570072883,-1.0161097966919879,1.5935490806476202,1.0378817381773597,0.2094395102391449,-0.12912473126225688,-0.2273607558383192,-0.03368927306359415,0.018772963754112113,0.1933374238186267,-1.744298561286652e-10,0.05225749997795098,0.05996077724301307,-0.026005073037986614,-0.010718156482430245,0.03294783655418368,0.49395725850014355,-0.4931508067302669,0.5400269011784266,0.0002666901048811916,0.9919986595167756,-0.05435726393033486,0.11394681325651976
6.0,-0.5153925137413283,-1.560383265374952,-1.9188248301924582,-1.0196062766959413,1.5953738053849649,1.057377087014363,0.20943951023931004,-0.12396058200224255,-0.22143535942217743,-0.036259125796077776,0.017713782585393224,0.19659336884135817,-9.481121982782511e-12,0.05093688755358819,0.05844549330097976,-0.025347892372245908,-0.010447295260336208,0.03211520370110557,0.5026569942468739,-0.4815927857853844,0.5155828867749012,-0.00032881262270482054,0.9942293849845864,-0.041800296760279194,0.0987955318128446
6.1,-0.4944485624502319,-1.5724991455760151,-1.9406243977126523,-1.0233530147144176,1.5970905410906473,1.0771890316525123,0.20943951023923452,-0.11728186581747088,-0.2127348833762311,-0.03872478904510081,0.016474148428905495,0.19969537624805622,-8.491579318085592e-11,0.08922795194819337,0.12508509074449925,-0.025624751646694297,-0.015451234994805739,0.03198591743702843,0.5103165208302435,-0.46948450761684535,0.49216517269216514,-0.0007358746239503404,0.9960486553416751,-0.030119341674666344,0.08354256362874865
6.2,-0.47350461099332075,-1.5837985327905344,-1.9612967694980337,-1.0273486376609087,1.5986637025146024,1.0973122832816449,0.20943951023923152,-0.10869867801323294,-0.20070245629748548,-0.041189734740594924,0.014987833334973864,0.20277222751831192,-8.788333278888782e-11,0.08415730171182861,0.11797674934544554,-0.024168547056111777,-0.014573171488017978,0.030168220212428605,0.5170560366999847,-0.45696107359099053,0.47028557996644305,-0.0009638908407105838,0.9974560971471038,-0.01950830748566516,0.06855531429115641
6.3,-0.45256065873055096,-1.5940654991492464,-1.980429380689282,-1.0315691353953391,1.6000723152328429,1.1177217810979916,0.2094395102394523,-0.0958284976017872,-0.18058191361238665,-0.04327579611892088,0.013079085418554254,0.20550084334231994,1.3260235651439718e-10,0.1330044818069049,0.20895486293302762,-0.020765632249625403,-0.01956814694293096,0.02727066194971376,0.5230525399045011,-0.44416767622589365,0.4503417584713447,-0.00103435088334597,0.9984799930392383,-0.010101507490247076,0.05417188537458678
6.4,-0.4323557364445123,-1.6026956209848084,-1.9968693052900677,-1.0358291773875252,1.6012463064369407,1.1376616566512776,0.18867751349938675,-0.0734174823143359,-0.14150014435350203,-0.04037894014311098,0.010036151272421894,0.187136467247173,-0.27720783151068584,0.27815889711537295,0.5005881446821785,0.05021900123796235,-0.035498891722326606,-0.2579978597233272,0.5283732093380208,-0.4317223262167232,0.43345663913710103,-0.0009750889231191537,0.9991429491042411,-0.0023278572726952644,0.04131582671797983
6.5,-0.4152930523647783,-1.6086732472731766,-2.008528215954527,-1.0395161546704559,1.6020732597336371,1.1546508290691013,0.14822434932032105,-0.04636495580415336,-0.0917200554174199,-0.032326424850817326,0.0065058223867809906,0.14813932113246692,-0.4997038397959449,0.24942943553169641,0.4692659063641567,0.10400140711597917,-0.03328151702113225,-0.4901507345928841,0.5327865614997686,-0.4212711541161905,0.4216156064334311,-0.0008612389330533014,0.9994901051917008,0.0030617925855759517,0.03177126559559864
6.6,-0.4029574366202521,-1.6122896127829287,-2.015745031428164,-1.0422193978438485,1.6025851685297363,1.1670034745178557,0.09829619875558326,-0.028132607239951306,-0.056330853831455474,-0.021577354853696627,0.003995736193581099,0.09850000000002532,-0.49896547589124607,0.1428051128858764,0.2859434204496708,0.10952972006394479,-0.02028292483947921,-0.4999999999746453,0.5359912579418139,-0.4137703968549293,0.41434305527660165,-0.0007523787984120306,0.9996515763972676,0.006347049082076048,0.02561005077213061
6.7,-0.3956121195196678,-1.6143918601094753,-2.019954431071049,-1.0438317950229736,1.60288375534961,1.1743640209435295,0.04839965116392461,-0.013852095950638205,-0.027736511785035944,-0.010624382846745776,0.0019674437095301037,0.04850000000002046,-0.49896547589729495,0.1428051128876098,0.28594342045314164,0.10952972006527387,-0.020282924839726008,-0.4999999999807168,0.5378337535343838,-0.40929078886569853,0.4101215287666171,-0.0006843902192203032,0.999724830012996,0.008201893611214936,0.02196644729365003
6.797210928,-0.39325451647205073,-1.6150666117418477,-2.021305508674753,-1.0443493210128554,1.6029795918107015,1.1767265120991415,-8.329320915556246e-17,2.3838715724451725e-17,4.7733052238994455e-17,1.8283994229742882e-17,-3.385865320488777e-18,-8.346590413150639e-17,-0.49896547619033393,0.1428051129714782,0.2859434206210725,0.10952972012959981,-0.02028292485163777,-0.5000000002743636,0.538411850701524,-0.40784969846296965,0.40876975712718094,-0.0006623148698528416,0.9997450102709371,0.008785921549975687,0.020791425153045207
