mathias31415/primitives_from_planned_trajectory_python/data/saved_trajectories/trajectory_20250617_162303_planned.csv
time_from_start,shoulder_pan_joint_pos,shoulder_lift_joint_pos,elbow_joint_pos,wrist_1_joint_pos,wrist_2_joint_pos,wrist_3_joint_pos,shoulder_pan_joint_vel,shoulder_lift_joint_vel,elbow_joint_vel,wrist_1_joint_vel,wrist_2_joint_vel,wrist_3_joint_vel,shoulder_pan_joint_acc,shoulder_lift_joint_acc,elbow_joint_acc,wrist_1_joint_acc,wrist_2_joint_acc,wrist_3_joint_acc,fk_x,fk_y,fk_z,fk_qx,fk_qy,fk_qz,fk_qw
0.0,-1.6006999999999998,-1.7271,-2.2029999999999994,-0.8079999999999998,1.5951,-0.030999999999999694,-3.442698537481438e-05,-4.964096413966037e-05,0.0005,-0.00027738643591601717,-4.565072926441719e-05,0.00017332575392579996,-0.03442698537481438,-0.04964096413966037,0.5,-0.27738643591601714,-0.04565072926441719,0.17332575392579996,-0.18963153692348156,-0.6096838816511918,0.2609711486943511,-0.0003918678270918309,0.9998434779226772,0.01247829832752396,0.012536274005463676
0.1,-1.600872134926874,-1.7273482048206983,-2.2004999999999995,-0.8093869321795799,1.594871746353678,-0.030133371230370697,-0.003442698537481404,-0.004964096413965988,0.0499999999999995,-0.02773864359160144,-0.004565072926441673,0.017332575392579826,-0.03442698537478537,-0.049640964139618896,0.4999999999995767,-0.27738643591577994,-0.04565072926437839,0.17332575392565286,-0.1897981107893595,-0.61081532256601,0.2619561363475609,0.0001207606048452049,0.999850391679757,0.012053931481312397,0.012404934927548935
0.2,-1.601388539707496,-1.7280928192827931,-2.192999999999999,-0.8135477287183202,1.5941869854147115,-0.027533484921483695,-0.006885397074962914,-0.009928192827932126,0.10000000000000053,-0.05547728718320373,-0.009130145852883487,0.03466515078516018,-0.034426985374832644,-0.049640964139684815,0.5000000000002498,-0.2773864359161616,-0.045650729264441706,0.17332575392588878,-0.19029981080932512,-0.6141965586553554,0.26492373529410007,0.0016592779574217472,0.9998683554357478,0.010780272603778155,0.01201267320213865
0.30000000000000004,-1.6022492143418665,-1.7293338433862848,-2.1804999999999994,-0.8204823896162206,1.5930457171831012,-0.023200341073338706,-0.010328095612444445,-0.014892289241898296,0.15000000000000188,-0.08321593077480618,-0.013695218779325327,0.05199772617774064,-0.03442698537497142,-0.04964096413988604,0.500000000002276,-0.27738643591727874,-0.04565072926462385,0.1733257539265896,-0.19114249643131045,-0.6197880443306821,0.2699115709549492,0.004225553710469951,0.9998890270399664,0.008655661479511806,0.011364762437520968
0.4,-1.6034541588299849,-1.7310712771311727,-2.1629999999999994,-0.8301909148732811,1.5914479416588467,-0.017133939685935743,-0.01377079414992598,-0.019856385655864475,0.20000000000000331,-0.1109545743664087,-0.01826029170576718,0.06933030157032113,-0.03442698537512234,-0.04964096414010462,0.5000000000044964,-0.2773864359185,-0.045650729264826814,0.1733257539273529,-0.19233567823786216,-0.6275229274769877,0.2769814018518202,0.007822614523374996,0.9998984712607035,0.00567738052062289,0.010470015422668935
0.5,-1.6050033731718516,-1.7333051205174577,-2.1405,-0.8426733044895018,1.5893936588419477,-0.009334280759274787,-0.01721349268740739,-0.02482048206983047,0.2500000000000029,-0.13869321795801015,-0.022825364632208855,0.08666287696290098,-0.03442698537501132,-0.04964096413994849,0.5000000000028866,-0.27738643591759793,-0.0456507292646811,0.17332575392679778,-0.19389212683352675,-0.6373056680851112,0.28621766369867746,0.012454509928831637,0.999877113610371,0.0018417292714537439,0.009340818696264597
0.6000000000000001,-1.6068968573674665,-1.736035373545139,-2.1129999999999995,-0.8579295584648827,1.5868828687324048,0.00019863570664423527,-0.02065619122488797,-0.02978457848379527,0.29999999999999044,-0.166431861549605,-0.02739043755864944,0.10399545235547666,-0.034426985374050284,-0.049640964138560714,0.49999999998889777,-0.2773864359098819,-0.04565072926340434,0.17332575392195443,-0.19582730910733934,-0.6490101712989171,0.29772537216845574,0.018126123136719918,0.9997996783059349,-0.00285587059803513,0.007993179749555325
0.7000000000000001,-1.6090461607405078,-1.7391344974011727,-2.0817846125700274,-0.8752470085947577,1.5840328583315058,0.0110194968274158,-0.02163111286775219,-0.031190337651654514,0.31415926535898175,-0.17428703785584443,-0.028683199137622142,0.10890378304224192,-1.6986772420583183e-13,-2.4266817743690263e-13,2.440548527365421e-12,-1.3589417936466546e-12,-2.2186804794231096e-13,8.458719327800606e-13,-0.19806561103367445,-0.6619528080887076,0.311071750571001,0.024577157584283207,0.9996431235287871,-0.00820051483020132,0.006506954987313627
0.8,-1.611209272027283,-1.742253531166338,-2.0503686860341297,-0.8926757123803422,1.5811645384177435,0.021909875131639937,-0.02163111286775219,-0.031190337651654514,0.31415926535898175,-0.17428703785584443,-0.028683199137622142,0.10890378304224192,-1.6986772420583183e-13,-2.4266817743690263e-13,2.440548527365421e-12,-1.3589417936466546e-12,-2.2186804794231096e-13,8.458719327800606e-13,-0.2003604322902418,-0.6746019915454942,0.3247990290127763,0.031082905426486146,0.9994115859365407,-0.01359230504750539,0.005058075676789944
0.9,-1.6133723833140583,-1.7453725649315035,-2.018952759498232,-0.9101044161659264,1.5782962185039815,0.03280025343586409,-0.02163111286775219,-0.031190337651654514,0.31415926535898175,-0.17428703785584443,-0.028683199137622142,0.10890378304224192,-1.6986772420583183e-13,-2.4266817743690263e-13,2.440548527365421e-12,-1.3589417936466546e-12,-2.2186804794231096e-13,8.458719327800606e-13,-0.20269475625577765,-0.6868651184747313,0.3388120908572724,0.03760106472475648,0.9991055626495882,-0.01899644612022017,0.003656453064951802
1.0,-1.6155354946008336,-1.7484915986966687,-1.9875368329623337,-0.9275331199515109,1.5754278985902193,0.04369063174008825,-0.02163111286775219,-0.031190337651654514,0.31415926535898175,-0.17428703785584443,-0.028683199137622142,0.10890378304224192,-1.6986772420583183e-13,-2.4266817743690263e-13,2.440548527365421e-12,-1.3589417936466546e-12,-2.2186804794231096e-13,8.458719327800606e-13,-0.20506574748074805,-0.6987342281672635,0.35310037054997695,0.044130728458058745,0.9987247925753104,-0.024412434058794733,0.0023022954826007894
1.1,-1.6176986058876086,-1.751610632461834,-1.956120906426439,-0.9449618237370934,1.5725595786764572,0.05458101004431121,-0.02163111286774739,-0.031190337651647592,0.31415926535891203,-0.17428703785580574,-0.02868319913761578,0.10890378304221776,4.628028812546129e-12,6.6733748795140816e-12,-6.722601852651276e-11,3.730156556029689e-11,6.136038200903857e-12,-2.3296145033940068e-11,-0.20747051626810198,-0.7102016728065175,0.3676530866413616,0.050670985253936214,0.9982690259724981,-0.029839762191198067,0.000995806049348232
1.2,-1.6198617171743834,-1.754729666226999,-1.9247049798905445,-0.9623905275226758,1.5696912587626954,0.06547138834853417,-0.02163111286774739,-0.031190337651647592,0.31415926535891203,-0.17428703785580574,-0.02868319913761578,0.10890378304221776,4.628028812546129e-12,6.6733748795140816e-12,-6.722601852651276e-11,3.730156556029689e-11,6.136038200903857e-12,-2.3296145033940068e-11,-0.2099061222555807,-0.7212601236316388,0.382459250312299,0.0572209195326975,0.9977380245181497,-0.03527792121834405,-0.0002628173599267812
1.3,-1.6220248284611587,-1.757848699992164,-1.89328905335465,-0.9798192313082582,1.5668229388489336,0.0763617666527571,-0.02163111286774716,-0.0311903376516476,0.31415926535891203,-0.17428703785580577,-0.028683199137615547,0.10890378304221777,4.628028812546129e-12,6.6733748795140816e-12,-6.722601852651276e-11,3.730156556029689e-11,6.1395048891529555e-12,-2.331001178693646e-11,-0.2123695780633502,-0.731902576832619,0.3975076740641602,0.06377961165258124,0.9971315613724197,-0.04072639926991465,-0.0014733821480228193
1.4,-1.6241879397479335,-1.7609677337573293,-1.8618731268187554,-0.9972479350938407,1.5639546189351716,0.08725214495698005,-0.02163111286774716,-0.0311903376516476,0.31415926535891203,-0.17428703785580577,-0.028683199137615547,0.10890378304221777,4.628028812546129e-12,6.6733748795140816e-12,-6.722601852651276e-11,3.730156556029689e-11,6.1395048891529555e-12,-2.331001178693646e-11,-0.21485785300289814,-0.7421223591724898,0.41278698056665963,0.07034613805587955,0.9964494212416981,-0.046184681960582445,-0.002635701027760796
1.5,-1.6263510510347086,-1.7640867675224943,-1.830457200282861,-1.014676638879423,1.5610862990214098,0.09814252326120299,-0.02163111286774716,-0.0311903376516476,0.31415926535891203,-0.17428703785580577,-0.028683199137615547,0.10890378304221777,4.628028812546129e-12,6.6733748795140816e-12,-6.722601852651276e-11,3.730156556029689e-11,6.1395048891529555e-12,-2.331001178693646e-11,-0.21736787684307224,-0.751913133331865,0.4282856116563778,0.07691957141599703,0.9956914004398152,-0.05165225244662296,-0.0037495920537232784
1.6,-1.6285141623214834,-1.7672058012876595,-1.7990412737469663,-1.0321053426650055,1.5582179791076478,0.10903290156542593,-0.02163111286774716,-0.0311903376516476,0.31415926535891203,-0.17428703785580577,-0.028683199137615547,0.10890378304221777,4.628028812546129e-12,6.6733748795140816e-12,-6.722601852651276e-11,3.730156556029689e-11,6.1395048891529555e-12,-2.331001178693646e-11,-0.2198965436290614,-0.7612689029713653,0.44399183747876503,0.08349898078541608,0.9948573069473474,-0.05712859148291047,-0.0048148786533848825
1.7000000000000002,-1.6306772736082582,-1.7703248350528247,-1.7676253472110717,-1.049534046450588,1.5553496591938862,0.11992327986964889,-0.02163111286774716,-0.0311903376516476,0.31415926535891203,-0.17428703785580577,-0.028683199137615547,0.10890378304221777,4.628028812546129e-12,6.6733748795140816e-12,-6.722601852651276e-11,3.730156556029689e-11,6.1395048891529555e-12,-2.331001178693646e-11,-0.22244071555007172,-0.770184017507698,0.4598937657663225,0.09008343174454866,0.9939469604690222,-0.06261317748029062,-0.00583138965762657
1.8,-1.6328403848950332,-1.7734438688179894,-1.7362094206751773,-1.0669627502361705,1.5524813392801242,0.1308136581738718,-0.02163111286774716,-0.0311903376516476,0.31415926535891203,-0.17428703785580577,-0.028683199137615547,0.10890378304221777,4.628028812546129e-12,6.6733748795140816e-12,-6.722601852651276e-11,3.730156556029689e-11,6.1395048891529555e-12,-2.331001178693646e-11,-0.224997226851385,-0.7786531765994105,0.47597935124554863,0.09667198655144711,0.9929601924892005,-0.06810548656332328,-0.006798959330633333
1.9,-1.635003496181808,-1.7765629025831546,-1.7047934941392824,-1.084391454021753,1.5496130193663622,0.14170403647809476,-0.02163111286774716,-0.0311903376516476,0.31415926535891203,-0.17428703785580577,-0.028683199137615547,0.10890378304221777,4.628028812546129e-12,6.6733748795140816e-12,-6.722601852651276e-11,3.730156556029689e-11,6.1395048891529555e-12,-2.331001178693646e-11,-0.2275628877864385,-0.7866714343385903,0.4922364051651294,0.10326370429234924,0.9918968463254311,-0.07360499262838861,-0.007717427399165856
2.0,-1.6371666074685831,-1.7796819363483198,-1.6733775676033882,-1.1018201578073352,1.5467446994526006,0.1525944147823177,-0.02163111286774716,-0.0311903376516476,0.31415926535891203,-0.17428703785580577,-0.028683199137615547,0.10890378304221777,4.628028812546129e-12,6.6733748795140816e-12,-6.722601852651276e-11,3.730156556029689e-11,6.1395048891529555e-12,-2.331001178693646e-11,-0.23013448860452057,-0.7942342031450274,0.5086526049377637,0.10985764103303462,0.990756777180058,-0.07911116740214985,-0.008586639081206765
2.1,-1.6393297187553584,-1.7828009701134855,-1.6419616410674864,-1.1192488615929215,1.5438763795388382,0.16348479308654304,-0.021631112867756756,-0.03119033765166144,0.3141592653590515,-0.1742870378558831,-0.028683199137628276,0.1089037830422661,-4.96083088446066e-12,-7.155244546140323e-12,7.210711558125906e-11,-3.9963982135613193e-11,-6.579774296789889e-12,2.4974022146509148e-11,-0.23270880356962712,-0.8013372573596237,0.5252155038879185,0.11645284997096492,0.989539852189876,-0.08462348050036834,-0.009406445113974994
2.2,-1.641492830042134,-1.7859200038786516,-1.6105457145315851,-1.136677565378508,1.5410080596250755,0.17437517139076836,-0.021631112867756982,-0.03119033765166166,0.3141592653590511,-0.17428703785588326,-0.0286831991376285,0.1089037830422661,-4.936564066716966e-12,-7.117110975400233e-12,7.171884649735998e-11,-3.976984759366365e-11,-6.545107414298899e-12,2.4849221369541584e-11,-0.23528259500599177,-0.8079767365340761,0.5419125410977044,0.12304838158817931,0.9882459504738179,-0.09014139948705337,-0.010176701781302259
2.3,-1.6436559413289094,-1.7890390376438172,-1.5791297879956836,-1.1541062691640942,1.538139739711313,0.18526554969499373,-0.021631112867756982,-0.03119033765166166,0.3141592653590511,-0.17428703785588326,-0.0286831991376285,0.1089037830422661,-4.936564066716966e-12,-7.117110975400233e-12,7.171884649735998e-11,-3.976984759366365e-11,-6.545107414298899e-12,2.4849221369541584e-11,-0.23785261736576735,-0.8141491484141429,0.5587310513430497,0.12964328380492945,0.9868749631786642,-0.0956643899339602,-0.010897270940371203
2.4,-1.645819052615685,-1.792158071408983,-1.547713861459782,-1.1715349729496807,1.5352714197975503,0.1961559279992191,-0.021631112867756982,-0.03119033765166166,0.3141592653590511,-0.17428703785588326,-0.0286831991376285,0.1089037830422661,-4.936564066716966e-12,-7.117110975400233e-12,7.171884649735998e-11,-3.976984759366365e-11,-6.545107414298899e-12,2.4849221369541584e-11,-0.24041562131431105,-0.8198513716140423,0.5756582751121829,0.1362366021340195,0.9854267935227642,-0.10119191548040633,-0.011568020047809876
2.5,-1.6479821639024603,-1.795277105174149,-1.5162979349238805,-1.188963676735267,1.5324030998837879,0.20704630630344445,-0.021631112867756982,-0.03119033765166166,0.3141592653590511,-0.17428703785588326,-0.0286831991376285,0.1089037830422661,-4.936564066716966e-12,-7.117110975400233e-12,7.171884649735998e-11,-3.976984759366365e-11,-6.545107414298899e-12,2.4849221369541584e-11,-0.24296835782848994,-0.8250806579798163,0.5926813686984492,0.14282737983582544,0.9839013568377585,-0.10672343789341622,-0.012188822185136155
2.6,-1.650145275189236,-1.7983961389393146,-1.4848820083879792,-1.2063923805208532,1.5295347799700256,0.21793668460766985,-0.021631112867756982,-0.03119033765166166,0.3141592653590511,-0.17428703785588326,-0.0286831991376285,0.1089037830422661,-4.936564066716966e-12,-7.117110975400233e-12,7.171884649735998e-11,-3.976984759366365e-11,-6.545107414298899e-12,2.4849221369541584e-11,-0.24550758230342493,-0.8298346346397442,0.6097874143593837,0.1494146580739737,0.9822985806082916,-0.11225841712817712,-0.012759556083552535
2.7,-1.6523083864760113,-1.8015151727044805,-1.4534660818520777,-1.2238210843064397,1.526666460056263,0.2288270629118952,-0.021631112867756982,-0.03119033765166166,0.3141592653590511,-0.17428703785588326,-0.0286831991376285,0.1089037830422661,-4.936564066716966e-12,-7.117110975400233e-12,7.171884649735998e-11,-3.976984759366365e-11,-6.545107414298899e-12,2.4849221369541584e-11,-0.24803005866305425,-0.8341113057401783,0.626963430533929,0.15599747607164535,0.9806184045097072,-0.11779631138880443,-0.013280106148084237
2.8,-1.6544714977627866,-1.8046342064696463,-1.422050155316176,-1.241249788092026,1.5237981401425005,0.23971744121612057,-0.021631112867756982,-0.03119033765166166,0.3141592653590511,-0.17428703785588326,-0.0286831991376285,0.1089037830422661,-4.936564066716966e-12,-7.117110975400233e-12,7.171884649735998e-11,-3.976984759366365e-11,-6.545107414298899e-12,2.4849221369541584e-11,-0.2505325634699089,-0.8379090538654228,0.6441963821096304,0.16257487126848683,0.9788607804437134,-0.12333657718940758,-0.013750362481057264
2.9,-1.6566346090495623,-1.807753240234812,-1.3906342287802744,-1.2586784918776122,1.520929820228738,0.25060781952034594,-0.021631112867756982,-0.03119033765166166,0.3141592653590511,-0.17428703785588326,-0.0286831991376285,0.1089037830422661,-4.936564066716966e-12,-7.117110975400233e-12,7.171884649735998e-11,-3.976984759366365e-11,-6.545107414298899e-12,2.4849221369541584e-11,-0.25301189002947183,-0.841226641140565,0.6614731907316043,0.1691458794780945,0.9770256725720117,-0.12887866941544757,-0.014170220904915484
3.0,-1.658797720336337,-1.8108722739999776,-1.359218302244377,-1.2761071956631964,1.5180615003149758,0.2614981978245699,-0.021631112867744304,-0.031190337651643377,0.3141592653588669,-0.1742870378557811,-0.028683199137611685,0.10890378304220226,7.730714795490755e-12,1.1152336097351462e-11,-1.1232069927080739e-10,6.23171879658035e-11,1.0254463840834823e-11,-3.8937842413879895e-11,-0.25546485248450107,-0.8440632100164303,0.6787807451450446,0.17570953504604858,0.9751130573478795,-0.13442204138538144,-0.014539582984369543
3.1,-1.6609608316231121,-1.8139913077651424,-1.3278023757084845,-1.2935358994487778,1.515193180401214,0.2723885761287921,-0.021631112867744304,-0.031190337651643377,0.3141592653588669,-0.1742870378557811,-0.028683199137611685,0.10890378304220226,7.730714795490755e-12,1.1152336097351462e-11,-1.1232069927080739e-10,6.23171879658035e-11,1.0254463840834823e-11,-3.8937842413879895e-11,-0.25788828989470663,-0.8464182837361091,0.6961059115630082,0.18226487100847433,0.9731229235456984,-0.13996614491258783,-0.014858356047876612
3.2,-1.6631239429098872,-1.8171103415303071,-1.2963864491725923,-1.310964603234359,1.5123248604874524,0.2832789544330143,-0.021631112867744304,-0.031190337651643144,0.31415926535886723,-0.1742870378557809,-0.02868319913761169,0.1089037830422022,7.709914665996162e-12,1.1117669214860472e-11,-1.1198789719889389e-10,6.212305342385396e-11,1.0223263646592932e-11,-3.882690838990873e-11,-0.260279070297164,-0.8482917664827768,0.7134355440511859,0.18881091925109528,0.9710552722884194,-0.14551043036756067,-0.015126453208446638
3.3,-1.6652870541966618,-1.8202293752954721,-1.2649705226366996,-1.32839330701994,1.5094565405736908,0.2941693327372365,-0.021631112867744304,-0.031190337651643144,0.31415926535886723,-0.1742870378557809,-0.02868319913761169,0.1089037830422022,7.709914665996162e-12,1.1117669214860472e-11,-1.1198789719889389e-10,6.212305342385396e-11,1.0223263646592932e-11,-3.882690838990873e-11,-0.2626340947428836,-0.8496839432087981,0.730756494921364,0.1953467106687554,0.9689101170729587,-0.15105434674036705,-0.015343793383772324
3.4,-1.6674501654834366,-1.823348409060637,-1.2335545961008074,-1.3458220108055214,1.5065882206599288,0.3050597110414587,-0.021631112867744304,-0.031190337651643144,0.31415926535886723,-0.1742870378557809,-0.02868319913761169,0.1089037830422022,7.709914665996162e-12,1.1117669214860472e-11,-1.1198789719889389e-10,6.212305342385396e-11,1.0223263646592932e-11,-3.882690838990873e-11,-0.2649503013049605,-0.8505954791463848,0.7480556251252778,0.20187127532538612,0.9666874837935159,-0.15659734170336256,-0.015510301315679154
3.5,-1.6696132767702112,-1.8264674428258019,-1.2021386695649152,-1.3632507145911024,1.5037199007461672,0.3159500893456808,-0.021631112867744304,-0.031190337651643144,0.31415926535886723,-0.1742870378557809,-0.02868319913761169,0.1089037830422022,7.709914665996162e-12,1.1117669214860472e-11,-1.1198789719889389e-10,6.212305342385396e-11,1.0223263646592932e-11,-3.882690838990873e-11,-0.26722466905375514,-0.851027419000345,0.7653198146405545,0.2083836426143853,0.9643874107628075,-0.16213886167415698,-0.01562590758889127
3.6,-1.6717763880569863,-1.8295864765909666,-1.1707227430290228,-1.3806794183766837,1.5008515808324057,0.32684046764990293,-0.021631112867744304,-0.031190337651643144,0.31415926535886723,-0.1742870378557809,-0.02868319913761169,0.1089037830422022,7.709914665996162e-12,1.1117669214860472e-11,-1.1198789719889389e-10,6.212305342385396e-11,1.0223263646592932e-11,-3.882690838990873e-11,-0.26945422199459473,-0.8509811858237375,0.7825359728404381,0.21488284141938635,0.9620099487312093,-0.16767835187881827,-0.01569054864911423
3.7,-1.673939499343761,-1.8327055103561318,-1.1393068164931306,-1.3981081221622649,1.4979832609186439,0.3377308459541251,-0.021631112867744304,-0.031190337651643144,0.31415926535886723,-0.1742870378557809,-0.02868319913761169,0.1089037830422022,7.709914665996162e-12,1.1117669214860472e-11,-1.1198789719889389e-10,6.212305342385396e-11,1.0223263646592932e-11,-3.882690838990873e-11,-0.27163603296350247,-0.8504585795775147,0.7996910488390202,0.2213679002753849,0.9595551609038014,-0.17321525641531424,-0.01570416682042602
3.8,-1.676102610630536,-1.8358245441212966,-1.1078908899572382,-1.4155368259478462,1.4951149410048823,0.34862122425834735,-0.021631112867744304,-0.031190337651643144,0.31415926535886723,-0.1742870378557809,-0.02868319913761169,0.1089037830422022,7.709914665996162e-12,1.1117669214860472e-11,-1.1198789719889389e-10,6.212305342385396e-11,1.0223263646592932e-11,-3.882690838990873e-11,-0.27376722747652016,-0.849461775375502,0.816772041803713,0.22783784753019942,0.9570231229553118,-0.17874901831717852,-0.01566671032197716
3.9,-1.6782657219173105,-1.8389435778864613,-1.076474963421346,-1.4329655297334274,1.4922466210911207,0.3595116025625695,-0.021631112867744304,-0.031190337651643144,0.31415926535886723,-0.1742870378557809,-0.02868319913761169,0.1089037830422022,7.709914665996162e-12,1.1117669214860472e-11,-1.1198789719889389e-10,6.212305342385396e-11,1.0223263646592932e-11,-3.882690838990873e-11,-0.27584498752821446,-0.8479933214163493,0.8337660112267179,0.23429171150623668,0.9544139230429479,-0.18427907961739512,-0.01557813328399709
4.0,-1.6804288332040855,-1.8420626116516263,-1.0450590368854535,-1.4503942335190085,1.489378301177359,0.3704019808667916,-0.021631112867744304,-0.031190337651643144,0.31415926535886723,-0.1742870378557809,-0.02868319913761169,0.1089037830422022,7.709914665996162e-12,1.1117669214860472e-11,-1.1198789719889389e-10,6.212305342385396e-11,1.0223263646592932e-11,-3.882690838990873e-11,-0.27786655533502125,-0.8460561366043311,0.8506600871472955,0.24072852066253403,0.9517276618171178,-0.18980488141249613,-0.015438395763102096
4.1,-1.6825919444908612,-1.8451816454167926,-1.0136431103495476,-1.4678229373045972,1.4865099812635962,0.38129235917101856,-0.021631112867763258,-0.031190337651670813,0.31415926535914585,-0.17428703785593572,-0.028683199137636898,0.10890378304229893,-1.1460871351526357e-11,-1.6522236195213135e-11,1.6640103595682553e-10,-9.232484145004536e-11,-1.519449459580763e-11,5.768569246503285e-11,-0.2798292370191208,-0.8436535078611621,0.8674414803166702,0.2471473037570533,0.9489644524300294,-0.19532586392686313,-0.015247463756903014
4.2,-1.684755055777637,-1.8483006791819587,-0.9822271838136413,-1.4852516410901861,1.4836416613498329,0.39218273747524557,-0.021631112867763258,-0.031190337651670813,0.31415926535914585,-0.17428703785593572,-0.028683199137636898,0.10890378304229893,-1.1460871351526357e-11,-1.6522236195213135e-11,1.6640103595682553e-10,-9.232484145004536e-11,-1.519449459580763e-11,5.768569246503285e-11,-0.2817304062286083,-0.8407890871312499,0.8840974922974209,0.2535470900091867,0.9461244205421719,-0.2008414665772173,-0.015005309217912585
4.3,-1.6869181670644127,-1.8514197129471253,-0.9508112572777352,-1.502680344875775,1.4807733414360702,0.4030731157794725,-0.021631112867763258,-0.031190337651670813,0.31415926535914585,-0.17428703785593572,-0.028683199137636898,0.10890378304229893,-1.1460871351526357e-11,-1.6522236195213135e-11,1.6640103595682553e-10,-9.232484145004536e-11,-1.519449459580763e-11,5.768569246503285e-11,-0.28356750768977496,-0.8374668880830574,0.9006155254893538,0.259926909262471,0.943207704326665,-0.2063511280373084,-0.014711910066744221
4.4,-1.6890812783511886,-1.8545387467122911,-0.9193953307418288,-1.5201090486613642,1.4779050215223073,0.4139634940836996,-0.021631112867763258,-0.031190337651670813,0.31415926535914585,-0.17428703785593572,-0.028683199137636898,0.10890378304229893,-1.1460871351526357e-11,-1.6522236195213135e-11,1.6640103595682553e-10,-9.232484145004536e-11,-1.519449459580763e-11,5.768569246503285e-11,-0.2853380606873872,-0.8336912825095271,0.9169830930737939,0.2662857921474588,0.9402144544714776,-0.2118542863027803,-0.014367250204607475
4.5,-1.691244389637964,-1.8576577804774574,-0.8879794042059226,-1.537537752446953,1.4750367016085444,0.4248538723879265,-0.021631112867763258,-0.031190337651670813,0.31415926535914585,-0.17428703785593572,-0.028683199137636898,0.10890378304229893,-1.1460871351526357e-11,-1.6522236195213135e-11,1.6640103595682553e-10,-9.232484145004536e-11,-1.519449459580763e-11,5.768569246503285e-11,-0.2870396624689175,-0.8294669964307653,0.9331878288683656,0.2726227702447268,0.9371448341795164,-0.21735037875620394,-0.01397131952509067
4.6,-1.69340750092474,-1.860776814242624,-0.8565634776700162,-1.554966456232542,1.4721683816947815,0.4357442506921536,-0.021631112867763258,-0.031190337651670813,0.31415926535914585,-0.17428703785593572,-0.028683199137636898,0.10890378304229893,-1.1460871351526357e-11,-1.6522236195213135e-11,1.6640103595682553e-10,-9.232484145004536e-11,-1.519449459580763e-11,5.768569246503285e-11,-0.28866999156876366,-0.8247991059024332,0.9492174970844096,0.2789368762479981,0.9339990191665741,-0.22283884223228187,-0.013524113925233195
4.7,-1.6955706122115157,-1.86389584800779,-0.82514755113411,-1.572395160018131,1.4693000617810186,0.44663462899638057,-0.021631112867763258,-0.031190337651670813,0.31415926535914585,-0.17428703785593572,-0.028683199137636898,0.10890378304229893,-1.1460871351526357e-11,-1.6522236195213135e-11,1.6640103595682553e-10,-9.232484145004536e-11,-1.519449459580763e-11,5.768569246503285e-11,-0.2902268110485598,-0.8196930325335543,0.9650600019792268,0.28522714412734007,0.9307771976571393,-0.228319113083206,-0.01302563531588362
4.8,-1.6977337234982914,-1.8670148817729564,-0.7937316245982035,-1.58982386380372,1.4664317418672557,0.4575250073006077,-0.021631112867763258,-0.031190337651670813,0.31415926535914585,-0.17428703785593572,-0.028683199137636898,0.10890378304229893,-1.1460871351526357e-11,-1.6522236195213135e-11,1.6640103595682553e-10,-9.232484145004536e-11,-1.519449459580763e-11,5.768569246503285e-11,-0.2917079716497817,-0.8141545387176926,0.9807033973954461,0.29149260929242116,0.9274795703780644,-0.23379062724416494,-0.012475891631341798
4.9,-1.6998968347850671,-1.8701339155381225,-0.7623156980622974,-1.607252567589309,1.4635634219534928,0.4684153856048346,-0.021631112867763258,-0.031190337651670813,0.31415926535914585,-0.17428703785593572,-0.028683199137636898,0.10890378304229893,-1.1460871351526357e-11,-1.6522236195213135e-11,1.6640103595682553e-10,-9.232484145004536e-11,-1.519449459580763e-11,5.768569246503285e-11,-0.29311141485492165,-0.8081897225816838,0.9961358961799044,0.2977323087557888,0.9241063505500899,-0.23925282029899278,-0.011874896838282946
5.0,-1.702059946071843,-1.8732529493032888,-0.7308997715263913,-1.6246812713748977,1.4606951020397296,0.47930576390906154,-0.021631112867763258,-0.031190337651670813,0.31415926535914585,-0.17428703785593572,-0.028683199137636898,0.10890378304229893,-1.1460871351526357e-11,-1.6522236195213135e-11,1.6640103595682553e-10,-9.232484145004536e-11,-1.519449459580763e-11,5.768569246503285e-11,-0.2944351758536097,-0.801805012656373,1.0113458794745072,0.3039452812961452,0.9206577638772242,-0.24470512754595136,-0.01122267094396208
5.1,-1.7042230573586188,-1.876371983068455,-0.6994838449904848,-1.6421099751604868,1.4578267821259667,0.49019614221328867,-0.021631112867763525,-0.031190337651670803,0.31415926535914623,-0.17428703785593547,-0.028683199137637228,0.10890378304229902,-1.1485138169270061e-11,-1.655690307770414e-11,1.6678930504072477e-10,-9.254670949798779e-11,-1.5229161478298635e-11,5.781049324200047e-11,-0.2956773864101478,-0.7950071622740174,1.026321905871665,0.3101305676215916,0.9171340485339755,-0.2501469840636373,-0.01051924000369642
5.2,-1.7063861686453945,-1.8794910168336214,-0.6680679184545787,-1.6595386789460755,1.4549584622122036,0.5010865205175156,-0.021631112867763525,-0.031190337651670803,0.31415926535914623,-0.17428703785593547,-0.028683199137637228,0.10890378304229902,-1.1485138169270061e-11,-1.655690307770414e-11,1.6678930504072477e-10,-9.254670949798779e-11,-1.5229161478298635e-11,5.781049324200047e-11,-0.29683627762902876,-0.7878032436972653,1.0410527204269824,0.31628721053281195,0.9135354551504402,-0.2555778247770058,-0.009764636127625957
5.3,-1.7085492799321704,-1.8826100505987875,-0.6366519919186722,-1.6769673827316647,1.4520901422984407,0.5119768988217427,-0.021631112867763525,-0.031190337651670803,0.31415926535914623,-0.17428703785593547,-0.028683199137637228,0.10890378304229902,-1.1485138169270061e-11,-1.655690307770414e-11,1.6678930504072477e-10,-9.254670949798779e-11,-1.5229161478298635e-11,5.781049324200047e-11,-0.2979101826151058,-0.7802006419848402,1.0555272635220168,0.3224142550861692,0.9098622467952403,-0.26099708452350534,-0.008958897486747155
5.4,-1.7106312075145693,-1.8856120239442329,-0.6064151361537463,-1.6937419700395435,1.4493294732657769,0.5224585504653456,-0.019258606101513403,-0.02776937232396939,0.2797021855361512,-0.1551711847275869,-0.025537217493153304,0.09695918436549485,0.03442698536030263,0.04964096411873609,-0.49999999978927967,0.2773864357990968,0.04565072924517692,-0.17332575385275886,-0.2988620632619801,-0.7725140243316002,1.0692064122538498,0.3282825043415735,0.9062566874277783,-0.2662014898536852,-0.00813514814452034
5.5,-1.7123857558655804,-1.8881419425771193,-0.580932969592996,-1.7078787847629533,1.4470029142923058,0.5312919819269554,-0.015815907564027405,-0.022805275909996786,0.22970218553608504,-0.12743254113594848,-0.02097214456670553,0.0796266089728919,0.03442698536475393,0.04964096412515804,-0.4999999998539224,0.27738643583498473,0.04565072925108192,-0.1733257538751576,-0.29960104880491845,-0.7657601027665725,1.0805354047694848,0.3332053837982704,0.9031648114980028,-0.27057840467629385,-0.00740421518165858
5.6,-1.7137960343628436,-1.8901754515686089,-0.5604508030322448,-1.7192417351272034,1.4451328626114788,0.5383921558493073,-0.01237320902654132,-0.01784117949602406,0.1797021855360176,-0.0996938975443094,-0.016407071640257648,0.06229403358028851,0.0344269853693787,0.04964096413182285,-0.4999999999210354,0.27738643587221884,0.04565072925720896,-0.17332575389843066,-0.30015259097103375,-0.7601515644176325,1.0895053942911317,0.3371469674171677,0.9006443939514507,-0.2740902435354215,-0.006792378370261973
5.7,-1.714685557679375,-1.8917548814843352,-0.5448118268344075,-1.7278988180730535,1.4437107937837497,0.543984421780495,0.003999971291869325,-0.015943348867124372,0.14086896484045797,-0.0767606994219055,-0.012437830458528,0.0613401378621629,0.4999931325601289,-0.057989214418318696,-0.12333681896618717,0.1182788233492455,0.026462607191396575,0.40599203640451514,-0.30040941772475344,-0.7558442270111533,1.096252615082674,0.340139274451693,0.8987031462132967,-0.27676479609077803,-0.00625912187354126
5.8,-1.7117977093924501,-1.8936081731593404,-0.5316097401892349,-1.734837846458176,1.4426228583504317,0.5520275332314539,0.05399405979434269,-0.02084524785392716,0.12032168656694056,-0.06043403145898061,-0.009059309721605485,0.09857097120628722,0.49988081898039816,-0.03989681404846568,-0.2889910104373206,0.20901093146246483,0.04123082476352642,0.33805143272723304,-0.29792769294191496,-0.7537162901806664,1.1015402427888168,0.3425063167076157,0.8971338489455339,-0.27895758430036893,-0.004790224718823499
5.9,-1.7042846483433842,-1.8957703297271744,-0.5216340463895519,-1.7395403393507185,1.4419656809118926,0.5629722662598778,0.09241079901912973,-0.02138817037702828,0.07498907568548896,-0.03170457425521108,-0.003828714162642661,0.11508153608519908,0.2817853875386076,0.014275557477179996,-0.49983075266965526,0.3023842760532715,0.053286257811683,0.0525851015630764,-0.2921209283694379,-0.754352124546777,1.1049898334117998,0.34406796955014884,0.8960634374749123,-0.28050453726303265,-0.0021801204401684605
6.0,-1.6938859243034354,-1.8978064247451192,-0.5165924720998019,-1.7412472728056871,1.4418377395750628,0.5745310469646656,0.1137347024801238,-0.018980333345713654,0.02499894492950442,-0.0021575748019282727,0.0012885317420529793,0.11407878274787034,0.14986903411055263,0.0331398167107761,-0.4999564872233993,0.28907234876354126,0.04921739016883857,-0.06790779256210602,-0.2842862251775782,-0.7574326158965463,1.1060883260112313,0.34457977174840876,0.8956731316463793,-0.28112887059169867,0.0009900850560507419
6.1,-1.6819755297385839,-1.8995129836319087,-0.5165503967189116,-1.7400622022750634,1.4422023677257607,0.5854226278391735,0.12261149891358467,-0.014792987096177003,-0.024998944929475922,0.026131115158756945,0.00602148931259544,0.10170847591210694,0.028884595955672946,0.050428311012974805,-0.4999574084156157,0.2768009180029191,0.045475509104277445,-0.17836858802218875,-0.27538146791830787,-0.7623674488005607,1.1049577117506288,0.34408882745198555,0.8959430261545133,-0.2808387722486132,0.004307749958198131
6.2,-1.6697805951951312,-1.9007146508734447,-0.5215078332938728,-1.736109593370464,1.4430216122464559,0.5945266168575106,0.11903843316443682,-0.008827431285348637,-0.0749890756854295,0.05315271546195068,0.010368689546784984,0.07797445503963553,-0.1028429841033061,0.06923824826415174,-0.49983253393295846,0.26337085794310455,0.04139013281601951,-0.29858650108667456,-0.26626183018822636,-0.7686172651405834,1.1017092311984629,0.34264560671118627,0.8968423734459154,-0.27966577512009494,0.007402676536006508
6.3,-1.6586428062061342,-1.901219846031434,-0.5314634686742465,-1.729526257949935,1.444253858655316,0.6006185748503284,0.10051500346335017,-0.0007276394466529007,-0.12495963110703955,0.07864711741522873,0.014251740015993334,0.04059856734226496,-0.27718095313717284,0.09411773835240073,-0.49953012922387935,0.24552140667168226,0.03597101659725418,-0.45763557053450626,-0.2579008740505041,-0.7756122638451545,1.0964446215562207,0.34030321805767483,0.8983324249212045,-0.27765971745486634,0.009882075574647901
6.4,-1.6486162529235457,-1.9010418252466657,-0.5462249888486167,-1.720423030043554,1.4458802849852304,0.6037278724674447,0.11393540071762075,0.002530701627709244,-0.17239398851341317,0.10599240876941904,0.018896633009124936,0.033426436961894304,0.33045061978869134,0.007339877826465632,-0.49999999994110267,0.30741329692214986,0.05480653116111524,0.0969478032447606,-0.25031952704055643,-0.7832482379810075,1.089202685596731,0.3370947166267042,0.9003758311869567,-0.2748687337513331,0.011734301968909667
6.5,-1.6355741127000325,-1.9007521368330156,-0.5659588604786915,-1.7082901209644457,1.4480433750863315,0.6075541834759953,0.14698046270052398,0.003264689410445437,-0.22239398851362918,0.13673373846538758,0.02437728612590584,0.043121217287554546,0.33045061993017333,0.007339877829608937,-0.5000000001552092,0.307413297053813,0.054806531184585935,0.0969478032862801,-0.24026101690799656,-0.7930507610253341,1.0794378957293127,0.33280710747330317,0.9030679743782273,-0.27112732390196537,0.014058346325847838
6.6,-1.6192274662782422,-1.9003890496410925,-0.590692732108768,-1.6930830789157525,1.4507545304991085,0.6123499725171082,0.18002552468319918,0.003998677193176565,-0.27239398851350016,0.16747506816114396,0.02985793924264892,0.05281599761314788,0.3304506198436592,0.007339877827686863,-0.5000000000243139,0.30741329697329406,0.0548065311702363,0.09694780326089068,-0.22734090427822795,-0.8049010924839795,1.0670118656261367,0.32741172893637127,0.9063914902781336,-0.26640364719973353,0.016885581570086544
6.7,-1.5996205713947247,-1.8999535467115067,-0.6203596380049442,-1.674843076211559,1.4540064109043969,0.6181022552291925,0.2076282479247934,0.004611781252114647,-0.3141592653587887,0.19315347106792133,0.034435959136936097,0.06091410129822202,-1.2591011720721957e-10,-2.796750744959372e-12,1.9047371915841056e-10,-1.1711859580750842e-10,-2.0876396636064875e-11,-3.6941029982382485e-11,-0.21140692244414203,-0.8184579068707394,1.0518417579700905,0.32090968385377827,0.9103031678978337,-0.2606896361138676,0.020150209598304075
6.8,-1.5788577466022393,-1.899492368586295,-0.6517755645408325,-1.6555277291047605,1.4574500068180916,0.6241936653590165,0.2076282479247934,0.004611781252114647,-0.3141592653587887,0.19315347106792133,0.034435959136936097,0.06091410129822202,-1.2591011720721957e-10,-2.796750744959372e-12,1.9047371915841056e-10,-1.1711859580750842e-10,-2.0876396636064875e-11,-3.6941029982382485e-11,-0.19404566022826186,-0.8320100866294922,1.0354736281020576,0.31398908487340016,0.9143563266090764,-0.2545843373946689,0.023455867573768472
6.9,-1.5580949218097535,-1.8990311904610835,-0.6831914910767211,-1.6362123819979626,1.4608936027317863,0.6302850754888405,0.20762824792479287,0.004611781252114917,-0.3141592653587891,0.19315347106792174,0.03443595913693656,0.06091410129822218,-1.2563278214729179e-10,-2.7906840405234513e-12,1.9008545007451166e-10,-1.168689942535734e-10,-2.0834796377075704e-11,-3.6857829464404143e-11,-0.1762188674722968,-0.8447118410586842,1.018807107513609,0.30703352692676966,0.9183174643638973,-0.24842632766981873,0.026604655751554008
7.0,-1.5373320970172681,-1.8985700123358717,-0.7146074176126092,-1.6168970348911649,1.464337198645481,0.6363764856186647,0.20762824792479287,0.004611781252114917,-0.3141592653587891,0.19315347106792174,0.03443595913693656,0.06091410129822218,-1.2563278214729179e-10,-2.7906840405234513e-12,1.9008545007451166e-10,-1.168689942535734e-10,-2.0834796377075704e-11,-3.6857829464404143e-11,-0.15796469223188528,-0.8565410101602505,1.0018567151593476,0.3000443107999479,0.922186257487692,-0.24221895678432845,0.029595523846353382
7.1,-1.5165692722247823,-1.8981088342106602,-0.7460233441484978,-1.5975816877843667,1.4677807945591756,0.6424678957484887,0.20762824792479287,0.004611781252114917,-0.3141592653587891,0.19315347106792174,0.03443595913693656,0.06091410129822218,-1.2563278214729179e-10,-2.7906840405234513e-12,1.9008545007451166e-10,-1.168689942535734e-10,-2.0834796377075704e-11,-3.6857829464404143e-11,-0.13932234014960862,-0.867477327496575,0.984637246732763,0.29302274009854895,0.9259624010817751,-0.23596559803907616,0.03242749003659418
7.2,-1.495806447432297,-1.8976476560854487,-0.777439270684386,-1.5782663406775688,1.4712243904728703,0.6485593058783128,0.20762824792479287,0.004611781252114917,-0.3141592653587891,0.19315347106792174,0.03443595913693656,0.06091410129822218,-1.2563278214729179e-10,-2.7906840405234513e-12,1.9008545007451166e-10,-1.168689942535734e-10,-2.0834796377075704e-11,-3.6857829464404143e-11,-0.12033197858789627,-0.8775024722099591,0.9671637607201246,0.28597012097449603,0.9296456090430025,-0.2296696468041981,0.03509964150432373
7.3,-1.4750436226398111,-1.897186477960237,-0.8088551972202747,-1.5589509935707704,1.474667986386565,0.6546507160081368,0.20762824792479287,0.004611781252114917,-0.3141592653587891,0.19315347106792174,0.03443595913693656,0.06091410129822218,-1.2563278214729179e-10,-2.7906840405234513e-12,1.9008545007451166e-10,-1.168689942535734e-10,-2.0834796377075704e-11,-3.6857829464404143e-11,-0.10103463819667964,-0.8866001161057792,0.9494515642013684,0.2788877618527363,0.9332356140794036,-0.22333451912010924,0.037611134946973566
7.4,-1.4542807978473258,-1.8967252998350252,-0.8402711237561632,-1.5396356464639727,1.4781115823002597,0.6607421261379609,0.20762824792479287,0.004611781252114917,-0.3141592653587891,0.19315347106792174,0.03443595913693656,0.06091410129822218,-1.2563278214729179e-10,-2.7906840405234513e-12,1.9008545007451166e-10,-1.168689942535734e-10,-2.0834796377075704e-11,-3.6857829464404143e-11,-0.08147211217179279,-0.8947559656728643,0.931516198411557,0.27177697315798777,0.9367321677218164,-0.21696365028673106,0.03996119706072567
7.5,-1.4335179730548402,-1.8962641217098137,-0.8716870502920513,-1.5203202993571747,1.4815551782139544,0.6668335362677849,0.20762824792479287,0.004611781252114917,-0.3141592653587891,0.19315347106792174,0.03443595913693656,0.06091410129822218,-1.2563278214729179e-10,-2.7906840405234513e-12,1.9008545007451166e-10,-1.168689942535734e-10,-2.0834796377075704e-11,-3.6857829464404143e-11,-0.061686853466310705,-0.9019577989279476,0.9133734240767007,0.26463906704156454,0.9401350403315359,-0.21056049344150363,0.0421491249952129
7.6,-1.4127551482623548,-1.895802943584602,-0.9031029768279398,-1.5010049522503766,1.4849987741276494,0.672924946397609,0.20762824792479312,0.004611781252115233,-0.31415926535878913,0.19315347106792166,0.03443595913693629,0.06091410129822226,-1.2557731513530623e-10,-2.789817368461177e-12,1.900299830625261e-10,-1.1684126074758062e-10,-2.082786300057751e-11,-3.6843962711407753e-11,-0.04172187022256203,-0.9081954969846804,0.895039206537962,0.25747535710834757,0.9434440211039765,-0.20412851812676508,0.04417428677929659
7.7,-1.3919923234698692,-1.8953417654593903,-0.9345189033638279,-1.4816896051435786,1.4884423700413438,0.6790163565274331,0.20762824792479312,0.004611781252115233,-0.31415926535878913,0.19315347106792166,0.03443595913693629,0.06091410129822226,-1.2557731513530623e-10,-2.789817368461177e-12,1.900299830625261e-10,-1.1684126074758062e-10,-2.082786300057751e-11,-3.6843962711407753e-11,-0.021620619697341862,-0.9134610702615943,0.8765297006784509,0.2502871581439535,0.9466589180683546,-0.19767120884709305,0.046036121717679276
7.8,-1.3712294986773834,-1.894880587334179,-0.9659348298997168,-1.4623742580367807,1.4918859659550385,0.6851077666572571,0.20762824792479312,0.004611781252115233,-0.31415926535878913,0.19315347106792166,0.03443595913693629,0.06091410129822226,-1.2557731513530623e-10,-2.789817368461177e-12,1.900299830625261e-10,-1.1684126074758062e-10,-2.082786300057751e-11,-3.6843962711407753e-11,-0.0014269009569580853,-0.9177486792575179,0.8578612356670192,0.24307578584216383,0.9497795580833983,-0.19119206361719926,0.04773414075812077
7.9,-1.350466673884898,-1.8944194092089672,-0.9973507564356048,-1.4430589109299827,1.4953295618687332,0.6911991767870811,0.20762824792479312,0.004611781252115233,-0.31415926535878913,0.19315347106792166,0.03443595913693629,0.06091410129822226,-1.2557731513530623e-10,-2.789817368461177e-12,1.900299830625261e-10,-1.1684126074758062e-10,-2.082786300057751e-11,-3.6843962711407753e-11,0.018815253377909662,-0.9210546498372855,0.8390502995336446,0.2358425565326695,0.9528057868290882,-0.18469459250098588,0.049267926829037426
8.0,-1.3297038490924122,-1.8939582310837555,-1.0287666829714932,-1.4237435638231846,1.498773157782428,0.6972905869169053,0.20762824792479312,0.004611781252115233,-0.31415926535878913,0.19315347106792166,0.03443595913693629,0.06091410129822226,-1.2557731513530623e-10,-2.789817368461177e-12,1.900299830625261e-10,-1.1684126074758062e-10,-2.082786300057751e-11,-3.6843962711407753e-11,0.03906168605494769,-0.9233774829850551,0.8201135235911243,0.22858878690919077,0.9557374687944411,-0.17818231614235874,0.0506371351472771
8.1,-1.3089410242999087,-1.8934970529585433,-1.0601826095074094,-1.4044282167163695,1.5022167536961255,0.7033819970467348,0.20762824792516163,0.004611781252123418,-0.31415926535934674,0.1931534710682645,0.03443595913699741,0.06091410129833037,2.4264044393104444e-10,5.3889668832267765e-12,-3.671361523327427e-10,2.2572300527543382e-10,4.024131719555897e-11,7.118497650703032e-11,0.059268224496091794,-0.9247178589971304,0.8010676667179807,0.22131579375802382,0.9585744872613431,-0.17165876428841548,0.051841493495878535
8.2,-1.2881781995074042,-1.8930358748333314,-1.091598536043326,-1.3851128696095545,1.5056603496098233,0.7094734071765642,0.20762824792516163,0.004611781252123418,-0.31415926535934674,0.1931534710682645,0.03443595913699741,0.06091410129833037,2.4264044393104444e-10,5.3889668832267765e-12,-3.671361523327427e-10,2.2572300527543382e-10,4.024131719555897e-11,7.118497650703032e-11,0.07939079020091537,-0.9250786361008726,0.7819295995176665,0.21402489368710076,0.9613167442844327,-0.16512747430564265,0.05288080247162692
8.3,-1.2674153747149004,-1.8925746967081194,-1.1230144625792422,-1.3657975225027394,1.5091039455235211,0.7155648173063937,0.20762824792516163,0.004611781252123411,-0.31415926535934674,0.1931534710682645,0.03443595913699736,0.06091410129833012,2.4264044393104444e-10,5.3889668832267765e-12,-3.671361523327427e-10,2.2569527176944102e-10,4.024131719555897e-11,7.118497650703032e-11,0.09938550796176468,-0.9244648435009999,0.7627162883690531,0.20671740285556384,0.9639641606670668,-0.1585919896896916,0.05375493570224582
8.4,-1.2466525499223964,-1.892113518582907,-1.1544303891151582,-1.3464821753959242,1.5125475414372187,0.721656227436223,0.20762824792516163,0.004611781252123411,-0.31415926535934674,0.1931534710682645,0.03443595913699736,0.06091410129833012,2.4264044393104444e-10,5.3889668832267765e-12,-3.671361523327427e-10,2.2569527176944102e-10,4.024131719555897e-11,7.118497650703032e-11,0.11920881460497454,-0.9228836688692633,0.7434447793836138,0.19939463670396385,0.9665166759333581,-0.15205585856940682,0.0544638400330596
8.5,-1.2258897251298926,-1.891652340457695,-1.1858463156510743,-1.3271668282891091,1.5159911373509165,0.7277476375660525,0.20762824792516163,0.004611781252123411,-0.31415926535934674,0.1931534710682645,0.03443595913699736,0.06091410129833012,2.4264044393104444e-10,5.3889668832267765e-12,-3.671361523327427e-10,2.2569527176944102e-10,4.024131719555897e-11,7.118497650703032e-11,0.1388175669738897,-0.9203444403081811,0.7241321822845549,0.1920579096851196,0.9689742482963046,-0.14552263220571077,0.05500753568298751
8.6,-1.2051269003373886,-1.891191162332483,-1.2172622421869905,-1.307851481182294,1.5194347332646143,0.7338390476958818,0.20762824792516163,0.004611781252123411,-0.31415926535934674,0.1931534710682645,0.03443595913699736,0.06091410129833012,2.4264044393104444e-10,5.3889668832267765e-12,-3.671361523327427e-10,2.2569527176944102e-10,4.024131719555897e-11,7.118497650703032e-11,0.15816914887126815,-0.9168586028340997,0.7047956542233329,0.18470853499569265,0.971336854622025,-0.13899586348598228,0.05538611636973868
8.7,-1.1843640755448843,-1.8907299842072711,-1.2486781687229074,-1.2885361340754788,1.522878329178312,0.7399304578257114,0.20762824792516163,0.004611781252123411,-0.31415926535934674,0.1931534710682645,0.03443595913699736,0.06091410129833012,2.4264044393104444e-10,5.3889668832267765e-12,-3.671361523327427e-10,2.2569527176944102e-10,4.024131719555897e-11,7.118497650703032e-11,0.17722157668130453,-0.9124396894393249,0.6854523835490152,0.17734782430854104,0.9736044903901111,-0.13247910541455732,0.05559974940408841
8.8,-1.16360125075238,-1.8902688060820587,-1.2800940952588236,-1.2692207869686634,1.5263219250920095,0.7460218679555409,0.20762824792516163,0.004611781252123411,-0.31415926535934674,0.1931534710682645,0.03443595913699736,0.06091410129833012,2.4264044393104444e-10,5.3889668832267765e-12,-3.671361523327427e-10,2.2569527176944102e-10,4.024131719555897e-11,7.118497650703032e-11,0.19593360339494284,-0.9071032868073915,0.6661195735460173,0.16997708750590196,0.9757771696501142,-0.12597590959999372,0.05564867575313371
8.9,-1.142838425959876,-1.8898076279568468,-1.3115100217947402,-1.2499054398618483,1.5297655210057073,0.7521132780853703,0.20762824792516163,0.004611781252123411,-0.31415926535934674,0.1931534710682645,0.03443595913699736,0.06091410129833012,2.4264044393104444e-10,5.3889668832267765e-12,-3.671361523327427e-10,2.2569527176944102e-10,4.024131719555897e-11,7.118497650703032e-11,0.21426482076628836,-0.9008669957696614,0.6468144261557499,0.16259763241346478,0.9778549249741776,-0.11948982473973413,0.05553321007243248
9.0,-1.1220756011673725,-1.8893464498316346,-1.3429259483306557,-1.2305900927550335,1.533209116919405,0.7582046882151997,0.2076282479251617,0.004611781252123413,-0.3141592653593468,0.19315347106826428,0.034435959136997374,0.060914101298330296,2.4269591094303003e-10,5.390700227351327e-12,-3.6719161934472833e-10,2.2577847228741943e-10,4.0248250572057175e-11,7.119884326002671e-11,0.23217575933279824,-0.8937503866053402,0.6275541256977643,0.15521076453538746,0.9798378074058334,-0.11302439510281907,0.05525374070695514
9.1,-1.1013127763748687,-1.8888852717064226,-1.3743418748665719,-1.2112747456482187,1.5366527128331027,0.7642960983450291,0.2076282479251617,0.004611781252123413,-0.3141592653593468,0.19315347106826428,0.034435959136997374,0.060914101298330296,2.4269591094303003e-10,5.390700227351327e-12,-3.6719161934472833e-10,2.2577847228741943e-10,4.0248250572057175e-11,7.119884326002671e-11,0.24962798603751846,-0.8857749493006261,0.6083558226059309,0.14781778679031218,0.9817258864049802,-0.10658315901127735,0.05481072966077433
9.2,-1.0805499515823644,-1.8884240935812104,-1.4057578014024885,-1.1919593985414032,1.5400963087468005,0.7703875084748587,0.2076282479251617,0.004611781252123413,-0.3141592653593468,0.19315347106826428,0.034435959136997374,0.060914101298330296,2.4269591094303003e-10,5.390700227351327e-12,-3.6719161934472833e-10,2.2577847228741943e-10,4.0248250572057175e-11,7.119884326002671e-11,0.2665841991979022,-0.876964038896031,0.5892366171952337,0.14041999924843812,0.9835192497890586,-0.10016964732085787,0.0542047125354515
9.3,-1.0597871267898602,-1.8879629154559985,-1.437173727938405,-1.172644051434588,1.543539904660498,0.7764789186046881,0.2076282479251617,0.004611781252123413,-0.3141592653593468,0.19315347106826428,0.034435959136997374,0.060914101298330296,2.4269591094303003e-10,5.390700227351327e-12,-3.6719161934472833e-10,2.2577847228741943e-10,4.0248250572057175e-11,7.119884326002671e-11,0.2830083205727082,-0.8673428160638849,0.5702135434746801,0.13301869886970244,0.9852180036704433,-0.093787381901735,0.053436298437072066
9.4,-1.0390243019973564,-1.8875017373307865,-1.468589654474321,-1.153328704327773,1.5469835005741959,0.7825703287345176,0.2076282479251617,0.004611781252123413,-0.3141592653593468,0.19315347106826428,0.034435959136997374,0.060914101298330296,2.4269591094303003e-10,5.390700227351327e-12,-3.6719161934472833e-10,2.2577847228741943e-10,4.0248250572057175e-11,7.119884326002671e-11,0.2988655842860897,-0.8569381830706586,0.5513035530218183,0.125615179243128,0.9868222723900717,-0.0874398741198441,0.052506169851912504
9.5,-1.0182614772048524,-1.8870405592055746,-1.5000055810102375,-1.1340133572209579,1.5504270964878937,0.7886617388643471,0.2076282479251617,0.004611781252123413,-0.3141592653593468,0.19315347106826428,0.034435959136997374,0.060914101298330296,2.4269591094303003e-10,5.390700227351327e-12,-3.6719161934472833e-10,2.2577847228741943e-10,4.0248250572057175e-11,7.119884326002671e-11,0.3141226223762407,-0.8457787152909172,0.5325234989342773,0.11821073032738842,0.9883321984473277,-0.08113062331949415,0.051415082490722755
9.6,-0.9974986524123483,-1.8865793810803622,-1.531421507546154,-1.1146980101141426,1.5538706924015915,0.7947531489941765,0.2076282479251617,0.004611781252123413,-0.3141592653593468,0.19315347106826428,0.034435959136997374,0.060914101298330296,2.4269591094303003e-10,5.390700227351327e-12,-3.6719161934472833e-10,2.2577847228741943e-10,4.0248250572057175e-11,7.119884326002671e-11,0.3287475467448354,-0.8338945884514908,0.5138901198736795,0.11080663819264934,0.9897479424262038,-0.07486311530790656,0.050163865101628555
9.7,-0.9767358276198445,-1.8861182029551502,-1.5628374340820699,-1.0953826630073276,1.557314288315289,0.800844559124006,0.2076282479251616,0.004611781252123107,-0.31415926535934646,0.19315347106826444,0.034435959136997714,0.06091410129833036,2.424740428950876e-10,5.385500194977676e-12,-3.6685881727281466e-10,2.255843377454698e-10,4.021358368956617e-11,7.113644287154292e-11,0.34271002729297756,-0.8213175017957244,0.49542002421718284,0.10340418476373545,0.9910696829177601,-0.06864082084233082,0.04875341925166753
9.8,-0.9559730028273404,-1.8856570248299382,-1.5942533606179863,-1.0760673159005125,1.5607578842289869,0.8069359692538354,0.2076282479251616,0.004611781252123107,-0.31415926535934646,0.19315347106826444,0.034435959136997714,0.06091410129833036,2.424740428950876e-10,5.385500194977676e-12,-3.6685881727281466e-10,2.255843377454698e-10,4.021358368956617e-11,7.113644287154292e-11,0.35598136603940145,-0.8080805973684507,0.4771296743318114,0.09600464756467741,0.9922976164389055,-0.06246719412038886,0.047184719076990934
9.9,-0.9352101780348364,-1.8851958467047258,-1.6256692871539022,-1.0567519687936975,1.5642014801426847,0.8130273793836649,0.2076282479251616,0.004611781252123107,-0.31415926535934646,0.19315347106826444,0.034435959136997714,0.06091410129833036,2.424740428950876e-10,5.385500194977676e-12,-3.6685881727281466e-10,2.255843377454698e-10,4.021358368956617e-11,7.113644287154292e-11,0.36853456702725207,-0.794218375632589,0.4590353709866122,0.08860929946469635,0.9934319573475225,-0.0563456712742974,0.04545881100177021
10.0,-0.9144473532423326,-1.884734668579514,-1.6570852136898182,-1.0374366216868824,1.5676450760563823,0.8191187895134944,0.2076282479251616,0.004611781252123107,-0.31415926535934646,0.19315347106826444,0.034435959136997714,0.06091410129833036,2.424740428950876e-10,5.385500194977676e-12,-3.6685881727281466e-10,2.255843377454698e-10,4.021358368956617e-11,7.113644287154292e-11,0.3803444018368723,-0.7797666076379509,0.44115323791754235,0.08121940842566963,0.994472937753961,-0.050279668869615296,0.043576813425865515
10.1,-0.893684528449828,-1.8842734904543021,-1.6885011402257353,-1.018121274580067,1.57108867197008,0.8252101996433239,0.2076282479251616,0.004611781252123107,-0.31415926535934646,0.19315347106826444,0.034435959136997714,0.06091410129833036,2.424740428950876e-10,5.385500194977676e-12,-3.6685881727281466e-10,2.255843377454698e-10,4.021358368956617e-11,7.113644287154292e-11,0.3913874705335971,-0.7647622439719561,0.4234992065598594,0.07383623725113966,0.9954208074289229,-0.044272582409171014,0.041539916381328985
10.2,-0.8729217036573244,-1.88381231232909,-1.719917066761651,-0.998805927473252,1.5745322678837779,0.8313016097731533,0.2076282479251616,0.004611781252123107,-0.31415926535934646,0.19315347106826444,0.034435959136997714,0.06091410129833036,2.424740428950876e-10,5.385500194977676e-12,-3.6685881727281466e-10,2.255843377454698e-10,4.021358368956617e-11,7.113644287154292e-11,0.401642257891596,-0.7492433207304561,0.4060890009626062,0.06646104333691229,0.9962758337077683,-0.03832778484281339,0.039349381157820995
10.3,-0.8521588788648203,-1.883351134203878,-1.7513329932975674,-0.9794905803664368,1.5779758637974755,0.8373930199029828,0.2076282479251616,0.004611781252123107,-0.31415926535934646,0.19315347106826444,0.034435959136997714,0.06091410129833036,2.424740428950876e-10,5.385500194977676e-12,-3.6685881727281466e-10,2.255843377454698e-10,4.021358368956617e-11,7.113644287154292e-11,0.411089184747262,-0.7332488627547185,0.3889381228996153,0.059095078423295096,0.9970383013912633,-0.03244862508363139,0.03700653989703751
10.4,-0.8313960540723163,-1.8828899560786658,-1.7827489198334838,-0.9601752332596216,1.5814194597111733,0.8434844300328123,0.20762824792516163,0.004611781252123411,-0.31415926535934674,0.19315347106826436,0.03443595913699736,0.060914101298330275,2.4264044393104444e-10,5.3889668832267765e-12,-3.671361523327427e-10,2.2572300527543382e-10,4.024131719555897e-11,7.118497650703032e-11,0.41971065434848953,-0.7168187843878725,0.3720618371912914,0.05173958834903243,0.9977085126428016,-0.026638426531294983,0.03451279515626326
10.5,-0.8106332292798125,-1.8824287779534539,-1.8141648463693998,-0.9408598861528066,1.584863055624871,0.8495758401626416,0.20762824792516163,0.004611781252123411,-0.31415926535934674,0.19315347106826436,0.03443595913699736,0.060914101298330275,2.4264044393104444e-10,5.3889668832267765e-12,-3.671361523327427e-10,2.2572300527543382e-10,4.024131719555897e-11,7.118497650703032e-11,0.42749109357938736,-0.6999937880106167,0.3554751572511877,0.04439581280698182,0.9982867868821239,-0.0209004856031521,0.03186961944116585
10.6,-0.7898704044873082,-1.8819675998282417,-1.8455807729053166,-0.9215445390459913,1.588306651538569,0.8556672502924714,0.20762824792516163,0.004611781252123411,-0.31415926535934674,0.19315347106826436,0.03443595913699736,0.060914101298330275,2.4264044393104444e-10,5.3889668832267765e-12,-3.671361523327427e-10,2.2572300527543382e-10,4.024131719555897e-11,7.118497650703032e-11,0.434416988953498,-0.6828152606218882,0.3391928308712153,0.03706498510158528,0.9987734606755665,-0.015238070273728007,0.029078554707975362
10.7,-0.769107579694804,-1.8815064217030297,-1.876996699441233,-0.902229191939176,1.5917502474522665,0.8617586604223006,0.20762824792516163,0.004611781252123411,-0.31415926535934674,0.19315347106826436,0.03443595913699736,0.060914101298330275,2.4264044393104444e-10,5.3889668832267765e-12,-3.671361523327427e-10,2.2572300527543382e-10,4.024131719555897e-11,7.118497650703032e-11,0.4404769172823957,-0.6653251687353136,0.3232293262590761,0.029748331908184544,0.9991688876228656,-0.00965441862326544,0.026141211835195955
10.8,-0.7483447721404402,-1.8810452439607066,-1.9084125998943717,-0.8829138608687462,1.5951938405069512,0.8678500654947943,0.20719253863193923,0.00460210339773732,-0.3135000000000478,0.1927481371929193,0.03436369504207312,0.06078627264163641,-0.3304506197993217,-0.007339877826702855,0.4999999999572009,-0.3074132969320447,-0.054806531162884656,-0.0969478032478831,0.44566156700155884,-0.647565966711021,0.3075988311762595,0.022447079089303868,0.9994734380253175,-0.0041527419287481025,0.023059272683314286
10.9,-0.7292448712943704,-1.8806210022425416,-1.9373123805273056,-0.8651455071772591,1.598361633962941,0.8734536059886913,0.17414747664920538,0.0038681156150047963,-0.26350000000008794,0.16200680749710827,0.028883041925320287,0.05109149231602583,-0.33045061977151063,-0.007339877826085294,0.49999999991512345,-0.3074132969061765,-0.05480653115827029,-0.0969478032397299,0.4496518446475999,-0.6310282402368718,0.29352617701359274,0.015745225033715126,0.9996736792509217,0.0008331877117514528,0.0200979775052159
11.0,-0.7134494766465773,-1.88027015930265,-1.9612121611602389,-0.8504512864553562,1.6009813621072548,0.8780876684500264,0.14110241466647155,0.0031341278322722737,-0.21350000000012817,0.1312654778012973,0.02340238880856746,0.041396711990415266,-0.3304506197436718,-0.007339877825466431,0.49999999987296273,-0.3074132968802528,-0.05480653115364552,-0.09694780323155588,0.4523847260785055,-0.617230904780962,0.2821175274483027,0.010214155087089982,0.9997816511426697,0.00490031987018239,0.017558699822709578
11.1,-0.7009585881970579,-1.8799927151410318,-1.9801119417931756,-0.8388311987030346,1.6030530249398938,0.8817522528788004,0.10805735268373726,0.00240014004953974,-0.16350000000016762,0.10052414810548584,0.017921735691814544,0.031701931664804554,-0.3304506197168044,-0.00733987782487012,0.4999999998323563,-0.30741329685530056,-0.05480653114919769,-0.09694780322368024,0.45418130985139626,-0.6062560768170415,0.27324676347443533,0.005847831356861755,0.9998302252656778,0.008079600580980189,0.01549333947402787
11.2,-0.6917722059458149,-1.879788669757687,-1.9940117224261118,-0.830285243920297,1.6045766224608566,0.8844473592750124,0.07501229070073501,0.0016661522668012549,-0.11349999999980166,0.06978281840942513,0.012441082575017193,0.02200715133911523,-0.3304506199581489,-0.0073398778302308215,0.5000000001975226,-0.3074132970798106,-0.05480653118922275,-0.09694780329448249,0.45529685391845603,-0.5981546192793034,0.26680977831036645,0.002641087085494206,0.9998452621481053,0.010396520793744502,0.013942337479010252
11.3,-0.6858903298928488,-1.8796580231526154,-2.0029115030590465,-0.8248134221071436,1.6055521546701434,0.8861729876386624,0.04196722871811726,0.0009321644840713104,-0.0635000000000175,0.039041488713722115,0.006960429458283611,0.012312371013538716,-0.33045061981556156,-0.0073398778270637585,0.49999999998177846,-0.30741329694715974,-0.054806531165575864,-0.0969478032526531,0.4559195050311935,-0.59295599113712,0.26272759477684327,0.0005899026311088756,0.9998457027086496,0.011870396481587279,0.012935087062037755
11.4,-0.6833129600381591,-1.8796007753258173,-2.0068112836919814,-0.8224157332635741,1.6059796215677546,0.8869291379697504,0.008922166735338079,0.00019817670133778,-0.013499999999989068,0.008300159017868921,0.001479776341523256,0.0026175906879148387,-0.33045061983148993,-0.007339877827417449,0.500000000005879,-0.3074132969619726,-0.05480653116821701,-0.09694780325732365,0.45616980672914176,-0.5906755156167517,0.26094858915528973,-0.00030839312659939456,0.9998436388779737,0.012513846564206154,0.012490249521088872
11.427995612,-0.6831834639863924,-1.8795978989953095,-2.007007222274021,-0.8222952650125616,1.6060010989957618,0.8869671295999542,-1.2546722425901585e-16,-2.786843304684899e-18,1.898426220602523e-16,-1.1672029270152302e-16,-2.0809231165757765e-17,-3.680965034627074e-17,-0.3304506194023388,-0.0073398778178852585,0.4999999993565376,-0.30741329656273936,-0.054806531097040506,-0.09694780313141911,0.4561820204485193,-0.5905608988511375,0.26085936333169935,-0.00035351838134717377,0.9998434989242045,0.012546137223057712,0.012467843620224612
