mathias31415/primitives_from_planned_trajectory_python/data/saved_trajectories/trajectory_20250624_153014_planned.csv
time_from_start,shoulder_pan_joint_pos,shoulder_lift_joint_pos,elbow_joint_pos,wrist_1_joint_pos,wrist_2_joint_pos,wrist_3_joint_pos,shoulder_pan_joint_vel,shoulder_lift_joint_vel,elbow_joint_vel,wrist_1_joint_vel,wrist_2_joint_vel,wrist_3_joint_vel,shoulder_pan_joint_acc,shoulder_lift_joint_acc,elbow_joint_acc,wrist_1_joint_acc,wrist_2_joint_acc,wrist_3_joint_acc,fk_x,fk_y,fk_z,fk_qx,fk_qy,fk_qz,fk_qw
0.0,-2.022564677722377,-1.7245420971677028,-2.4908363003625773,-0.5302907339278908,1.582545480587263,-0.4527719024290304,-9.154080886559136e-05,-0.000159219959723935,0.0005000000000000001,-0.00034130174226351987,-3.1850630836127134e-06,-9.152697234479541e-05,-0.09154080886559136,-0.159219959723935,0.5000000000000001,-0.3413017422635199,-0.0031850630836127132,-0.09152697234479541,-0.36597647984481885,-0.35844052922132363,0.1633082943095881,-0.00040394939257710035,0.9998442274247471,0.012399219351558717,0.012554563702924841
0.1,-2.023022381766705,-1.7253381969663224,-2.4883363003625774,-0.5319972426392084,1.5825295552718448,-0.45322953729075444,-0.00915408088655909,-0.01592199597239342,0.04999999999999976,-0.03413017422635182,-0.00031850630836126976,-0.009152697234479494,-0.09154080886552762,-0.15921995972382322,0.4999999999996461,-0.3413017422632805,-0.0031850630836104937,-0.09152697234473045,-0.3667265352850414,-0.3594750545897877,0.16369814824572415,-0.00040403965957941715,0.9998442524125061,0.012398128130907638,0.012553648413112744
0.2,-2.024395493899689,-1.7277264963621815,-2.4808363003625775,-0.5371167687731613,1.5824817793255908,-0.45460244187592636,-0.018308161773118392,-0.03184399194478721,0.10000000000000067,-0.06826034845270443,-0.0006370126167225468,-0.0183053944689592,-0.09154080886573926,-0.15921995972419098,0.5000000000008049,-0.34130174226408544,-0.003185063083617812,-0.09152697234494556,-0.3689805925793432,-0.3625703443555144,0.16487414640723164,-0.00040431058502296834,0.9998443269851837,0.012394875060860731,0.012550912346188946
0.30000000000000004,-2.0266840141213285,-1.73170699535528,-2.4683363003625773,-0.5456493123297492,1.5824021527485004,-0.45689061618454624,-0.027462242659677755,-0.047765987917181105,0.1500000000000019,-0.10239052267905725,-0.000955518925083826,-0.027458091703438967,-0.09154080886582253,-0.1592199597243367,0.500000000001249,-0.3413017422643769,-0.0031850630836207394,-0.09152697234502882,-0.37275016360752206,-0.3677013773637507,0.16685551897125156,-0.0004047625422169123,0.9998444499709825,0.012389521813513004,0.012546385086559374
0.4,-2.029887942431624,-1.7372796939456174,-2.4508363003625773,-0.5575948733089724,1.582290675540574,-0.46009406021661403,-0.03661632354623765,-0.06368798388957593,0.2000000000000061,-0.13652069690541208,-0.0012740252334451237,-0.03661078893791927,-0.09154080886647478,-0.15921995972546774,0.5000000000048017,-0.3413017422667916,-0.0031850630836432908,-0.09152697234567761,-0.37805389510319615,-0.3748259159328524,0.16967404995939306,-0.0004053961533431212,0.9998446194169079,0.012382170828617556,0.012540116530092717
0.5,-2.034007278830576,-1.7444445921331948,-2.4283363003625773,-0.5729534517108309,1.5821473477018113,-0.4642127739721299,-0.04577040443279493,-0.0796099798619662,0.24999999999999598,-0.17065087113175717,-0.0015925315418063306,-0.04576348617239696,-0.0915408088648719,-0.1592199597226783,0.49999999999608646,-0.3413017422608519,-0.0031850630835875628,-0.09152697234408166,-0.38491674897877903,-0.3838837187929592,0.173373666221861,-0.0004062122894553684,0.9998448325887681,0.01237296478717214,0.012532177763240464
0.6000000000000001,-2.0390420233181836,-1.7532016899180114,-2.4008363003625774,-0.5917250475353244,1.5819721692322126,-0.4692467574510937,-0.05492448531935617,-0.09553197583436336,0.3000000000000074,-0.20478104535811698,-0.001911037850167675,-0.054916183406878594,-0.09154080886722418,-0.15921995972678613,0.5000000000088818,-0.3413017422696227,-0.0031850630836695285,-0.09152697234642701,-0.39336883526618927,-0.39479547284484384,0.17800983902578615,-0.00040721207048021726,0.9998450859711763,0.01236208586287288,0.0125226622864087
0.7000000000000001,-2.044756986946968,-1.7631419153767451,-2.3696209129326067,-0.6130327797658841,1.581773323275925,-0.4749608572551637,-0.05751678652715861,-0.10004085115470976,0.3141592653589617,-0.21444620923048213,-0.0020012341569394377,-0.057508092784741845,3.224020071661706e-12,5.6160349635397465e-12,-1.7583042799428145e-11,1.203634160087037e-11,1.1223403206456746e-13,3.224020071661706e-12,-0.4030439454936832,-0.40696562140003956,0.18342263808576037,-0.00040834996784674444,0.9998453640415057,0.012350231379494632,0.01251211572379271
0.8,-2.050508665599684,-1.7731460004922164,-2.3382049863967094,-0.6344774006889329,1.5815731998602311,-0.480711666533638,-0.05751678652715861,-0.10004085115470976,0.3141592653589617,-0.21444620923048213,-0.0020012341569394377,-0.057508092784741845,3.224020071661706e-12,5.6160349635397465e-12,-1.7583042799428145e-11,1.203634160087037e-11,1.1223403206456746e-13,3.224020071661706e-12,-0.4128629618046824,-0.41897755710985135,0.18902874245091716,-0.0004094984400593513,0.9998456336509375,0.012338827913384675,0.012501780109517305
0.9,-2.0562603442524,-1.7831500856076876,-2.3067890598608125,-0.6559220216119817,1.581373076444537,-0.4864624758121123,-0.05751678652715861,-0.10004085115470976,0.3141592653589617,-0.21444620923048213,-0.0020012341569394377,-0.057508092784741845,3.224020071661706e-12,5.6160349635397465e-12,-1.7583042799428145e-11,1.203634160087037e-11,1.1223403206456746e-13,3.224020071661706e-12,-0.4227583487548379,-0.43074757560888716,0.19479088949319645,-0.00041065018729843667,0.9998458929802416,0.012327949691131502,0.012491729799338826
1.0,-2.062012022905116,-1.793154170723159,-2.275373133324914,-0.6773666425350314,1.5811729530288432,-0.4922132850905869,-0.05751678652715378,-0.10004085115470136,0.31415926535893535,-0.21444620923046415,-0.00200123415693927,-0.057508092784737015,8.049650114406076e-12,1.4005420526356826e-11,-4.39298734925727e-11,3.000765348419423e-11,2.799350761146816e-13,8.049650114406076e-12,-0.4327243832141284,-0.4422710558148384,0.20070598348948937,-0.00041180520956196994,0.9998461420294251,0.012317593037925878,0.012481970481304262
1.1,-2.067763701557832,-1.80315825583863,-2.2439572067890183,-0.6988112634580793,1.580972829613149,-0.497964094369061,-0.05751678652715378,-0.10004085115470136,0.31415926535893535,-0.21444620923046415,-0.00200123415693927,-0.057508092784737015,8.049650114406076e-12,1.4005420526356826e-11,-4.39298734925727e-11,3.000765348419423e-11,2.799350761146816e-13,8.049650114406076e-12,-0.4427552754821057,-0.4535435303293343,0.20677083711904812,-0.00041296350684778946,0.9998463807984946,0.012307754230970181,0.012472507810531804
1.2,-2.073515380210548,-1.8131623409541011,-2.2125412802531224,-0.7202558843811273,1.5807727061974552,-0.5037149036475351,-0.057516786527154286,-0.10004085115470106,0.3141592653589355,-0.2144462092304642,-0.0020012341569390015,-0.057508092784737,8.014983231915094e-12,1.3949953514371255e-11,-4.3763472456615983e-11,2.9896719460223086e-11,2.786350680212698e-13,8.014983231915094e-12,-0.45284517324852397,-0.46456068776502485,0.21298217297212652,-0.00041412507915375516,0.9998466092874573,0.01229842949973351,0.01246334740884656
1.3,-2.079267058863264,-1.823166426069572,-2.181125353717227,-0.7417005053041752,1.5805725827817614,-0.5094657129260093,-0.057516786527154286,-0.10004085115470106,0.3141592653589355,-0.2144462092304642,-0.0020012341569390015,-0.057508092784737,8.014983231915094e-12,1.3949953514371255e-11,-4.3763472456615983e-11,2.9896719460223086e-11,2.786350680212698e-13,8.014983231915094e-12,-0.46298816560177053,-0.47531837496488816,0.21933662510205298,-0.00041528992647765116,0.9998468274963204,0.012289615026214286,0.01245449486441951
1.4,-2.0850187375159797,-1.8331705111850423,-2.149709427181331,-0.7631451262272231,1.5803724593660673,-0.5152165222044833,-0.057516786527154286,-0.10004085115470106,0.3141592653589355,-0.2144462092304642,-0.0020012341569390015,-0.057508092784737,8.014983231915094e-12,1.3949953514371255e-11,-4.3763472456615983e-11,2.9896719460223086e-11,2.786350680212698e-13,8.014983231915094e-12,-0.47317828708223114,-0.4858125991123845,0.22583074062004438,-0.000416458048817089,0.999847035425091,0.012281306945201742,0.012445955731407273
1.5,-2.090770416168695,-1.8431745963005133,-2.1182935006454353,-0.784589747150271,1.5801723359503734,-0.5209673314829574,-0.057516786527154286,-0.10004085115470106,0.3141592653589355,-0.2144462092304642,-0.0020012341569390015,-0.057508092784737,8.014983231915094e-12,1.3949953514371255e-11,-4.3763472456615983e-11,2.9896719460223086e-11,2.786350680212698e-13,8.014983231915094e-12,-0.4834095217776651,-0.49603952973112486,0.23246098133200602,-0.0004176294461700069,0.9998472330737767,0.012273501344543,0.012437735529595375
1.6,-2.0965220948214114,-1.8531786814159845,-2.0868775741095384,-0.8060343680733197,1.5799722125346796,-0.5267181407614318,-0.057516786527163924,-0.10004085115471782,0.31415926535898814,-0.21444620923050012,-0.0020012341569393367,-0.05750809278474663,-1.615476724080131e-12,-2.8010841052719867e-12,8.81925490570784e-12,-5.990437294443061e-12,-5.633368404785864e-14,-1.608543347581933e-12,-0.49367580745765066,-0.5059955005728224,0.23922372541657597,-0.00041880411853344857,0.9998474204423847,0.012266194265409135,0.012429839744040681
1.7000000000000002,-2.1022737734741277,-1.8631827665314562,-2.0554616475736402,-0.8274789889963694,1.5797720891189857,-0.5324689500399064,-0.057516786527163924,-0.10004085115471782,0.31415926535898814,-0.21444620923050012,-0.0020012341569393367,-0.05750809278474663,-1.615476724080131e-12,-2.8010841052719867e-12,8.81925490570784e-12,-5.990437294443061e-12,-5.633368404785864e-14,-1.608543347581933e-12,-0.5039710397441141,-0.5156770113923623,0.24611526914362558,-0.00041998206590510386,0.9998475975309231,0.012259381702567499,0.012422273824718718
1.8,-2.108025452126844,-1.8731868516469277,-2.0240457210377416,-0.8489236099194191,1.5795719657032916,-0.538219759318381,-0.057516786527163924,-0.10004085115471782,0.31415926535898814,-0.21444620923050012,-0.0020012341569393367,-0.05750809278474663,-1.615476724080131e-12,-2.8010841052719867e-12,8.81925490570784e-12,-5.990437294443061e-12,-5.633368404785864e-14,-1.608543347581933e-12,-0.5142890763149497,-0.5250807296089148,0.25313182863243516,-0.0004211632882824343,0.9998477643393994,0.01225305960465385,0.012415043186170961
1.9,-2.1137771307795603,-1.8831909367623996,-1.9926297945018432,-0.8703682308424688,1.5793718422875977,-0.5439705685968554,-0.057516786527163924,-0.10004085115471782,0.31415926535898814,-0.21444620923050012,-0.0020012341569393367,-0.05750809278474663,-1.615476724080131e-12,-2.8010841052719867e-12,8.81925490570784e-12,-5.990437294443061e-12,-5.633368404785864e-14,-1.608543347581933e-12,-0.5246237411376968,-0.5342034918520943,0.2602695416487207,-0.000422347785662812,0.9998479208678211,0.012247223874449466,0.012408153207156202
2.0,-2.1195288094322766,-1.893195021877871,-1.961213867965945,-0.8918128517655185,1.5791717188719039,-0.5497213778753302,-0.0575167865271384,-0.10004085115467344,0.31415926535884875,-0.214446209230405,-0.0020012341569384485,-0.05750809278472125,2.3885482036286766e-11,4.154479197719312e-11,-1.3045841219006439e-10,8.905228774283519e-11,8.311385077212992e-13,2.3885482036286766e-11,-0.5349688287302251,-0.543042305392252,0.26752446943969577,-0.00042353555804357473,0.9998480671161967,0.012241870369156815,0.012401609230300403
2.1,-2.125280488084993,-1.9031991069933425,-1.9297979414300466,-0.9132574726885682,1.5789715954562098,-0.5554721871538046,-0.057516786527163924,-0.10004085115471782,0.31415926535898814,-0.21444620923050012,-0.0020012341569393367,-0.057508092784746764,-1.615476724080131e-12,-2.8010841052719867e-12,8.81925490570784e-12,-5.990437294443061e-12,-5.633368404785864e-14,-1.608543347581933e-12,-0.545318108445354,-0.5515943494540707,0.2748925986063044,-0.0004247266054217212,0.999848203084534,0.01223699490068277,0.012395416561752377
2.2,-2.1310321667377092,-1.9132031921088144,-1.8983820148941482,-0.9347020936116179,1.5787714720405162,-0.5612229964322792,-0.057516786527163924,-0.10004085115471782,0.31415926535898814,-0.21444620923050012,-0.0020012341569393367,-0.057508092784746764,-1.615476724080131e-12,-2.8010841052719867e-12,8.81925490570784e-12,-5.990437294443061e-12,-5.633368404785864e-14,-1.608543347581933e-12,-0.5556653287763214,-0.5598569764127173,0.2823698430117733,-0.0004259209277944658,0.9998483287728416,0.0122325932359204,0.012389580470839875
2.3,-2.1367838453904255,-1.9232072772242859,-1.8669660883582497,-0.9561467145346676,1.578571348624822,-0.5669738057107538,-0.057516786527163924,-0.10004085115471782,0.31415926535898814,-0.21444620923050012,-0.0020012341569393367,-0.057508092784746764,-1.615476724080131e-12,-2.8010841052719867e-12,8.81925490570784e-12,-5.990437294443061e-12,-5.633368404785864e-14,-1.608543347581933e-12,-0.5660042216799921,-0.5678277128718879,0.28995204572559713,-0.00042711852515896117,0.9998484441811273,0.012228661097034441,0.012384106189726162
2.4,-2.142535524043142,-1.9332113623397578,-1.8355501618223515,-0.9775913354577174,1.578371225209128,-0.5727246149892284,-0.057516786527163924,-0.10004085115471782,0.31415926535898814,-0.21444620923050012,-0.0020012341569393367,-0.057508092784746764,-1.615476724080131e-12,-2.8010841052719867e-12,8.81925490570784e-12,-5.990437294443061e-12,-5.633368404785864e-14,-1.608543347581933e-12,-0.5763285069146924,-0.5755042606231724,0.297634981002052,-0.00042831939751217344,0.9998485493093999,0.012225194161750403,0.01237899891307237
2.5,-2.148287202695858,-1.9432154474552292,-1.8041342352864531,-0.9990359563807671,1.5781711017934341,-0.578475424267703,-0.057516786527163924,-0.10004085115471782,0.31415926535898814,-0.21444620923050012,-0.0020012341569393367,-0.057508092784746764,-1.615476724080131e-12,-2.8010841052719867e-12,8.81925490570784e-12,-5.990437294443061e-12,-5.633368404785864e-14,-1.608543347581933e-12,-0.5866318963895361,-0.5828844974862432,0.3054143562923386,-0.0004295235448510068,0.9998486441576677,0.012222188063642973,0.012374263797697774
2.6,-2.1540388813485745,-1.953219532570701,-1.7727183087505547,-1.0204805773038168,1.5779709783777403,-0.5842262335461776,-0.057516786527163924,-0.10004085115471782,0.31415926535898814,-0.21444620923050012,-0.0020012341569393367,-0.057508092784746764,-1.615476724080131e-12,-2.8010841052719867e-12,8.81925490570784e-12,-5.990437294443061e-12,-5.633368404785864e-14,-1.608543347581933e-12,-0.5969080985221018,-0.5899664780294626,0.31328581428940483,-0.0004307309671724839,0.9998487287259396,0.012219638392431443,0.012369905962245768
2.7,-2.1597905600012908,-1.9632236176861724,-1.7413023822146563,-1.0419251982268665,1.5777708549620464,-0.5899770428246522,-0.057516786527163924,-0.10004085115471782,0.31415926535898814,-0.21444620923050012,-0.0020012341569393367,-0.057508092784746764,-1.615476724080131e-12,-2.8010841052719867e-12,8.81925490570784e-12,-5.990437294443061e-12,-5.633368404785864e-14,-1.608543347581933e-12,-0.6071508226013259,-0.5967484341705885,0.32124493500452167,-0.0004319416644732885,0.9998488030142241,0.012217540694273048,0.012365930486849235
2.8,-2.1655422386540075,-1.973227702801644,-1.709886455678758,-1.0633698191499164,1.5775707315463523,-0.5957278521031268,-0.057516786527163924,-0.10004085115471782,0.31415926535898814,-0.21444620923050012,-0.0020012341569393367,-0.057508092784746764,-1.615476724080131e-12,-2.8010841052719867e-12,8.81925490570784e-12,-5.990437294443061e-12,-5.633368404785864e-14,-1.608543347581933e-12,-0.6173537831524455,-0.6032287756573418,0.3292872378746381,-0.00043315563674987544,0.9998488670225304,0.012215890472061761,0.012362342412799975
2.9,-2.1712939173067234,-1.9832317879171157,-1.6784705291428597,-1.084814440072966,1.5773706081306584,-0.6014786613816014,-0.05751678652716342,-0.10004085115471813,0.31415926535898797,-0.21444620923050006,-0.002001234156939605,-0.05750809278474665,-1.580809841589141e-12,-2.7456170932864027e-12,8.652853869751088e-12,-5.879503270471893e-12,-5.503367595444652e-14,-1.580809841589141e-12,-0.6275107043008513,-0.6094060904276875,0.3374081838995513,-0.00043437288399972095,0.9998489207508674,0.012214683185726962,0.01235914674221891
3.0,-2.1770455959594397,-1.9932358730325874,-1.6470546026069612,-1.1062590609960155,1.5771704847149646,-0.607229470660076,-0.05751678652716342,-0.10004085115471813,0.31415926535898797,-0.21444620923050006,-0.002001234156939605,-0.05750809278474665,-1.580809841589141e-12,-2.7456170932864027e-12,8.652853869751088e-12,-5.879503270471893e-12,-5.503367595444652e-14,-1.580809841589141e-12,-0.6376153241316949,-0.6152791448497669,0.3456031778078959,-0.0004355934062186985,0.9998489641992442,0.012213914252537051,0.012356348437729417
3.1,-2.182797274612156,-2.0032399581480593,-1.615638676071063,-1.1277036819190653,1.5769703612992707,-0.6129802799385506,-0.05751678652716342,-0.10004085115471813,0.31415926535898797,-0.21444620923050006,-0.002001234156939605,-0.05750809278474665,-1.580809841589141e-12,-2.7456170932864027e-12,8.652853869751088e-12,-5.879503270471893e-12,-5.503367595444652e-14,-1.580809841589141e-12,-0.6476613990420965,-0.6208468838415004,0.3538675702509547,-0.0004368172034035637,0.9998489973676701,0.012213579047404244,0.012353952422132655
3.2,-2.1885489532648723,-2.013244043263531,-1.5842227495351646,-1.1491483028421148,1.5767702378835766,-0.6187310892170251,-0.05751678652716342,-0.10004085115471813,0.31415926535898797,-0.21444620923050006,-0.002001234156939605,-0.05750809278474665,-1.580809841589141e-12,-2.7456170932864027e-12,8.652853869751088e-12,-5.879503270471893e-12,-5.503367595444652e-14,-1.580809841589141e-12,-0.657642708082815,-0.626108430869977,0.3621966600232805,-0.000438044275550691,0.9998490202561546,0.012213672903189761,0.01235196357808372
3.3,-2.1943006319175886,-2.0232481283790023,-1.5528068229992662,-1.1705929237651647,1.5765701144678825,-0.6244818984954997,-0.05751678652716342,-0.10004085115471813,0.31415926535898797,-0.21444620923050006,-0.002001234156939605,-0.05750809278474665,-1.580809841589141e-12,-2.7456170932864027e-12,8.652853869751088e-12,-5.879503270471893e-12,-5.503367595444652e-14,-1.580809841589141e-12,-0.6675530572862376,-0.631063087830816,0.3705856963090891,-0.00043927462265675436,0.9998490328647069,0.012214191111015802,0.01235038674777336
3.4,-2.200052310570305,-2.033252213494474,-1.5213908964633678,-1.1920375446882145,1.5763699910521884,-0.6302327077739743,-0.05751678652716342,-0.10004085115471813,0.31415926535898797,-0.21444620923050006,-0.002001234156939605,-0.05750809278474665,-1.580809841589141e-12,-2.7456170932864027e-12,8.652853869751088e-12,-5.879503270471893e-12,-5.503367595444652e-14,-1.580809841589141e-12,-0.6773862839775636,-0.6357103348077894,0.3790298809534008,-0.000440508244717838,0.9998490351933369,0.012215128920575224,0.012349226732607905
3.5,-2.205803989223021,-2.0432562986099456,-1.4899749699274696,-1.213482165611264,1.5761698676364946,-0.6359835170524488,-0.05751678652716342,-0.10004085115471813,0.31415926535898797,-0.21444620923050006,-0.002001234156939605,-0.05750809278474665,-1.580809841589141e-12,-2.7456170932864027e-12,8.652853869751088e-12,-5.879503270471893e-12,-5.503367595444652e-14,-1.580809841589141e-12,-0.6871362610660638,-0.6400498297130663,0.3875243707568694,-0.000441745141730381,0.999849027242054,0.012216481540445525,0.012348488292893891
3.6,-2.211555667875737,-2.0532603837254175,-1.4585590433915712,-1.2349267865343139,1.5759697442208007,-0.6417343263309235,-0.05751678652716342,-0.10004085115471813,0.31415926535898797,-0.21444620923050006,-0.002001234156939605,-0.05750809278474665,-1.580809841589141e-12,-2.7456170932864027e-12,8.652853869751088e-12,-5.879503270471893e-12,-5.503367595444652e-14,-1.580809841589141e-12,-0.6967969013133163,-0.6440814078085312,0.3960642797932375,-0.00044298531369052474,0.9998490090108685,0.012218244138406597,0.012348176147524842
3.7,-2.2173073465284534,-2.063264468840889,-1.4271431168556727,-1.2563714074573635,1.5757696208051069,-0.6474851356093981,-0.05751678652716342,-0.10004085115471813,0.31415926535898797,-0.21444620923050006,-0.002001234156939605,-0.05750809278474665,-1.580809841589141e-12,-2.7456170932864027e-12,8.652853869751088e-12,-5.879503270471893e-12,-5.503367595444652e-14,-1.580809841589141e-12,-0.7063621615753248,-0.6478050811087129,0.40464468174835194,-0.0004442287605942792,0.99984898049979,0.012220411841756951,0.01234829497366889
3.8,-2.2230590251811697,-2.073268553956361,-1.3957271903197743,-1.2778160283804134,1.575569497389413,-0.6532359448878726,-0.05751678652716342,-0.10004085115471813,0.31415926535898797,-0.21444620923050006,-0.002001234156939605,-0.05750809278474665,-1.580809841589141e-12,-2.7456170932864027e-12,8.652853869751088e-12,-5.879503270471893e-12,-5.503367595444652e-14,-1.580809841589141e-12,-0.7158260470154629,-0.6512210376659436,0.41326061227964866,-0.0004454754824377594,0.9998489417088287,0.012222979737636537,0.012348849406461065
3.9,-2.228810703833886,-2.083272639071833,-1.364311263783876,-1.2992606493034629,1.5753693739737187,-0.6589867541663472,-0.05751678652716342,-0.10004085115471813,0.31415926535898797,-0.21444620923050006,-0.002001234156939605,-0.05750809278474665,-1.580809841589141e-12,-2.7456170932864027e-12,8.652853869751088e-12,-5.879503270471893e-12,-5.503367595444652e-14,-1.580809841589141e-12,-0.7251826152851869,-0.6543296407384487,0.4219070713950271,-0.0004467254792170046,0.9998488926379945,0.012225942873347577,0.01234984403869469
4.0,-2.2345623824866023,-2.0932767241873043,-1.3328953372479777,-1.3207052702265127,1.5751692505580248,-0.6647375634448218,-0.057516786527112375,-0.10004085115462934,0.31415926535870914,-0.21444620923030977,-0.0020012341569378292,-0.05750809278469561,4.942110767913332e-11,8.597386857761689e-11,-2.69957947333717e-10,1.8426141381602794e-10,1.7194773715523378e-12,4.942110767913332e-11,-0.7344259806694983,-0.6571314278421613,0.43057902584999824,-0.0004479787509280476,0.999848833287298,0.012229296256680901,0.012351283420519093
4.1,-2.2403140611393164,-2.1032808093027713,-1.3014794107120933,-1.3421498911495529,1.5749691271423312,-0.6704883727232939,-0.057516786527112375,-0.10004085115462934,0.31415926535870914,-0.21444620923030977,-0.0020012341569378292,-0.05750809278469561,4.942110767913332e-11,8.597386857761689e-11,-2.69957947333717e-10,1.8426141381602794e-10,1.7194773715523378e-12,4.942110767913332e-11,-0.7435503181941543,-0.6596271096871203,0.43927141156200555,-0.0004492352975664015,0.9998487636567496,0.01223303485624266,0.01235317205913539
4.2,-2.24606573979203,-2.1132848944182387,-1.2700634841762088,-1.363594512072593,1.5747690037266373,-0.6762391820017659,-0.057516786527112375,-0.10004085115462934,0.31415926535870914,-0.21444620923030977,-0.0020012341569378292,-0.05750809278469561,4.942110767913332e-11,8.597386857761689e-11,-2.69957947333717e-10,1.8426141381602794e-10,1.7194773715523378e-12,4.942110767913332e-11,-0.7525498676916693,-0.6618175689994197,0.4479791360408134,-0.0004504951191284199,0.9998486837463598,0.012237153601784411,0.012355514418498064
4.3,-2.2518174184447433,-2.1232889795337058,-1.2386475576403246,-1.385039132995633,1.5745688803109432,-0.681989991280238,-0.057516786527112375,-0.10004085115462934,0.31415926535870914,-0.21444620923030977,-0.0020012341569378292,-0.05750809278469561,4.942110767913332e-11,8.597386857761689e-11,-2.69957947333717e-10,1.8426141381602794e-10,1.7194773715523378e-12,4.942110767913332e-11,-0.7614189378231327,-0.6637038592297179,0.45669708083380545,-0.0004517582156095893,0.9998485935561393,0.012241647384533563,0.012358314919016913
4.4,-2.2575690970974573,-2.1332930646491732,-1.20723163110444,-1.4064837539186734,1.5743687568952494,-0.68774080055871,-0.057516786527112375,-0.10004085115462934,0.31415926535870914,-0.21444620923030977,-0.0020012341569378292,-0.05750809278469561,4.942110767913332e-11,8.597386857761689e-11,-2.69957947333717e-10,1.8426141381602794e-10,1.7194773715523378e-12,4.942110767913332e-11,-0.7701519100529668,-0.6652872031494432,0.46542010398508904,-0.00045302458700514036,0.9998484930860988,0.012246511057527734,0.012361577937262655
4.5,-2.263320775750171,-2.1432971497646407,-1.1758157045685556,-1.4279283748417135,1.5741686334795555,-0.6934916098371819,-0.057516786527112874,-0.10004085115462877,0.3141592653587093,-0.21444620923030996,-0.0020012341569375603,-0.05750809278469573,4.939337417314054e-11,8.590453481263494e-11,-2.6979154629776037e-10,1.8415047979205682e-10,1.7186106994900634e-12,4.938644079664235e-11,-0.7787432425737315,-0.6665689913358772,0.4741430425072623,-0.00045429423331126885,0.9998483823362491,0.012251739435950574,0.012365307805673579
4.6,-2.2690724544028846,-2.1533012348801077,-1.144399778032671,-1.449372995764754,1.5739685100638616,-0.6992424191156541,-0.057516786527112874,-0.10004085115462877,0.3141592653587093,-0.21444620923030996,-0.0020012341569375603,-0.05750809278469573,4.939337417314054e-11,8.590453481263494e-11,-2.6979154629776037e-10,1.8415047979205682e-10,1.7186106994900634e-12,4.938644079664235e-11,-0.7871874741781416,-0.667550780547383,0.4828607148646892,-0.0004555671545233179,0.9998482613066013,0.012257327297469237,0.012369508812265683
4.7,-2.2748241330555983,-2.1633053199955747,-1.1129838514967867,-1.470817616687794,1.5737683866481678,-0.704993228394126,-0.057516786527112874,-0.10004085115462877,0.3141592653587093,-0.21444620923030996,-0.0020012341569375603,-0.05750809278469573,4.939337417314054e-11,8.590453481263494e-11,-2.6979154629776037e-10,1.8415047979205682e-10,1.7186106994900634e-12,4.938644079664235e-11,-0.7954792280754901,-0.6682342919901371,0.49156792346713907,-0.00045684335063663774,0.9998481299971665,0.01226326938257489,0.012374185200345071
4.8,-2.280575811708312,-2.1733094051110418,-1.081567924960902,-1.4922622376108343,1.573568263232474,-0.7107440376725982,-0.057516786527112874,-0.10004085115462877,0.3141592653587093,-0.21444620923030996,-0.0020012341569375603,-0.05750809278469573,4.939337417314054e-11,8.590453481263494e-11,-2.6979154629776037e-10,1.8415047979205682e-10,1.7186106994900634e-12,4.938644079664235e-11,-0.8036132156497182,-0.6686214094777795,0.5002594571726394,-0.0004581228216466697,0.9998479884079562,0.01226956039492456,0.01237934116822253
4.9,-2.286327490361026,-2.1833134902265092,-1.0501519984250178,-1.5137068585338747,1.5733681398167803,-0.7164948469510702,-0.057516786527112874,-0.10004085115462877,0.3141592653587093,-0.21444620923030996,-0.0020012341569375603,-0.05750809278469573,4.939337417314054e-11,8.590453481263494e-11,-2.6979154629776037e-10,1.8415047979205682e-10,1.7186106994900634e-12,4.938644079664235e-11,-0.8115842401564125,-0.6687141774854921,0.5089300937983715,-0.0004594055675485435,0.9998478365389812,0.012276195001685234,0.012384980868930882
5.0,-2.2920791690137396,-2.1933175753419762,-1.0187360718891334,-1.5351514794569148,1.5731680164010864,-0.7222456562295423,-0.057516786527112874,-0.10004085115462877,0.3141592653587093,-0.21444620923030996,-0.0020012341569375603,-0.05750809278469573,4.939337417314054e-11,8.590453481263494e-11,-2.6979154629776037e-10,1.8415047979205682e-10,1.7186106994900634e-12,4.938644079664235e-11,-0.8193872003560514,-0.6685147991000745,0.5175746026384603,-0.0004606915883378687,0.9998476743902533,0.012283167833879335,0.012391108409943383
5.1,-2.2978308476664533,-2.2033216604574437,-0.9873201453532487,-1.5565961003799549,1.5729678929853925,-0.7279964655080143,-0.057516786527112874,-0.10004085115462877,0.3141592653587093,-0.21444620923030996,-0.0020012341569375603,-0.05750809278469573,4.939337417314054e-11,8.590453481263494e-11,-2.6979154629776037e-10,1.8415047979205682e-10,1.7186106994900634e-12,4.938644079664235e-11,-0.8270170940808758,-0.668025633867663,0.5261877469874735,-0.0004619808840098315,0.9998475019617842,0.012290473486734137,0.012397727852897819
5.2,-2.303582526319167,-2.2133257455729107,-0.9559042188173644,-1.5780407213029952,1.5727677695696987,-0.7337472747864864,-0.057516786527112874,-0.10004085115462877,0.3141592653587093,-0.21444620923030996,-0.0020012341569375603,-0.05750809278469573,4.939337417314054e-11,8.590453481263494e-11,-2.6979154629776037e-10,1.8415047979205682e-10,1.7186106994900634e-12,4.938644079664235e-11,-0.8344690217327958,-0.6672491955408201,0.5347642866684799,-0.000463273454559265,0.9998473192535854,0.012298106520030931,0.012404843213319555
5.3,-2.309334204971881,-2.2233298306883778,-0.9244882922814799,-1.5994853422260358,1.5725676461540048,-0.7394980840649584,-0.057516786527112874,-0.10004085115462931,0.3141592653587093,-0.2144462092303097,-0.0020012341569375603,-0.0575080927846956,4.939337417314054e-11,8.590453481263494e-11,-2.6979154629776037e-10,1.8415047979205682e-10,1.7186106994900634e-12,4.938644079664235e-11,-0.8417381897098085,-0.666188149726781,0.5432989805644807,-0.00046456929998124624,0.9998471262656687,0.012306061458457404,0.012412458460349312
5.4,-2.3150858836245947,-2.233333915803845,-0.8930723657455955,-1.6209299631490757,1.5723675227383112,-0.7452488933434305,-0.057516786527112874,-0.10004085115462931,0.3141592653587093,-0.2144462092303097,-0.0020012341569375603,-0.0575080927846956,4.939337417314054e-11,8.590453481263494e-11,-2.6979154629776037e-10,1.8415047979205682e-10,1.7186106994900634e-12,4.938644079664235e-11,-0.8488199137584405,-0.6648453114387152,0.5517865891520466,-0.00046586842027105383,0.9998469229980462,0.012314332791961716,0.012420577516472584
5.5,-2.3208375622773088,-2.2433380009193122,-0.861656439209711,-1.6423745840721158,1.572167399322617,-0.7509997026219024,-0.057516786527112874,-0.10004085115462931,0.3141592653587093,-0.2144462092303097,-0.0020012341569375603,-0.0575080927846956,4.939337417314054e-11,8.590453481263494e-11,-2.6979154629776037e-10,1.8415047979205682e-10,1.7186106994900634e-12,4.938644079664235e-11,-0.8557096222497977,-0.663223642551932,0.560221877035987,-0.0004671708154230855,0.9998467094507298,0.012322914976108922,0.012429204257251652
5.6,-2.3265892409300224,-2.2533420860347797,-0.8302405126738267,-1.6638192049951561,1.5719672759069234,-0.7567505119003746,-0.057516786527112874,-0.10004085115462931,0.3141592653587093,-0.2144462092303097,-0.0020012341569375603,-0.0575080927846956,4.939337417314054e-11,8.590453481263494e-11,-2.6979154629776037e-10,1.8415047979205682e-10,1.7186106994900634e-12,4.938644079664235e-11,-0.8624028593768398,-0.6613262491670278,0.5685996154838705,-0.000468476485432899,0.9998464856237319,0.012331802432438402,0.012438342511061524
5.7,-2.332340919582736,-2.263346171150247,-0.7988245861379424,-1.6852638259181965,1.5717671524912293,-0.7625013211788465,-0.057516786527112874,-0.10004085115462931,0.3141592653587093,-0.2144462092303097,-0.0020012341569375603,-0.0575080927846956,4.939337417314054e-11,8.590453481263494e-11,-2.6979154629776037e-10,1.8415047979205682e-10,1.7186106994900634e-12,4.938644079664235e-11,-0.8688952882705776,-0.6591563788820248,0.5769145849592288,-0.00046978543029483813,0.9998462515170644,0.012340989548823797,0.012447996058824842
5.8,-2.3380925982354497,-2.273350256265714,-0.7674086596020575,-1.7067084468412366,1.5715670290755357,-0.7682521304573187,-0.057516786527112874,-0.10004085115462931,0.3141592653587093,-0.2144462092303097,-0.0020012341569375603,-0.0575080927846956,4.939337417314054e-11,8.590453481263494e-11,-2.6979154629776037e-10,1.8415047979205682e-10,1.7186106994900634e-12,4.938644079664235e-11,-0.8751826940329296,-0.6567174179756347,0.5851615776522622,-0.00047109765000385095,0.9998460071307399,0.012350470679834346,0.012458168633753985
5.9,-2.3438442768881638,-2.283354341381181,-0.7359927330661735,-1.7281530677642765,1.5713669056598418,-0.7740029397357906,-0.057516786527112874,-0.10004085115462931,0.3141592653587093,-0.2144462092303097,-0.0020012341569375603,-0.0575080927846956,4.939337417314054e-11,8.590453481263494e-11,-2.6979154629776037e-10,1.8415047979205682e-10,1.7186106994900634e-12,4.938644079664235e-11,-0.8812609866840486,-0.654012888503822,0.5933354000068746,-0.00047241314455406016,0.9998457524647709,0.012360240147100495,0.01246886392109292
6.0,-2.349595955540877,-2.2933584264966482,-0.7045768065302892,-1.7495976886873166,1.571166782244148,-0.7797537490142625,-0.057516786527112874,-0.10004085115462931,0.3141592653587093,-0.2144462092303097,-0.0020012341569375603,-0.0575080927846956,4.939337417314054e-11,8.590453481263494e-11,-2.6979154629776037e-10,1.8415047979205682e-10,1.7186106994900634e-12,4.938644079664235e-11,-0.8871262040219794,-0.6510464453119174,0.601430875242872,-0.00047373191394090095,0.9998454875191702,0.012370292239676908,0.012480085557861923
6.1,-2.355347634193591,-2.3033625116121157,-0.6731608799944044,-1.771042309610357,1.570966658828454,-0.7855045582927346,-0.057516786527112874,-0.10004085115462931,0.3141592653587093,-0.2144462092303097,-0.0020012341569375603,-0.0575080927846956,4.939337417314054e-11,8.590453481263494e-11,-2.6979154629776037e-10,1.8415047979205682e-10,1.7186106994900634e-12,4.938644079664235e-11,-0.8927745143925916,-0.6478218729645745,0.6094428458721425,-0.0004750539581580117,0.9998452122939503,0.012380621214411188,0.0124918371326055
6.2,-2.3610993128463047,-2.313366596727583,-0.6417449534585201,-1.792486930533397,1.5707665354127602,-0.7912553675712066,-0.05751678652711238,-0.10004085115462935,0.31415926535870914,-0.2144462092303098,-0.0020012341569378292,-0.057508092784695625,4.942110767913332e-11,8.59600018246205e-11,-2.69957947333717e-10,1.8426141381602794e-10,1.7194773715523378e-12,4.941417430263512e-11,-0.8982022193677645,-0.6443430825959449,0.6173661762076592,-0.000476379277200468,0.9998449267891241,0.012391221296312751,0.012504122185142746
6.3,-2.3668509914990183,-2.32337068184305,-0.6103290269226354,-1.8139315514564374,1.5705664119970664,-0.7970061768496787,-0.05751678652711238,-0.10004085115462935,0.31415926535870914,-0.2144462092303098,-0.0020012341569378292,-0.057508092784695625,4.942110767913332e-11,8.59600018246205e-11,-2.69957947333717e-10,1.8426141381602794e-10,1.7194773715523378e-12,4.941417430263512e-11,-0.9034057563299088,-0.6406141086824659,0.6251957548641383,-0.0004777078710623813,0.9998446310047048,0.012402086678923273,0.01251694420632
6.4,-2.3726026701517324,-2.3333747669585176,-0.578913100386751,-1.835376172379478,1.5703662885813725,-0.8027569861281507,-0.05751678652711238,-0.10004085115462935,0.31415926535870914,-0.2144462092303098,-0.0020012341569378292,-0.057508092784695625,4.942110767913332e-11,8.59600018246205e-11,-2.69957947333717e-10,1.8426141381602794e-10,1.7194773715523378e-12,4.941417430263512e-11,-0.908381700960938,-0.6366391057407452,0.6329264972491869,-0.00047903973973799564,0.9998443249407053,0.012413211524691112,0.012530306637767774
6.5,-2.3783543488044456,-2.3433788520739847,-0.547497173850867,-1.8568207933025176,1.5701661651656786,-0.8085077954066227,-0.05751678652711238,-0.10004085115462935,0.31415926535870914,-0.2144462092303098,-0.0020012341569378292,-0.057508092784695625,4.942110767913332e-11,8.59600018246205e-11,-2.69957947333717e-10,1.8426141381602794e-10,1.7194773715523378e-12,4.941417430263512e-11,-0.9131267696338992,-0.6324223449530515,0.6405533480437966,-0.000480374883221979,0.9998440085971387,0.01242458996534309,0.012544212871656751
6.6,-2.3841060274571597,-2.353382937189452,-0.5160812473149823,-1.878265414225558,1.5699660417499848,-0.8142586046850948,-0.05751678652711238,-0.10004085115462935,0.31415926535870914,-0.2144462092303098,-0.0020012341569378292,-0.057508092784695625,4.942110767913332e-11,8.59600018246205e-11,-2.69957947333717e-10,1.8426141381602794e-10,1.7194773715523378e-12,4.941417430263512e-11,-0.9176378217055355,-0.6279682107229784,0.6480712836710123,-0.0004817133015077578,0.9998436819740186,0.01243621610226345,0.012558666250461228
6.7,-2.38963737951062,-2.3630038009559495,-0.4858687545371338,-1.8988885670719653,1.5697735843591634,-0.8197891206669858,-0.051079771347021984,-0.08884473752599399,0.2790000000001202,-0.19044637218312613,-0.0017772652006566591,-0.051072050568417834,0.09154080884346766,0.15921995968546318,-0.4999999998791522,0.3413017421810498,0.003185063082842966,0.09152697232267741,-0.9217525386784351,-0.6234649746341865,0.6551938501796265,-0.00048300353872244987,0.9998433581662598,0.01244762500756513,0.012573085145219794
6.8,-2.394296234053511,-2.3711071009144193,-0.46042188225893516,-1.9162586907593782,1.56961148457219,-0.8244472710175222,-0.04192569046043865,-0.0729227415535584,0.228999999999988,-0.15631619795668392,-0.0014587588922945459,-0.0419193533339141,0.09154080886792032,0.15921995972798472,-0.5000000000127398,0.3413017422721991,0.003185063083693848,0.09152697234712313,-0.9250462808931157,-0.6195079685407072,0.6611079561690979,-0.00048409260788493216,0.9998430780589672,0.012457403891875997,0.012585626730183925
6.9,-2.3980396805077464,-2.3776182012756495,-0.4399750099807375,-1.9302157970241551,1.569481235416053,-0.8281901516446105,-0.032771609573855436,-0.05700074558112304,0.1789999999998565,-0.12218602373024218,-0.0011402525839324371,-0.032766656099410485,0.09154080889212318,0.15921995977007605,-0.5000000001449119,0.3413017423624186,0.0031850630845356226,0.09152697237131906,-0.9275778835548005,-0.6162215440969,0.6658018274502786,-0.0004849692450440612,0.9998428481025547,0.012465371402771907,0.012595968354749706
7.0,-2.4008677188733256,-2.3825371020396395,-0.42452813770254055,-1.9407598858662967,1.5693828368907516,-0.8310177625482508,-0.023617528687315616,-0.04107874960876313,0.128999999999962,-0.0880558495039622,-0.0008217462755718379,-0.023613958864950258,0.09154080887249698,0.1592199597359453,-0.5000000000377198,0.34130174228925925,0.003185063083852989,0.09152697235169982,-0.9294220145882844,-0.6136764635472058,0.6693126041883097,-0.0004856324325422144,0.999842671491438,0.012471454499761022,0.01260393782375384
7.1,-2.4027803491502495,-2.3858638032063912,-0.4140812654243428,-1.9478909572858034,1.5693162889962866,-0.8329301037284432,-0.014463447800765125,-0.025156753636384668,0.07900000000000923,-0.05392567527764244,-0.0005032399672108674,-0.014461261630479363,0.09154080886377826,0.15921995972078035,-0.49999999999009126,0.34130174225675747,0.0031850630835495207,0.09152697234298283,-0.9306356746172124,-0.6119251262149628,0.6716694396754562,-0.00048608140157671705,0.9998425506388797,0.012475599343947522,0.012609404340401042
7.2,-2.4037775713385168,-2.387598304775903,-0.40863439314614575,-1.9516090112826745,1.569281591732658,-0.8339271751851876,-0.005309366914205032,-0.009234757663989505,0.029000000000004005,-0.019795501051286888,-0.00018473365884956285,-0.0053085643959988665,0.09154080886466752,0.15921995972232855,-0.4999999999949554,0.3413017422600764,0.0031850630835806005,0.09152697234387212,-0.9312576910378156,-0.6110024462539574,0.6728925817742454,-0.00048631563220010587,0.9998424871769912,0.012477770179753309,0.012612279103133202
7.258937445,-2.4039365604447127,-2.3878748397923486,-0.40776598752374504,-1.9522017879865081,1.5692760598792788,-0.8340861402599586,2.785451869234936e-17,4.844828660884271e-17,-1.521426292684825e-16,1.0385308888377173e-16,9.691677438536372e-19,2.785030844304171e-17,0.09154080881973287,0.1592199596441718,-0.4999999997495188,0.34130174209254066,0.0031850630820171163,0.09152697229894385,-0.9313561767982871,-0.6108547387349582,0.6730872273150817,-0.0004863529851501752,0.9998424770305768,0.01247811689598499,0.012612738991367943
