mathias31415/primitives_from_planned_trajectory_python/data/saved_trajectories/trajectory_20250618_171723_planned.csv
time_from_start,shoulder_pan_joint_pos,shoulder_lift_joint_pos,elbow_joint_pos,wrist_1_joint_pos,wrist_2_joint_pos,wrist_3_joint_pos,shoulder_pan_joint_vel,shoulder_lift_joint_vel,elbow_joint_vel,wrist_1_joint_vel,wrist_2_joint_vel,wrist_3_joint_vel,shoulder_pan_joint_acc,shoulder_lift_joint_acc,elbow_joint_acc,wrist_1_joint_acc,wrist_2_joint_acc,wrist_3_joint_acc,fk_x,fk_y,fk_z,fk_qx,fk_qy,fk_qz,fk_qw
0.0,0.7241106716727198,-1.6086658949004082,2.2111475649869448,-2.1383268953176797,-1.5727072612362694,-0.8472638471523704,8.991747657206787e-05,-3.398065290855358e-05,-0.0005000000000000001,0.00011820590194317146,-0.00011965598997596952,-0.0002379479581125168,0.08991747657206788,-0.03398065290855358,-0.5000000000000001,0.11820590194317146,-0.11965598997596952,-0.2379479581125168,-0.30683401158138124,-0.5035389996050131,0.3484030053608934,-0.00030574809443730715,0.9998468034488128,0.012288443953091891,0.012460750238471386
0.1,0.7245602590555802,-1.608835798164951,2.208647564986945,-2.1377358658079637,-1.5733055411861492,-0.8484535869429329,0.008991747657206698,-0.0033980652908553242,-0.049999999999999524,0.01182059019431703,-0.011965598997596834,-0.023794795811251445,0.08991747657199892,-0.03398065290852742,-0.49999999999961836,0.11820590194308057,-0.1196559899758787,-0.23794795811233455,-0.3074098365052441,-0.504293893088653,0.34989846308206324,-0.001129228558047605,0.9998635057528117,0.011820040701109516,0.011488313382952794
0.2,0.7259090212041611,-1.6093455079585794,2.2011475649869445,-2.135962777278816,-1.5751003810357889,-0.8520228063146208,0.017983495314413716,-0.006796130581710769,-0.10000000000000081,0.02364118038863448,-0.02393119799519409,-0.04758959162250374,0.08991747657227647,-0.03398065290863281,-0.5000000000011657,0.1182059019434466,-0.11965598997624646,-0.237947958113077,-0.30911625114136065,-0.5065468839106111,0.3544018621560695,-0.003596077260571348,0.9999025378785844,0.01041912763732631,0.008568824398913304
0.30000000000000004,0.7281569581184628,-1.6101950242812932,2.188647564986945,-2.133007629730237,-1.578091780785188,-0.8579715052674336,0.026975242971620687,-0.010194195872566196,-0.15000000000000183,0.035461770582951864,-0.03589679699279129,-0.0713843874337559,0.08991747657232504,-0.03398065290865189,-0.5000000000014155,0.11820590194350905,-0.11965598997631238,-0.2379479581132019,-0.31188992369139723,-0.5102623502321937,0.36196367650604655,-0.007695309880429187,0.9999307651550304,0.00809861808358733,0.0036958743830740604
0.4,0.7313040697984852,-1.6113843471330924,2.1711475649869447,-2.1288704231622257,-1.582279740434347,-0.8662996838013717,0.03596699062882656,-0.013592261163421207,-0.19999999999999676,0.04728236077726781,-0.04786239599038702,-0.09517918324500516,0.08991747657124258,-0.033980652908242495,-0.49999999999542033,0.11820590194208658,-0.11965598997486909,-0.23794795811034308,-0.3156248235826169,-0.5153790879649687,0.37266600035082204,-0.013407934995102204,0.999893267907749,0.0048801094386006875,-0.0031407966818638162
0.5,0.7353503562442283,-1.6129134765139774,2.1486475649869448,-2.1235511575747834,-1.5876642599832653,-0.8770073419164349,0.04495873828603562,-0.016990326454277425,-0.25000000000000944,0.05910295097158794,-0.059827994987987,-0.11897397905626285,0.089917476573352,-0.03398065290903873,-0.5000000000071609,0.11820590194486214,-0.11965598997767934,-0.23794795811592195,-0.3201715999358733,-0.5218075914628914,0.3866194487547984,-0.02070593952040131,0.9997138188487558,0.0007939879563234871,-0.011954666642771497
0.6000000000000001,0.7402958174556921,-1.6147824124239478,2.1211475649869445,-2.1170498329679086,-1.5942453394319438,-0.8900944796126236,0.05395048594324255,-0.02038839174513284,-0.30000000000001026,0.07092354116590528,-0.07179359398558414,-0.1427687748675149,0.08991747657333812,-0.033980652909035264,-0.5000000000070499,0.11820590194483438,-0.11965598997765159,-0.23794795811585256,-0.3253369013676379,-0.5294263158715617,0.40395871028511243,-0.02955089261598906,0.9992955913469639,-0.004120440606019266,-0.022761542771355524
0.7000000000000001,0.745909435191537,-1.6169038509152758,2.0899321775569732,-2.109670146916578,-1.6017155556027771,-0.9049497550139292,0.05649681676562455,-0.021350673908337947,-0.3141592653589593,0.07427095863111985,-0.07518207581329915,-0.14950711142858536,-3.5914890260661586e-12,1.3589417936466546e-12,1.9968124314807987e-11,-4.714696018774108e-12,4.78402978375608e-12,9.512592555526583e-12,-0.3306751355719273,-0.5377425552939509,0.4240037497453367,-0.039485820334075834,0.9985584066772671,-0.009592074920262999,-0.03507093590748262
0.8,0.7515591168680996,-1.6190389183061096,2.0585162510210764,-2.102243051053466,-1.6092337631841074,-0.9199004661567881,0.05649681676562455,-0.021350673908337947,-0.3141592653589593,0.07427095863111985,-0.07518207581329915,-0.14950711142858536,-3.5914890260661586e-12,1.3589417936466546e-12,1.9968124314807987e-11,-4.714696018774108e-12,4.78402978375608e-12,9.512592555526583e-12,-0.33548175057702817,-0.5457394653644564,0.4445470508504993,-0.049365632916220384,0.9975380590566043,-0.014983720344434221,-0.04750098046360082
0.9,0.7572087985446623,-1.6211739856969434,2.027100324485179,-2.0948159551903536,-1.6167519707654376,-0.9348511772996471,0.05649681676562455,-0.021350673908337947,-0.3141592653589593,0.07427095863111985,-0.07518207581329915,-0.14950711142858536,-3.5914890260661586e-12,1.3589417936466546e-12,1.9968124314807987e-11,-4.714696018774108e-12,4.78402978375608e-12,9.512592555526583e-12,-0.3397189226520667,-0.5533454572831452,0.46543929281318447,-0.05911974867964794,0.9962420330360102,-0.02025936635508695,-0.05996853344231922
1.0,0.762858480221225,-1.6233090530877772,1.9956843979492822,-2.0873888593272416,-1.6242701783467677,-0.9498018884425061,0.05649681676562052,-0.021350673908336424,-0.3141592653589369,0.07427095863111455,-0.0751820758132938,-0.1495071114285747,-7.619780771517896e-12,2.8808179350006244e-12,4.2376797156976694e-11,-1.0011795663395672e-11,1.0136596440363208e-11,2.0162258856755272e-11,-0.3433857328833634,-0.5605439093263607,0.48665831888553096,-0.06874189504351977,0.9946741350822412,-0.02541858975400347,-0.07246938773812418
1.1,0.7685081618977874,-1.625444120478611,1.9642684714133865,-2.0799617634641296,-1.6317883859280977,-0.9647525995853647,0.05649681676562052,-0.021350673908336424,-0.3141592653589369,0.07427095863111455,-0.0751820758132938,-0.1495071114285747,-7.619780771517896e-12,2.8808179350006244e-12,4.2376797156976694e-11,-1.0011795663395672e-11,1.0136596440363208e-11,2.0162258856755272e-11,-0.34648206214467137,-0.5673186103392936,0.5081816123895708,-0.07822591979121774,0.9928383270749856,-0.030461035293965735,-0.08499933583612075
1.2,0.7741578435743498,-1.6275791878694448,1.9328525448774905,-2.0725346676010177,-1.6393065935094275,-0.9797033107282231,0.05649681676562067,-0.021350673908336434,-0.314159265358937,0.07427095863111405,-0.07518207581329382,-0.14950711142857476,-7.598980642023308e-12,2.8704178702533297e-12,4.226586313300555e-11,-9.997928910399278e-12,1.0108862934370421e-11,2.01067918447697e-11,-0.3490085867455867,-0.5736537860959466,0.5299863211014983,-0.08756579491639724,0.9907387227584155,-0.0353864155734814,-0.09755417151790113
1.3,0.7798075252509122,-1.6297142552602786,1.9014366183415947,-2.0651075717379057,-1.6468248010907574,-0.9946540218710817,0.05649681676562067,-0.021350673908336434,-0.314159265358937,0.07427095863111405,-0.07518207581329382,-0.14950711142857476,-7.598980642023308e-12,2.8704178702533297e-12,4.226586313300555e-11,-9.997928910399278e-12,1.0108862934370421e-11,2.01067918447697e-11,-0.35096677293847495,-0.5795341251447341,0.5520492820122149,-0.09675562036660755,0.9883795840957449,-0.04019451089829337,-0.11012969156336537
1.4,0.7854572069274747,-1.6318493226511126,1.870020691805699,-2.0576804758747937,-1.6543430086720874,-1.0096047330139402,0.05649681676562067,-0.021350673908336434,-0.314159265358937,0.07427095863111405,-0.07518207581329382,-0.14950711142857476,-7.598980642023308e-12,2.8704178702533297e-12,4.226586313300555e-11,-9.997928910399278e-12,1.0108862934370421e-11,2.01067918447697e-11,-0.35235887029546437,-0.584944804099179,0.5743470464369251,-0.10578962768201364,0.9857653175296998,-0.044885169109791165,-0.12272169744774832
1.5,0.7911068886040371,-1.6339843900419462,1.8386047652698032,-2.0502533800116822,-1.661861216253417,-1.0245554441567988,0.05649681676562067,-0.021350673908336434,-0.314159265358937,0.07427095863111405,-0.07518207581329382,-0.14950711142857476,-7.598980642023308e-12,2.8704178702533297e-12,4.226586313300555e-11,-9.997928910399278e-12,1.0108862934370421e-11,2.01067918447697e-11,-0.35318790396871674,-0.5898715123338769,0.596855905446162,-0.11466218352682818,0.9829004701518611,-0.04945830538045046,-0.13532599703310716
1.6,0.7967565702805997,-1.63611945743278,1.8071888387339072,-2.0428262841485703,-1.669379423834747,-1.0395061552996572,0.05649681676562067,-0.021350673908336434,-0.314159265358937,0.07427095863111405,-0.07518207581329382,-0.14950711142857476,-7.598980642023308e-12,2.8704178702533297e-12,4.226586313300555e-11,-9.997928910399278e-12,1.0108862934370421e-11,2.01067918447697e-11,-0.35345766584884325,-0.5943004760466986,0.6195519155902639,-0.12336779311114483,0.9797897257839184,-0.053913901976445515,-0.14793840625352825
1.7000000000000002,0.8024062519571622,-1.6382545248236138,1.7757729121980108,-2.035399188285458,-1.676897631416077,-1.0544568664425158,0.05649681676562874,-0.021350673908339484,-0.3141592653589819,0.07427095863112466,-0.07518207581330456,-0.14950711142859613,4.645362253792651e-13,-1.7680110070404866e-13,-2.606949563322443e-12,6.101371318414229e-13,-6.240038848378188e-13,-1.2480077696756377e-12,-0.3531727046379474,-0.5982184816490421,0.6424109248889824,-0.13190110350095333,0.9764379009739127,-0.058252007987597394,-0.1605547507933141
1.8,0.808055933633725,-1.6403895922144478,1.7443569856621128,-2.0279720924223454,-1.6844158389974075,-1.0694075775853755,0.05649681676562874,-0.021350673908339484,-0.3141592653589819,0.07427095863112466,-0.07518207581330456,-0.14950711142859613,4.645362253792651e-13,-1.7680110070404866e-13,-2.606949563322443e-12,6.101371318414229e-13,-6.240038848378188e-13,-1.2480077696756377e-12,-0.35233831485537676,-0.6016128984468602,0.6654085990576082,-0.14025690681419736,0.9728499409106175,-0.06247273902482972,-0.17317086775741874
1.9,0.8137056153102878,-1.6425246596052816,1.7129410591262146,-2.020544996559233,-1.691934046578738,-1.084358288728235,0.05649681676562874,-0.021350673908339484,-0.3141592653589819,0.07427095863112466,-0.07518207581330456,-0.14950711142859613,4.645362253792651e-13,-1.7680110070404866e-13,-2.606949563322443e-12,6.101371318414229e-13,-6.240038848378188e-13,-1.2480077696756377e-12,-0.3509605247958268,-0.6044717005761497,0.6885204479407248,-0.14843014330082713,0.9690309152592551,-0.06657627688532441,-0.18578260733339583
2.0,0.8193552969868507,-1.6446597269961156,1.6815251325903167,-2.0131179006961206,-1.6994522541600683,-1.0993089998710945,0.05649681676560367,-0.02135067390833001,-0.3141592653588425,0.0742709586310917,-0.0751820758132712,-0.14950711142852977,-2.4585753062604606e-11,9.29072450758324e-12,1.3672618454443397e-10,-3.2323401234591843e-11,3.271167031849084e-11,6.506280505907547e-11,-0.3490460834609772,-0.6067834881576194,0.7117218521244753,-0.15641590430489027,0.9649860139217991,-0.07056286918558387,-0.19838583444414365
2.1,0.8250049786634136,-1.6467947943869496,1.6501092060544187,-2.005690804833008,-1.706970461741399,-1.114259711013954,0.056496816765628594,-0.02135067390833948,-0.31415926535898153,0.07427095863112516,-0.07518207581330454,-0.14950711142859607,3.9520246039728525e-13,-1.5253428296035571e-13,-2.218680479423356e-12,5.26936613863047e-13,-5.26936613863047e-13,-1.053873227726094e-12,-0.34660244648733546,-0.6085375076363242,0.7349880896980042,-0.16420943510678762,0.9607205427251579,-0.07443282896261855,-0.21097643039071756
2.2,0.8306546603399765,-1.6489298617777837,1.6186932795185207,-1.9982637089698958,-1.7144886693227295,-1.1292104221568136,0.056496816765628594,-0.02135067390833948,-0.31415926535898153,0.07427095863112516,-0.07518207581330454,-0.14950711142859607,3.9520246039728525e-13,-1.5253428296035571e-13,-2.218680479423356e-12,5.26936613863047e-13,-5.26936613863047e-13,-1.053873227726094e-12,-0.3436377610944279,-0.6097236712731908,0.7582943631345798,-0.17180613764391747,0.9562399190405951,-0.07818653424349717,-0.22355029448449776
2.3,0.8363043420165392,-1.6510649291686175,1.5872773529826225,-1.9908366131067832,-1.7220068769040597,-1.1441611332996733,0.056496816765628594,-0.02135067390833948,-0.31415926535898153,0.07427095863112516,-0.07518207581330454,-0.14950711142859607,3.9520246039728525e-13,-1.5253428296035571e-13,-2.218680479423356e-12,5.26936613863047e-13,-5.26936613863047e-13,-1.053873227726094e-12,-0.3401608500789019,-0.6103325757565412,0.7816158262627533,-0.17920157310802468,0.9515496673377672,-0.08182442758350762,-0.23610334566800437
2.4,0.841954023693102,-1.6531999965594513,1.5558614264467243,-1.9834095172436705,-1.72952508448539,-1.1591118444425328,0.056496816765628594,-0.02135067390833948,-0.31415926535898153,0.07427095863112516,-0.07518207581330454,-0.14950711142859607,3.9520246039728525e-13,-1.5253428296035571e-13,-2.218680479423356e-12,5.26936613863047e-13,-5.26936613863047e-13,-1.053873227726094e-12,-0.33618119488148196,-0.6103555199029602,0.8049276112978103,-0.1863914644176618,0.9466554146768174,-0.08534701557319627,-0.24863152412365375
2.5,0.8476037053696649,-1.6553350639502853,1.5244454999108266,-1.9759824213805581,-1.7370432920667205,-1.1740625555853923,0.056496816765628594,-0.02135067390833948,-0.31415926535898153,0.07427095863112516,-0.07518207581330454,-0.14950711142859607,3.9520246039728525e-13,-1.5253428296035571e-13,-2.218680479423356e-12,5.26936613863047e-13,-5.26936613863047e-13,-1.053873227726094e-12,-0.3317089177550668,-0.6097845214181281,0.8282048559036944,-0.19337169856426736,0.9415628861419965,-0.08875486831456297,-0.26113079286975793
2.6,0.8532533870462277,-1.6574701313411193,1.4930295733749284,-1.9685553255174457,-1.744561499648051,-1.1890132667282518,0.056496816765628594,-0.02135067390833948,-0.31415926535898153,0.07427095863112516,-0.07518207581330454,-0.14950711142859607,3.9520246039728525e-13,-1.5253428296035571e-13,-2.218680479423356e-12,5.26936613863047e-13,-5.26936613863047e-13,-1.053873227726094e-12,-0.32675476306354706,-0.6086123326895787,0.8514227302555394,-0.20013832883046126,0.936277900220317,-0.09204861886670701,-0.2735971393430786
2.7,0.8589030687227905,-1.6596051987319531,1.4616136468390304,-1.9611282296543333,-1.7520797072293814,-1.2039639778711113,0.056496816765628594,-0.02135067390833948,-0.31415926535898153,0.07427095863112516,-0.07518207581330454,-0.14950711142859607,3.9520246039728525e-13,-1.5253428296035571e-13,-2.218680479423356e-12,5.26936613863047e-13,-5.26936613863047e-13,-1.053873227726094e-12,-0.3213300777421703,-0.6068324555847111,0.8745564640729437,-0.20668757687925154,0.9308063641287851,-0.09522896266123054,-0.2860265769672476
2.8,0.8645527503993534,-1.6617402661227871,1.4301977203031324,-1.9537011337912207,-1.7595979148107117,-1.2189146890139708,0.056496816765628594,-0.02135067390833948,-0.31415926535898153,0.07427095863112516,-0.07518207581330454,-0.14950711142859607,3.9520246039728525e-13,-1.5253428296035571e-13,-2.218680479423356e-12,5.26936613863047e-13,-5.26936613863047e-13,-1.053873227726094e-12,-0.31544679095147843,-0.6044391552288054,0.897581373594147,-0.21301583471295013,0.9251542690937831,-0.09829665688772397,-0.29841514670637986
2.9,0.8702024320759163,-1.6638753335136212,1.3987817937672344,-1.9462740379281085,-1.7671161223920422,-1.2338654001568305,0.056496816765628594,-0.021350673908339477,-0.3141592653589818,0.0742709586311249,-0.07518207581330454,-0.14950711142859607,4.5066947238286914e-13,-1.6986772420585068e-13,-2.4960155393512754e-12,5.962703788450269e-13,-5.962703788450269e-13,-1.1925407576900537e-12,-0.30911739295799806,-0.6014274727392466,0.9204728884613231,-0.21911966650068807,0.9193276855862035,-0.10125251984966589,-0.31075891860320737
3.0,0.8758521137524791,-1.666010400904455,1.3673658672313362,-1.9388469420649959,-1.7746343299733724,-1.2488161112996898,0.056496816765628594,-0.021350673908339477,-0.3141592653589818,0.0742709586311249,-0.07518207581330454,-0.14950711142859607,4.5066947238286914e-13,-1.6986772420585068e-13,-2.4960155393512754e-12,5.962703788450269e-13,-5.962703788450269e-13,-1.1925407576900537e-12,-0.3023549132759497,-0.5977932368936663,0.9432065784872996,-0.22499581027352233,0.9133327585159662,-0.10409743029109148,-0.32305399330107065
3.1,0.881501795429042,-1.668145468295289,1.3359499406954383,-1.9314198462018835,-1.782152537554703,-1.2637668224425496,0.056496816765628594,-0.021350673908339477,-0.3141592653589818,0.0742709586311249,-0.07518207581330454,-0.14950711142859607,4.5066947238286914e-13,-1.6986772420585068e-13,-2.4960155393512754e-12,5.962703788450269e-13,-5.962703788450269e-13,-1.1925407576900537e-12,-0.29517289810529435,-0.5935330747112273,0.9657581802741415,-0.2306411794862259,0.9071757023895666,-0.10683232669438854,-0.3352965035491161
3.2,0.8871514771056048,-1.6702805356861228,1.3045340141595403,-1.923992750338771,-1.7896707451360334,-1.278717533585409,0.056496816765628594,-0.021350673908339477,-0.3141592653589818,0.0742709586311249,-0.07518207581330454,-0.14950711142859607,4.5066947238286914e-13,-1.6986772420585068e-13,-2.4960155393512754e-12,5.962703788450269e-13,-5.962703788450269e-13,-1.1925407576900537e-12,-0.28758538710241893,-0.5886444209278721,0.9881036236541906,-0.23605286444495271,0.9008627964343277,-0.10945820654960171,-0.3474826156900524
3.3,0.8928011587821676,-1.6724156030769568,1.2731180876236423,-1.9165656544756584,-1.797188952717364,-1.2936682447282686,0.056496816765628594,-0.021350673908339477,-0.3141592653589818,0.0742709586311249,-0.07518207581330454,-0.14950711142859607,4.5066947238286914e-13,-1.6986772420585068e-13,-2.4960155393512754e-12,5.962703788450269e-13,-5.962703788450269e-13,-1.1925407576900537e-12,-0.27960688952069146,-0.5831255263479178,1.010219057924345,-0.24122813360006962,0.8944003796930472,-0.1119761255956315,-0.35960853112982644
3.4,0.8984508404587304,-1.6745506704677906,1.2417021610877441,-1.909138558612546,-1.8047071602986944,-1.308618955871128,0.056496816765628594,-0.021350673908339477,-0.3141592653589818,0.0742709586311249,-0.07518207581330454,-0.14950711142859607,4.5066947238286914e-13,-1.6986772420585068e-13,-2.4960155393512754e-12,5.962703788450269e-13,-5.962703788450269e-13,-1.1925407576900537e-12,-0.2712523597589938,-0.5769754650560477,1.0320808778445876,-0.2461644347035496,0.8877948460927425,-0.11438719703373373,-0.3716704877885938
3.5,0.9041005221352933,-1.6766857378586248,1.2102862345518464,-1.9017114627494336,-1.8122253678800249,-1.3235696670139876,0.056496816765628594,-0.021350673908339477,-0.3141592653589818,0.0742709586311249,-0.07518207581330454,-0.14950711142859607,4.5066947238286914e-13,-1.6986772420585068e-13,-2.4960155393512754e-12,5.962703788450269e-13,-5.962703788450269e-13,-1.1925407576900537e-12,-0.2625371723571482,-0.5701941404753702,1.0536657493720294,-0.25085939583042033,0.8810526394912102,-0.11669259071373311,-0.3836647615323634
3.6,0.9097502038118561,-1.6788208052494586,1.178870308015948,-1.894284366886321,-1.8197435754613553,-1.338520378156847,0.056496816765628594,-0.021350673908339477,-0.3141592653589818,0.0742709586311249,-0.07518207581330454,-0.14950711142859607,4.5066947238286914e-13,-1.6986772420585068e-13,-2.4960155393512754e-12,5.962703788450269e-13,-5.962703788450269e-13,-1.1925407576900537e-12,-0.25347709647791045,-0.562782290258921,1.0749506351020166,-0.25531082626386303,0.8741802487051286,-0.11889353229338107,-0.3955876675847035
3.7,0.9153998854884189,-1.6809558726402927,1.14745438148005,-1.8868572710232085,-1.8272617830426856,-1.3534710892997068,0.056496816765628594,-0.021350673908339477,-0.3141592653589818,0.0742709586311249,-0.07518207581330454,-0.14950711142859607,4.5066947238286914e-13,-1.6986772420585068e-13,-2.4960155393512754e-12,5.962703788450269e-13,-5.962703788450269e-13,-1.1925407576900537e-12,-0.24408826991588856,-0.5547414900036706,1.0959128193881749,-0.2595167172436652,0.867184202523433,-0.12099130237129785,-0.4074355619179142
3.8,0.9210495671649818,-1.6830909400311265,1.116038454944152,-1.8794301751600961,-1.834779990624016,-1.3684218004425663,0.056496816765628725,-0.021350673908339217,-0.3141592653589818,0.0742709586311249,-0.07518207581330454,-0.14950711142859607,4.5066947238286914e-13,-1.6986772420585068e-13,-2.4960155393512754e-12,5.962703788450269e-13,-5.962703788450269e-13,-1.1925407576900537e-12,-0.23438717267438058,-0.5460741557778261,1.116529933113614,-0.2634752425778205,0.8600710647097031,-0.12298723559395167,-0.4192048426230715
3.9,0.9266992488415446,-1.6852260074219605,1.084622528408254,-1.8720030792969837,-1.8422981982053463,-1.383372511585426,0.056496816765628725,-0.021350673908339217,-0.3141592653589818,0.0742709586311249,-0.07518207581330454,-0.14950711142859607,4.5066947238286914e-13,-1.6986772420585068e-13,-2.4960155393512754e-12,5.962703788450269e-13,-5.962703788450269e-13,-1.1925407576900537e-12,-0.22439060015168363,-0.5367835454539569,1.1367799780858976,-0.2671847591171833,0.8528474289973003,-0.12488271973714056,-0.43089195125836666
4.0,0.9323489305181075,-1.6873610748127943,1.053206601872356,-1.8645759834338715,-1.849816405786677,-1.3983232227282854,0.056496816765628725,-0.021350673908339217,-0.3141592653589818,0.0742709586311249,-0.07518207581330454,-0.14950711142859607,4.5066947238286914e-13,-1.6986772420585068e-13,-2.4960155393512754e-12,5.962703788450269e-13,-5.962703788450269e-13,-1.1925407576900537e-12,-0.21411563597892985,-0.5268737588422171,1.1566413510287936,-0.2706438070931782,0.8455199140809881,-0.12667919476245365,-0.44249337417516804
4.1,0.9379986121946678,-1.6894961422036272,1.0217906753364716,-1.8571488875707618,-1.8573346133680038,-1.4132739338711384,0.05649681676557857,-0.021350673908320267,-0.314159265358703,0.07427095863105898,-0.0751820758132378,-0.14950711142846335,-4.966377585657014e-11,1.8765183492364524e-11,2.761147856641141e-10,-6.527080635400688e-11,6.608894478079389e-11,1.3142908489978271e-10,-0.20357962455194564,-0.5163497366197168,1.1760928671442565,-0.27385111031867276,0.8380951586087774,-0.12837815184919865,-0.45400564382124436
4.2,0.9436482938712282,-1.6916312095944601,0.9903747488005876,-1.849721791707653,-1.864852820949331,-1.4282246450139913,0.05649681676557857,-0.021350673908320267,-0.314159265358703,0.07427095863105898,-0.0751820758132378,-0.14950711142846335,-4.966377585657014e-11,1.8765183492364524e-11,2.761147856641141e-10,-6.527080635400688e-11,6.608894478079389e-11,1.3142908489978271e-10,-0.19280014329996947,-0.5052172580538311,1.1951137832186183,-0.2768055762522212,0.8305798161776958,-0.12998113240230005,-0.4654253400206273
4.3,0.9492979755477884,-1.6937662769852933,0.9589588222647036,-1.8422946958445436,-1.872371028530658,-1.4431753561568441,0.05649681676557857,-0.021350673908320267,-0.314159265358703,0.07427095863105898,-0.0751820758132378,-0.14950711142846335,-4.966377585657014e-11,1.8765183492364524e-11,2.761147856641141e-10,-6.527080635400688e-11,6.608894478079389e-11,1.3142908489978271e-10,-0.1817949747344374,-0.49348293751908706,1.2136838202473321,-0.27950629592598164,0.8229805503372385,-0.13148972703667056,-0.47674909122952236
4.4,0.9549476572243489,-1.6959013443761262,0.9275428957288192,-1.8348675999814346,-1.8798892361119852,-1.4581260672996972,0.05649681676557857,-0.021350673908320267,-0.314159265358703,0.07427095863105898,-0.0751820758132378,-0.14950711142846335,-4.966377585657014e-11,1.8765183492364524e-11,2.761147856641141e-10,-6.527080635400688e-11,6.608894478079389e-11,1.3142908489978271e-10,-0.17058207832119543,-0.48115421980896256,1.2317831855533177,-0.28195254373772227,0.8153040296041619,-0.13290557453858493,-0.4879735757677994
4.5,0.9605973389009091,-1.698036411766959,0.8961269691929352,-1.8274405041183253,-1.8874074436933121,-1.47307677844255,0.05649681676557857,-0.021350673908320267,-0.314159265358703,0.07427095863105898,-0.0751820758132378,-0.14950711142846335,-4.966377585657014e-11,1.8765183492364524e-11,2.761147856641141e-10,-6.527080635400688e-11,6.608894478079389e-11,1.3142908489978271e-10,-0.15917956221972812,-0.46823937424577733,1.2493925943743873,-0.2841437771074235,0.8075569224923287,-0.13423036080458386,-0.4990955230255197
4.6,0.9662470205774696,-1.7001714791577922,0.8647110426570511,-1.8200134082552162,-1.8949256512746393,-1.4880274895854029,0.05649681676557832,-0.021350673908320527,-0.3141592653587027,0.07427095863105924,-0.07518207581323781,-0.14950711142846337,-4.971230949205751e-11,1.878598362185911e-11,2.763921207240419e-10,-6.534014011898884e-11,6.614441179277945e-11,1.3154001892375384e-10,-0.1476056549330739,-0.4547474875936179,1.2664932908958657,0.2860796359990858,-0.7997458925612657,0.13546581775845307,0.510111714644007
4.7,0.9718967022540299,-1.7023065465486253,0.8332951161211672,-1.812586312392107,-1.9024438588559665,-1.5029782007282557,0.05649681676557832,-0.021350673908320527,-0.3141592653587027,0.07427095863105924,-0.07518207581323781,-0.14950711142846337,-4.971230949205751e-11,1.878598362185911e-11,2.763921207240419e-10,-6.534014011898884e-11,6.614441179277945e-11,1.3154001892375384e-10,-0.13587867691214175,-0.44068845578101595,1.2830670687051138,0.2877599423084519,-0.7918775934870853,0.1366137222468266,0.5210189856709693
4.8,0.9775463839305902,-1.704441613939458,0.801879189585283,-1.8051592165289978,-1.9099620664372936,-1.5179289118711086,0.05649681676557832,-0.021350673908320527,-0.3141592653587027,0.07427095863105924,-0.07518207581323781,-0.14950711142846337,-4.971230949205751e-11,1.878598362185911e-11,2.763921207240419e-10,-6.534014011898884e-11,6.614441179277945e-11,1.3154001892375384e-10,-0.1240170121581031,-0.42607297444187237,1.299096290645322,0.2891846991174502,-0.7839586641593949,0.1376758949139801,0.5318142256891982
4.9,0.9831960656071506,-1.7065766813302914,0.7704632630493988,-1.7977321206658887,-1.9174802740186208,-1.5328796230139619,0.05649681676557832,-0.021350673908320527,-0.3141592653587027,0.07427095863105924,-0.07518207581323781,-0.14950711142846337,-4.971230949205751e-11,1.878598362185911e-11,2.763921207240419e-10,-6.534014011898884e-11,6.614441179277945e-11,1.3154001892375384e-10,-0.11203907986644432,-0.410912528284877,1.3145639080465792,0.2903540898162646,-0.7759957238077871,0.13865419905638374,0.5424943799183819
5.0,0.9888457472837109,-1.7087117487211243,0.7390473365135148,-1.7903050248027794,-1.924998481599948,-1.5478303341568145,0.05649681676557832,-0.021350673908320527,-0.3141592653587027,0.07427095863105924,-0.07518207581323781,-0.14950711142846337,-4.971230949205751e-11,1.878598362185911e-11,2.763921207240419e-10,-6.534014011898884e-11,6.614441179277945e-11,1.3154001892375384e-10,-0.09996330615609975,-0.395219379303436,1.329453479312924,0.29126847709403364,-0.7679953671614899,0.13955053945759516,0.5530564502895748
5.1,0.9944954289602712,-1.7108468161119572,0.7076314099776305,-1.7828779289396703,-1.9325166891812748,-1.5627810452996675,0.05649681676557832,-0.021350673908320527,-0.3141592653587027,0.07427095863105924,-0.07518207581323781,-0.14950711142846337,-4.971230949205751e-11,1.878598362185911e-11,2.763921207240419e-10,-6.534014011898884e-11,6.614441179277945e-11,1.3154001892375384e-10,-0.08780809592684308,-0.37900655383982446,1.343749187844798,0.29192840179927787,-0.7599641596457021,0.14036686120408468,0.5634974964918958
5.2,1.0001451106368315,-1.7129818835027901,0.6762154834417464,-1.775450833076561,-1.9400348967626018,-1.5777317564425206,0.05649681676557832,-0.021350673908320527,-0.3141592653587027,0.07427095863105924,-0.07518207581323781,-0.14950711142846337,-4.971230949205751e-11,1.878598362185911e-11,2.763921207240419e-10,-6.534014011898884e-11,6.614441179277945e-11,1.3154001892375384e-10,-0.0755918048878383,-0.36228782851903574,1.3574358592770437,0.2923345816712472,-0.7519086326181319,0.14110514848258904,0.5738146369910189
5.3,1.0057947923133916,-1.715116950893623,0.6447995569058623,-1.768023737213452,-1.9475531043439291,-1.5926824675853735,0.05649681676557832,-0.021350673908320527,-0.3141592653587027,0.07427095863105924,-0.07518207581323781,-0.14950711142846337,-4.971230949205751e-11,1.878598362185911e-11,2.763921207240419e-10,-6.534014011898884e-11,6.614441179277945e-11,1.3154001892375384e-10,-0.06333271179986757,-0.34507771506946017,1.3704989780133552,0.29248790994347856,-0.7438352786491914,0.1417674233596016,0.5840050500190512
5.4,1.011444473989952,-1.717252018284456,0.6133836303699784,-1.7605966413503427,-1.955071311925256,-1.6076331787282263,0.05649681676557832,-0.021350673908320527,-0.3141592653587027,0.07427095863105924,-0.07518207581323781,-0.14950711142846337,-4.971230949205751e-11,1.878598362185911e-11,2.763921207240419e-10,-6.534014011898884e-11,6.614441179277945e-11,1.3154001892375384e-10,-0.051048990973342125,-0.3273914440492226,1.3829247030388618,0.2923894538209461,-0.735750546849289,0.14235574454361594,0.5940659745353994
5.5,1.0170941556665125,-1.719387085675289,0.5819677038340942,-1.7531695454872336,-1.9625895195065832,-1.6225838898710792,0.05649681676557855,-0.021350673908320517,-0.3141592653587028,0.07427095863105894,-0.07518207581323802,-0.1495071114284633,-4.969150936256292e-11,1.8779050245360914e-11,2.7628118670007077e-10,-6.532627336599244e-11,6.613054503978305e-11,1.3151228541776107e-10,-0.03875868506370279,-0.30924494749864007,1.3946998829933315,0.29204045283226954,-0.7276608382465937,0.14287220613073984,0.603994711158238
5.6,1.0227438373430728,-1.721522153066122,0.55055177729821,-1.7457424496241243,-1.9701077270879102,-1.637534601013932,0.05649681676557855,-0.021350673908320517,-0.3141592653587028,0.07427095863105894,-0.07518207581323802,-0.1495071114284633,-4.969150936256292e-11,1.8779050245360914e-11,2.7628118670007077e-10,-6.532627336599244e-11,6.613054503978305e-11,1.3151228541776107e-10,-0.02647967820526708,-0.2906548405408973,1.4058120704882817,0.29144231705855667,-0.7195725012186229,0.14331893633431816,0.6137886230662101
5.7,1.0283935190196332,-1.7236572204569551,0.519135850762326,-1.7383153537610152,-1.9776259346692375,-1.6524853121567848,0.05649681676557855,-0.021350673908320517,-0.3141592653587028,0.07427095863105894,-0.07518207581323802,-0.1495071114284633,-4.969150936256292e-11,1.8779050245360914e-11,2.7628118670007077e-10,-6.532627336599244e-11,6.613054503978305e-11,1.3151228541776107e-10,-0.014229669523955,-0.27163840195460776,1.4162495356521418,0.29059662524052504,-0.7114918269809474,0.14369809619919593,0.623445136870004
5.8,1.0340432006961935,-1.725792287847788,0.4877199242264415,-1.730888257897906,-1.9851441422505647,-1.6674360232996381,0.05649681676557855,-0.021350673908320517,-0.3141592653587028,0.07427095863105894,-0.07518207581323802,-0.1495071114284633,-4.969150936256292e-11,1.8779050245360914e-11,2.7628118670007077e-10,-6.532627336599244e-11,6.613054503978305e-11,1.3151228541776107e-10,-0.002026147068660927,-0.2522135537435041,1.4260012788884482,0.2895051227656456,-0.7034250451362525,0.14401187830126957,0.6329617434534648
5.9,1.0396928823727538,-1.727927355238621,0.4563039976905575,-1.7234611620347968,-1.9926623498318916,-1.682386734442491,0.05649681676557855,-0.021350673908320517,-0.3141592653587028,0.07427095863105894,-0.07518207581323802,-0.1495071114284633,-4.969150936256292e-11,1.8779050245360914e-11,2.7628118670007077e-10,-6.532627336599244e-11,6.613054503978305e-11,1.3151228541776107e-10,0.010113637799713818,-0.23239883973001055,1.4350570428329328,0.28816971953713943,-0.6953783192869661,0.14426250543297556,0.6423359987839083
6.0,1.0453425640493141,-1.7300624226294539,0.42488807115467353,-1.7160340661716877,-2.000180557413219,-1.6973374455853438,0.05649681676557855,-0.021350673908320517,-0.3141592653587028,0.07427095863105894,-0.07518207581323802,-0.1495071114284633,-4.969150936256292e-11,1.8779050245360914e-11,2.7628118670007077e-10,-6.532627336599244e-11,6.613054503978305e-11,1.3151228541776107e-10,0.02217269552334075,-0.21221340320093904,1.4434073234962528,0.28659248772673995,-0.6873577427145807,0.14445222927537418,0.6515655246913311
6.1,1.0509922457258745,-1.732197490020287,0.3934721446187892,-1.7086069703085784,-2.007698764994546,-1.712288156728197,0.05649681676557855,-0.021350673908320517,-0.3141592653587028,0.07427095863105894,-0.07518207581323802,-0.1495071114284633,-4.969150936256292e-11,1.8779050245360914e-11,2.7628118670007077e-10,-6.532627336599244e-11,6.613054503978305e-11,1.3151228541776107e-10,0.03413432292928845,-0.19167696363499845,1.4510433805800027,0.28477565941321803,-0.6793693341287635,0.14458332905749374,0.6606480096162098
6.2,1.0566419274024348,-1.7343325574111201,0.3620562180829052,-1.7011798744454694,-2.0152169725758733,-1.7272388678710497,0.05649681676557855,-0.021350673908320517,-0.3141592653587028,0.07427095863105894,-0.07518207581323802,-0.1495071114284633,-4.969150936256292e-11,1.8779050245360914e-11,2.7628118670007077e-10,-6.532627336599244e-11,6.613054503978305e-11,1.3151228541776107e-10,0.04598212724163273,-0.17080979254320544,1.4579572469545736,0.28272162410874824,-0.6714190334892837,0.14465811020360195,0.6695812093256129
6.3,1.0622916090789953,-1.736467624801953,0.33064029154702085,-1.69375277858236,-2.0227351801572,-1.7421895790139028,0.05649681676557855,-0.021350673908320517,-0.3141592653587028,0.07427095863105894,-0.07518207581323802,-0.1495071114284633,-4.969150936256292e-11,1.8779050245360914e-11,2.7628118670007077e-10,-6.532627336599244e-11,6.613054503978305e-11,1.3151228541776107e-10,0.05770004948836547,-0.14963268845464256,1.4641417372883472,0.28043292617528065,-0.6635126979037168,0.14467890296907962,0.6783629475973494
6.4,1.0679412907555554,-1.738602692192786,0.2992243650111367,-1.6863256827192508,-2.030253387738527,-1.7571402901567557,0.056496816765578425,-0.021350673908320458,-0.31415926535870314,0.07427095863105933,-0.07518207581323737,-0.14950711142846337,-4.962910897407917e-11,1.8754783427617233e-11,2.7594838462815745e-10,-6.522920609501772e-11,6.604734452180471e-11,1.313181508758116e-10,0.06927238726862663,-0.1281669510813303,1.4695904558186554,0.27791226213315,-0.6556560976038392,0.1446480610655773,0.6869911168719062
6.5,1.073590972432116,-1.740737759583619,0.2678084384752527,-1.6788985868561417,-2.037771595319854,-1.7720910012996085,0.056496816765578425,-0.021350673908320458,-0.31415926535870314,0.07427095863105933,-0.07518207581323737,-0.14950711142846337,-4.962910897407917e-11,1.8754783427617233e-11,2.7594838462815745e-10,-6.522920609501772e-11,6.604734452180471e-11,1.313181508758116e-10,0.08068381684686284,-0.10643435469723615,1.4742978032558811,0.27516247786424575,-0.6478549120035502,0.14456796027613758,0.6954636788719293
6.6,1.0791278576865044,-1.7428302001546472,0.23701973384589853,-1.6716197736553924,-2.0451397011848607,-1.786743220098577,0.051961079829978135,-0.01963657662302122,-0.2889376004025867,0.06830825932176687,-0.06914622923490475,-0.13750422407545151,-0.08991747656454789,0.03398065290570958,0.4999999999581446,-0.1182059019332843,0.11965598996594966,0.23794795809261446,0.09169690934983735,-0.08489814611451238,1.478187224528265,0.27224817232553833,-0.6402686270170929,0.14444397479179374,0.7036142096841125
6.7,1.0838775661612459,-1.7446251592799473,0.21060824713711318,-1.6653757864392482,-2.051460286362614,-1.7993123387647196,0.042969332172752873,-0.016238511332158888,-0.23893760040248388,0.056487669127425415,-0.05718063023728327,-0.11370942826415092,-0.0899174765827867,0.033980652912604416,0.5000000000595912,-0.1182059019572642,0.11965598999022665,0.23794795814087824,0.10099932398666558,-0.06625266171455495,1.4809497297235639,0.2695773610077818,-0.6338114907189292,0.14430347554853315,0.7104840234722682
6.8,1.0877280998702663,-1.7460803118761619,0.18919676042832906,-1.660313858242536,-2.056584311640608,-1.8095019778497365,0.0339775845155443,-0.012840446041302866,-0.1889376004024739,0.044667078933105904,-0.045215031239684005,-0.08991463245289452,-0.08991747658449721,0.03398065291325042,0.5000000000691114,-0.11820590195950638,0.11965598999251174,0.23794795814539169,0.10843631944762083,-0.05103097125788368,1.4827988030864858,0.2672977849956937,-0.6286134050228127,0.1441674860022473,0.7159698437377184
6.9,1.0907710189706157,-1.7471940615749126,0.17273746361537567,-1.656450601653957,-2.060508705142,-1.817280125842424,0.03557629948954965,-0.009312133709289785,-0.14516093641786712,0.03113082164779695,-0.03308184431046853,-0.06282941006685745,0.49902964447804354,0.034569202590168074,0.06910335584996405,-0.18843388691554394,0.10601149119780104,0.37050345743101104,0.11408969117226783,-0.039264672760885154,1.4839846598543611,0.265483558738094,-0.6246296750552986,0.14410946211636363,0.7201310380816821
7.0,1.0968087133033022,-1.7479717264423027,0.15833217695963553,-1.6542049226270643,-2.063353023792547,-1.8218600665497284,0.0855398521363978,-0.006163874413755992,-0.14222944225056797,0.013448457063397935,-0.02354745592138403,-0.028104915064881452,0.499740809170881,0.0349964295765897,0.07401879288028373,-0.19013269065348792,0.10746686647893483,0.3738956554669809,0.11907281814657932,-0.02867891737016972,1.4849634917912564,0.26412846188033084,-0.6206981630761388,0.1464763041950487,0.723543114325606
7.1,1.1077745499025435,-1.7483904424048287,0.14483314265590108,-1.6538865720765057,-2.065089825492532,-1.8226480307114106,0.12897590308737966,-0.0018799230883579541,-0.11996517069777925,-0.007777861445134213,-0.009920207774096733,0.013806112987616206,0.18673707610435766,0.05010698961833137,0.4995879986558198,-0.211173396076323,0.1679423627150058,0.4203252407714771,0.12371929778200519,-0.01828043586947589,1.4859128161642972,0.263246515026708,-0.6162979067780663,0.15253114696279893,0.7263693355542208
7.2,1.1212829054716913,-1.7483477496893411,0.13532196111332406,-1.6556078251910855,-2.065302039023543,-1.819386450503973,0.13837225908004347,0.002590124654285868,-0.06999089291048276,-0.025778116546494746,0.005255240139576124,0.049723773644384246,0.013266030956312205,0.039995706552054894,0.4998518638881922,-0.15288151489582938,0.1376667956020944,0.3059722751426841,0.12691796102635033,-0.010415924746844591,1.4866902146204068,0.2630577344531358,-0.6124050613646806,0.1609950300610105,0.7279019641785283
7.3,1.1349514092561839,-1.7479035029186698,0.13080918979723075,-1.658867110504585,-2.0641328052209746,-1.8130470669837808,0.1327364280817194,0.0061835370855212275,-0.019999344073100733,-0.03872540961115281,0.017805634660790454,0.07572881635653729,-0.12119268607384048,0.032151304879475665,0.4999662863115236,-0.10767228436632942,0.11417557791931501,0.2172828530098103,0.12840682529271874,-0.006047726288647635,1.4872748546963745,0.2635358411884029,-0.6095519631937976,0.17027099109924038,0.7280130865347068
7.4,1.1474119029766372,-1.7471375204829822,0.13129600291989896,-1.6632044133150934,-2.06182115167017,-1.8045323160509468,0.11428699654431143,0.009029034821925004,0.029998500476989206,-0.04736300062010239,0.028116123356577576,0.09327922481188176,-0.24682712862982098,0.024811984057840394,0.49994916217758645,-0.06539322164701608,0.09219245913436426,0.13434019864832736,0.12832129369799536,-0.005360121779590247,1.4876711223916703,0.26459861559842857,-0.6079240449585326,0.17933950240975807,0.7268103405016135
7.5,1.1573904034258315,-1.7461242239128976,0.13678225361285423,-1.668191015064709,-2.0585899886869146,-1.7946832532817985,0.08280909000108455,0.011112888323092008,0.07998761125692003,-0.05161412515108246,0.03614504653268929,0.10222422173188138,-0.38569627157691905,0.016690799433725995,0.49981912424429376,-0.01862736742281961,0.06786348870714587,0.04259405530470174,0.12678501360711553,-0.008516160303063026,1.4878295965991915,0.26615777839788834,-0.6077022736952574,0.18724825683502233,0.7244281012330765
7.6,1.1645383530151108,-1.7448840439267346,0.14726701933969055,-1.673709357783591,-2.0545005427127148,-1.7837305133515224,0.07793990425530144,0.014753292384860296,0.13000737520953257,-0.06482775979464839,0.04883719780114937,0.12875211105095793,0.2997518568669529,0.05674021323886906,0.49999999997185585,-0.24932339294796096,0.1878247204040867,0.4951723347856287,0.12387532824102643,-0.015573994714472945,1.487674586995921,0.2681801429739159,-0.6089459197100052,0.19372034263836255,0.7209276708735081
7.7,1.1738213495949552,-1.7431268597980307,0.16275148818727164,-1.6814306384061775,-2.0486838106485816,-1.768395552166315,0.10791508994376367,0.020427313709081806,0.18000737520966406,-0.08976009909091374,0.0676196698426651,0.17826934453243815,0.299751856945568,0.05674021325374943,0.5000000001029732,-0.2493233930133537,0.18782472045334564,0.4951723349154736,0.11974411551797921,-0.02616442374746074,1.4872446618507522,0.271041420475906,-0.6109764086454739,0.20228835652435512,0.7157679772662069
7.8,1.1861018647436392,-1.7408022735369064,0.18323595703485407,-1.6916451529583847,-2.0409888313803015,-1.748108867632972,0.1378902756320426,0.02610133503326862,0.2300073752094898,-0.11469243838702664,0.08640214188406596,0.22778657801361554,0.2997518568411515,0.05674021323398746,0.49999999992880695,-0.24932339292650652,0.18782472038791187,0.49517233474300043,0.11460602648373816,-0.04028041141478324,1.4863840318959494,0.2747819920308274,-0.6136915597167903,0.21348644002736303,0.7087320130432845
7.9,1.2013798984611608,-1.7379102851433612,0.20872042588243583,-1.7043529014402115,-2.031415604907875,-1.7228704597514937,0.1678654613203215,0.03177535635745543,0.2800073752093155,-0.13962477768313952,0.10518461392546682,0.27730381149479294,0.2997518567367073,0.05674021321421855,0.4999999997546407,-0.24932339283964544,0.1878247203224781,0.4951723345704718,0.1087401984993873,-0.05799074570967387,1.4848498331343727,0.2793634928125299,-0.6171147653935801,0.22719247641760207,0.6996491862898487
8.0,1.219507921627385,-1.7344788204952295,0.238958809315119,-1.7194311741504562,-2.020056573079805,-1.6929240379007986,0.18833964629721442,0.03565092741687547,0.3141592653589526,-0.15665450793948543,0.1180137523634426,0.3111259538621729,-1.5974499451841073e-11,-3.022952153212981e-12,-2.6679632765054013e-11,1.3312082876534228e-11,-1.002566241638984e-11,-2.6402297705126218e-11,0.10254725109991487,-0.07918364501669757,1.4823642747065238,0.28469391687661466,-0.6212402655698644,0.24311670350693732,0.688406983262122
8.1,1.2383418862571234,-1.7309137277535387,0.27037473585104266,-1.7350966249444193,-2.0082551978434497,-1.6618114425145531,0.18833964629754857,0.03565092741693919,0.3141592653595107,-0.1566545079397639,0.11801375236365236,0.31112595386272485,3.183251817854072e-10,6.025797514586544e-11,5.309857057382302e-10,-2.647717817133022e-10,1.994593751002482e-10,5.258272736235687e-10,0.09700604754128633,-0.10136065884890096,1.479019946388844,0.2901077754874585,-0.625597708619132,0.25925325910783187,0.6762046533514666
8.2,1.257175850886863,-1.7273486350118477,0.30179066238696783,-1.7507620757383826,-1.9964538226070943,-1.6306988471283064,0.18833964629754857,0.03565092741693919,0.3141592653595107,-0.1566545079397639,0.11801375236365236,0.31112595386272485,3.183251817854072e-10,6.025797514586544e-11,5.309857057382302e-10,-2.647717817133022e-10,1.994593751002482e-10,5.258272736235687e-10,0.09238445820125835,-0.12364810255549438,1.4749028131338113,0.29539231757994555,-0.6300256082995611,0.2749544168065906,0.6634841221009469
8.3,1.2760098155166018,-1.7237835422701568,0.3332065889228921,-1.7664275265323455,-1.9846524473707392,-1.5995862517420605,0.18833964629754857,0.03565092741693919,0.3141592653595107,-0.1566545079397639,0.11801375236365236,0.31112595386272485,3.183251817854072e-10,6.025797514586544e-11,5.309857057382302e-10,-2.647717817133022e-10,1.994593751002482e-10,5.258272736235687e-10,0.08868964464915048,-0.1459934873539539,1.4700175320298263,0.30054475528649777,-0.6345216885426246,0.29020061041695805,0.6502604728510114
8.4,1.2948437801463406,-1.720218449528466,0.36462251545881647,-1.7820929773263088,-1.9728510721343842,-1.5684736563558144,0.18833964629754857,0.03565092741693919,0.3141592653595107,-0.1566545079397639,0.11801375236365236,0.31112595386272485,3.183251817854072e-10,6.025797514586544e-11,5.309857057382302e-10,-2.647717817133022e-10,1.994593751002482e-10,5.258272736235687e-10,0.08592611288238564,-0.16834404516331325,1.464369647773856,0.3055623527994382,-0.6390836180268439,0.3049728123744998,0.6365495750008628
8.5,1.3136777447760795,-1.716653356786775,0.39603844199474114,-1.7977584281202719,-1.9610496968980287,-1.537361060969568,0.18833964629754857,0.03565092741693919,0.3141592653595107,-0.1566545079397639,0.11801375236365236,0.31112595386272485,3.183251817854072e-10,6.025797514586544e-11,5.309857057382302e-10,-2.647717817133022e-10,1.994593751002482e-10,5.258272736235687e-10,0.08409570101357369,-0.19064686916719636,1.4579655862949616,0.31044242767274627,-0.6437090112676442,0.31925256592053824,0.6223680639835529
8.6,1.3325117094058183,-1.7130882640450842,0.4274543685306655,-1.813423878914235,-1.9492483216616736,-1.5062484655833221,0.18833964629754857,0.03565092741693919,0.3141592653595107,-0.1566545079397639,0.11801375236365236,0.31112595386272485,3.183251817854072e-10,6.025797514586544e-11,5.309857057382302e-10,-2.647717817133022e-10,1.994593751002482e-10,5.258272736235687e-10,0.08319757437337127,-0.21284905485253952,1.4508126473196228,0.315182352099689,-0.6483954297348127,0.33302201651464425,0.6077333199195476
8.7,1.3513456740355576,-1.7095231713033932,0.4588702950665904,-1.8290893297081983,-1.937446946425318,-1.4751358701970754,0.1883396462975488,0.03565092741693885,0.3141592653595111,-0.15665450793976407,0.11801375236365248,0.3111259538627248,3.1857478333934246e-10,6.029957540485465e-11,5.313739748221295e-10,-2.649659162552518e-10,1.9961190938320861e-10,5.262710097194536e-10,0.08322822804548767,-0.23489784112934958,1.4429189958875532,0.31977955416573345,-0.6531403829970328,0.34626394242156516,0.5926634449792979
8.8,1.3701796386652965,-1.7059580785617023,0.4902862216025148,-1.8447547805021611,-1.9256455711889628,-1.4440232748108295,0.1883396462975488,0.03565092741693885,0.3141592653595111,-0.15665450793976407,0.11801375236365248,0.3111259538627248,3.1857478333934246e-10,6.029957540485465e-11,5.313739748221295e-10,-2.649659162552518e-10,1.9961190938320861e-10,5.262710097194536e-10,0.08418149682916123,-0.2567407511364511,1.4342936528279902,0.32423151907613756,-0.6579413298929596,0.3589617844196859,0.5771772394875763
8.9,1.389013603295035,-1.7023929858200115,0.5217021481384392,-1.8604202312961244,-1.9138441959526076,-1.4129106794245834,0.1883396462975488,0.03565092741693885,0.3141592653595111,-0.15665450793976407,0.11801375236365248,0.3111259538627248,3.1857478333934246e-10,6.029957540485465e-11,5.313739748221295e-10,-2.649659162552518e-10,1.9961190938320861e-10,5.262710097194536e-10,0.08604857260338357,-0.2783257323389603,1.4249464842076867,0.3285357903576481,-0.662795679728285,0.3710996745794693,0.5612941768044705
9.0,1.4078475679247742,-1.698827893078321,0.5531180746743636,-1.8760856820900875,-1.9020428207162523,-1.3817980840383375,0.1883396462975488,0.03565092741693885,0.3141592653595111,-0.15665450793976407,0.11801375236365248,0.3111259538627248,3.1857478333934246e-10,6.029957540485465e-11,5.313739748221295e-10,-2.649659162552518e-10,1.9961190938320861e-10,5.262710097194536e-10,0.08881802904617582,-0.29960129552505893,1.4148881897630912,0.3326899710337317,-0.667700793498226,0.38266246406170024,0.5450343770200574
9.1,1.426681532554513,-1.69526280033663,0.5845340012102881,-1.8917511328840506,-1.8902414454798973,-1.3506854886520911,0.1883396462975488,0.03565092741693885,0.3141592653595111,-0.15665450793976407,0.11801375236365248,0.3111259538627248,3.1857478333934246e-10,6.029957540485465e-11,5.313739748221295e-10,-2.649659162552518e-10,1.9961190938320861e-10,5.262710097194536e-10,0.09247585364137083,-0.3205166523126679,1.4041302903304282,0.3366917247727848,-0.672653985134866,0.3936357498868801,0.5284185795018043
9.2,1.4455154971842523,-1.691697707594939,0.6159499277462129,-1.907416583678014,-1.8784400702435418,-1.3195728932658446,0.18833964629754832,0.03565092741693876,0.31415926535951016,-0.15665450793976368,0.11801375236365257,0.3111259538627248,3.179923797134936e-10,6.019557475738163e-11,5.304310356183741e-10,-2.644944466533742e-10,1.9926524055829857e-10,5.253280705156982e-10,0.09700548688469661,-0.3410218507806956,1.3926851142886232,0.3405387770087804,-0.6776525227787586,0.40400590062868263,0.5114681143357379
9.3,1.464349461813991,-1.688132614853248,0.6473658542821373,-1.923082034471977,-1.8666386950071865,-1.2884602978795987,0.18833964629754832,0.03565092741693876,0.31415926535951016,-0.15665450793976368,0.11801375236365257,0.3111259538627248,3.179923797134936e-10,6.019557475738163e-11,5.304310356183741e-10,-2.644944466533742e-10,1.9926524055829857e-10,5.253280705156982e-10,0.10238786858053334,-0.3610679088447594,1.3805657830311915,-0.34422891603381917,0.6826936300741967,-0.4137600809860455,-0.49420487270434604
9.4,1.48318342644373,-1.6845675221115572,0.6787817808180616,-1.93874748526594,-1.8548373197708314,-1.2573477024933526,0.18833964629754832,0.03565092741693876,0.31415926535951016,-0.15665450793976368,0.11801375236365257,0.3111259538627248,3.179923797134936e-10,6.019557475738163e-11,5.304310356183741e-10,-2.644944466533742e-10,1.9926524055829857e-10,5.253280705156982e-10,0.10860149110061577,-0.38060694500354464,1.3677861954844184,-0.3477599940620709,0.6877744874875381,-0.42288627519020594,-0.4766512762460162
9.5,1.5020173910734687,-1.6810024293698664,0.710197707353986,-1.9544129360599034,-1.843035944534476,-1.2262351071071067,0.18833964629754832,0.03565092741693876,0.31415926535951016,-0.15665450793976368,0.11801375236365257,0.3111259538627248,3.179923797134936e-10,6.019557475738163e-11,5.304310356183741e-10,-2.644944466533742e-10,1.9926524055829857e-10,5.253280705156982e-10,0.11562245945619029,-0.39959230608933066,1.3543610116902889,-0.3511299282645975,0.6928922336479615,-0.4313733092048053,-0.45883024544261797
9.6,1.520851355703208,-1.6774373366281754,0.7416136338899111,-1.9700783868538667,-1.8312345692981205,-1.1951225117208597,0.18833964629754832,0.03565092741693876,0.31415926535951016,-0.15665450793976368,0.11801375236365257,0.3111259538627248,3.179923797134936e-10,6.019557475738163e-11,5.304310356183741e-10,-2.644944466533742e-10,1.9926524055829857e-10,5.253280705156982e-10,0.12342455801581723,-0.41797869166460166,1.3403056354737908,-0.3543367017745715,0.6980439667100283,-0.4392108716790671,-0.4407651670835177
9.7,1.5396853203329468,-1.6738722438864848,0.7730295604258355,-1.9857438376478296,-1.8194331940617654,-1.1640099163346138,0.18833964629754832,0.03565092741693876,0.31415926535951016,-0.15665450793976368,0.11801375236365257,0.3111259538627248,3.179923797134936e-10,6.019557475738163e-11,5.304310356183741e-10,-2.644944466533742e-10,1.9926524055829857e-10,5.253280705156982e-10,0.13197932368214219,-0.4357222747160804,1.3256361962153063,-0.35737836466241385,0.7032267457374002,-0.4463895336160101,-0.4224798608559769
9.8,1.5585192849626854,-1.6703071511447938,0.8044454869617593,-2.0014092884417924,-1.8076318188254101,-1.1328973209483681,0.18833964629754885,0.03565092741693917,0.3141592653595104,-0.15665450793976418,0.11801375236365227,0.31112595386272446,3.181587807494504e-10,6.023024163987264e-11,5.307083706783022e-10,-2.646331141833382e-10,1.9936230782927337e-10,5.256054055756262e-10,0.14125612532263884,-0.45278081830794786,1.3103695297499,-0.36025303488038407,0.7084375921070682,-0.45290076671967455,-0.40399854511339867
9.9,1.5773532495924243,-1.666742058403103,0.8358614134976837,-2.0170747392357558,-1.795830443589055,-1.101784725562122,0.18833964629754885,0.03565092741693917,0.3141592653595104,-0.15665450793976418,0.11801375236365227,0.31112595386272446,3.181587807494504e-10,6.023024163987264e-11,5.307083706783022e-10,-2.646331141833382e-10,1.9936230782927337e-10,5.256054055756262e-10,0.1512222492315716,-0.4691137878673648,1.2945231584163903,-0.36295889917617963,0.7136734909334239,-0.45873696038742257,-0.38534580187439976
10.0,1.5961872142221631,-1.663176965661412,0.867277340033608,-2.0327401900297186,-1.7840290683526998,-1.070672130175876,0.18833964629754885,0.03565092741693917,0.3141592653595104,-0.15665450793976418,0.11801375236365227,0.31112595386272446,3.181587807494504e-10,6.023024163987264e-11,5.307083706783022e-10,-2.646331141833382e-10,1.9936230782927337e-10,5.256054055756262e-10,0.16184299038331207,-0.4846824587877546,1.2781152702800984,-0.3654942139751103,0.7189313925115037,-0.46389143731551646,-0.3665465411070341
10.1,1.6150211788519024,-1.6596118729197211,0.8986932665695329,-2.048405640823682,-1.7722276931163443,-1.0395595347896296,0.18833964629754885,0.03565092741693917,0.3141592653595104,-0.15665450793976418,0.11801375236365227,0.31112595386272446,3.181587807494504e-10,6.023024163987264e-11,5.307083706783022e-10,-2.646331141833382e-10,1.9936230782927337e-10,5.256054055756262e-10,0.17308174922070865,-0.4994500190484926,1.2611646975542026,-0.3678573062304241,0.7242082137787261,-0.46835846768837736,-0.34762596435381254
10.2,1.6338551434816413,-1.65604678017803,0.9301091931054575,-2.0640710916176452,-1.760426317879989,-1.0084469394033833,0.18833964629754885,0.03565092741693917,0.3141592653595104,-0.15665450793976418,0.11801375236365227,0.31112595386272446,3.181587807494504e-10,6.023024163987264e-11,5.307083706783022e-10,-2.646331141833382e-10,1.9936230782927337e-10,5.256054055756262e-10,0.1849001337064952,-0.5133816665637332,1.2436908942455789,-0.37004657424138826,0.7295008397944313,-0.4721332819241685,-0.32860952775436364
10.3,1.6526891081113804,-1.6524816874363393,0.9615251196413818,-2.0797365424116085,-1.748624942643634,-0.9773343440171374,0.18833964629754885,0.03565092741693917,0.3141592653595104,-0.15665450793976418,0.11801375236365227,0.31112595386272446,3.181587807494504e-10,6.023024163987264e-11,5.307083706783022e-10,-2.646331141833382e-10,1.9936230782927337e-10,5.256054055756262e-10,0.19725806635079557,-0.5264447009879867,1.2257139130519703,-0.3720604884387294,0.7348061252365223,-0.47521208195166337,-0.3095229045237005
10.4,1.671523072741119,-1.6489165946946485,0.9929410461773062,-2.0954019932055714,-1.7368235674072787,-0.9462217486308913,0.1883396462975485,0.03565092741693887,0.31415926535951155,-0.1566545079397638,0.11801375236365255,0.3111259538627251,3.187966513872849e-10,6.034117566384386e-11,5.318177109180144e-10,-2.651600507972015e-10,1.9976444366616903e-10,5.266038117913672e-10,0.2101138959136522,-0.5386086097217375,1.2072543815382286,-0.37389759213706525,0.7401208959145049,-0.47759205099568,-0.29039194694508164
10.5,1.6903570373708579,-1.6453515019529577,1.0243569727132307,-2.1110674439995347,-1.7250221921709235,-0.9151091532446451,0.1883396462975485,0.03565092741693887,0.31415926535951155,-0.1566545079397638,0.11801375236365255,0.3111259538627251,3.187966513872849e-10,6.034117566384386e-11,5.318177109180144e-10,-2.651600507972015e-10,1.9976444366616903e-10,5.266038117913672e-10,0.22342451346825168,-0.5498451478767824,1.1883334776202583,-0.3755565022539634,0.7454419502982084,-0.47927136185076835,-0.2712426479373809
10.6,1.7091910020005927,-1.6417864092112675,1.0557728992491482,-2.126732894793494,-1.7132208169345708,-0.8839965578584058,0.18833964629722724,0.03565092741687806,0.31415926535897565,-0.15665450793949656,0.11801375236345124,0.31112595386219444,-2.21868047942434e-12,-4.2293596639026486e-13,-3.660822791050161e-12,1.858144901517885e-12,-1.3866752996402126e-12,-3.660822791050161e-12,0.23714547249813975,-0.5601284119780756,1.1689729043861352,-0.377035909995293,0.750766061061464,-0.480249183625248,-0.25210110225772137
10.7,1.7280249666303154,-1.6382213164695798,1.087188825785046,-2.142398345587444,-1.7014194416982256,-0.8528839624721865,0.18833964629722724,0.03565092741687806,0.31415926535897565,-0.15665450793949656,0.11801375236345124,0.31112595386219444,-2.21868047942434e-12,-4.2293596639026486e-13,-3.660822791050161e-12,1.858144901517885e-12,-1.3866752996402126e-12,-3.660822791050161e-12,0.2512311126902925,-0.5694349071965785,1.149194864284675,-0.3783345815065322,0.7560899766400165,-0.48052568694015585,-0.23299346740084287
10.8,1.7468589312600382,-1.6346562237278919,1.1186047523209435,-2.1580637963813936,-1.6896180664618805,-0.821771367085967,0.18833964629722724,0.03565092741687806,0.31415926535897565,-0.15665450793949656,0.11801375236345124,0.31112595386219444,-2.21868047942434e-12,-4.2293596639026486e-13,-3.660822791050161e-12,1.858144901517885e-12,-1.3866752996402126e-12,-3.660822791050161e-12,0.26563468707544136,-0.5777436079259441,1.129022032712479,-0.37945135848973305,0.7614104228029352,-0.48010204757013963,-0.21394592425730127
10.9,1.765692895889761,-1.6310911309862042,1.150020678856841,-2.173729247175343,-1.6778166912255355,-0.7906587716997474,0.18833964629722724,0.03565092741687806,0.31415926535897565,-0.15665450793949656,0.11801375236345124,0.31112595386219444,-2.21868047942434e-12,-4.2293596639026486e-13,-3.660822791050161e-12,1.858144901517885e-12,-1.3866752996402126e-12,-3.660822791050161e-12,0.2803084921574855,-0.5850360115346597,1.1084775310313262,-0.3803851587858361,0.7667241042367584,-0.47898044851585786,-0.1949846375932276
11.0,1.7845268605194837,-1.6275260382445165,1.1814366053927385,-2.189394697969293,-1.6660153159891904,-0.759546176313528,0.18833964629722746,0.03565092741687833,0.3141592653589743,-0.15665450793949687,0.11801375236345128,0.31112595386219377,-2.967485141230055e-12,-5.685368728524872e-13,-4.992031078704766e-12,2.4682820333595786e-12,-1.858144901517885e-12,-4.8810970547335485e-12,0.2952040006655016,-0.5912961851446948,1.087584899048297,-0.381134976922066,0.772027706141654,-0.4771640804999668,-0.1761357164146252
11.1,1.803360825149207,-1.6239609455028283,1.2128525319286372,-2.205060148763243,-1.654213940752845,-0.7284335809273076,0.18833964629722746,0.03565092741687833,0.3141592653589743,-0.15665450793949687,0.11801375236345128,0.31112595386219377,-2.967485141230055e-12,-5.685368728524872e-13,-4.992031078704766e-12,2.4682820333595786e-12,-1.858144901517885e-12,-4.8810970547335485e-12,0.31027199655432064,-0.5965108053073729,1.0663680669918154,-0.3816998846241426,0.7773178958388225,-0.4746571408813288,-0.1574251742796684
11.2,1.82219478977893,-1.6203958527611404,1.2442684584645345,-2.2207255995571926,-1.6424125655164996,-0.6973209855410881,0.18833964629722746,0.03565092741687833,0.3141592653589743,-0.15665450793949687,0.11801375236345128,0.31112595386219377,-2.967485141230055e-12,-5.685368728524872e-13,-4.992031078704766e-12,2.4682820333595786e-12,-1.858144901517885e-12,-4.8810970547335485e-12,0.32546271187333403,-0.600669190467341,1.044851327017366,-0.3820790312930601,0.7825913243883843,-0.47146483098464176,-0.1388788896226295
11.3,1.8410287544086525,-1.6168307600194525,1.2756843850004322,-2.2363910503511426,-1.6306111902801543,-0.6662083901548687,0.18833964629722746,0.03565092741687833,0.3141592653589743,-0.15665450793949687,0.11801375236345128,0.31112595386219377,-2.967485141230055e-12,-5.685368728524872e-13,-4.992031078704766e-12,2.4682820333595786e-12,-1.858144901517885e-12,-4.8810970547335485e-12,0.3407259651179259,-0.603763326125956,1.0230593042772003,-0.38227164444621015,0.7878446282169891,-0.46759335184525164,-0.12052256615317794
11.4,1.8598627190383754,-1.6132656672777648,1.3071003115363296,-2.2520565011450926,-1.6188098150438093,-0.6350957947686493,0.18833964629722746,0.03565092741687833,0.3141592653589743,-0.15665450793949687,0.11801375236345128,0.31112595386219377,-2.967485141230055e-12,-5.685368728524872e-13,-4.992031078704766e-12,2.4682820333595786e-12,-1.858144901517885e-12,-4.8810970547335485e-12,0.35601130067373515,-0.6057878826360695,1.0010169275889176,-0.38227703012263037,0.7930744307543748,-0.46304989837149513,-0.10238169339483529
11.5,1.8786966836680985,-1.6097005745360768,1.3385162380722273,-2.267721951939042,-1.6070084398074642,-0.6039831993824298,0.18833964629722746,0.03565092741687833,0.3141592653589743,-0.15665450793949687,0.11801375236345128,0.31112595386219377,-2.967485141230055e-12,-5.685368728524872e-13,-4.992031078704766e-12,2.4682820333595786e-12,-1.858144901517885e-12,-4.8810970547335485e-12,0.37126812896091077,-0.6067402255811036,0.9787493997382631,-0.38209457325218865,0.7982773440781007,-0.45784265192948914,-0.08448150742626455
11.6,1.8975306482978214,-1.606135481794389,1.369932164608125,-2.283387402732992,-1.5952070645711187,-0.5728706039962099,0.18833964629722727,0.03565092741687799,0.31415926535897504,-0.156654507939497,0.1180137523634514,0.31112595386219405,-2.5792160573307954e-12,-4.853363548740745e-13,-4.270959922891855e-12,2.1354799614459276e-12,-1.6085433475826467e-12,-4.215492910906247e-12,0.3864458668835721,-0.6066204187123038,0.9562821674519599,-0.3817237379885195,0.803449970565677,-0.4519807713578633,-0.06684695188889084
11.7,1.916364612927544,-1.6025703890527012,1.4013480911440226,-2.2990528535269417,-1.5834056893347737,-0.5417580086099905,0.18833964629722727,0.03565092741687799,0.31415926535897504,-0.156654507939497,0.1180137523634514,0.31112595386219405,-2.5792160573307954e-12,-4.853363548740745e-13,-4.270959922891855e-12,2.1354799614459276e-12,-1.6085433475826467e-12,-4.215492910906247e-12,0.40149407818887733,-0.605431219439161,0.9336408910767808,-0.38116406800555513,0.8085889045533089,-0.4454743824224792,-0.04950263932405037
11.8,1.9351985775572667,-1.5990052963110135,1.4327640176799201,-2.314718304320891,-1.5716043140984284,-0.510645413223771,0.18833964629722727,0.03565092741687799,0.31415926535897504,-0.156654507939497,0.1180137523634514,0.31112595386219405,-2.5792160573307954e-12,-4.853363548740745e-13,-4.270959922891855e-12,2.1354799614459276e-12,-1.6085433475826467e-12,-4.215492910906247e-12,0.41636261334041413,-0.6031780668890951,0.9108514140014408,-0.38041518675750496,0.8136907340004663,-0.4383345657237589,-0.03247281290246817
11.9,1.9540325421869897,-1.5954402035693258,1.4641799442158177,-2.330383755114841,-1.5598029388620835,-0.47953281783755164,0.18833964629722727,0.03565092741687799,0.31415926535897504,-0.156654507939497,0.1180137523634514,0.31112595386219405,-2.5792160573307954e-12,-4.853363548740745e-13,-4.270959922891855e-12,2.1354799614459276e-12,-1.6085433475826467e-12,-4.215492910906247e-12,0.4310017485120658,-0.5998690625735464,0.8879397318581979,-0.37947679770215464,0.8187520421594943,-0.4305733430717504,-0.01578130860836554
12.0,1.9728665068167128,-1.5918751108276379,1.4955958707517159,-2.346049205908791,-1.5480015636257378,-0.4484202224513316,0.18833964629722727,0.03565092741687799,0.31415926535897504,-0.156654507939497,0.1180137523634514,0.31112595386219405,-2.5792160573307954e-12,-4.853363548740745e-13,-4.270959922891855e-12,2.1354799614459276e-12,-1.6085433475826467e-12,-4.215492910906247e-12,0.44536232331107767,-0.5955149437185785,0.8649319615413293,-0.37834868448737563,0.8237694092494718,-0.4222036623465958,0.0005484820601144103
12.1,1.9917004714464357,-1.58831001808595,1.5270117972876138,-2.361714656702741,-1.5362001883893925,-0.41730762706511165,0.18833964629722727,0.03565092741687799,0.31415926535897504,-0.156654507939497,0.1180137523634514,0.31112595386219405,-2.5792160573307954e-12,-4.853363548740745e-13,-4.270959922891855e-12,2.1354799614459276e-12,-1.6085433475826467e-12,-4.215492910906247e-12,0.45939587684272143,-0.5901290493388799,0.8418543100798805,-0.3770307111007545,0.8287394141335211,-0.4132393808645483,0.016493648813168414
12.2,2.0105344360761586,-1.5847449253442623,1.5584277238235114,-2.3773801074966907,-1.5243988131530477,-0.3861950316788923,0.18833964629722727,0.03565092741687799,0.31415926535897504,-0.15665450793949626,0.1180137523634514,0.3111259538621944,-2.5792160573307954e-12,-4.853363548740745e-13,-4.270959922891855e-12,2.1354799614459276e-12,-1.6085433475826467e-12,-4.270959922891855e-12,0.4730547817337442,-0.5837272791546078,0.8187330434022521,-0.3755228219822625,0.8336586359987798,-0.40369524727214046,0.03203179865411051
12.3,2.029368400705881,-1.5811798326025746,1.5898436503594089,-2.3930455582906407,-1.5125974379167024,-0.35508243629267283,0.18833964629722727,0.03565092741687799,0.31415926535897504,-0.15665450793949626,0.1180137523634514,0.3111259538621944,-2.5792160573307954e-12,-4.853363548740745e-13,-4.270959922891855e-12,2.1354799614459276e-12,-1.6085433475826467e-12,-4.270959922891855e-12,0.4862923757376671,-0.5763280454707875,0.795594455030345,-0.3738250420999081,0.8385236560382314,-0.3935868819935442,0.04714109126738219
12.4,2.048202365335604,-1.5776147398608864,1.6212595768953064,-2.4087110090845902,-1.5007960626803571,-0.3239698409064533,0.18833964629722727,0.03565092741687799,0.31415926535897504,-0.15665450793949626,0.1180137523634514,0.3111259538621944,-2.5792160573307954e-12,-4.853363548740745e-13,-4.270959922891855e-12,2.1354799614459276e-12,-1.6085433475826467e-12,-4.270959922891855e-12,0.49906309055194853,-0.5679522181589236,0.7724648347410659,-0.3719374769883342,0.8433310591336032,-0.3829307562585485,0.06180027365152709
12.5,2.0670363299653265,-1.5740496471191987,1.6526755034312037,-2.42437645987854,-1.488994687444012,-0.29285724552023384,0.18833964629722727,0.03565092741687799,0.31415926535897504,-0.15665450793949626,0.1180137523634514,0.3111259538621944,-2.5792160573307954e-12,-4.853363548740745e-13,-4.270959922891855e-12,2.1354799614459276e-12,-1.6085433475826467e-12,-4.270959922891855e-12,0.5113225774850358,-0.5586230628999878,0.749370437233043,-0.3698603127503315,0.8480774355385258,-0.37174416974093266,0.07598871393996136
12.6,2.0858702945950496,-1.570484554377511,1.684091429967102,-2.4400419106724898,-1.4771933122076668,-0.2617446501340139,0.18833964629722727,0.03565092741687799,0.31415926535897504,-0.15665450793949626,0.1180137523634514,0.3111259538621944,-2.5792160573307954e-12,-4.853363548740745e-13,-4.270959922891855e-12,2.1354799614459276e-12,-1.6085433475826467e-12,-4.270959922891855e-12,0.5230278296203741,-0.5483661728670439,0.7263374508363903,-0.36759381602126645,0.8527593825611629,-0.36004522683931156,0.08968643435356385
12.7,2.1047042592247727,-1.566919461635823,1.7155073565029995,-2.4557073614664393,-1.4653919369713215,-0.23063205474779436,0.18833964629722727,0.03565092741687799,0.31415926535897504,-0.15665450793949626,0.1180137523634514,0.3111259538621944,-2.5792160573307954e-12,-4.853363548740745e-13,-4.270959922891855e-12,2.1354799614459276e-12,-1.6085433475826467e-12,-4.270959922891855e-12,0.5341373001344742,-0.5372093940443174,0.7033919663033368,-0.36513833389643147,0.8573735062455063,-0.34785281163480175,0.10287414323039629
12.8,2.123538223854495,-1.5633543688941351,1.746923283038897,-2.471372812260389,-1.4535905617349762,-0.19951945936157497,0.1883396462972273,0.03565092741687844,0.31415926535897487,-0.15665450793949662,0.1180137523634509,0.3111259538621943,-2.634683069316404e-12,-5.061364843686776e-13,-4.43736095884868e-12,2.190946973431536e-12,-1.6501436065718532e-12,-4.381893946863072e-12,0.5446110164371839,-0.5251827443975189,0.6805599457174146,-0.362494293821347,0.8619164230505414,-0.33518656156204135,0.11553326607925006
12.9,2.1423721884842175,-1.5597892761524472,1.7783392095747943,-2.4870382630543384,-1.4417891864986312,-0.1684068639753555,0.1883396462972273,0.03565092741687844,0.31415926535897487,-0.15665450793949662,0.1180137523634509,0.3111259538621943,-2.634683069316404e-12,-5.061364843686776e-13,-4.43736095884868e-12,2.190946973431536e-12,-1.6501436065718532e-12,-4.381893946863072e-12,0.5544106898142598,-0.5123183271276184,0.6578671915587864,-0.35966220344506394,0.8663847615264842,-0.3220668398322639,0.12764597560517665
13.0,2.161206153113941,-1.5562241834107597,1.809755136110692,-2.5027037138482884,-1.4299878112622864,-0.13729426858913604,0.1883396462972273,0.03565092741687844,0.31415926535897487,-0.15665450793949662,0.1180137523634509,0.3111259538621943,-2.634683069316404e-12,-5.061364843686776e-13,-4.43736095884868e-12,2.190946973431536e-12,-1.6501436065718532e-12,-4.381893946863072e-12,0.5634998202652267,-0.49865023825698335,0.6353393159630912,-0.35664265043652293,0.8707751639872937,-0.3085147066492004,0.13919522065671547
13.1,2.180040117743664,-1.5526590906690716,1.8411710626465907,-2.5183691646422384,-1.4181864360259406,-0.10618167320291552,0.1883396462972273,0.03565092741687844,0.31415926535897487,-0.15665450793949662,0.1180137523634509,0.3111259538621943,-2.634683069316404e-12,-5.061364843686776e-13,-4.43736095884868e-12,2.190946973431536e-12,-1.6501436065718532e-12,-4.381893946863072e-12,0.5718437962432704,-0.48421446881279645,0.613001710210971,-0.35343630226405776,0.8750842881786662,-0.2945518892606169,0.1501647540461742
13.2,2.1988740823733868,-1.5490939979273837,1.8725869891824882,-2.534034615436188,-1.4063850607895958,-0.07506907781669603,0.1883396462972273,0.03565092741687844,0.31415926535897487,-0.15665450793949662,0.1180137523634509,0.3111259538621943,-2.634683069316404e-12,-5.061364843686776e-13,-4.43736095884868e-12,2.190946973431536e-12,-1.6501436065718532e-12,-4.381893946863072e-12,0.5794099890184928,-0.4690488018879086,0.5908795144851587,-0.35004390593813894,0.8793088089407142,-0.2802007508902597,0.16053915919603068
13.3,2.21770804700311,-1.545528905185696,1.9040029157183855,-2.549700066230138,-1.3945836855532505,-0.04395648243047656,0.1883396462972273,0.03565092741687844,0.31415926535897487,-0.15665450793949662,0.1180137523634509,0.3111259538621943,-2.634683069316404e-12,-5.061364843686776e-13,-4.43736095884868e-12,2.190946973431536e-12,-1.6501436065718532e-12,-4.381893946863072e-12,0.5861678414012558,-0.4531927048737432,0.5689975879316812,-0.34646628771746923,0.8834454198645467,-0.26548425859684655,0.17030387556633417
13.4,2.2365420116328325,-1.541963812444008,1.9354188422542835,-2.565365517024088,-1.3827823103169055,-0.012843887044257082,0.18833964629722746,0.035650927416877955,0.3141592653589743,-0.15665450793949687,0.11801375236345128,0.31112595386219377,-2.967485141230055e-12,-5.616034963542861e-13,-4.992031078704766e-12,2.4682820333595786e-12,-1.858144901517885e-12,-4.8810970547335485e-12,0.5920889505784596,-0.4366872171734511,0.5473804790613932,-0.34270435277856587,0.8874908349419564,-0.25042595010859187,0.17944522281984157
13.5,2.255375976262555,-1.5383987197023203,1.9668347687901808,-2.5810309678180374,-1.3709809350805604,0.018268708341962366,0.18833964629722746,0.035650927416877955,0.3141592653589743,-0.15665450793949687,0.11801375236345128,0.31112595386219377,-2.967485141230055e-12,-5.616034963542861e-13,-4.992031078704766e-12,2.4682820333595786e-12,-1.858144901517885e-12,-4.8810970547335485e-12,0.5971471448324562,-0.4195748337162349,0.5260523965276215,-0.3387590848489804,0.8914417902074315,-0.23504989968346973,0.1879504236835916
13.6,2.2741478940676902,-1.5348453718421977,1.998147198344887,-2.596644810174963,-1.3592184384273271,0.04927880604453687,0.18194937712869838,0.03444130943797397,0.3035000000003521,-0.1513392995281089,0.1140096052918334,0.30056960723214254,-0.29975185667266385,-0.05674021320209119,-0.49999999964778175,0.24932339278635413,-0.18782472028234382,-0.49517233446466324,0.6013062916548859,-0.4019584903268098,0.5051058736922596,-0.3346454416401783,0.8952825150868757,-0.21943275796308687,0.19578281666653385
13.7,2.290873203546286,-1.5316794277302224,2.0260457902876845,-2.610556353379044,-1.3487383479640895,0.07690802786518477,0.15197419144004481,0.02876728811371624,0.25349999999990147,-0.1264069602316843,0.0952271332501977,0.25105237375034634,-0.2997518569427811,-0.05674021325322737,-0.5000000000983102,0.2493233930110355,-0.1878247204516112,-0.4951723349109174,0.604252526118602,-0.38582773689545063,0.4867237253900118,-0.33082866633599606,0.8986201583839987,-0.20529305244454868,0.20221020521789537
13.8,2.3046009944560426,-1.529080885750668,2.0489443822304807,-2.6219746626535048,-1.3401365047049993,0.09958552633769671,0.12199900575160016,0.02309326678949806,0.2034999999997993,-0.10147462093543347,0.07644466120869292,0.2015351402688953,-0.29975185700354684,-0.056740213264724934,-0.5000000001997014,0.24932339306157963,-0.1878247204896774,-0.49517233501126234,0.6061260063562206,-0.3723052343048481,0.47184552097808174,-0.32758979090939644,0.9012985966086628,-0.19354193199588066,0.20709246534457648
13.9,2.315331266796962,-1.5270497459035337,2.0668429741732783,-2.630899737998346,-1.333412908650055,0.11731130146207479,0.09202382006338046,0.017419245465322454,0.15350000000007238,-0.07654228163936976,0.05766218916732909,0.15201790678781585,-0.2997518568404463,-0.056740213233850506,-0.49999999992761346,0.24932339292589528,-0.18782472038746806,-0.49517233474180267,0.6072437393769501,-0.3615705626171623,0.4603536675666352,-0.3249918446035305,0.9033530190993915,-0.1842722903558171,0.21065931461065415
14.0,2.323064020569044,-1.52558600818882,2.0797415661160774,-2.6373315794135683,-1.3285675597992568,0.1300853532383201,0.06204863437494774,0.011745224141106526,0.10349999999999013,-0.05160994234312884,0.03887971712583177,0.10250067330638449,-0.299751856890349,-0.056740213243297984,-0.5000000000108663,0.24932339296742337,-0.18782472041874224,-0.4951723348242559,0.6078588304317522,-0.3537503833148036,0.4521495263061744,-0.3230837263074222,0.9048118666030349,-0.17754918848074425,0.21309311936210282
14.1,2.3277992557722866,-1.524689672606527,2.087640158058876,-2.6412701868991695,-1.3256004581526055,0.13790768166642942,0.03207344868660163,0.006071202816906994,0.05350000000005234,-0.02667760304695998,0.020097245084388725,0.052983439825096214,-0.2997518568520361,-0.05674021323604735,-0.49999999994696603,0.24932339293555197,-0.18782472039474293,-0.49517233476097644,0.6081562542713438,-0.3489284027788908,0.44715841508571214,-0.321900465141201,0.9056961399021642,-0.17341535755868867,0.21452670339841107
14.2,2.329536972406692,-1.524360739156655,2.0905387500016746,-2.642715560455151,-1.3245116037101008,0.14077828674640383,0.002098262998190218,0.0003971814926951011,0.0035000000000056366,-0.0017452637507368027,0.0013147730429047663,0.0034662063437000744,-0.29975185688914063,-0.05674021324307041,-0.5000000000088515,0.24932339296641287,-0.18782472041798934,-0.49517233482226547,0.6082502511158017,-0.34715271704960526,0.4453331318248582,-0.32146342191285976,0.906018906736837,-0.17189523291841557,0.21504194453032913
14.207971838,2.3295464970541295,-1.5243589362302867,2.0905546375553614,-2.6427234827327335,-1.3245056355594422,0.14079402090051077,1.9937317226181274e-16,3.7739470328840823e-17,3.3256369841117926e-16,-1.6583181932773224e-16,1.2492736734829287e-16,3.2935268603295185e-16,-0.29975185714950153,-0.05674021329235428,-0.5000000004431456,0.24932339318297203,-0.18782472058113156,-0.4951723352523658,0.6082507438734024,-0.3471429753404875,0.44532313664332684,-0.3214610222618007,0.9060206732803665,-0.1718868963918762,0.2150447525603865
