mathias31415/primitives_from_planned_trajectory_python/data/saved_trajectories/trajectory_20250624_153453_executed.csv
timestamp,shoulder_lift_joint_pos,elbow_joint_pos,wrist_1_joint_pos,wrist_2_joint_pos,wrist_3_joint_pos,shoulder_pan_joint_pos,shoulder_lift_joint_vel,elbow_joint_vel,wrist_1_joint_vel,wrist_2_joint_vel,wrist_3_joint_vel,shoulder_pan_joint_vel,shoulder_lift_joint_eff,elbow_joint_eff,wrist_1_joint_eff,wrist_2_joint_eff,wrist_3_joint_eff,shoulder_pan_joint_eff
1750772099.4907486,-2.0791052139597976,-1.222726317062289,-1.4458350672144435,1.5721810308572906,-0.7491668140227077,-2.3191242929743416,0.0,0.0,0.0,0.0,0.0,0.0,6.786652126012714,4.238478386713231,0.2996750547980063,0.00011424338232738367,0.0,8.437223360888919e-17
1750772099.4922302,-2.0791052139597976,-1.222726317062289,-1.4458350672144435,1.5721810308572906,-0.7491668140227077,-2.3191242929743416,0.0,0.0,0.0,0.0,0.0,0.0,6.786652126012714,4.238478386713231,0.2996750547980063,0.00011424338232738367,0.0,8.437223360888919e-17
1750772099.492707,-2.0791052139597976,-1.222726317062289,-1.4458350672144435,1.5721810308572906,-0.7491668140227077,-2.3191242929743416,0.0,0.0,0.0,0.0,0.0,0.0,6.786652126012714,4.238478386713231,0.2996750547980063,0.00011424338232738367,0.0,8.437223360888919e-17
1750772099.4932446,-2.0791052139597976,-1.222726317062289,-1.4458350672144435,1.5721810308572906,-0.7491668140227077,-2.3191242929743416,0.0,0.0,0.0,0.0,0.0,0.0,6.786652126012714,4.238478386713231,0.2996750547980063,0.00011424338232738367,0.0,8.437223360888919e-17
1750772099.495081,-2.0791052139597976,-1.222726317062289,-1.4458350672144435,1.5721810308572906,-0.7491668140227077,-2.3191242929743416,0.0,0.0,0.0,0.0,0.0,0.0,6.786652126012714,4.238478386713231,0.2996750547980063,0.00011424338232738367,0.0,8.437223360888919e-17
1750772099.4971805,-2.0791052139597976,-1.222726317062289,-1.4458350672144435,1.5721810308572906,-0.7491668140227077,-2.3191242929743416,0.0,0.0,0.0,0.0,0.0,0.0,6.786652126012714,4.238478386713231,0.2996750547980063,0.00011424338232738367,0.0,8.437223360888919e-17
1750772099.4990828,-2.0791052139597976,-1.222726317062289,-1.4458350672144435,1.5721810308572906,-0.7491668140227077,-2.3191242929743416,0.0,0.0,0.0,0.0,0.0,0.0,6.786652126012714,4.238478386713231,0.2996750547980063,0.00011424338232738367,0.0,8.437223360888919e-17
1750772099.5011718,-2.0791052139597976,-1.222726317062289,-1.4458350672144435,1.5721810308572906,-0.7491668140227077,-2.3191242929743416,0.0,0.0,0.0,0.0,0.0,0.0,6.786652126012714,4.238478386713231,0.2996750547980063,0.00011424338232738367,0.0,8.437223360888919e-17
1750772099.5030792,-2.0791052139597976,-1.222726317062289,-1.4458350672144435,1.5721810308572906,-0.7491668140227077,-2.3191242929743416,0.0,0.0,0.0,0.0,0.0,0.0,6.786652126012714,4.238478386713231,0.2996750547980063,0.00011424338232738367,0.0,8.437223360888919e-17
1750772099.5049844,-2.0791052139597976,-1.222726317062289,-1.4458350672144435,1.5721810308572906,-0.7491668140227077,-2.3191242929743416,0.0,0.0,0.0,0.0,0.0,0.0,6.786652126012714,4.238478386713231,0.2996750547980063,0.00011424338232738367,0.0,8.437223360888919e-17
1750772099.5085616,-2.0791052139597976,-1.222726317062289,-1.4458350672144435,1.5721810308572906,-0.7491668140227077,-2.3191242929743416,0.0,0.0,0.0,0.0,0.0,0.0,6.786652126012714,4.238478386713231,0.2996750547980063,0.00011424338232738367,0.0,8.437223360888919e-17
1750772099.5099318,-2.0791052139597976,-1.222726317062289,-1.4458350672144435,1.5721810308572906,-0.7491668140227077,-2.3191242929743416,0.0,0.0,0.0,0.0,0.0,0.0,6.786652126012714,4.238478386713231,0.2996750547980063,0.00011424338232738367,0.0,8.437223360888919e-17
1750772099.5113971,-2.0791052139597976,-1.222726317062289,-1.4458350672144435,1.5721810308572906,-0.7491668140227077,-2.3191242929743416,0.0,0.0,0.0,0.0,0.0,0.0,6.786652126012714,4.238478386713231,0.2996750547980063,0.00011424338232738367,0.0,8.437223360888919e-17
1750772099.5131607,-2.0791052139597976,-1.222726317062289,-1.4458350672144435,1.5721810308572906,-0.7491668140227077,-2.3191242929743416,0.0,0.0,0.0,0.0,0.0,0.0,6.786652126012714,4.238478386713231,0.2996750547980063,0.00011424338232738367,0.0,8.437223360888919e-17
1750772099.5147069,-2.0791052139597976,-1.222726317062289,-1.4458350672144435,1.5721810308572906,-0.7491668140227077,-2.3191242929743416,0.0,0.0,0.0,0.0,0.0,0.0,6.786652126012714,4.238478386713231,0.2996750547980063,0.00011424338232738367,0.0,8.437223360888919e-17
1750772099.516771,-2.0791052139597976,-1.222726317062289,-1.4458350672144435,1.5721810308572906,-0.7491668140227077,-2.3191242929743416,0.0,0.0,0.0,0.0,0.0,0.0,6.786652126012714,4.238478386713231,0.2996750547980063,0.00011424338232738367,0.0,8.437223360888919e-17
1750772099.5190241,-2.0791052139597976,-1.222726317062289,-1.4458350672144435,1.5721810308572906,-0.7491668140227077,-2.3191242929743416,0.0,0.0,0.0,0.0,0.0,0.0,6.786652126012714,4.238478386713231,0.2996750547980063,0.00011424338232738367,0.0,8.437223360888919e-17
1750772099.520932,-2.0791052139597976,-1.222726317062289,-1.4458350672144435,1.5721810308572906,-0.7491668140227077,-2.3191242929743416,0.0,0.0,0.0,0.0,0.0,0.0,6.786652126012714,4.238478386713231,0.2996750547980063,0.00011424338232738367,0.0,8.437223360888919e-17
1750772099.5229218,-2.0791052139597976,-1.222726317062289,-1.4458350672144435,1.5721810308572906,-0.7491668140227077,-2.3191242929743416,0.0,0.0,0.0,0.0,0.0,0.0,6.786652126012714,4.238478386713231,0.2996750547980063,0.00011424338232738367,0.0,8.437223360888919e-17
1750772099.5252888,-2.0791052139597976,-1.222726317062289,-1.4458350672144435,1.5721810308572906,-0.7491668140227077,-2.3191242929743416,0.0,0.0,0.0,0.0,0.0,0.0,6.786652126012714,4.238478386713231,0.2996750547980063,0.00011424338232738367,0.0,8.437223360888919e-17
1750772099.5277684,-2.0791052139597976,-1.222726317062289,-1.4458350672144435,1.5721810308572906,-0.7491668140227077,-2.3191242929743416,0.0,0.0,0.0,0.0,0.0,0.0,6.786652126012714,4.238478386713231,0.2996750547980063,0.00011424338232738367,0.0,8.437223360888919e-17
1750772099.5294805,-2.0791052139597976,-1.222726317062289,-1.4458350672144435,1.5721810308572906,-0.7491668140227077,-2.3191242929743416,0.0,0.0,0.0,0.0,0.0,0.0,6.786652126012714,4.238478386713231,0.2996750547980063,0.00011424338232738367,0.0,8.437223360888919e-17
1750772099.531278,-2.0791052139597976,-1.222726317062289,-1.4458350672144435,1.5721810308572906,-0.7491668140227077,-2.3191242929743416,0.0,0.0,0.0,0.0,0.0,0.0,6.786652126012714,4.238478386713231,0.2996750547980063,0.00011424338232738367,0.0,8.437223360888919e-17
1750772099.5334334,-2.0791052139597976,-1.222726317062289,-1.4458350672144435,1.5721810308572906,-0.7491668140227077,-2.3191242929743416,0.0,0.0,0.0,0.0,0.0,0.0,6.786652126012714,4.238478386713231,0.2996750547980063,0.00011424338232738367,0.0,8.437223360888919e-17
1750772099.5349064,-2.0791052139597976,-1.222726317062289,-1.4458350672144435,1.5721810308572906,-0.7491668140227077,-2.3191242929743416,0.0,0.0,0.0,0.0,0.0,0.0,6.786652126012714,4.238478386713231,0.2996750547980063,0.00011424338232738367,0.0,8.437223360888919e-17
1750772099.5371697,-2.0791052139597976,-1.222726317062289,-1.4458350672144435,1.5721810308572906,-0.7491668140227077,-2.3191242929743416,0.0,0.0,0.0,0.0,0.0,0.0,6.786652126012714,4.238478386713231,0.2996750547980063,0.00011424338232738367,0.0,8.437223360888919e-17
1750772099.5389795,-2.0791052139597976,-1.222726317062289,-1.4458350672144435,1.5721810308572906,-0.7491668140227077,-2.3191242929743416,0.0,0.0,0.0,0.0,0.0,0.0,6.786652126012714,4.238478386713231,0.2996750547980063,0.00011424338232738367,0.0,8.437223360888919e-17
1750772099.540997,-2.0791052139597976,-1.222726317062289,-1.4458350672144435,1.5721810308572906,-0.7491668140227077,-2.3191242929743416,0.0,0.0,0.0,0.0,0.0,0.0,6.786652126012714,4.238478386713231,0.2996750547980063,0.00011424338232738367,0.0,8.437223360888919e-17
1750772099.5431132,-2.0791052139597976,-1.222726317062289,-1.4458350672144435,1.5721810308572906,-0.7491668140227077,-2.3191242929743416,0.0,0.0,0.0,0.0,0.0,0.0,6.786652126012714,4.238478386713231,0.2996750547980063,0.00011424338232738367,0.0,8.437223360888919e-17
1750772099.5493846,-2.0791052139597976,-1.222726317062289,-1.4458350672144435,1.5721810308572906,-0.7491668140227077,-2.3191242929743416,0.0,0.0,0.0,0.0,0.0,0.0,6.786652126012714,4.238478386713231,0.2996750547980063,0.00011424338232738367,0.0,8.437223360888919e-17
1750772099.5506043,-2.0791052139597976,-1.222726317062289,-1.4458350672144435,1.5721810308572906,-0.7491668140227077,-2.3191242929743416,0.0,0.0,0.0,0.0,0.0,0.0,6.786652126012714,4.238478386713231,0.2996750547980063,0.00011424338232738367,0.0,8.437223360888919e-17
1750772099.5525925,-2.0791052139597976,-1.222726317062289,-1.4458350672144435,1.5721810308572906,-0.7491668140227077,-2.3191242929743416,0.0,0.0,0.0,0.0,0.0,0.0,6.786652126012714,4.238478386713231,0.2996750547980063,0.00011424338232738367,0.0,8.437223360888919e-17
1750772099.5536003,-2.0791052139597976,-1.222726317062289,-1.4458350672144435,1.5721810308572906,-0.7491668140227077,-2.3191242929743416,0.0,0.0,0.0,0.0,0.0,0.0,6.786652126012714,4.238478386713231,0.2996750547980063,0.00011424338232738367,0.0,8.437223360888919e-17
1750772099.5540192,-2.0791052139597976,-1.222726317062289,-1.4458350672144435,1.5721810308572906,-0.7491668140227077,-2.3191242929743416,0.0,0.0,0.0,0.0,0.0,0.0,6.786652126012714,4.238478386713231,0.2996750547980063,0.00011424338232738367,0.0,8.437223360888919e-17
1750772099.5549037,-2.0791052139597976,-1.222726317062289,-1.4458350672144435,1.5721810308572906,-0.7491668140227077,-2.3191242929743416,0.0,0.0,0.0,0.0,0.0,0.0,6.786652126012714,4.238478386713231,0.2996750547980063,0.00011424338232738367,0.0,8.437223360888919e-17
1750772099.5569592,-2.079104366593132,-1.2227288713387097,-1.4458333578201525,1.5721810478035543,-0.7491663375265443,-2.3191238164542236,0.0008473649803509843,-0.0025542737405577693,0.001709393301309351,1.6946272523671188e-05,0.00047649643858060616,0.000476520393338488,6.943211340696984,3.8197015537472057,0.33449821119289835,0.0025440777766379194,0.013423063058697216,0.2127996964755475
1750772099.5588665,-2.079101824513355,-1.222736534135815,-1.4458282296491598,1.57218109864245,-0.7491649080347509,-2.3191223868905646,0.0016947097417250208,-0.005108515326243506,0.0034187747201197007,3.389264929372235e-05,0.000952996180683236,0.0009530440917300312,6.9431874202891155,3.819700691778032,0.3344978453433143,0.0025440810145749746,0.013423156119978326,0.21279993201144587
1750772099.5610194,-2.0790975877811233,-1.2227493053571425,-1.4458196827371141,1.5721811833742905,-0.7491625255374172,-2.31912000427345,0.002542014065957675,-0.007662692604088788,0.005128132375012005,5.083923457179445e-05,0.001429502529838276,0.0014295744002691486,6.94314481424832,3.819700491578189,0.3344971474225919,0.0025440919146644107,0.013423342242779022,0.2128012050609933
1750772099.562866,-2.0790916564975275,-1.222767184841926,-1.4458077171434223,1.572181301999597,-0.749159190018025,-2.3191166685863536,0.003389257736491819,-0.010216773424920991,0.006837454386781581,6.778613262419871e-05,0.0019060187896311222,0.0019061146241573436,6.943083523403513,3.819700952533791,0.33449611749677427,0.002544110477067887,0.013423621428648133,0.21280351565928046
1750772099.5649254,-2.07908403080409,-1.2227901723651087,-1.445792332951246,1.572181454519099,-0.7491549014534487,-2.3191123798061395,0.004236420539175615,-0.012770725645254964,0.0085467288794949,8.473344770849447e-05,0.002382548263969367,0.002382668068733843,6.943003548962507,3.8197020737360368,0.3344947556615928,0.0025441367015152727,0.013423993686664913,0.21280686384120348
1750772099.5669622,-2.0790747108827565,-1.2228182676373498,-1.4457735302674983,1.5721816409337352,-0.7491496598139564,-2.3191071379030612,0.005083482263091222,-0.015324517129208926,0.010255943981612767,0.00010168128405865522,0.0028590942567693427,0.0028592380395382876,6.942904892527359,3.8197038539821047,0.33449306204463536,0.0025441705873952575,0.013424459017072564,0.21281124965730208
1750772099.5689518,-2.0790636969558935,-1.2228514703050495,-1.4457513092228247,1.5721818612446523,-0.7491434650632067,-2.3191009428407603,0.00593042270133197,-0.01787811575039887,0.011965087827063622,0.0001186297459781472,0.003335660072308012,0.0033358278423477766,6.942787556065448,3.819706291770031,0.3344910368033709,0.0025442121367313035,0.0134250174300321,0.2128166731623957
1750772099.570843,-2.0790509892862765,-1.222889779950366,-1.4457256699716003,1.5721821154532056,-0.749136317158249,-2.3190937945762666,0.006777221651819346,-0.0204314893937883,0.013674148556296013,0.00013557893774839355,0.0038122490150229007,0.003812440783230348,6.942651541940351,3.8197093853161324,0.3344886801255486,0.002544261348978033,0.013425668930064603,0.21282313442237807
1750772099.5750644,-2.079036588177077,-1.2229331960912386,-1.4456966126919113,1.5721824035609593,-0.7491282160495247,-2.3190856930599977,0.007623858918120675,-0.02298460595766022,0.015383114317521927,0.00015252896363400365,0.004288864389856525,0.004289080168599202,6.94249685289629,3.819713132528908,0.33448599223361947,0.0025443182237868383,0.013426413531398305,0.21283063351448858
1750772099.5756273,-2.079036588177077,-1.2229331960912386,-1.4456966126919113,1.5721824035609593,-0.7491282160495247,-2.3190856930599977,0.007623858918120675,-0.02298460595766022,0.015383114317521927,0.00015252896363400365,0.004288864389856525,0.004289080168599202,6.94249685289629,3.819713132528908,0.33448599223361947,0.0025443182237868383,0.013426413531398305,0.21283063351448858
1750772099.5770931,-2.0790204939718535,-1.222981718181419,-1.4456641375855384,1.5721827255696859,-0.7491191616808646,-2.319076638235758,0.008470314310201616,-0.025537433355428525,0.01709197326760408,0.0001694799279361431,0.0047655095020221324,0.004765749305248734,6.942323492037403,3.819717531030188,0.33448297337486244,0.0025443827623059163,0.013427251241658037,0.21283917052061482
1750772099.5787158,-2.0790027070545403,-1.2230353456105023,-1.4456282448779376,1.5721830814813664,-0.7491091539894885,-2.3190666300407377,0.009316567645263616,-0.02808993951757357,0.018800713573272867,0.00018643193500081002,0.005242187657185702,0.005242451500412916,6.942131462865909,3.81972257814563,0.3344796238311125,0.0025444549659844134,0.013428182073597668,0.2128487455355598
1750772099.58067,-2.0789832278494274,-1.2230940777039647,-1.4455889348182227,1.5721834712981906,-0.7490981929060032,-2.319055668405512,0.010162598748564688,-0.030642092393550195,0.020509323412260538,0.00020338508909205407,0.005718902161568131,0.005719190061818478,6.941920769274833,3.8197282709070044,0.334475943916327,0.0025445348326947697,0.013429206042850325,0.21285935866439956
1750772099.5827188,-2.078962056821145,-1.223157913723199,-1.4455462076791399,1.572183895022557,-0.7490862783544046,-2.3190437532540407,0.011008387454154986,-0.03319385995357242,0.02221779097420038,0.00022033949457492312,0.0061956563218523875,0.006195968297710442,6.941691415510924,3.8197346060624455,0.3344719339696912,0.002544622365463016,0.013430323162431876,0.212871010012337
1750772099.5847316,-2.0789391944746463,-1.2232268528655634,-1.4455000637570423,1.572184352657073,-0.7490734102520733,-2.3190308845036656,0.01185391360571805,-0.03574521019061248,0.023926104461904425,0.00023729525580722655,0.006672453445307319,0.006672789516928711,6.941443406211924,3.819741580050389,0.33446759436611045,0.0025447175643635222,0.013431533448846544,0.2128836997062296
1750772099.5867102,-2.0789146413551887,-1.2233008942644243,-1.4454505033718643,1.5721848442045538,-0.7490595885097759,-2.319017062065111,0.012699157057350674,-0.03829611112220688,0.025634252092385866,0.0002542524771191454,0.007149296839880784,0.00714965702894275,6.941176746395112,3.8197491890300186,0.33446292550977813,0.002544820428855982,0.0134328369212231,0.2128974278754334
1750772099.5887625,-2.0788883980483073,-1.2233800369892105,-1.4453975268670902,1.5721853696680244,-0.7490448130316611,-2.319002285842481,0.01354409767436204,-0.04084653079233972,0.02734222209786067,0.0002712112629225048,0.0076261898141198005,0.00762657414389555,6.940891441457322,3.819757428866434,0.3344579278329304,0.0025449309615253285,0.013434233596438852,0.21291219465609465
1750772099.590686,-2.0788604651797966,-1.2234642800454667,-1.4453411346097242,1.572185929050718,-0.7490290837152607,-2.318986555733259,0.01438871533405061,-0.04339643727332942,0.029050002726960743,0.00028817171761983567,0.008103135677363892,0.008103544172660956,6.940587497162426,3.819766295128368,0.33445260180191977,0.0025450491624199015,0.013435723496819941,0.21292800019841773
1750772099.592782,-2.078830843415683,-1.2235536223749115,-1.4452813269902558,1.5721865223560771,-0.7490124004514858,-2.3189698716283065,0.015232989926497258,-0.04594579866765833,0.030757582245685724,0.0003051339456160583,0.008580137739794404,0.008580570426895733,6.940264919657138,3.8197757831010954,0.3344469479101294,0.002545175031959977,0.013437306646081714,0.21294484466362557
1750772099.5948768,-2.0787995334622,-1.223648062855502,-1.4452181044226258,1.5721871495877524,-0.7489947631246281,-2.3189522334118595,0.01607690135536501,-0.048494583109894664,0.032464948938611626,0.0003220980513572379,0.009057199312224503,0.00905765621907355,6.939923715465126,3.8197858877690147,0.33444096668477885,0.0025453085716366287,0.013438983062019783,0.2129627282138679
1750772099.596635,-2.078766536065759,-1.223747600301495,-1.445151467344183,1.572187810749604,-0.7489761716123553,-2.318933640961529,0.016920429538656967,-0.05104275876846056,0.03417209110982829,0.00033906413929699595,0.009534323706520714,0.009534804862548475,6.939563891479223,3.8197966038406697,0.3344346586798828,0.0025454497820669793,0.013440752774310385,0.21298165102962271
1750772099.5986345,-2.07873185201292,-1.2238522334635213,-1.4450814162156513,1.5721885058457006,-0.7489566257857119,-2.318914094148299,0.017763554409525113,-0.0535902938475776,0.03587899708412681,0.0003560323139437858,0.01001151423540085,0.010012019671591649,6.939185454971005,3.819807925719327,0.3344280244824729,0.002545598665193011,0.013442615806933539,0.21300161329312206
1750772099.6007826,-2.078695482130364,-1.2239619610286594,-1.445007951521081,1.5721892348803204,-0.7489361255091147,-2.318893592836522,0.018606255917016177,-0.05613715658902936,0.03758565520796278,0.00037300267980267774,0.01048877421252287,0.010489303961450869,6.938788413574851,3.8198198475314986,0.3344210647070169,0.0025457552213633697,0.013444572186372836,0.21302261520303942
1750772099.6026313,-2.078657427284851,-1.2240767816205063,-1.4449310737678074,1.5721899978579503,-0.7489146706403531,-2.318872136883922,0.019448514026883364,-0.05868331527402699,0.039292053850580405,0.00038997534140000883,0.01096610695266518,0.010966661048392758,6.938372775316569,3.8198323631165327,0.33441377999997896,0.002545919451628196,0.013446621944193283,0.2130446569626518
1750772099.604641,-2.078617688383199,-1.2241966937992652,-1.4448507834864044,1.5721907947832863,-0.7488922610305853,-2.3188497261415857,0.020290308722329082,-0.06122873822511627,0.04099818140516333,0.00040695040331290553,0.011443515771561137,0.011444094249751485,6.937938548563882,3.8198454660046415,0.33440617103923725,0.0025460913579043423,0.013448765107294456,0.21306773878559576
1750772099.6131406,-2.078576266372238,-1.2243216960618266,-1.4447670812306344,1.5721916256612334,-0.7488688965243364,-2.318826360453967,0.021131620004785887,-0.06377339380785763,0.04270402628967498,0.00042392797009913573,0.011921003986150612,0.011921606883982005,6.93748574208033,3.8198591494728413,0.3343982385276999,0.0025462709401488652,0.013451001709665395,0.2130918608971971
1750772099.6135285,-2.0784883770095615,-1.2245869645098901,-1.444589443126679,1.5721933892956286,-0.7488193021673233,-2.3187767635875023,0.02281271243221034,-0.06886027655707676,0.046114821851381216,0.0004578910369562873,0.012876231875846742,0.01287688373074307,6.936524426758685,3.8198882297339956,0.3343814058274577,0.0025466531436078793,0.013455755361054136,0.2131432269225952
1750772099.6148226,-2.0784419117512414,-1.224727227373421,-1.4444955085014968,1.5721943220629333,-0.7487930719724254,-2.3187505320643615,0.02365245367807299,-0.0714024406865885,0.04781974949864515,0.0004748767463129368,0.013353978190782169,0.013354654586211384,6.9360159372654575,3.8199036116164375,0.3343725071993253,0.0025468557652001704,0.013458272479906493,0.21317047133431208
1750772099.6168091,-2.078393767570322,-1.2248725736770094,-1.4443981643478372,1.572195288804563,-0.7487658861927766,-2.3187233449073448,0.024491631714241006,-0.0739437113774001,0.04952434841802579,0.0004918653792600358,0.013831817181139143,0.013832518160515056,6.935488906713164,3.8199195442555656,0.3343632881413599,0.002547066070613093,0.013460883176512109,0.21319875702290064
1750772099.6187477,-2.0783439456131223,-1.2250230016023762,-1.4442974113346043,1.5721962895264694,-0.7487377446397021,-2.31869520192769,0.02533022664471852,-0.07648405723774074,0.05122860716781906,0.000508857040548727,0.014309752170184042,0.014310477778425536,6.934943345691429,3.8199360194894765,0.3343537495070369,0.002547284060347532,0.013463587490607444,0.2132280842595224
1750772099.6206539,-2.0782924470657296,-1.2251785092685132,-1.4441932501535533,1.572197324234814,-0.7487086471178808,-2.3186661029299844,0.026168218596280948,-0.07902344692977353,0.05293251433752439,0.0005258518349498735,0.014787786482485679,0.014788536766133663,6.934379265139289,3.8199530288666383,0.3343438921794871,0.002547509735644452,0.01346638545888076,0.21325845333004234
1750772099.62271,-2.0782392731539563,-1.225339094731794,-1.444085681519228,1.5721983929359677,-0.748678593425339,-2.3186360477121606,0.027005587719214703,-0.08156184917134024,0.05463605854889435,0.0005428498672897504,0.01526592344422455,0.015266698451282357,6.933796676358986,3.8199705636607604,0.33433371707174686,0.002547743098721877,0.013469277126736233,0.21328986452188042
1750772099.624749,-2.0781844251432897,-1.2255047559860808,-1.4439747061688948,1.5721994956365115,-0.7486475833534518,-2.318605036065495,0.027842314188055512,-0.08409923273770346,0.05633922845684439,0.0005598512424446901,0.015744166382956157,0.015744966163022768,6.933195591012881,3.8199886148692817,0.3343232251225201,0.002547984151698626,0.013472262532906041,0.2133223181361746
1750772099.6267326,-2.0781279043388414,-1.2256754909628498,-1.4438603248624773,1.5722006323432358,-0.7486156166869362,-2.3185730677746035,0.028678378202345447,-0.08663556646339036,0.05804201275064031,0.0005768560653133588,0.016222518627832683,0.01622334323206929,6.932576021123448,3.8200071731962444,0.33431241730367234,0.0025482328959507677,0.01347534172236984,0.2133558144859851
1750772099.6288755,-2.0780697120853002,-1.2258512975313032,-1.4437425383824856,1.572201803063141,-0.7485826932038497,-2.31854014261744,0.02951375998733838,-0.08917081924387231,0.05974440015485859,0.000593864440828747,0.016700983509606818,0.016701832990736815,6.931937979063082,3.8200262290780844,0.3343012946144558,0.0025484893331729967,0.0134785147402143,0.2133903538892903
1750772099.6326838,-2.078009849766877,-1.2260321734984991,-1.443621347533944,1.5722030078034375,-0.748548812675585,-2.3185062603652917,0.030348439794732267,-0.09170496003731665,0.06144637943031864,0.0006108764739971601,0.017179564360733514,0.017180438773003744,6.9312814775589615,3.8200457726712265,0.33428985808019923,0.002548753466254516,0.013481781634393446,0.21342593668130064
1750772099.6331458,-2.078009849766877,-1.2260321734984991,-1.443621347533944,1.5722030078034375,-0.748548812675585,-2.3185062603652917,0.030348439794732267,-0.09170496003731665,0.06144637943031864,0.0006108764739971601,0.017179564360733514,0.017180438773003744,6.9312814775589615,3.8200457726712265,0.33428985808019923,0.002548753466254516,0.013481781634393446,0.21342593668130064
1750772099.63492,-2.0779483188072545,-1.2262181166094752,-1.443496753144319,1.5722042465715453,-0.7485139748668708,-2.3184714207827755,0.031182397903400147,-0.0942379578663313,0.06314793937521346,0.0006278922698294723,0.017658264515357097,0.01765916391454584,6.9306065296966874,3.8200657938555063,0.33427810875831987,0.002549025296083822,0.013485142452497269,0.21346256319859677
1750772099.636907,-2.077885120669526,-1.226409124547379,-1.4433687560634407,1.5722055193750952,-0.7484781795357645,-2.3184356236278356,0.032015614620112404,-0.09676978181969675,0.06484906882608044,0.000644911933403118,0.018137087309310785,0.01813801175279582,6.929913148913713,3.820086282233444,0.3342660477334963,0.002549304825386457,0.013488597242101349,0.21350023379338995
1750772099.6395712,-2.077820256856146,-1.2266051949336063,-1.4432373571634276,1.5722068262219275,-0.748441426433649,-2.31839886865174,0.032848070280219036,-0.09930040105406197,0.06654975665876539,0.0006619355698380716,0.01861603608030311,0.018616985626991496,6.929201348979882,3.820107227131026,0.3342536761172964,0.00254959205622211,0.013492146056035036,0.21353894882855767
1750772099.6408756,-2.077753728908867,-1.2268063253279324,-1.443102557338607,1.5722081671200931,-0.7484037153052316,-2.318361155599076,0.03367974524838094,-0.10182978479562438,0.0682499917894404,0.0006789632842895834,0.019095114167874554,0.019096088878221534,6.928471144031272,3.820128617610616,0.33424099505058996,0.0025498869904536344,0.013495788945904601,0.2135787086745717
1750772099.6435,-2.0776855384086836,-1.2270125132286571,-1.4429643575054332,1.5722095420778535,-0.7483650458885389,-2.318322484207747,0.03451061991927271,-0.10435790234188994,0.06994976317563792,0.0006959951820040722,0.01957432491344478,0.01957532484947438,6.927722548540426,3.820150442447054,0.33422800570274047,0.0025501896315625544,0.013499525964646852,0.21361951371190394
1750772099.644924,-2.077615686975772,-1.227223756072748,-1.4428227586024018,1.5722109511036801,-0.748325417914911,-2.318282854208968,0.035340674718272444,-0.10688472306329269,0.07164905981719337,0.0007130313681966333,0.020053671660422004,0.020054696885694435,6.926955577327601,3.820172690156704,0.33421470927019753,0.0025504999795856282,0.013503357168280642,0.2136613643351007
1750772099.6469357,-2.077544176269422,-1.2274400512359893,-1.4426777615899669,1.5722123942062556,-0.7482848311089993,-2.318242265327263,0.03616989010215281,-0.10941021640486426,0.07334787075716372,0.0007300719482217629,0.020533157754211457,0.020534208333823238,6.926170245554392,3.820195348985382,0.3342011069751814,0.0025508180394253834,0.0135072826130623,0.2137042609453808
1750772099.6486967,-2.077471007987981,-1.2276613960331275,-1.442529367450451,1.5722138713944727,-0.7482432851887646,-2.318200717280459,0.03699824655976171,-0.11193435188795363,0.07504618508299629,0.0007471170274148288,0.021012786542241233,0.02101386254285337,6.925366568712123,3.8202184068975082,0.3341872000725322,0.0025511438115006476,0.013511302355976227,0.2137482039563293
1750772099.6506972,-2.077396183868787,-1.227887787718033,-1.4423775771879566,1.572215382677435,-0.748200779865468,-2.318158209779684,0.037825724612716834,-0.11445709911182286,0.07674399192727965,0.0007641667112190288,0.021492561373989597,0.021493662863872363,6.924544562644412,3.82024185160212,0.3341729898385723,0.002551477299857331,0.013515416454775648,0.21379319378917153
1750772099.652721,-2.0773197056880974,-1.2281192234838532,-1.4422223918282775,1.5722169280644576,-0.748157314843672,-2.3181147425293602,0.03865230481607689,-0.11697842775530383,0.07844128046887933,0.0007812211050642748,0.021972485601279165,0.021973612650124954,6.923704243527181,3.8202656705388796,0.33415847758174905,0.0025518185051600075,0.01351962497550471,0.21383923088227932
1750772099.6547084,-2.07724157526103,-1.2283557004631724,-1.4420638124187999,1.5722185075650659,-0.7481128898212299,-2.318070315227203,0.03947796775898323,-0.11949830757839876,0.08013803993372402,0.0007982803145278446,0.022452562577852754,0.0224537152570437,6.922845627855427,3.8202898508810694,0.33414366463222017,0.002552167432607272,0.013523927972251777,0.21388631567622696
1750772099.657167,-2.077161794441487,-1.228597215728179,-1.4419018400284127,1.5722201211889966,-0.7480675044892902,-2.3180249275642133,0.040302694065368745,-0.12201670842394437,0.08183425959596519,0.0008153444451616188,0.022932795659925394,0.02293397404231513,6.921968732479101,3.820314379537327,0.33412855235332156,0.002552524082557432,0.013528325514663422,0.2139344486287789
1750772099.6586437,-2.0770803651220877,-1.228843766290833,-1.4417364757474038,1.5722217689461977,-0.7480211585322811,-2.317978579224675,0.041126464394585144,-0.12453360021917537,0.0835299287787659,0.0008324136026179377,0.02341318820589159,0.02341439236592138,6.921073574563154,3.820339243155369,0.3341131421303303,0.0025528884589542,0.013532817664134255,0.2139836302059076
1750772099.6607077,-2.0769972892340967,-1.22909534910303,-1.4415677206873694,1.5722234508468287,-0.7479738516279166,-2.317931269886149,0.041949259442047165,-0.1270489529773044,0.08522503685527642,0.0008494878926046692,0.023893743576520958,0.023894973590190917,6.920160171597569,3.8203644281232,0.33409743537611825,0.0025532605644872615,0.013537404487572461,0.21403386088520146
1750772099.662683,-2.0769125687473533,-1.229351961056782,-1.4413955759811055,1.5722251669012604,-0.7479255834471834,-2.3178829992194707,0.04277105993989141,-0.12956273679913974,0.0869195732496277,0.0008665674208720732,0.024374465135042583,0.024375721079849012,6.919228541401122,3.8203899205628074,0.334081433531424,0.002553640401498903,0.013542086054262988,0.21408514115492608
1750772099.6646767,-2.0768262056701916,-1.2296135989843933,-1.4412200427825095,1.572226917120075,-0.7478763536543411,-2.3178337668887417,0.043591846657639724,-0.13207492187464254,0.08861352743780174,0.0008836522932332823,0.024855356247013263,0.0248566382020711,6.9182787021315635,3.8204157063432356,0.3340651380618158,0.002554027972955601,0.013546862429776397,0.2141374715154721
1750772099.6693382,-2.0767382020493717,-1.2298802596586356,-1.4410411222664736,1.5722287015140666,-0.7478261619069144,-2.3177835725513276,0.04441160040274496,-0.13458547848438793,0.09030688894848278,0.000900742615622374,0.025336420280584165,0.025337728326516474,6.917310672226327,3.8204417710810707,0.334048550456572,0.0025544232834405793,0.01355173368719863,0.21419085247352665
1750772099.67081,-2.076648559969999,-1.2301519397929344,-1.4408588156287792,1.5722305200942412,-0.7477750078556902,-2.3177324158578525,0.045230302021335746,-0.13709437700128727,0.09199964736424188,0.0009178384939259966,0.025817660606386794,0.025818994825407154,6.91632447049122,3.8204681001194007,0.33403167223847474,0.00255482633287275,0.013556699896400255,0.21424528455678363
1750772099.6739638,-2.076648559969999,-1.2301519397929344,-1.4408588156287792,1.5722305200942412,-0.7477750078556902,-2.3177324158578525,0.045230302021335746,-0.13709437700128727,0.09199964736424188,0.0009178384939259966,0.025817660606386794,0.025818994825407154,6.91632447049122,3.8204681001194007,0.33403167223847474,0.00255482633287275,0.013556699896400255,0.21424528455678363
1750772099.6745405,-2.076648559969999,-1.2301519397929344,-1.4408588156287792,1.5722305200942412,-0.7477750078556902,-2.3177324158578525,0.045230302021335746,-0.13709437700128727,0.09199964736424188,0.0009178384939259966,0.025817660606386794,0.025818994825407154,6.91632447049122,3.8204681001194007,0.33403167223847474,0.00255482633287275,0.013556699896400255,0.21424528455678363
1750772099.6749454,-2.0765572815554476,-1.2304286360415544,-1.4406731240859898,1.5722323728718168,-0.7477228911447122,-2.317680296452193,0.04604793239873112,-0.1396015878919243,0.09369179232210134,0.0009349400341883763,0.02629908059770835,0.026300441073547818,6.915320116007652,3.8204946785680614,0.3340145049462144,0.002555237126926587,0.013561761132194303,0.21430076829346542
1750772099.6768005,-2.076464368967282,-1.2307103449997898,-1.4404840488753354,1.5722342598582233,-0.7476698114112725,-2.3176272139714738,0.04686447246010207,-0.1421070817181676,0.0953833135146359,0.0009520473424990909,0.026780683630411934,0.02678207044839425,6.9142976281885975,3.820521491272152,0.3339970501494848,0.002555655668172355,0.013566917467143476,0.21435730423046198
1750772099.678783,-2.076369824405175,-1.2309970632041543,-1.44029159125461,1.5722361810651029,-0.7476157682859101,-2.3175731680460614,0.04767990317107346,-0.1446108291386518,0.09707420069084356,0.000969160525011857,0.027262473083118705,0.027263886330093353,6.913257026758757,3.820548522828501,0.33397930944261645,0.0025560819597005534,0.013572168978944294,0.21441489292104596
1750772099.6808617,-2.0762736501068275,-1.231288787132577,-1.4400957525020468,1.5722381365043103,-0.7475607613924051,-2.31751815829956,0.04849420553830952,-0.1471128009102595,0.09876444365703343,0.0009862796879256143,0.027744452337182732,0.027745892101547008,6.912198331743473,3.820575757582539,0.33396128444484,0.0025565160041424867,0.013577515744583312,0.21447353493777685
1750772099.6826227,-2.076175848347887,-1.2315855132045987,-1.4398965339162135,1.5722401261879124,-0.7475047903477714,-2.3174621843488046,0.04930736061010841,-0.14961296788957248,0.1004540322776587,0.0010034049375425192,0.028226624776719954,0.02822809114843985,6.911121563479466,3.820603179635768,0.333942976799003,0.0025569578057187043,0.013582957841862992,0.21453323085309559
1750772099.6846032,-2.076076421441858,-1.2318872377815762,-1.4396939368158854,1.5722421501281891,-0.7474478547622505,-2.3174052458038568,0.05011934947699735,-0.1521113010343629,0.10214295647622076,0.0010205363801989887,0.028708993788726624,0.028710486859317434,6.910026742608288,3.820630772837354,0.3339243881732829,0.002557407366819784,0.013588495351923016,0.21459398126524215
1750772099.6865742,-2.075975371740027,-1.232193957166884,-1.4394879625399355,1.572244208337633,-0.7473899542393081,-2.3173473422679973,0.05093015327227677,-0.1546077714050142,0.10383120623620073,0.0010376741223753142,0.029191562763071548,0.029193082625607155,6.908913890057006,3.8206585207908814,0.33390552026202663,0.002557864692870975,0.013594128355683986,0.21465578677041314
1750772099.6886878,-2.0758727016313667,-1.2325056676061212,-1.4392786124472048,1.5722463008289493,-0.7473310883756277,-2.3172884733377215,0.05173975317263356,-0.15710235016591864,0.10551877160175689,0.0010548182705374535,0.02967433509256172,0.02967588184169059,6.907783027080351,3.8206864068693,0.3338863747798258,0.0025583297848951313,0.013599856935915358,0.21471864798625429
1750772099.6905851,-2.0757684135424537,-1.2328223652873191,-1.4390658879163887,1.5722484276150568,-0.7472712567611044,-2.3172286386027325,0.052548130398665925,-0.15959500858693912,0.10720564267874028,0.001071968931289689,0.03015731417306541,0.03015888790494395,6.906634175200536,3.8207144141873206,0.33386695346919415,0.0025588026482578864,0.013605681178855434,0.21478256553894667
1750772099.6931744,-2.0757684135424537,-1.2328223652873191,-1.4390658879163887,1.5722484276150568,-0.7472712567611044,-2.3172286386027325,0.052548130398665925,-0.15959500858693912,0.10720564267874028,0.001071968931289689,0.03015731417306541,0.03015888790494395,6.906634175200536,3.8207144141873206,0.33386695346919415,0.0025588026482578864,0.013605681178855434,0.21478256553894667
1750772099.6949072,-2.0755549933176587,-1.2334707068411772,-1.4386303211537737,1.5722527841243858,-0.7471486946051229,-2.3171060700434354,0.05416114193310679,-0.1645744500244277,0.11057726270360278,0.0011062902172341625,0.03112390618559403,0.031125534177754294,6.904282592329672,3.820770723824505,0.33382729044532833,0.0025597717010453335,0.013617616991932376,0.2149135722223245
1750772099.6966977,-2.075445866222143,-1.2338023428039975,-1.438407481777487,1.5722550138745115,-0.7470859632094555,-2.3170433353645206,0.054965738907284956,-0.16706117612033847,0.11226199217883172,0.0011234610560060176,0.03160752592470496,0.03160918119749825,6.903079905859066,3.8207989911976608,0.33380705233093505,0.0025602678988006482,0.01362372873908962,0.21498066266504903
1750772099.6986773,-2.0753351312269253,-1.2341389501895375,-1.438181273673881,1.5722572779732364,-0.7470222643545137,-2.316979633171667,0.05576903853975767,-0.16954586803802144,0.11394598842192913,0.00114063883445231,0.03209136602907466,0.03209304868489496,6.901859319522079,3.8208273099072976,0.3337865455886785,0.002560771881315693,0.013629936499722703,0.21504881207477877
1750772099.7007182,-2.075222790945247,-1.2344805249012403,-1.4379516983190044,1.572259576434547,-0.7469575975961549,-2.316914963020527,0.05657102227890562,-0.17202849759523353,0.11562924185938984,0.0011578236595789313,0.03257542991027044,0.03257714005305566,6.9006208562878175,3.8208556618918164,0.33376577207526076,0.002561283654105535,0.013636240365310857,0.21511802113467285
1750772099.702645,-2.0751088480274085,-1.2348270627862963,-1.4377187572079864,1.5722619092726438,-0.7468919624834118,-2.3168493244599233,0.05737167162023791,-0.1745090367233193,0.11731174298428737,0.0011750156384156584,0.033059720983101136,0.033061458718404144,6.89936453940427,3.8208840288578436,0.33374473367127583,0.0025618032194757168,0.013642640427168078,0.21518829055203686
1750772099.7046623,-2.074993305160671,-1.2351785596358758,-1.437482451854903,1.5722642765019412,-0.7468253585584828,-2.3167827170318422,0.05817096810690379,-0.176987457468536,0.11899348235707025,0.0011922148781435599,0.03354424266583558,0.033546008100701595,6.898090392396349,3.820912392277479,0.3337234322795588,0.0025623305832883224,0.013649136782765105,0.2152596210332641
1750772099.7066836,-2.074876165069158,-1.2355350111853554,-1.4372427837926418,1.5722666781370684,-0.7467577853567269,-2.316715140271427,0.05896889333020818,-0.1794637319933347,0.1206744506063907,0.0012094214859708482,0.03402899838005145,0.03403079162312025,6.8967984390732955,3.820940733399486,0.33370186982669153,0.0025628657479785082,0.01365572952531161,0.2153320133086486
1750772099.7086964,-2.074757430513767,-1.2358964131145527,-1.4369997545727635,1.5722691141928689,-0.7466892424066582,-2.316646593706972,0.0597654289300546,-0.18193783257762836,0.12235463842983128,0.0012266355692203204,0.03451399155084393,0.03451581271227906,6.895488703485155,3.8209690332373447,0.33368004825901293,0.0025634087184403104,0.01366241875389798,0.21540546811532288
1750772099.7107391,-2.074757430513767,-1.2358964131145527,-1.4369997545727635,1.5722691141928689,-0.7466892424066582,-2.316646593706972,0.0597654289300546,-0.18193783257762836,0.12235463842983128,0.0012266355692203204,0.03451399155084393,0.03451581271227906,6.895488703485155,3.8209690332373447,0.33368004825901293,0.0025634087184403104,0.01366241875389798,0.21540546811532288
1750772099.7131395,-2.074637104292062,-1.2362627610479686,-1.4367533657653633,1.5722715846844006,-0.7466197292299341,-2.3165770768599137,0.060560556595487765,-0.1844097316200552,0.12403403659471635,0.0012438572352755672,0.034999225606776756,0.0350010747983059,6.894161209985983,3.820997272588987,0.3336579695465176,0.0025639594981025724,0.013669204566234397,0.21547998620695485
1750772099.7146919,-2.0745151892381823,-1.2366340505550149,-1.436503618958933,1.572274089626937,-0.7465492453413525,-2.3165065892448253,0.06135425806511805,-0.18687940163918207,0.12571263593884713,0.0012610865916400785,0.035484703979944326,0.0354865813148765,6.892815983168412,3.8210254320280863,0.3336356356795832,0.002564518092057021,0.013676087061779701,0.2155555683460748
1750772099.7168655,-2.0743916882227404,-1.237010277150267,-1.436250515760217,1.5722766290359658,-0.7464777902488455,-2.3164351303694093,0.06214651512762318,-0.1893468152748025,0.1273904273713014,0.00127832374591452,0.035970430106095595,0.03597233569927503,6.8914530478980955,3.821053491896246,0.3336130486708407,0.002565084504809565,0.013683066343485028,0.21563221531169777
1750772099.7186387,-2.0742666041527187,-1.2373914362936977,-1.435994057794069,1.5722792029271908,-0.7464053634534666,-2.3163626997344893,0.06293730962218874,-0.1918119452890415,0.1290674018731161,0.0012955688057332832,0.0364564074246446,0.036458341392448565,6.890072429302519,3.82108143233518,0.3335902105529224,0.0025656587390929793,0.013690142514596961,0.21570992789872528
1750772099.726742,-2.0741399399713716,-1.23777752339093,-1.4357342467033103,1.5722818113165309,-0.7463319644493902,-2.316289296834004,0.06372662343895895,-0.1942747645676483,0.13074355049813322,0.0013128218788937079,0.036942639378605924,0.03694460183903965,6.88867415275245,3.821109233246144,0.33356712338136757,0.0025662408012775647,0.01369731567654249,0.2157887069055102
1750772099.7271845,-2.073750496733826,-1.2389653056516057,-1.4349347113779567,1.5722898436356656,-0.7461059290233027,-2.3160632493750986,0.06608550049749207,-0.2016490887248973,0.1357669527567223,0.0013646302574830882,0.03840289754094587,0.03840494620251903,6.884373632936253,3.8211915947490693,0.33349638838905277,0.0025680339946060338,0.013719418191638619,0.21603145072213983
1750772099.728711,-2.073617542261534,-1.2393710575419608,-1.4346615045711033,1.5722925901809701,-0.7460286359882478,-2.315985952213761,0.06686871153894415,-0.20410239643028183,0.1374397098928281,0.0013819164635456356,0.03889018254365902,0.03889226018523966,6.882904983367478,3.8212186324112154,0.33347232595070164,0.002568647410183868,0.013726980400571324,0.21611450374466962
1750772099.7307622,-2.073483022934636,-1.2397817136077158,-1.4343849531180481,1.5722953713072223,-0.7459503681118562,-2.3159076801530016,0.0676503521328423,-0.20655325972267896,0.139111597537666,0.0013992112231925966,0.03937773945468755,0.03937984620204862,6.881418806461967,3.8212454269085314,0.3334480250352769,0.002569268675296426,0.013734640145784743,0.21619862742121562
1750772099.73282,-2.073483022934636,-1.2397817136077158,-1.4343849531180481,1.5722953713072223,-0.7459503681118562,-2.3159076801530016,0.0676503521328423,-0.20655325972267896,0.139111597537666,0.0013992112231925966,0.03937773945468755,0.03937984620204862,6.881418806461967,3.8212454269085314,0.3334480250352769,0.002569268675296426,0.013734640145784743,0.21619862742121562
1750772099.7346356,-2.073346941911832,-1.2401972689336738,-1.4341050587662787,1.5722981870316375,-0.7458711248468459,-2.3158284326452847,0.06843040448404274,-0.2090016522532581,0.14078260719659463,0.0014165146447933257,0.03986557174048969,0.03986770772091981,6.87991512907151,3.8212719568931233,0.3334234878164256,0.002569897795786852,0.013742397542248727,0.21628382263618193
1750772099.7367125,-2.0732093023873572,-1.2406177185520733,-1.4338218232801978,1.5723010373716484,-0.7457909056389971,-2.315748209136135,0.06920885085126383,-0.21144754780460423,0.1424527304526315,0.0014338268367863126,0.04035368287156027,0.040355848213902826,6.87839397827683,3.8212982008056073,0.3333987164868727,0.0025705347755985257,0.013750252703674928,0.21637009029485066
1750772099.7386553,-2.073070107590876,-1.2410430574428473,-1.4335352484409638,1.572303922344904,-0.7457097099271461,-2.315667009064129,0.06998567354747462,-0.21389092029178403,0.14412195896724514,0.0014511479077317512,0.04084207632245062,0.04084427115716372,6.876855381394761,3.8213241368834163,0.333373713261863,0.0025711796201555834,0.013758205744335466,0.2164574313108067
1750772099.7406507,-2.072929360787371,-1.241473280533894,-1.4332453360463315,1.572306841969271,-0.7456275371431751,-2.3155848318608863,0.07076085494025451,-0.216331743763364,0.14579028448088327,0.0014684779662638616,0.04133075557200368,0.04133298003104564,6.875299365963265,3.8213497431631556,0.33334848037126386,0.002571832333580613,0.013766256785127948,0.21654584661680773
1750772099.7426157,-2.072787065277037,-1.241908382701343,-1.432952087910496,1.5723097962628332,-0.7455443867120035,-2.3155016769510617,0.07153437745214059,-0.21876999240240003,0.1474576988136618,0.0014858171211829664,0.04181972410321738,0.04182197832011326,6.873725959740405,3.821374997486509,0.33332302006453124,0.002572492922619223,0.013774405943099106,0.21663533715712838
1750772099.7445822,-2.072643224395166,-1.2423483587698243,-1.4326555058639316,1.5723127852438925,-0.7454602580515832,-2.3154175437523365,0.07230622356103374,-0.22120564052749495,0.14912419386608872,0.0015031654813206328,0.04230898540336584,0.042311269513208294,6.87213519073102,3.821399877494842,0.33329733461171557,0.0025731613902050293,0.013782653338710012,0.2167259038897722
1750772099.74742,-2.07249784151204,-1.2427932035127434,-1.4323555917532325,1.5723158089309681,-0.7453751505728832,-2.3153324316754107,0.07307637580047516,-0.22363866259373813,0.1507897616196399,0.0015205231556472717,0.04279854296405131,0.0428008571035064,6.87052708712108,3.821424360631276,0.33327142629853695,0.002573837742387554,0.013790999093885935,0.21681754779298265
1750772099.7488785,-2.072350920032818,-1.243242911652552,-1.432052347440946,1.5723188673427975,-0.7452890636798895,-2.3152463401239927,0.07384481676002128,-0.2260690331936303,0.15245439413731368,0.001537890253281501,0.04328840028128309,0.043290744588555835,6.868901677341791,3.8214484241608506,0.3332452974271198,0.0025745219854532066,0.013799443332775078,0.2169102698513149
1750772099.7507577,-2.0722024633974234,-1.2436974778610255,-1.431745774805412,1.5723219604983363,-0.7452019967695875,-2.315159268494792,0.07461152908556472,-0.22849672705811544,0.15411808356442538,0.0015552668833729594,0.04377856085551666,0.043780935470347566,6.867258990021727,3.82147204513854,0.33321895032131554,0.0025752141224392546,0.013807986180628009,0.21700407107315015
1750772099.7527459,-2.072052475080431,-1.2441568967595389,-1.4314358757405978,1.5723250884167588,-0.7451139492319596,-2.3150712161775093,0.07537649547963679,-0.23092171905742873,0.15578082212905098,0.0015726531552715112,0.04426902819161689,0.04427143325535645,6.865599053999099,3.82149520044388,0.3331923873178073,0.0025759141611930076,0.013816627761657693,0.21709895247734606
1750772099.7547598,-2.0719009585909536,-1.2446211629193495,-1.4311226521559313,1.572328251117458,-0.745024920449973,-2.314982182554828,0.07613969870173369,-0.2333439842020617,0.15744260214275863,0.0015900491783413962,0.04475980579907238,0.04476224145459622,6.8639218983222205,3.821517866760988,0.33316561077377393,0.002576622104290067,0.01382536820611689,0.21719491509771105
1750772099.7567828,-2.0717479174725284,-1.2450902708618754,-1.4308061059761314,1.5723314486200461,-0.7449349097995732,-2.3148921670024043,0.07690112156858424,-0.23576349764358318,0.15910341600107047,0.0016074550621765402,0.04525089719191448,0.04525336358366483,6.8622275522312215,3.8215400205979164,0.3331386230594955,0.002577337960448719,0.013834207641976428,0.21729195998163692
1750772099.7587235,-2.0715933553030013,-1.2455642150589812,-1.430486239141045,1.572334680944354,-0.7448439166496694,-2.31480116888886,0.07766074695448166,-0.2381802346755968,0.16076325618422116,0.0016248709163655226,0.04574230588881519,0.04574480316282019,6.860516045180351,3.8215616382694946,0.3331114265666124,0.0025780617317950182,0.013843146199963803,0.21739008820144542
1750772099.7607431,-2.071437275694411,-1.24604298993326,-1.4301630536054697,1.5723379481104318,-0.7447519403621321,-2.3147091875757697,0.07841855779152156,-0.2405941707344997,0.16242211525752845,0.001642296850696717,0.04623403541321808,0.046236563717006546,6.858787406805629,3.821582695921467,0.33308402369726725,0.002578793426229416,0.013852184014497466,0.21748930083357285
1750772099.7629633,-2.071279682292875,-1.2465265898583207,-1.4298365513389895,1.57234125013855,-0.7446589802917796,-2.3146162224176554,0.0791745370698848,-0.2430052814003804,0.16407998587211467,0.0016597329750566697,0.046726089293189325,0.04672864877591701,6.857041666935329,3.821603169510047,0.33305641687372844,0.002579533048814717,0.013861321215796004,0.21758959897421778
1750772099.764769,-2.0711205787784728,-1.247015009159079,-1.4295067343257974,1.5723445870491988,-0.7445650357863673,-2.3145222727619736,0.07992866783811421,-0.24541354239782392,0.1657368607654083,0.0016771793994346312,0.04721847106171086,0.04722106187405641,6.85527885559698,3.8216230348192326,0.3330286085326222,0.0025802806048081358,0.013870557942338874,0.2176909837400559
1750772099.7667687,-2.070959968865127,-1.2475082421120431,-1.429173604564527,1.572347958863088,-0.7444701061865819,-2.314427337949107,0.0806809332033471,-0.24781892959668686,0.16739273276169078,0.0016946362339542915,0.04771118425659498,0.047713806550779336,6.85349900299552,3.8216422674598434,0.3330006011259728,0.0025810361003364545,0.01387989433019931,0.2177934562566304
1750772099.768763,-2.0707978563004854,-1.2480062829456076,-1.4288371640680761,1.572351365601148,-0.7443741908260284,-2.3143314173123555,0.0814313163315604,-0.25022141901289274,0.16904759477263206,0.0017121035888263629,0.04820423242052191,0.048206886350354895,6.851702139517097,3.8216608428666072,0.3329723971207634,0.002581799540244507,0.013889330516507238,0.21789701767131328
1750772099.770784,-2.0706342448658095,-1.2485091258403456,-1.428497414863429,1.5723548072845304,-0.7442772890312224,-2.3142345101779247,0.08217980044778989,-0.25262098680917155,0.17070143979782035,0.001729581574448759,0.04869761910120253,0.048700304822009606,6.849888295721676,3.8216787363058056,0.3329439989989551,0.0025825709322200136,0.013898866642979213,0.2180016691430983
1750772099.772762,-2.070469138375847,-1.2490167649293014,-1.4281543589914847,1.5723582839346066,-0.7441794001215776,-2.314136615864917,0.08292636883640471,-0.25501760929584966,0.17235426092531492,0.0017470703012844814,0.049191347851253286,0.049194065519992086,6.84805750236962,3.8216959228733067,0.33291540925830615,0.002583350280534954,0.013908502847804686,0.2181074118507487
1750772099.7798157,-2.070469138375847,-1.2490167649293014,-1.4281543589914847,1.5723582839346066,-0.7441794001215776,-2.314136615864917,0.08292636883640471,-0.25501760929584966,0.17235426092531492,0.0017470703012844814,0.049191347851253286,0.049194065519992086,6.84805750236962,3.8216959228733067,0.33291540925830615,0.002583350280534954,0.013908502847804686,0.2181074118507487
1750772099.7808526,-2.0699648872216034,-1.2505683999852595,-1.427105371985805,1.5723689239020373,-0.7438798037910441,-2.313837002938692,0.08515441337379057,-0.26218957022977163,0.17730651313935594,0.0017996020358806205,0.05067462212113619,0.05067743659072265,6.842463734857314,3.8217429898258386,0.3328285155015853,0.0025857361282315295,0.013938013384445627,0.2184311994087148
1750772099.7829049,-2.069793839323639,-1.2510951642413932,-1.426749110125673,1.5723725406370348,-0.7437779594738316,-2.3137351529599766,0.08589315288853627,-0.26457417755722545,0.17895517134306144,0.0018171348349808483,0.051169754777872715,0.051172601838675225,6.840565454030414,3.8217570965709236,0.3327991845358602,0.002586547365155453,0.013948051353347587,0.21854131916505487
1750772099.7847736,-2.069793839323639,-1.2510951642413932,-1.426749110125673,1.5723725406370348,-0.7437779594738316,-2.3137351529599766,0.08589315288853627,-0.26457417755722545,0.17895517134306144,0.0018171348349808483,0.051169754777872715,0.051172601838675225,6.840565454030414,3.8217570965709236,0.3327991845358602,0.002586547365155453,0.013948051353347587,0.21854131916505487
1750772099.7866662,-2.0696213159423227,-1.2516266946544725,-1.426389552005177,1.5723761924489075,-0.7436751245319932,-2.3136323122912876,0.08662989399395149,-0.2669557233646782,0.18060277243354284,0.0018346789296419923,0.05166524734462161,0.05166812716130818,6.838650379852086,3.821770369468928,0.3327696746463513,0.0025873665898787797,0.013958190134838303,0.21865253629409515
1750772099.7887063,-2.0694473210908404,-1.252162985078642,-1.4260266997449298,1.5723798793603578,-0.7435712982421245,-2.313528480208891,0.08736462033429852,-0.26933418486232663,0.1822493100398892,0.0018522344310968912,0.052161103405187904,0.052164016144092995,6.836718544044373,3.821782782647086,0.33273998841095825,0.002588193807777217,0.013968429873274362,0.21876485207388777
1750772099.7908363,-2.0692718588150267,-1.2527040293226204,-1.4256605554781947,1.5723836013943107,-0.7434664798736499,-2.313423655981877,0.08809731561442977,-0.2717095394125988,0.18389477788307806,0.001869801450737875,0.05265732654897611,0.05266027237790005,6.834769978481813,3.8217943100786065,0.3327101284237181,0.0025890290259935706,0.013978770726398632,0.21887826780307976
1750772099.7926564,-2.069094933193247,-1.2532498211500016,-1.4252911213506998,1.5723873585739139,-0.7433606686888101,-2.313317838872148,0.08882796359993679,-0.27408176453074334,0.18553916977633897,0.0018873801001116032,0.05315392037067725,0.05315689945903605,6.832804715188663,3.8218049255842828,0.33268009728879105,0.0025898722514798404,0.013989212843131002,0.21899278478862652
1750772099.7948747,-2.068916548336274,-1.2538003542795648,-1.424918399520454,1.5723911509225386,-0.7432538639426483,-2.313211028134408,0.08955654811727588,-0.2764508378854057,0.18718247962562912,0.0019049704908457334,0.05365088847054129,0.05365390098932183,6.830822786325926,3.8218146028324997,0.3326498976236632,0.0025907234892146246,0.013999756380069369,0.21910840436757262
1750772099.7975278,-2.0687367083871653,-1.2543556223855798,-1.4245423921575622,1.5723949784637792,-0.743146064883005,-2.313103223016153,0.09028305305391447,-0.2788167372991886,0.18882470143008445,0.0019225727347201706,0.054148234454474156,0.05415128057613086,6.828824224207743,3.821823315345534,0.3326195320587529,0.0025915827461713203,0.014010401496546213,0.21922512788572657
1750772099.7987964,-2.0685554175211465,-1.2549156190981154,-1.4241631014440372,1.572398841221454,-0.7430372707505004,-2.3129944227576575,0.09100746235841452,-0.281179440749156,0.1904658292823413,0.0019401869436952803,0.05464596193376577,0.05464904183244285,6.826809061268214,3.8218310364995984,0.33258900323324664,0.0025924500301499017,0.014021148344226268,0.21934295670761036
1750772099.8006263,-2.0683726799454814,-1.255480338003352,-1.4237805295736115,1.5724027392196054,-0.742927480778528,-2.312884626591965,0.09172976004059084,-0.28353892636739075,0.19210585736907462,0.001957813229822597,0.05514407452562928,0.05514718837690717,6.824777330102472,3.8218377395278456,0.33255831380198647,0.0025933253464617318,0.014031997089972725,0.21946189221801948
1750772099.8025796,-2.068188499899353,-1.2560497726438857,-1.423394678751552,1.5724066724824997,-0.742816694193241,-2.3127738337448753,0.09244993017156193,-0.2858951724414502,0.19374477997126813,0.0019754517053206465,0.05564257585278171,0.05564572383389377,6.82272906341169,3.8218433975211954,0.332527466427002,0.0025942087025923686,0.014042947888828915,0.21958193581989868
1750772099.8046598,-2.068002881653742,-1.2566239165190476,-1.4230055511944677,1.572410641034628,-0.7427049102135417,-2.3126620434349343,0.09316795688387762,-0.2882481574149233,0.1953825914647764,0.00199310248251583,0.056141469543799276,0.05614465183354895,6.820664294039533,3.8218479834214505,0.3324964637861729,0.002595100104368138,0.014054000905850388,0.21970308893294666
1750772099.8065913,-2.067815829511302,-1.2572027630852087,-1.42261314913012,1.572414644900706,-0.7425921280510668,-2.312549254873422,0.09388382437156395,-0.29059785988778347,0.19701928632052537,0.0020107656739151375,0.05664075923320311,0.056643976011844545,6.818583054946186,3.821851470049353,0.33246530856340384,0.002595999559693179,0.014065156308510058,0.21982535299403116
1750772099.8086503,-2.067627347806237,-1.2577863057560998,-1.4222174747972351,1.5724186841056749,-0.7424783469101826,-2.3124354672643403,0.09459751689022972,-0.29294425861693724,0.19865485910502975,0.002028441392146522,0.05714044856120014,0.057143700010647516,6.816485379221203,3.8218538300732128,0.3324340034567923,0.002596907074852902,0.014076414256975062,0.21994872946414368
1750772099.8106027,-2.067437440904177,-1.258374537903121,-1.4218185304453081,1.572422758674701,-0.7423635659879659,-2.312320679804401,0.0953090187570921,-0.29528733251655415,0.200289304480639,0.0020461297500236385,0.05764054117404798,0.0576438274777507,6.814371300063168,3.82185503604173,0.33240255117170375,0.00259782265790717,0.01408777492169718,0.22007321981181657
1750772099.8128598,-2.0672461132020583,-1.258967452855658,-1.4214163183344146,1.5724268686331766,-0.7422477844741957,-2.3122048916830145,0.09601831435104698,-0.29762706065855415,0.20192261720601376,0.0020638308604169426,0.05814104072400071,0.05814436206696306,6.812240850785078,3.821855060357759,0.3323709544265568,0.0025987463134019067,0.01409923847159833,0.22019882554122178
1750772099.8147256,-2.0670533691279953,-1.2595650439014001,-1.4210108407350157,1.5724310140067197,-0.74213100155134,-2.3120881020822783,0.09672538811272709,-0.29996342227296763,0.20355479213641986,0.0020815448364378325,0.05864195086936472,0.058645307438127015,6.810094064825861,3.8218538753027764,0.3323392159484445,0.0025996780510115954,0.014110805077174384,0.22032554815542066
1750772099.816746,-2.0668592131411616,-1.2601673042866537,-1.4206020999277662,1.5724351948211748,-0.742013216394545,-2.3119703101769633,0.09743022454449304,-0.30229639674827635,0.20518582422405235,0.0020992717912929853,0.05914327527449519,0.05914666725720477,6.807930975709008,3.821851453029705,0.33230733847336763,0.002600617876401247,0.014122474908821082,0.22045338919376847
1750772099.8185728,-2.0666636497316624,-1.260774227216662,-1.4201900982033173,1.572439411102613,-0.741894428171622,-2.311851515134503,0.09813280821049232,-0.3046259636317768,0.20681570851831327,0.002117011838380038,0.059645017609968556,0.05964844519631498,6.805751617082989,3.8218477655684295,0.33227532474537397,0.0026015657979160233,0.01413424814179336,0.2205823502036164
1750772099.820617,-2.0664666834204137,-1.2613858058559213,-1.4197748378621249,1.5724436628773322,-0.7417746360430337,-2.3117317161149793,0.09883312373665674,-0.3069521026299594,0.20844444016632263,0.002134765091184596,0.06014718155256221,0.06015064493380156,6.803556022682158,3.821842784813743,0.33224317752259946,0.0026025218210381936,0.014146124950774566,0.22071243275852204
1750772099.8293273,-2.0662683187590183,-1.262002033328499,-1.4193563212142548,1.5724479501718573,-0.7416538391618843,-2.3116109122711124,0.09953115581070371,-0.30927479360874766,0.21007201441299778,0.002152531663400694,0.06064977078536803,0.060653270154275546,6.801344226345319,3.8218364825528344,0.33221089956573097,0.0026034859546576502,0.0141581055136461,0.22084363844473529
1750772099.8299344,-2.06606856032964,-1.2626229027183573,-1.4189345505791806,1.5724522730129413,-0.741532036673906,-2.3114891027482463,0.10022688918214653,-0.3115940165938678,0.21169842660154436,0.002170311668865862,0.06115278899768939,0.061156324548684464,6.7991162620062475,3.8218288304410937,0.33217849364908875,0.002604458205889518,0.014170190005385868,0.22097596887399326
1750772099.8302188,-2.06606856032964,-1.2626229027183573,-1.4189345505791806,1.5724522730129413,-0.741532036673906,-2.3114891027482463,0.10022688918214653,-0.3115940165938678,0.21169842660154436,0.002170311668865862,0.06115278899768939,0.061156324548684464,6.7991162620062475,3.8218288304410937,0.33217849364908875,0.002604458205889518,0.014170190005385868,0.22097596887399326
1750772099.8307157,-2.0658674127448844,-1.263248407069666,-1.418509528285595,1.5724566314275643,-0.741409227717444,-2.3113662866843367,0.10092030866226194,-0.3139097517710625,0.21332367217360237,0.0021881052215543756,0.06165623988537711,0.0616598118143639,6.796872163686267,3.8218198000262515,0.3321459625512906,0.002605438581662644,0.014182378610440353,0.2211094256760834
1750772099.8327122,-2.065664880647671,-1.2638785393871306,-1.418081256671206,1.572461025442935,-0.741285411423446,-2.311242463209939,0.10161139912407711,-0.31622197948640085,0.21494774666966537,0.0022059124356107575,0.062160127150631794,0.06216373565508881,6.794611965495622,3.8218093627321417,0.3321133090626417,0.0026064270898675155,0.014194671507683554,0.2212440104975033
1750772099.8346999,-2.065460968711112,-1.2645132926363054,-1.4176497380825426,1.5724654550864905,-0.7411605869154503,-2.311117631448193,0.10230014550234005,-0.3185306802464966,0.2165706457292806,0.0022237334253207793,0.06266445450217965,0.06266809978114177,6.792335701633195,3.8217974898741955,0.33208053597925896,0.0026074237376398153,0.01420706888094381,0.22137972501071035
1750772099.8366492,-2.065255681638388,-1.2651526597439204,-1.4172149748747556,1.5724699203858965,-0.7410347533095702,-2.310991790514813,0.10298653279345538,-0.3208358347187297,0.21819236509129264,0.002241568305169128,0.06316922565523335,0.06317290790935222,6.79004340636612,3.8217841526524596,0.33204764610382037,0.0026084285337167673,0.014219570912945968,0.22151657090008176
1750772099.8387227,-2.065049024162626,-1.2657966335982032,-1.4167769694114183,1.5724744213690478,-0.7409079097144806,-2.3108649395180723,0.10367054605546232,-0.32313742373148263,0.21981290059422967,0.00225941718974646,0.06367444433178966,0.06367816376317235,6.7877351140541515,3.821769322157036,0.3320146422502288,0.0026094414842849664,0.014232177794803258,0.22165454987880376
1750772099.8406014,-2.0648410010467746,-1.2664452070491965,-1.4163357240643277,1.5724789580640686,-0.7407800552314088,-2.31073707755879,0.10435217040794498,-0.32543542827426036,0.22143224817636756,0.0022772801938367635,0.06418011426026236,0.06418387107272025,6.785410859121884,3.821752969378853,0.331981527234201,0.002610462597995326,0.014244889707280531,0.2217936636747599
1750772099.8425944,-2.0646316170834815,-1.2670983729090848,-1.415891241213303,1.5724835304993128,-0.7406511889541152,-2.3106082037303195,0.10503139103198766,-0.3277298294979505,0.22305040387616373,0.002295157432386751,0.06468623917607169,0.0646900335748408,6.7830706760700865,3.821735065188913,0.331948303883427,0.0026114918826662175,0.014257706847756532,0.22193391403701287
1750772099.846263,-2.064420877094971,-1.2677561239525144,-1.4154435232459877,1.5724881387033645,-0.7405213099688845,-2.310478317118533,0.10570819317007092,-0.33002060871490757,0.224667363832352,0.0023130490204982318,0.06519282282124847,0.06519665501316545,6.780714599460393,3.8217155803643794,0.3319149750284417,0.0026125293459345,0.014270629402450894,0.22207530273775727
1750772099.8467023,-2.064208785932923,-1.2684184529169196,-1.4149925725576455,1.572492782705038,-0.7403904173545115,-2.310347416801809,0.10638256212600347,-0.33230774739913904,0.22628312428427072,0.002330955073427998,0.06569986894465583,0.06570373913817201,6.77834266392568,3.821694485573587,0.3318815435089629,0.002613574995469466,0.014283657563831842,0.22221783157032995
1750772099.848651,-2.063995348478347,-1.2690853525028434,-1.4145383915509617,1.5724974625333783,-0.7402585101822838,-2.310215501851018,0.1070544832648152,-0.3345912271863587,0.22789768157194723,0.0023488757066511086,0.06620738130215044,0.06621128970722838,6.775954904162685,3.8216717513965532,0.33184801216741106,0.0026146288407178746,0.01429679152891063,0.22236150234258378
1750772099.8506773,-2.0637805696414597,-1.2697568153742615,-1.4140809826358414,1.5725021782176618,-0.7401255875159718,-2.310082571329508,0.10772394201265867,-0.33687102987417933,0.22951103213653076,0.002366811035712832,0.06671536365651784,0.06671931048466645,6.773551354920211,3.8216473482980398,0.3318143838579833,0.002615690886990832,0.014310031492876109,0.2225063168908796
1750772099.8525858,-2.0635644543615665,-1.2704328341589104,-1.4136203482292053,1.5725069297873957,-0.739991648411813,-2.3099486242930927,0.10839092385666352,-0.3391471374220985,0.2311231725202238,0.002384761176430576,0.06722381977751063,0.06722780524182902,6.771132050994882,3.821621246660806,0.33178066143308316,0.0026167611453470894,0.014323377651991308,0.2226522770692022
1750772099.8547175,-2.0633470076069385,-1.271113401448602,-1.4131564907547878,1.5725117172723193,-0.7398566919184999,-2.309813659790035,0.10905541434484785,-0.34141953195161456,0.23273409936666128,0.0024027262447224415,0.06773275344195741,0.06773677775713034,6.768697027252458,3.8215934167703707,0.33174684775612545,0.002617839621987265,0.01433683020558969,0.22279938475224348
1750772099.8566651,-2.0631282343746875,-1.2717985097995568,-1.4126894126429352,1.5725165407024038,-0.7397207170771605,-2.309677676861035,0.1097173990859796,-0.3436881957463102,0.23434380942108696,0.0024207063567065934,0.0682421684339445,0.06824623181612172,6.766246318598947,3.8215638288109015,0.33171294569504556,0.0026189263260055127,0.014350389358125517,0.22294764184049148
1750772099.858672,-2.0629081396906477,-1.2724881517327242,-1.4122191163304016,1.5725214001078527,-0.7395837229213518,-2.309540674539213,0.11037686374940475,-0.34595311125180744,0.2359522995304151,0.002438701628667425,0.06875206854457397,0.06875617121153661,6.763779959977946,3.821532452887499,0.33167895811976605,0.002620021265503472,0.014364055307232108,0.2230970502504832
1750772099.8607676,-2.062686728609256,-1.2731823197341061,-1.4117456042601466,1.5725262955191026,-0.7394457084770378,-2.309402651850098,0.11103379406491987,-0.34821426107583053,0.2375595666435162,0.002456712177067163,0.06926245757228267,0.0692665997433563,6.761297986384564,3.8214992590111976,0.33164488790830554,0.002621124448969802,0.014377828259533713,0.22324761192336223
1750772099.862834,-2.0624640062134274,-1.273881006255083,-1.4112688788811267,1.572531226966823,-0.7393066727625808,-2.3092636078116104,0.11168817582261349,-0.3504716279881912,0.23916560781130336,0.0024747381185218375,0.06977333932278247,0.06977752121887047,6.758800432855083,3.821464217108763,0.331610737941148,0.0026222358842419016,0.014391708419970083,0.22339932882317298
1750772099.864748,-2.0622399776144382,-1.2745842037127364,-1.4107889426480984,1.5725361944819167,-0.739166614788723,-2.30912354143405,0.11233999487268133,-0.35272519492078036,0.24077042018695413,0.002492779569871996,0.07028471760920142,0.07028893945272306,6.756287334451969,3.8214272970177503,0.33157651110486397,0.0026233555811508015,0.014405695997457552,0.2235522029301337
1750772099.8667865,-2.0622399776144382,-1.2745842037127364,-1.4107889426480984,1.5725361944819167,-0.739166614788723,-2.30912354143405,0.11233999487268133,-0.35272519492078036,0.24077042018695413,0.002492779569871996,0.07028471760920142,0.07028893945272306,6.756287334451969,3.8214272970177503,0.33157651110486397,0.0026233555811508015,0.014405695997457552,0.2235522029301337
1750772099.8687098,-2.062014647951803,-1.2752919044901727,-1.4103057980214055,1.5725411980955204,-0.7390255335585731,-2.3089824517200794,0.11298923712526027,-0.3549749449675055,0.24237400102595155,0.002510836648087242,0.07079659625203522,0.07080085826699287,6.753758726279989,3.821388468500077,0.3315422102874578,0.0026244835469164214,0.014419791199544493,0.22370623625741062
1750772099.8707554,-2.0617880223931566,-1.2760041009368495,-1.4098194474667816,1.572546237839005,-0.7388834280675916,-2.308840337664709,0.11363588855023996,-0.35722086138430514,0.2439763476863974,0.002528909470315587,0.0713089790792805,0.07131328149123334,6.751214643465951,3.821347701222767,0.33150783838537085,0.002625619790116785,0.014433994237535346,0.223861430830488
1750772099.877936,-2.0615601061341353,-1.276720785368898,-1.4093298934551406,1.572551313743976,-0.7387402973035764,-2.3086971982552833,0.11427993517704947,-0.3594629275889688,0.24557745762889818,0.002546998153939269,0.07182186992646027,0.07182621296253368,6.748655121165463,3.8213049647935415,0.3314733982923589,0.002626764320958501,0.014448305323450185,0.22401778869967257
1750772099.8788295,-2.0611004224368,-1.2781675872889462,-1.4083411849691334,1.5725615741659726,-0.7384509558692205,-2.308407839285218,0.1155601584504822,-0.36393544384230286,0.24877595771685584,0.0025832235755733437,0.07284919106089163,0.07285361603275109,6.74348989885934,3.821213462461031,0.33140432514790474,0.002629078275878735,0.0144772524989208,0.22433400265284612
1750772099.880762,-2.060868665528691,-1.278897689245488,-1.4078420354606518,1.5725667587473853,-0.7383047431360188,-2.3082616176607975,0.1161963074518675,-0.36616586153534003,0.2503733432978762,0.0026013605492018615,0.0733636290574604,0.07336809534408528,6.7408842692711435,3.821164635373137,0.33136969790591375,0.002630247718761175,0.014491889022289876,0.22449386295038262
1750772099.8827143,-2.0606356389803855,-1.279632248125135,-1.4073396924265085,1.572571979619058,-0.7381575010040313,-2.3081143665547272,0.11682979636416038,-0.3683923643047669,0.2519694830323889,0.0026195138554258204,0.07387859049265649,0.0738830983274399,6.738263341022229,3.821113716756626,0.331335014095768,0.0026314254838404405,0.014506634457769764,0.224654894981064
1750772099.8847637,-2.0604013481257457,-1.2803712560822387,-1.4068341583604385,1.5725772368137743,-0.7380092284225066,-2.3079660849157895,0.11746061151135041,-0.37061493637639337,0.25356437489595807,0.0026376836124675433,0.07439407924068672,0.0743986288584973,6.735627149375598,3.8210606758427828,0.33130027663119943,0.0026326115786315207,0.014521489030909978,0.2248171009076667
1750772099.8866637,-2.0601657983259294,-1.281114705239764,-1.4063254357601211,1.5725825303645542,-0.7378599243329393,-2.307816771685006,0.11808873927560568,-0.3728335621372006,0.25515801696739593,0.002655869938816357,0.07491009918352372,0.07491469082083532,6.73297572956989,3.8210054817850496,0.3312654884264111,0.0026338060144444875,0.014536452960474419,0.2249804829196512
1750772099.8886669,-2.0599289949692725,-1.2818625876896093,-1.405813527126977,1.5725878603046548,-0.7377095876690491,-2.3076664257956243,0.11871416609703686,-0.375048226135136,0.25675040742883315,0.00267407295308915,0.07542665421120148,0.07543128810599084,6.730309116864564,3.8209481036790582,0.33123065239811544,0.0026350087986482997,0.014551526473556111,0.22514504323063161
1750772099.8907006,-2.059690943471173,-1.282614895492932,-1.4052984349659576,1.572593226667571,-0.7375582173567725,-2.3075150461731004,0.119336878473446,-0.3772589130789574,0.2583415445658233,0.00269229277414133,0.07594374822165353,0.07594842461351288,6.727627346524152,3.820888510548438,0.3311957714657677,0.0026362199417780054,0.014566709792685166,0.22531078407388017
1750772099.8943822,-2.0594516492739734,-1.283371620680465,-1.4047801617853395,1.5725986294870353,-0.7374058123142371,-2.3073626317350837,0.11995686296004458,-0.3794656078379803,0.2599314267673423,0.002710529520959511,0.07646138512101543,0.07646610425103709,6.724930453811271,3.8208266713606296,0.33116084854903505,0.00263743945138775,0.0145820031489174,0.22547770771391812
1750772099.8948488,-2.0592111178468517,-1.2841327552528439,-1.404258710096519,1.5726040687970182,-0.7372523714517527,-2.3072091813913995,0.1205741061691615,-0.38166829544190706,0.2615200525260125,0.0027287833127819434,0.07697956882344195,0.07698433093432719,6.722218473972481,3.820762555008069,0.33112588657347014,0.002638667338419626,0.014597406768155624,0.22564581642982798
1750772099.8969939,-2.0589693546857033,-1.2848982911809195,-1.403734082413802,1.5726095446317292,-0.7370978936717929,-2.3070546940440337,0.1211885947699764,-0.38386696108049817,0.26310742043786595,0.002747054268993368,0.07749830325139345,0.07750310858734899,6.719491442270142,3.820696130343877,0.33109088845864254,0.0026399036108939963,0.014612920884371513,0.22581511253077885
1750772099.8987954,-2.058726365313028,-1.2856682204060856,-1.4032062812542012,1.5726150570256168,-0.736942377868977,-2.306899168587116,0.12180031548821754,-0.3860615901034154,0.2646935292026718,0.00276534250920771,0.07801759233552132,0.07802244114232892,6.7167493939430845,3.8206273661418555,0.33105585713276586,0.0026411482792093,0.014628545728308353,0.22598559834904733
1750772099.900759,-2.0584821552778187,-1.2864425348405923,-1.4026753091372228,1.5726206060133685,-0.7367858229300541,-2.306742603906903,0.12240925510583694,-0.38825216801985557,0.266278377623765,0.0027836481532360854,0.07853744001480942,0.07854233253980511,6.713992364217006,3.8205562311349985,0.33102079551958946,0.002642401352837052,0.014644281534695332,0.22615727623698004
1750772099.9028473,-2.058236730155447,-1.28722122636787,-1.4021411685846656,1.5726261916299122,-0.7366282277338891,-2.3065849988817626,0.1230154004607402,-0.3904386804983607,0.26786196460824924,0.002801971321035524,0.07905785023662727,0.07906278672870898,6.711220388316457,3.8204826939882746,0.3309857065484557,0.0026436628398935993,0.014660128539758498,0.22633014857994496
1750772099.9048648,-2.058236730155447,-1.28722122636787,-1.4021411685846656,1.5726261916299122,-0.7366282277338891,-2.3065849988817626,0.1230154004607402,-0.3904386804983607,0.26786196460824924,0.002801971321035524,0.07905785023662727,0.07906278672870898,6.711220388316457,3.8204826939882746,0.3309857065484557,0.0026436628398935993,0.014660128539758498,0.22633014857994496
1750772099.9068842,-2.057990095547556,-1.2880042868428427,-1.4016038621204094,1.5726318139104154,-0.7364695911514421,-2.306426352382156,0.12361873844641122,-0.39262111336641353,0.26944428916684493,0.0028203121328197233,0.0795788269568083,0.07958380766640534,6.708433501427984,3.8204067233255183,0.3309505931444959,0.002644932751598512,0.014676086981929409,0.2265042177795709
1750772099.9089108,-2.0577422570819426,-1.2887917080922495,-1.401063392270208,1.5726374728902863,-0.7363099120457539,-2.306266663270621,0.1242192560116401,-0.39479945261020116,0.27102535041400794,0.0028386707089802917,0.08010037413965762,0.08010539931876488,6.705631738741924,3.82032828771126,0.33091545823627305,0.002646211096993677,0.014692157099857536,0.2266794862652796
1750772099.9109032,-2.0574932204124554,-1.2895834819149607,-1.4005197615614842,1.5726431686051745,-0.7361491892719272,-2.3061059304017553,0.12481694016014709,-0.39697368437425995,0.272605147567942,0.0028570471700981263,0.08062249575807334,0.0806275656602256,6.702815135404435,3.820247355658792,0.330880304752487,0.0026474978854713863,0.01470833913561129,0.22685595649284412
1750772099.913101,-2.0572429912188763,-1.290379600082292,-1.3999729725231198,1.5726489010909706,-0.7359874216771107,-2.305944152622199,0.12541177795026076,-0.39914379496110014,0.27418367995053766,0.002875441636991816,0.08114519579355338,0.08115031067384475,6.699983726553411,3.820163895642964,0.33084513562062406,0.002648793127793344,0.014724633331449157,0.22703363093738466
1750772099.9148533,-2.056991575206819,-1.2911800543383238,-1.3994230276852484,1.572654670383807,-0.7358246081004811,-2.3057813287706175,0.12600375649454446,-0.4013097708309024,0.2757609469874292,0.002893854230641725,0.08166847823631977,0.08167363835138011,6.697137547276789,3.8200778760758043,0.33080995376903943,0.0026500968326572593,0.014741039933133136,0.2272125121094636
1750772099.9169211,-2.056738978107619,-1.2919848364002124,-1.3988699295790497,1.5726604765200585,-0.7356607473732275,-2.305617457677684,0.12659286295946676,-0.4034715986010957,0.2773369482079178,0.0029122850722603866,0.08219234708528886,0.08219755269332761,6.694276632656684,3.8199892653395806,0.3307747621247186,0.002651409010699395,0.014757559185583637,0.2273926025315072
1750772099.9188464,-2.0564852056782215,-1.2927939379585087,-1.3983136807365408,1.5726663195363424,-0.7354958383185313,-2.3054525381660618,0.1271790845650265,-0.40562926504602914,0.2789116832450987,0.0029307342832433844,0.08271680634824984,0.08272205770900641,6.691401017728762,3.8198980317595432,0.33073956361781065,0.0026527296712716302,0.014774191338752789,0.22757390476315434
1750772099.9210494,-2.0562302637010834,-1.2936073506774646,-1.397754283690369,1.5726721994695188,-0.7353298797515482,-2.305286569050387,0.1277624085843427,-0.4077827570964739,0.2804851518355958,0.002949201985204977,0.08324186004186582,0.08324715741660894,6.688510737481597,3.8198041436321493,0.3307043611711246,0.0026540588247196723,0.014790936642621664,0.22775642138486013
1750772099.928666,-2.0562302637010834,-1.2936073506774646,-1.397754283690369,1.5726721994695188,-0.7353298797515482,-2.305286569050387,0.1277624085843427,-0.4077827570964739,0.2804851518355958,0.002949201985204977,0.08324186004186582,0.08324715741660894,6.688510737481597,3.8198041436321493,0.3307043611711246,0.0026540588247196723,0.014790936642621664,0.22775642138486013
1750772099.9290798,-2.0551989168510323,-1.2969039455421392,-1.3954852641324518,1.5726960891168866,-0.7346555263820331,-2.304612172557912,0.13006647610070837,-0.41635472542288277,0.2867663600911099,0.0030232601425800184,0.08534809976962564,0.08535358384418873,6.67680366197031,3.819401409997885,0.3305635705078107,0.0026594605713629446,0.014859054418366276,0.22849868425156442
1750772099.9307494,-2.05493821475737,-1.297738788129723,-1.3949101640652284,1.5727021541959663,-0.7344843021988634,-2.3044409373592942,0.13063512311905304,-0.41848715491013766,0.28833349612444054,0.003041822131053863,0.08587618618105608,0.08588171759928363,6.673840578716109,3.819293772082576,0.3305283922368654,0.0026608323421009774,0.014876369284634629,0.22868731241861706
1750772099.932735,-2.054676378340459,-1.298577891328744,-1.3943319309918571,1.5727082564182275,-0.7343120212248291,-2.3042686452748544,0.1312007972842549,-0.4206153348497446,0.28989936630611973,0.003060403344619887,0.08640489131293072,0.08641047034534112,6.670863039232015,3.8191832885438064,0.33049322756531735,0.0026622126669823324,0.014893798839724071,0.22887717099763424
1750772099.9347928,-2.05441341355838,-1.2994212466280963,-1.3937505674435986,1.5727143958222436,-0.7341386822184113,-2.3040952950625306,0.13176348623041215,-0.42273925325554185,0.29146397109731387,0.0030790039063958437,0.0869342192456853,0.08693984616444034,6.667871078200964,3.819069927422104,0.33045807940996585,0.0026636015571744583,0.014911343342006885,0.2290682627515703
1750772099.936691,-2.054149326393895,-1.3002688454928517,-1.3931660759506874,1.572720572446834,-0.733964283929919,-2.303920885472087,0.1323231776415109,-0.4248588982941631,0.29302731106245866,0.0030976239396724877,0.08746417406932781,0.08746984914804211,6.6648647302360375,3.8189536567222206,0.3304229506865164,0.0026649990219436742,0.014929003061139692,0.22926059047017636
1750772099.9387045,-2.053884122854349,-1.3011206793645709,-1.3925784590421237,1.5727267863310657,-0.7337888251014739,-2.303745415245095,0.1328798592510011,-0.42697425828454744,0.2945893868691905,0.003116263568002193,0.08799475988320174,0.08800048339705145,6.661844029896513,3.818834444415994,0.3303878443086678,0.0026664050731074777,0.014946778260104177,0.2294541569688245
1750772099.9407117,-2.0536178089715715,-1.301976739661602,-1.3919877192454706,1.572733037514252,-0.7336123044669876,-2.303568883114915,0.13343351884133134,-0.429085321697361,0.29615019928822994,0.0031349229151327734,0.08852598079611983,0.0885317530218804,6.658809011674562,3.8187122584549162,0.33035276318707485,0.0026678197206152663,0.014964669205652212,0.22964896508979346
1750772099.9426973,-2.0533503908017767,-1.302837017779387,-1.3913938590866488,1.5727393260359548,-0.7334347207521441,-2.3033912878066767,0.13398414424351815,-0.4311920771545072,0.2977097491933287,0.0031536021050325527,0.08905784092660088,0.08906366214251794,6.655759710004756,3.818587066756174,0.3303177102307077,0.002669242975181419,0.014982676171208529,0.22984501770431312
1750772099.9446895,-2.0530818744254713,-1.3037015050907623,-1.3907968810897247,1.5727456519359835,-0.7332560726743838,-2.303212628037261,0.13453172333666075,-0.4332945134285235,0.29926803756117865,0.0031723012619140683,0.0895903444026531,0.08959621488858269,6.65269615924675,3.8184588372187456,0.330282688346202,0.0026706748481766904,0.015000799424090251,0.23004231770592817
1750772099.9467328,-2.0528122659473524,-1.304570192946258,-1.390196787776711,1.5727520152543966,-0.7330763589428786,-2.3030329025152794,0.13507624404751112,-0.43539261944205804,0.3008250654712665,0.00319102051016739,0.09012349536215204,0.09012941539940816,6.649618393706458,3.818327537713752,0.33024770043604124,0.0026721153491772085,0.015019039242266784,0.2302408680243676
1750772099.9486895,-2.0525415714962207,-1.305443072674402,-1.3895935816673584,1.5727584160315016,-0.7328955782585149,-2.3028521099410546,0.13561769434994908,-0.43748638426725567,0.30238083410582167,0.0032097599744744234,0.09065729795258493,0.09066326782407837,6.6465264475935095,3.8181931360898016,0.3302127494010805,0.0026735644909320856,0.015037395896498695,0.23044067160406692
1750772099.9514155,-2.0525415714962207,-1.305443072674402,-1.3895935816673584,1.5727584160315016,-0.7328955782585149,-2.3028521099410546,0.13561769434994908,-0.43748638426725567,0.30238083410582167,0.0032097599744744234,0.09065729795258493,0.09066326782407837,6.6465264475935095,3.8181931360898016,0.3302127494010805,0.0026735644909320856,0.015037395896498695,0.23044067160406692
1750772099.9529767,-2.051996949310043,-1.3072013729545011,-1.388377841126097,1.5727713301242643,-0.7325308107932189,-2.302487318395608,0.1366913358581246,-0.4416608473852782,0.3054885987902986,0.003247300050863377,0.0917268746657647,0.09173294506056365,6.640300150224359,3.8179148977863036,0.3301429695463343,0.0026764887357761924,0.015074460829370497,0.23084405050598542
1750772099.9547255,-2.0517230339522525,-1.3080867760561636,-1.3877653117205337,1.572777843521786,-0.7323468213724578,-2.3023033167834126,0.13722350324309127,-0.4437415245646147,0.30704059771732417,0.003266100913364048,0.09226265713306936,0.09226877821998497,6.637165867029935,3.8177709967048563,0.3301081465106621,0.002677963861642293,0.015093169668530016,0.23104763186937124
1750772099.9567597,-2.0514480573757723,-1.3089763361304794,-1.3871496795709106,1.5727843945417288,-0.7321617597191405,-2.3021182428369884,0.1377525525771549,-0.4458178183274102,0.30859134312282466,0.003284922492738984,0.09279910792054379,0.09280527998859475,6.634017539428141,3.817623864707489,0.33007337192252306,0.002679447671675959,0.015111996463935207,0.23125247857724668
1750772099.9588332,-2.05117202582851,-1.3098700444004,-1.386530947182596,1.5727909832256521,-0.7319756244924305,-2.30193209521492,0.13827847206267035,-0.4478897184843114,0.31014083670096354,0.0033037649147613602,0.09333623122551023,0.09334245456530195,6.630855201236567,3.8174734695494768,0.3300386486651649,0.0026809401764826286,0.015130941499265414,0.23145859372594985
1750772099.9609194,-2.05117202582851,-1.3098700444004,-1.386530947182596,1.5727909832256521,-0.7319756244924305,-2.30193209521492,0.13827847206267035,-0.4478897184843114,0.31014083670096354,0.0033037649147613602,0.09333623122551023,0.09334245456530195,6.630855201236567,3.8174734695494768,0.3300386486651649,0.0026809401764826286,0.015130941499265414,0.23145859372594985
1750772099.9629838,-2.0508949455819243,-1.3107678920686467,-1.3859091170574631,1.572797609615367,-0.7317884143430886,-2.301744872567383,0.1388012499462021,-0.44995721499179336,0.3116890802479433,0.0033226283054396902,0.093874031255564,0.09388030615917421,6.627678886219373,3.817319778972772,0.3300039796201413,0.00268244138742098,0.01515000506391784,0.2316659804329359
1750772099.9647858,-2.0506168229309347,-1.3116698703179992,-1.3852841916936942,1.5728042737529373,-0.7316001279134472,-2.301556573536126,0.13932087451796907,-0.4520202979514621,0.31323607566178924,0.0033415127910348973,0.09441251222842098,0.0944188389895006,6.62448862803601,3.8171627607078835,0.3299693676627528,0.002683951316350234,0.01516918744299065,0.23187464184387296
1750772099.9668853,-2.0503376641938384,-1.312575970311582,-1.384656173585574,1.572810975680679,-0.7314107638373946,-2.301367196754448,0.13983733411134242,-0.45407895760942946,0.3147818249423331,0.0033604184980058484,0.09495167837216084,0.09495805728586443,6.621284460265869,3.8170023824684978,0.32993481566795263,0.0026854699736276475,0.01518848892843593,0.2320845811352268
1750772099.9688342,-2.050057475712225,-1.3134861831931595,-1.3840250652232822,1.5728177154411616,-0.731220320740352,-2.3011767408471786,0.1403506171023027,-0.4561331843556192,0.31632633019097406,0.003379345553078605,0.0954915339251982,0.0954979652882099,6.618066416390815,3.816838611957594,0.3299003265038224,0.002686997371615063,0.015207909811392282,0.23229580151292348
1750772099.9709249,-2.0497762638508865,-1.314400500087416,-1.3833908690926977,1.5728244930772082,-0.7310287972392553,-2.3009852044306576,0.1408607119089156,-0.45818296872305353,0.317869593610514,0.0033982940832163874,0.09603208313635025,0.09603856724690198,6.614834529810615,3.816671416875899,0.3298659030342389,0.0026885335218166475,0.015227450384903498,0.2325083062077648
1750772099.972967,-2.04949403499774,-1.3153189121002464,-1.3827535876751913,1.572831308631896,-0.7308361919425286,-2.300792586112713,0.14136760699078044,-0.4602283013872237,0.3194116175051477,0.0034172642155665105,0.09657333026499909,0.09657986742280723,6.611588833815787,3.816500764899443,0.32983154812226734,0.002690078434304069,0.015247110946586697,0.23272209848661335
1750772099.9817886,-2.0492107955637406,-1.316241410319038,-1.3821132234474254,1.5728381621485568,-0.7306425034500705,-2.300598884492641,0.14187129084849098,-0.46226917316530935,0.320952404280129,0.0034362560775922733,0.09711527958099156,0.09712187008733852,6.608329361614117,3.8163266237126856,0.3297972646221441,0.002691632122852443,0.015266891791236486,0.23293718163422084
1750772099.982224,-2.0492107955637406,-1.316241410319038,-1.3821132234474254,1.5728381621485568,-0.7306425034500705,-2.300598884492641,0.14187129084849098,-0.46226917316530935,0.320952404280129,0.0034362560775922733,0.09711527958099156,0.09712187008733852,6.608329361614117,3.8163266237126856,0.3297972646221441,0.002691632122852443,0.015266891791236486,0.23293718163422084
1750772099.9824882,-2.0492107955637406,-1.316241410319038,-1.3821132234474254,1.5728381621485568,-0.7306425034500705,-2.300598884492641,0.14187129084849098,-0.46226917316530935,0.320952404280129,0.0034362560775922733,0.09711527958099156,0.09712187008733852,6.608329361614117,3.8163266237126856,0.3297972646221441,0.002691632122852443,0.015266891791236486,0.23293718163422084
1750772099.9827461,-2.0492107955637406,-1.316241410319038,-1.3821132234474254,1.5728381621485568,-0.7306425034500705,-2.300598884492641,0.14187129084849098,-0.46226917316530935,0.320952404280129,0.0034362560775922733,0.09711527958099156,0.09712187008733852,6.608329361614117,3.8163266237126856,0.3297972646221441,0.002691632122852443,0.015266891791236486,0.23293718163422084
1750772099.983016,-2.0483550782300757,-1.319033332813368,-1.3801736585942956,1.5728589509075261,-0.7300549246688881,-2.3000112656841876,0.143362960685793,-0.46836493346568425,0.32556736745369813,0.0034933633194789357,0.09874538351190944,0.09875213588670347,6.598468618261018,3.815782941546557,0.3296948710921083,0.002696345954358333,0.015326959035612483,0.23359020966480581
1750772099.9847078,-2.04806786104019,-1.319972086369595,-1.3795209877908459,1.5728659567105072,-0.7298568892211419,-2.2998132166771743,0.14385368545310556,-0.4703878726804943,0.3271032318199921,0.0035124433791977527,0.09929018448985617,0.09929699143349066,6.595154371215877,3.81559452015667,0.32966090171306894,0.0026979348594327584,0.015347224031091355,0.23381048980248947
1750772099.9869664,-2.047779665667015,-1.3209148813009541,-1.3788652464827384,1.5728730006959566,-0.729657763448464,-2.2996140772357827,0.1443411420945139,-0.47240630719558774,0.3286378726044008,0.0035315458093399987,0.0998357091653996,0.09984257098675296,6.591826512451041,3.8154024478582693,0.32962701795923327,0.002699532599415236,0.0153676108265294,0.2340320777066721
1750772099.9888527,-2.047779665667015,-1.3209148813009541,-1.3788652464827384,1.5728730006959566,-0.729657763448464,-2.2996140772357827,0.1443411420945139,-0.47240630719558774,0.3286378726044008,0.0035315458093399987,0.0998357091653996,0.09984257098675296,6.591826512451041,3.8154024478582693,0.32962701795923327,0.002699532599415236,0.0153676108265294,0.2340320777066721
1750772099.9907606,-2.0474904986580738,-1.321861708589676,-1.3782064371141463,1.5728800829087441,-0.729457545899125,-2.2994138459076656,0.14482531934472925,-0.47442022866310185,0.33017129281553687,0.003550670738768086,0.10038196187323585,0.10038887888268763,6.588485074534433,3.8152066923023806,0.3295932226574281,0.0027011391848416715,0.015388119731759698,0.23425497684992244
1750772099.992757,-2.0472003665833833,-1.3228125592014317,-1.3775445621231217,1.5728872033939973,-0.729256235112719,-2.299212521231792,0.145306205975465,-0.4764296288716917,0.3317034955619928,0.0035698182965911898,0.10092894695908991,0.10093591946852741,6.585130089935026,3.8150072211390067,0.3295595186315183,0.002702754627757307,0.015408751057469415,0.23447919073125698
1750772099.9947035,-2.0469092760353806,-1.323767424085604,-1.376879623941404,1.5728943621971023,-0.729053829620133,-2.299010101738426,0.14578379079484033,-0.4784344997457146,0.33323448405201644,0.003588988612228166,0.10147666877973058,0.10148369710259701,6.5817615910105625,3.8148040020240486,0.3295259086962963,0.0027043789419826316,0.015429505114764928,0.23470472287404578
1750772099.9967215,-2.046617233628849,-1.3247262941755622,-1.3762116249942142,1.5729015593637043,-0.7288503279435314,-2.2988065859491034,0.146258062646797,-0.48043483334452247,0.3347642615935935,0.003608181815263825,0.10202513170315611,0.10203221615440748,6.57837961000432,3.8145970026015315,0.329492395668779,0.0027060121373632747,0.015450382219984467,0.2349315768438343
1750772100.0005665,-2.046324246000852,-1.325689160388925,-1.3755405677000594,1.5729087949397083,-0.7286457285963319,-2.2986019723766096,0.1467290104104549,-0.4824306218615385,0.3362928315938938,0.0036273980356006778,0.1025743401086294,0.1025814810046981,6.574984179032408,3.8143861905352585,0.3294589823504991,0.0027076542279967546,0.015471382690457188,0.23515975622508875
1750772100.0010881,-2.046030319810658,-1.3266560136278356,-1.3748664544705305,1.5729160689712784,-0.7284400300831821,-2.298396259524958,0.1471966229995662,-0.4844218576235746,0.3378201975594067,0.003646637403344479,0.1031242983866978,0.10313149604552718,6.571575330117039,3.814171533478035,0.3294256715469793,0.002709305224825692,0.015492506844069396,0.23538926464084498
1750772100.002912,-2.045735461739673,-1.3276268447792194,-1.3741892877101094,1.5729233815048402,-0.728233230899936,-2.2981894458893652,0.14766088936185423,-0.48640853308992726,0.33934636309551475,0.003665900048892277,0.10367501093924567,0.10368226568032993,6.568153095141959,3.813952999096639,0.3293924660516586,0.002710965141288006,0.015513755000187032,0.2356201057412795
1750772100.0048409,-2.045439678491375,-1.3286016447150555,-1.3735090698159675,1.5729307325870796,-0.7280253295336339,-2.297981529956231,0.1481217984784056,-0.4883906408516233,0.3408713319064446,0.0036851861028584947,0.10422648217969988,0.10423379432399012,6.564717505868292,3.8137305550505074,0.3293593686563223,0.0027126339887460706,0.015535127483968758,0.23585228320750898
1750772100.0068536,-2.0451429767912472,-1.329580404292635,-1.3728258031777676,1.5729381222649446,-0.7278163244624754,-2.297772510203113,0.14857933936306095,-0.4903681736305336,0.34239510779495963,0.0037044956961499015,0.10477871653290391,0.10478608640290644,6.561268593949489,3.8135041690189797,0.3293263821447267,0.0027143117807167786,0.015556624617022044,0.236085800749861
1750772100.0089028,-2.044845363386714,-1.3305631143548222,-1.3721394901774708,1.5729455505856447,-0.7276062141558022,-2.297562385098704,0.14903350106177513,-0.49234112427857557,0.34391769466223976,0.003723828959882168,0.10533171843539753,0.10533914635507745,6.557806390902193,3.8132738086777733,0.3292935092968625,0.0027159985284206565,0.015578246728836441,0.2363206621174049
1750772100.0109508,-2.0445468450470736,-1.3315497657303137,-1.3714501331891356,1.5729530175966522,-0.7273949970740698,-2.297351153102811,0.14948427265199227,-0.49430948577682887,0.34543909650754917,0.0037431860254781386,0.10588549233535934,0.10589297863015064,6.554330928126547,3.8130394417188795,0.3292607528836675,0.0027176942458276413,0.015599994147281727,0.2365568710797492
1750772100.01315,-2.04424742856344,-1.3325403492338994,-1.370757734578726,1.5729605233457022,-0.7271826716688237,-2.2971388126663275,0.1499316432419954,-0.49627325123473814,0.3469593174281536,0.0037625670245870343,0.10644004269255455,0.1064475876895083,6.550842236880462,3.8128010358291164,0.3292281156732811,0.002719398944688723,0.015621867198754406,0.23679443144572807
1750772100.014968,-2.0439471207486806,-1.3335348556667146,-1.370062296703911,1.572968067880794,-0.7269692363826801,-2.2969253622312147,0.15037560197028324,-0.49823241388920253,0.3484783616190719,0.003781972089122536,0.10699537397876864,0.10700297800633359,6.547340348310976,3.812558558718948,0.3291956004276216,0.002721112637852108,0.015643866221871704,0.23703334705308055
1750772100.0170867,-2.0439471207486806,-1.3335348556667146,-1.370062296703911,1.572968067880794,-0.7269692363826801,-2.2969253622312147,0.15037560197028324,-0.49823241388920253,0.3484783616190719,0.003781972089122536,0.10699537397876864,0.10700297800633359,6.547340348310976,3.812558558718948,0.3291956004276216,0.002721112637852108,0.015643866221871704,0.23703334705308055
1750772100.0189164,-2.043645928437355,-1.3345332758164936,-1.3693638219138755,1.5729756512501905,-0.7267546896493,-2.296710800230474,0.1508161380049029,-0.500186967103711,0.34999623337276564,0.0038014013512936507,0.10755149067750476,0.10755915406567551,6.543825293420721,3.812311978103521,0.32916320989941,0.002722835339050766,0.01566599154672297,0.23727362176888786
1750772100.0209775,-2.0433438584856596,-1.3355356004578267,-1.3686623125491204,1.5729832735024192,-0.7265390298933649,-2.296495125088126,0.15125324054281641,-0.5021369043675186,0.35151293707908865,0.0038208549434960094,0.10810839728430936,0.10811612036453674,6.540297103085425,3.812061261702126,0.32913094684002764,0.002724567059008023,0.01568824351257274,0.23751525949943855
1750772100.0229428,-2.043040917771366,-1.3365418203524042,-1.3679577709412687,1.572990934686273,-0.7263222555305529,-2.296278335219184,0.15168689880923422,-0.5040822192946858,0.353028477224875,0.0038403329984447996,0.10866609830669272,0.1086738814119283,6.536755808049937,3.811806377259766,0.3290988139896271,0.002726307812204307,0.015710622456444945,0.23775826417557017
1750772100.0250282,-2.042737113193769,-1.3375519262492706,-1.367250199412874,1.57299863485081,-0.7261043649675152,-2.296060429029632,0.15211710205695422,-0.5060229056232795,0.35454285839389194,0.00385983564912766,0.10922459826421327,0.10923244172893887,6.5332014389135304,3.8115472925150655,0.3290668140864517,0.002728057611793651,0.015733128717740276,0.23800263975848016
1750772100.0292935,-2.0424324516736316,-1.3385659088850694,-1.3665396002772257,1.5730063740453553,-0.7258853566018519,-2.2958414049163998,0.15254383956570555,-0.507958957214417,0.3560560852664885,0.0038793630287503357,0.1097839016886799,0.10979180584882794,6.529634026150255,3.811283975233927,0.32903494985944676,0.00272981646949118,0.015755762641558316,0.2382483902523869
1750772100.0297477,-2.0424324516736316,-1.3385659088850694,-1.3665396002772257,1.5730063740453553,-0.7258853566018519,-2.2958414049163998,0.15254383956570555,-0.507958957214417,0.3560560852664885,0.0038793630287503357,0.1097839016886799,0.10979180584882794,6.529634026150255,3.811283975233927,0.32903494985944676,0.00272981646949118,0.015755762641558316,0.2382483902523869
1750772100.0329108,-2.041513394986496,-1.341631024411626,-1.3643896602166414,1.5730298263062898,-0.7252216085288232,-2.295177608867588,0.153803150845201,-0.5137392440012127,0.3605888883539776,0.003938094877644735,0.11146667826521203,0.11147476654214751,6.518853828708874,3.8104683060041364,0.328940198442472,0.0027351475272701002,0.015824433835705972,0.23899393163866428
1750772100.0333345,-2.041513394986496,-1.341631024411626,-1.3643896602166414,1.5730298263062898,-0.7252216085288232,-2.295177608867588,0.153803150845201,-0.5137392440012127,0.3605888883539776,0.003938094877644735,0.11146667826521203,0.11147476654214751,6.518853828708874,3.8104683060041364,0.328940198442472,0.0027351475272701002,0.015824433835705972,0.23899393163866428
1750772100.0347323,-2.0412053753313293,-1.3426604211301223,-1.363666973592843,1.5730377221194562,-0.7249981127467722,-2.2949540968469866,0.15421591871032386,-0.5156566976833129,0.36209754676901784,0.003957722510720205,0.11202924112074115,0.1120373914517364,6.515234543337663,3.8101877364761116,0.32890890409321,0.002736942751623684,0.015847581869117652,0.2392452223869346
1750772100.0367658,-2.0408965336576284,-1.3436936480932786,-1.3629412707825352,1.5730456572132654,-0.7247734910134662,-2.2947294587506786,0.15462516761541864,-0.5175694877477922,0.3636050757308035,0.0039773755429124555,0.11259263028698223,0.11260084301535371,6.511602364589765,3.809902773436632,0.3288777589743602,0.0027387471006505236,0.015870859309211578,0.23949790852020744
1750772100.0387492,-2.04058687701389,-1.34473069596842,-1.3622125540393863,1.5730536316386505,-0.7245477416716799,-2.2945036929207507,0.1550308869875483,-0.5194776087750115,0.3651114804945649,0.003997054109084889,0.11315685037010827,0.11316512584070923,6.507957322074687,3.809613384742176,0.32884676577540434,0.002740560588252439,0.015894266506688546,0.2397519942285514
1750772100.0407252,-2.0402764124697343,-1.3457715554121492,-1.3614808256064581,1.5730616454468145,-0.7243208630549622,-2.294276797690061,0.155433066275954,-0.5213810554620224,0.36661676641063135,0.004016758344308588,0.11372190598908746,0.11373024454819056,6.504299445274393,3.8093195382558025,0.32881592718358643,0.0027423832260358044,0.015917803821994755,0.24000748374371916
1750772100.0427203,-2.0399651471158613,-1.3468162170705806,-1.3607460877160147,1.5730696986892307,-0.7240928534876119,-2.2940487713822146,0.15583169495129753,-0.5232798226215103,0.3681209389239495,0.0040364883840387205,0.11428780177547146,0.1142962037709091,6.500628763501264,3.809021201872479,0.3287852458726278,0.0027442150305625667,0.01594147160960779,0.2402643813199407
1750772100.0446668,-2.0396530880640107,-1.3478646715795666,-1.3600083425893388,1.573077791417644,-0.7238637112846522,-2.293819612311537,0.15622676250501574,-0.5251739051809353,0.36962400357406794,0.0040562443638864736,0.11485454237381919,0.11486300815480532,6.4969453059424085,3.8087183434975502,0.3287547245161035,0.002746056012036007,0.01596527023594995,0.24052269125789127
1750772100.0466788,-2.039340242446915,-1.3489169095649292,-1.3592675924365398,1.5730859236840702,-0.7236334347518039,-2.293589318783049,0.15661825844858937,-0.5270632981815441,0.37112596599474945,0.004076026419822189,0.11542213244146564,0.1154306623586944,6.493249101623855,3.8084109310577374,0.3287243657764566,0.0027479061863750352,0.015989200060925347,0.24078241787903207
1750772100.049226,-2.039340242446915,-1.3489169095649292,-1.3592675924365398,1.5730859236840702,-0.7236334347518039,-2.293589318783049,0.15661825844858937,-0.5270632981815441,0.37112596599474945,0.004076026419822189,0.11542213244146564,0.1154306623586944,6.493249101623855,3.8084109310577374,0.3287243657764566,0.0027479061863750352,0.015989200060925347,0.24078241787903207
1750772100.0510862,-2.039026617418269,-1.3499729216426877,-1.358523839456363,1.573094095540798,-0.7234020221854607,-2.2933578890924413,0.15700617231281794,-0.5289479967774242,0.37262683191385537,0.0040958346880617435,0.11599057664871497,0.11599917105435453,6.489540179410349,3.8080989324957675,0.3286941723128739,0.0027497655663385905,0.01601326144987967,0.24104356554601297
1750772100.052778,-2.038712209523844,-1.3510327342809134,-1.3577770607438104,1.5731023073352142,-0.7231694639907591,-2.2931253136350076,0.1574285729847665,-0.5309564955430933,0.37421652316717074,0.004116725916019461,0.11658812741850678,0.11659681941603656,6.491395978219389,3.7854255029903507,0.3304562322867956,0.0028932210840701086,0.01683320251391347,0.2536974770452812
1750772100.0547838,-2.03839683496987,-1.3520969833102674,-1.357026806765255,1.5731105644332855,-0.7229356164077467,-2.2928914484849,0.15794524780709318,-0.533291561419085,0.3760372179726006,0.004140377673649326,0.1172596272255216,0.11726850259401614,6.501889926120579,3.727405520012726,0.33505058775337176,0.0032611914325428896,0.018916370238511063,0.2860163066958691
