mathias31415/primitives_from_planned_trajectory_python/data/saved_trajectories/trajectory_20250624_123152_executed.csv
timestamp,shoulder_lift_joint_pos,elbow_joint_pos,wrist_1_joint_pos,wrist_2_joint_pos,wrist_3_joint_pos,shoulder_pan_joint_pos,shoulder_lift_joint_vel,elbow_joint_vel,wrist_1_joint_vel,wrist_2_joint_vel,wrist_3_joint_vel,shoulder_pan_joint_vel,shoulder_lift_joint_eff,elbow_joint_eff,wrist_1_joint_eff,wrist_2_joint_eff,wrist_3_joint_eff,shoulder_pan_joint_eff
1750761133.5003757,-2.022899,-1.7531550000000005,-0.9713830000000012,1.5667339999999998,-0.9033409999999993,-2.4734429999999987,0.0,0.0,0.0,0.0,0.0,0.0,5.856599930701006,3.5183276200567333,0.29969646258598326,-0.00033515932427894703,0.0,3.59571635120135e-17
1750761133.5021758,-2.022899,-1.7531550000000005,-0.9713830000000012,1.5667339999999998,-0.9033409999999993,-2.4734429999999987,0.0,0.0,0.0,0.0,0.0,0.0,5.856599930701006,3.5183276200567333,0.29969646258598326,-0.00033515932427894703,0.0,3.59571635120135e-17
1750761133.5027983,-2.022899,-1.7531550000000005,-0.9713830000000012,1.5667339999999998,-0.9033409999999993,-2.4734429999999987,0.0,0.0,0.0,0.0,0.0,0.0,5.856599930701006,3.5183276200567333,0.29969646258598326,-0.00033515932427894703,0.0,3.59571635120135e-17
1750761133.5033345,-2.022899,-1.7531550000000005,-0.9713830000000012,1.5667339999999998,-0.9033409999999993,-2.4734429999999987,0.0,0.0,0.0,0.0,0.0,0.0,5.856599930701006,3.5183276200567333,0.29969646258598326,-0.00033515932427894703,0.0,3.59571635120135e-17
1750761133.505276,-2.022899,-1.7531550000000005,-0.9713830000000012,1.5667339999999998,-0.9033409999999993,-2.4734429999999987,0.0,0.0,0.0,0.0,0.0,0.0,5.856599930701006,3.5183276200567333,0.29969646258598326,-0.00033515932427894703,0.0,3.59571635120135e-17
1750761133.5073416,-2.022899,-1.7531550000000005,-0.9713830000000012,1.5667339999999998,-0.9033409999999993,-2.4734429999999987,0.0,0.0,0.0,0.0,0.0,0.0,5.856599930701006,3.5183276200567333,0.29969646258598326,-0.00033515932427894703,0.0,3.59571635120135e-17
1750761133.5094175,-2.022899,-1.7531550000000005,-0.9713830000000012,1.5667339999999998,-0.9033409999999993,-2.4734429999999987,0.0,0.0,0.0,0.0,0.0,0.0,5.856599930701006,3.5183276200567333,0.29969646258598326,-0.00033515932427894703,0.0,3.59571635120135e-17
1750761133.5109258,-2.0228988452832777,-1.7531560000000006,-0.9713821523411266,1.5667340220770873,-0.903340366610216,-2.4734423661842766,0.00015471672153127144,-0.001,0.0008476588743803056,2.2077087575033544e-05,0.0006333897836202439,0.000633815722258733,5.834655599034,3.3251986038434507,0.31703710604973184,0.0025371029366478867,0.01784279479021994,0.27562343790351895
1750761133.512977,-2.022898381133114,-1.7531590000000001,-0.9713796093645035,1.5667340883083503,-0.9033384664408644,-2.4734404647371098,0.0003094334430625429,-0.002,0.0016953177487606112,4.415417515006709e-05,0.0012667795672404879,0.001267631444517466,5.834648722474438,3.32519239924016,0.3170371141922971,0.0025370951939809074,0.017842794790197153,0.2756223010342438
1750761133.5152051,-2.022897607549506,-1.753164,-0.971375371070132,1.566734198693788,-0.903335299491947,-2.4734372956584982,0.00046415016459381436,-0.003,0.002542976623140917,6.623126272510064e-05,0.0019001693508607317,0.0019014471667761989,5.83463726149858,3.3251820581876883,0.3170371277638195,0.0025370822893766984,0.017842794790159176,0.27562040624869294
1750761133.5168624,-2.022896524532456,-1.753171,-0.9713694374580113,1.566734353233401,-0.9033308657634613,-2.4734328589484424,0.0006188668861250858,-0.004,0.0033906354975212225,8.830835030013418e-05,0.0025335591344809757,0.002535262889034932,5.834621216041552,3.325167580615542,0.3170371467651687,0.0025370642225965175,0.01784279479010602,0.2756177535417258
1750761133.5190268,-2.0228951320819615,-1.7531800000000004,-0.9713618085281421,1.5667345519271891,-0.9033251652554091,-2.4734271546069424,0.0007735836076563572,-0.005,0.004238294371901528,0.00011038543787516772,0.0031669489181012193,0.0031690786112936646,5.834600586012532,3.325148966425043,0.3170371711975629,0.0025370409933060055,0.01784279479003766,0.27561434290614634
1750761133.5211573,-2.0228934301980246,-1.7531910000000002,-0.9713524842805237,1.5667347947751527,-0.9033181979677893,-2.473420182633997,0.0009283003291876287,-0.006,0.005085953246281834,0.00013246252545020127,0.0038003387017214634,0.0038028943335523977,5.834575371294748,3.3251262154893153,0.31703720106256816,0.0025370126010753787,0.01784279478995413,0.27561017433270824
1750761133.5235271,-2.0228914188806453,-1.7532040000000002,-0.9713414647151568,1.566735081777291,-0.9033099639006021,-2.473411943029608,0.0010830170507189001,-0.007,0.00593361212066214,0.0001545396130252348,0.004433728485341707,0.004436710055811131,5.834545571745483,3.325099327653291,0.31703723636209846,0.0025369790453792394,0.01784279478985541,0.27560524781010565
1750761133.5254943,-2.0228890981298218,-1.7532190000000005,-0.9713287498320406,1.5667354129336046,-0.9033004630538475,-2.473402435793774,0.0012377337722501716,-0.008,0.006781270995042445,0.00017661670060026836,0.0050671182689619515,0.005070525778069864,5.834511187196063,3.325068302733716,0.31703727709841595,0.0025369403255967996,0.0178427947897415,0.2755995633249836
1750761133.5307815,-2.022886467945556,-1.7532360000000002,-0.9713143396311761,1.5667357882440933,-0.9032896954275262,-2.4733916609264956,0.0013924504937814432,-0.009000000000000001,0.007628929869422751,0.0001986937881753019,0.0057005080525821955,0.005704341500328597,5.834472217451877,3.3250331405191385,0.3170373232741306,0.0025368964410116845,0.017842794789612412,0.2755931208619335
1750761133.5350823,-2.022886467945556,-1.7532360000000002,-0.9713143396311761,1.5667357882440933,-0.9032896954275262,-2.4733916609264956,0.0013924504937814432,-0.009000000000000001,0.007628929869422751,0.0001986937881753019,0.0057005080525821955,0.005704341500328597,5.834472217451877,3.3250331405191385,0.3170373232741306,0.0025368964410116845,0.017842794789612412,0.2755931208619335
1750761133.535969,-2.022880279276695,-1.7532760000000005,-0.9712804332762008,1.5667366713275965,-0.9032643598361814,-2.4733663082976056,0.0017018839368439862,-0.011000000000000003,0.009324247618183365,0.00024284796332536905,0.0069672876198226845,0.006971972944846064,5.834380521471003,3.32495040321825,0.31703743195593115,0.00253679317409068,0.017842794789308707,0.2755779619301676
1750761133.5372255,-2.022880279276695,-1.7532760000000005,-0.9712804332762008,1.5667366713275965,-0.9032643598361814,-2.4733663082976056,0.0017018839368439862,-0.011000000000000003,0.009324247618183365,0.00024284796332536905,0.0069672876198226845,0.006971972944846064,5.834380521471003,3.32495040321825,0.31703743195593115,0.00253679317409068,0.017842794789308707,0.2755779619301676
1750761133.5389805,-2.0228728528740607,-1.753324000000001,-0.9712397456502311,1.5667377310278001,-0.9032339571265675,-2.473335885142937,0.0020113173799065293,-0.013000000000000005,0.011019565366943977,0.00028700213847543616,0.008234067187063173,0.008239604389363532,5.834270481727032,3.3248511134953374,0.31703756243534026,0.0025366692369757794,0.017842794788944315,0.27555977085056277
1750761133.541012,-2.022868675522579,-1.7533510000000003,-0.9712168588606227,1.5667383271091646,-0.9032168556024098,-2.473318772118436,0.002166034101437801,-0.014000000000000005,0.011867224241324283,0.0003090792260504697,0.008867456970683418,0.008873420111622265,5.834208582181686,3.324795260647545,0.3170376358593703,0.0025365995142903226,0.017842794788739392,0.2755495381950425
1750761133.5429554,-2.022864188737655,-1.75338,-0.9711922767532659,1.5667389673447043,-0.9031984872986847,-2.4733003914624905,0.0023207508229690726,-0.015000000000000006,0.01271488311570459,0.0003311563136255033,0.009500846754303663,0.009507235833880998,5.834142095729048,3.324735268644198,0.31703771474576514,0.0025365246204991474,0.017842794788519283,0.27553854742614436
1750761133.544862,-2.0228593925192877,-1.7534110000000007,-0.9711659993281598,1.566739651734419,-0.9031788522153921,-2.4732807431751005,0.0024754675445003444,-0.016000000000000007,0.013562541990084897,0.0003532334012005369,0.010134236537923906,0.010141051556139731,5.834071021992898,3.324671137076587,0.3170377990995703,0.0025364445542176393,0.017842794788283965,0.2755267985141439
1750761133.5470946,-2.022854286867477,-1.753444,-0.9711380265853053,1.566740380278309,-0.9031579503525329,-2.473259827256266,0.002630184266031616,-0.017000000000000008,0.014410200864465202,0.00037531048877557043,0.010767626321544151,0.010774867278398464,5.8339953605710875,3.3246028655078335,0.3170378889261798,0.0025363593139658375,0.017842794788033595,0.27551429142727973
1750761133.5491235,-2.022848871782223,-1.7534790000000005,-0.9711083585247025,1.5667411529763742,-0.9031357817101062,-2.473237643705987,0.0027849009875628872,-0.01800000000000001,0.01525785973884551,0.000397387576350604,0.011401016105164396,0.0114086830006572,5.833915111035528,3.3245304534728874,0.31703798423133517,0.0025362688981682992,0.017842794787768027,0.2755010261317581
1750761133.5512218,-2.0228431472635275,-1.7535160000000003,-0.9710769951463503,1.5667419698286145,-0.9031123462881121,-2.473214192524263,0.002939617709094159,-0.01900000000000001,0.016105518613225817,0.00041946466392563754,0.012034405888784641,0.012042498722915932,5.833830272932201,3.3244539004785376,0.31703808502112535,0.0025361733051542257,0.017842794787487317,0.27548700259175
1750761133.5528433,-2.022837113311388,-1.7535550000000004,-0.9710439364502488,1.56674283083503,-0.9030876440865514,-2.4731894737110953,0.0030943344306254305,-0.02000000000000001,0.016953177487606122,0.0004415417515006711,0.012667795672404884,0.012676314445174666,5.833740845781147,3.324373206003426,0.31703819130198857,0.0025360725331574647,0.017842794787191422,0.2754722207694049
1750761133.555005,-2.022830769925804,-1.753596,-0.9710091824363998,1.5667437359956204,-0.9030616751054232,-2.4731634872664827,0.0032490511521567024,-0.02100000000000001,0.017800836361986427,0.0004636188390757047,0.01330118545602513,0.013310130167433399,5.833646829076487,3.324288369498034,0.3170383030807095,0.002535966580316464,0.01784279478688049,0.27545668062484113
1750761133.558195,-2.0228241171067785,-1.7536390000000006,-0.9709727331048015,1.5667446853103861,-0.9030344393447267,-2.4731362331904254,0.0034037678736879738,-0.022000000000000013,0.018648495236366733,0.00048569592665073826,0.013934575239645374,0.013943945889692133,5.833548222286413,3.3241993903846816,0.3170384203644209,0.00253585544467438,0.017842794786554383,0.27544038211616123
1750761133.5587268,-2.0228171548543097,-1.7536840000000007,-0.9709345884554539,1.566745678779327,-0.9030059368044645,-2.473107711482924,0.003558484595219245,-0.023000000000000013,0.01949615411074704,0.0005077730142257718,0.014567965023265617,0.014577761611950867,5.833445024853191,3.3241062680575704,0.31703854316060437,0.0025357391241790125,0.01784279478621311,0.27542332519944407
1750761133.5609834,-2.0228098831683976,-1.7537310000000002,-0.9708947484883579,1.5667467164024431,-0.9029761674846339,-2.4730779221439776,0.003713201316750517,-0.024000000000000014,0.020343812985127347,0.0005298501018008054,0.015201354806885862,0.0152115773342096,5.833337236193162,3.324009001882746,0.3170386714770882,0.0025356176166828914,0.01784279478585682,0.27540550982875933
1750761133.5628853,-2.022802302049042,-1.7537800000000008,-0.9708532132035135,1.5667477981797342,-0.9029451313852368,-2.473046865173587,0.0038679180382817885,-0.025000000000000015,0.021191471859507652,0.0005519271893758389,0.015834744590506107,0.015845393056468333,5.833224855696749,3.3239075911981226,0.31703880532204876,0.00253549091994322,0.017842794785485377,0.2753869359561632
1750761133.5648685,-2.0227944114962444,-1.753831,-0.9708099826009198,1.5667489241112005,-0.9029128285062722,-2.473014540571752,0.00402263475981306,-0.026000000000000016,0.02203913073388796,0.0005740042769508725,0.01646813437412635,0.016479208778727068,5.833107882728465,3.3238020353134914,0.3170389447040109,0.002535359031622014,0.017842794785098783,0.2753676035317078
1750761133.566859,-2.0227862115100033,-1.7538840000000002,-0.9707650566805777,1.566750094196842,-0.9028792588477401,-2.472980948338472,0.004177351481344332,-0.027000000000000017,0.022886789608268267,0.000596081364525906,0.017101524157746597,0.0171130245009858,5.832986316626891,3.323692333510514,0.31703908963184585,0.002535221949285972,0.017842794784697247,0.27534751250343914
1750761133.5690682,-2.0227777020903197,-1.7539390000000008,-0.9707184354424871,1.5667513084366587,-0.9028444224096415,-2.4729460884737477,0.004332068202875603,-0.028000000000000018,0.023734448482648572,0.0006181584521009396,0.01773491394136684,0.017746840223244534,5.832860156704708,3.3235784850427383,0.31703924011477347,0.002535079670406676,0.01784279478428043,0.2753266628174134
1750761133.570701,-2.022768883237192,-1.7539960000000008,-0.9706701188866473,1.5667525668306506,-0.9028083191919745,-2.4729099609775793,0.004486784924406875,-0.02900000000000002,0.024582107357028878,0.0006402355396759731,0.018368303724987083,0.01838065594550327,5.83272940224869,3.3234604891356105,0.3170393961623618,0.0025349321923604177,0.017842794783848634,0.2753050544176843
1750761133.572736,-2.0227597549506218,-1.7540550000000001,-0.9706201070130591,1.5667538693788174,-0.9027709491947409,-2.4728725658499657,0.004641501645938146,-0.03000000000000002,0.025429766231409186,0.0006623126272510067,0.01900169350860733,0.019014471667762,5.8325940525197,3.32333834498646,0.3170395577845257,0.002534779512428367,0.017842794783401873,0.27528268724632265
1750761133.5750582,-2.0227503172306083,-1.7541160000000007,-0.9705683998217216,1.5667552160811595,-0.9027323124179407,-2.472833903090908,0.004796218367469418,-0.03100000000000002,0.026277425105789492,0.0006843897148260404,0.019635083292227573,0.019648287390020735,5.8324541067526985,3.3232120517645236,0.3170397249915276,0.002534621627796604,0.017842794782939854,0.27525956124341927
1750761133.5770123,-2.0227405700771524,-1.7541790000000006,-0.9705149973126357,1.5667566069376766,-0.9026924088615722,-2.472793972700406,0.00495093508900069,-0.03200000000000002,0.027125083980169797,0.0007064668024010739,0.02026847307584782,0.02028210311227947,5.832309564156752,3.323081608610945,0.317039897793978,0.002534458535556003,0.017842794782462982,0.2752356763470765
1750761133.5790615,-2.0227305134902522,-1.754244,-0.9704598994858014,1.566758041948369,-0.9026512385256371,-2.472752774678459,0.005105651810531961,-0.03300000000000002,0.027972742854550106,0.0007285438899761075,0.020901862859468063,0.0209159188345382,5.832160423915025,3.3229470146387987,0.31704007620283564,0.0025342902327024556,0.017842794781970872,0.2752110324934315
1750761133.5807097,-2.0227201474699097,-1.7543110000000004,-0.9704031063412177,1.5667595211132366,-0.9026088014101346,-2.4727103090250675,0.0052603685320632325,-0.03400000000000002,0.02882040172893041,0.000750620977551141,0.021535252643088306,0.021549734556796936,5.832006685184792,3.3228082689330583,0.31704026022940524,0.0025341167161367375,0.01784279478146383,0.2751856296166561
1750761133.5828595,-2.022709472016124,-1.7543800000000003,-0.9703446178788857,1.5667610444322793,-0.9025650975150645,-2.4726665757402317,0.005415085253594504,-0.035000000000000024,0.029668060603310717,0.0007726980651261746,0.022168642426708553,0.022183550279055667,5.831848347097442,3.3226653705506526,0.31704044988534064,0.0025339379826645973,0.017842794780941862,0.2751594676489498
1750761133.5847142,-2.0226984871288956,-1.7544510000000004,-0.9702844340988044,1.5667626119054971,-0.902520126840427,-2.4726215748239513,0.005569801975125776,-0.036000000000000025,0.030515719477691022,0.0007947751527012081,0.022802032210328796,0.022817366001314402,5.831685408758479,3.322518318520432,0.3170406451826419,0.002533754028996846,0.017842794780404687,0.27513254652056834
1750761133.5867145,-2.022687192808224,-1.754524,-0.9702225550009747,1.56676422353289,-0.902473889386223,-2.4725753062762266,0.005724518696657048,-0.037000000000000026,0.03136337835207133,0.0008168522402762417,0.02343542199394904,0.023451181723573137,5.831517869247523,3.3223671118432105,0.31704084613365796,0.00253356485174925,0.01784279477985261,0.2751048661598069
1750761133.5925019,-2.022675589054108,-1.7545990000000007,-0.9701589805853956,1.566765879314458,-0.9024263851524514,-2.472527770097057,0.005879235418188319,-0.03800000000000003,0.03221103722645163,0.0008389293278512753,0.024068811777569286,0.02408499744583187,5.831345727618312,3.3222117494917462,0.3170410527510841,0.0025333704474426962,0.017842794779285645,0.2750764264930211
1750761133.593152,-2.022663675866551,-1.7546760000000008,-0.9700937108520691,1.5667675792502014,-0.9023776141391124,-2.472478966286443,0.0060339521397195905,-0.03900000000000003,0.033058696100831945,0.0008610064154263088,0.02470220156118953,0.024718813168090603,5.8311689828987285,3.32205223041076,0.31704126504796337,0.002533170812503211,0.0178427947787035,0.2750472274446331
1750761133.594906,-2.022663675866551,-1.7546760000000008,-0.9700937108520691,1.5667675792502014,-0.9023776141391124,-2.472478966286443,0.0060339521397195905,-0.03900000000000003,0.033058696100831945,0.0008610064154263088,0.02470220156118953,0.024718813168090603,5.8311689828987285,3.32205223041076,0.31704126504796337,0.002533170812503211,0.0178427947787035,0.2750472274446331
1750761133.5953271,-2.022663675866551,-1.7546760000000008,-0.9700937108520691,1.5667675792502014,-0.9023776141391124,-2.472478966286443,0.0060339521397195905,-0.03900000000000003,0.033058696100831945,0.0008610064154263088,0.02470220156118953,0.024718813168090603,5.8311689828987285,3.32205223041076,0.31704126504796337,0.002533170812503211,0.0178427947787035,0.2750472274446331
1750761133.5967858,-2.022638921191106,-1.754836000000001,-0.9699580854321681,1.5667711115842136,-0.9022762717737338,-2.4723775557708816,0.006343385582782134,-0.04100000000000003,0.034754013849592556,0.0009051605905763759,0.02596898112843002,0.02598644461260807,5.8308016801705795,3.3217207176990127,0.3170417067339909,0.002532755835955019,0.017842794777494515,0.27498655089105845
1750761133.5988371,-2.022626079703219,-1.754919000000001,-0.9698877297455946,1.5667729439824822,-0.9022237004216933,-2.4723249490659343,0.006498102304313406,-0.04200000000000003,0.03560167272397286,0.0009272376781514095,0.026602370912050262,0.026620260334866804,5.830611120088431,3.3215487218176043,0.31704193615096243,0.002532540486724107,0.017842794776867597,0.2749550732250804
1750761133.6007297,-2.0226129287818884,-1.7550040000000005,-0.9698156787412717,1.5667748205349261,-0.9021698622900853,-2.472271074729542,0.006652819025844677,-0.04300000000000003,0.03644933159835317,0.0009493147657264431,0.02723576069567051,0.027254076057125536,5.830415952768751,3.321372564705403,0.31704217130303364,0.0025323198916158973,0.01784279477622585,0.2749228358559208
1750761133.6027534,-2.0225994684271154,-1.7550910000000002,-0.9697419324192005,1.5667767412415452,-0.9021147573789108,-2.472215932761706,0.006807535747375948,-0.04400000000000003,0.03729699047273347,0.0009713918533014766,0.02786915047929075,0.02788789177938427,5.830216177110119,3.3211922451670843,0.31704241220498375,0.0025320940465824613,0.01784279477556898,0.27488983869841505
1750761133.6047096,-2.022585698638899,-1.7551800000000002,-0.9696664907793808,1.5667787061023393,-0.9020583856881679,-2.472159523162425,0.00696225246890722,-0.04500000000000003,0.03814464934711378,0.0009934689408765101,0.028502540262910995,0.028521707501643005,5.830011791985259,3.321007761979358,0.3170426588719403,0.00253186294748111,0.017842794774897305,0.27485608166549164
1750761133.606813,-2.0225716194172394,-1.7552710000000005,-0.9695893538218128,1.5667807151173085,-0.9020007472178584,-2.4721018459316992,0.007116969190438492,-0.046000000000000034,0.03899230822149409,0.0010155460284515438,0.02913593004653124,0.029155523223901737,5.8298027962410615,3.3208191138909537,0.3170429113193773,0.002531626590074585,0.01784279477421083,0.2748215646681944
1750761133.6087499,-2.0225572307621373,-1.7553640000000001,-0.9695105215464954,1.566782768286453,-0.9019418419679823,-2.4720429010695293,0.0072716859119697635,-0.047000000000000035,0.039839967095874396,0.0010376231160265773,0.029769319830151485,0.02978933894616047,5.829589188698578,3.3206262996226465,0.31704316956311607,0.002531384970031031,0.01784279477350928,0.27478628761569385
1750761133.612067,-2.022542532673592,-1.755459,-0.9694299939534288,1.5667848656097727,-0.9018816699385379,-2.4719826885759146,0.007426402633501035,-0.048000000000000036,0.0406876259702547,0.0010597002036016108,0.03040270961377173,0.030423154668419203,5.829370968153035,3.320429317867263,0.31704343361932547,0.0025311380829239863,0.017842794772793057,0.27475025041527273
1750761133.6127608,-2.0225275251516033,-1.7555560000000003,-0.9693477710426137,1.5667870070872676,-0.9018202311295269,-2.4719212084508557,0.007581119355032306,-0.04900000000000004,0.041535284844635006,0.0010817772911766446,0.031036099397391975,0.031056970390677938,5.82914813337382,3.3202281672896863,0.31704370350452105,0.002530885924232558,0.017842794772061785,0.2747134529723641
1750761133.615085,-2.0225275251516033,-1.7555560000000003,-0.9693477710426137,1.5667870070872676,-0.9018202311295269,-2.4719212084508557,0.007581119355032306,-0.04900000000000004,0.041535284844635006,0.0010817772911766446,0.031036099397391975,0.031056970390677938,5.82914813337382,3.3202281672896863,0.31704370350452105,0.002530885924232558,0.017842794772061785,0.2747134529723641
1750761133.617021,-2.022512208196172,-1.7556550000000009,-0.9692638528140503,1.5667891927189375,-0.9017575255409485,-2.471858460694352,0.007735836076563578,-0.05000000000000004,0.04238294371901531,0.001103854378751678,0.03166948918101222,0.03169078611293667,5.828920683104525,3.3200228465268817,0.31704397923556527,0.0025306284893412624,0.017842794771315867,0.2746758951905318
1750761133.6189456,-2.022496581807297,-1.7557560000000008,-0.9691782392677384,1.5667914225047825,-0.9016935531728034,-2.471794445306404,0.00789055279809485,-0.05100000000000004,0.04323060259339562,0.0011259314663267116,0.032302878964632464,0.03232460183519541,5.828688616062898,3.319813354187893,0.31704426082966775,0.0025303657735403174,0.01784279477055493,0.27463757697149727
1750761133.6211164,-2.022480645984979,-1.755859000000001,-0.9690909304036772,1.5667936964448028,-0.90162831402509,-2.4717291622870112,0.00804526951962612,-0.05200000000000004,0.04407826146777592,0.001148008553901745,0.03293626874825271,0.032958417557454135,5.828451930940906,3.3195996888538626,0.3170445483043853,0.0025300977720254768,0.01784279476977928,0.27459849821513826
1750761133.622815,-2.022464400729218,-1.7559640000000005,-0.9690019262218668,1.566796014538998,-0.9015618080978101,-2.471662611636174,0.008199986241157392,-0.05300000000000004,0.044925920342156235,0.0011700856414767788,0.03356965853187295,0.03359223327971287,5.828210626404696,3.319381849078039,0.3170448416776216,0.002529824479898258,0.017842794768988833,0.27455865881951297
1750761133.6247797,-2.0224478460400146,-1.7560710000000004,-0.9689112267223079,1.5667983767873686,-0.9014940353909626,-2.4715947933538924,0.008354702962688665,-0.05400000000000004,0.04577357921653654,0.0011921627290518123,0.034203048315493194,0.034226049001971605,5.827964701094628,3.319159833385793,0.3170451409676265,0.002529545892165757,0.01784279476818361,0.27451805868083956
1750761133.6269999,-2.022430981917368,-1.7561800000000005,-0.9688188319050006,1.5668007831899142,-0.9014249959045477,-2.471525707440166,0.008509419684219937,-0.05500000000000004,0.046621238090916846,0.0012142398166268458,0.034836438099113444,0.03485986472423034,5.827714153625258,3.3189336402746226,0.31704544619299746,0.0025292620037409503,0.017842794767363813,0.2744766976935345
1750761133.6288447,-2.0224138083612777,-1.756291000000001,-0.9687247417699449,1.566803233746635,-0.9013546896385662,-2.4714553538949953,0.008664136405751208,-0.05600000000000004,0.04746889696529715,0.0012363169042018795,0.03546982788273369,0.035493680446489075,5.827458982585367,3.3187032682141804,0.3170457573726786,0.0025289728094425815,0.017842794766528877,0.2744345757502079
1750761133.6308472,-2.0223963253717443,-1.7564040000000007,-0.96862895631714,1.5668057284575312,-0.9012831165930173,-2.47138373271838,0.00881885312728248,-0.057000000000000044,0.04831655583967746,0.001258393991776913,0.03610321766635393,0.0361274961687478,5.827199186537956,3.3184687156462718,0.31704607452596084,0.0025286783039952174,0.017842794765679407,0.27439169274167247
1750761133.632656,-2.0223785329487685,-1.7565190000000008,-0.9685314755465857,1.5668082673226023,-0.9012102767679009,-2.47131084391032,0.008973569848813751,-0.058000000000000045,0.04916421471405776,0.0012804710793519465,0.036736607449974173,0.03676131189100654,5.826934764020259,3.318229980984867,0.31704639767248105,0.002528378482029453,0.017842794764815217,0.2743480485569676
1750761133.6347811,-2.0223604310923493,-1.7566360000000003,-0.968432299458283,1.5668108503418485,-0.901136170163217,-2.471236687470816,0.009128286570345022,-0.059000000000000045,0.05001187358843807,0.00130254816692698,0.03736999723359442,0.03739512761326527,5.82666571354373,3.31798706261613,0.3170467268322238,0.0025280733380817124,0.017842794763936333,0.27430364308334015
1750761133.6368697,-2.022342019802487,-1.756755,-0.9683314280522319,1.56681347751527,-0.9010607967789666,-2.471161263399867,0.009283003291876294,-0.060000000000000046,0.05085953246281838,0.0013246252545020137,0.03800338701721466,0.03802894333552401,5.826392033594077,3.3177399588984153,0.31704706202551947,0.002527762866594532,0.017842794763042763,0.27425847620628335
1750761133.638743,-2.022323299079182,-1.756876,-0.9682288613284324,1.5668161488428665,-0.9009841566151486,-2.471084571697474,0.009437720013407565,-0.06100000000000005,0.051707191337198685,0.0013467023420770472,0.03863677680083491,0.03866275905778274,5.826113722631246,3.3174886681622877,0.31704740327304476,0.0025274470619164493,0.017842794762134725,0.27421254780953325
1750761133.6466677,-2.0223042689224338,-1.7569990000000004,-0.9681245992868837,1.5668188643246383,-0.9009062496717632,-2.4710066123636363,0.009592436734938837,-0.06200000000000005,0.05255485021157899,0.0013687794296520807,0.03927016658445515,0.03929657478004148,5.825830779089443,3.3172331887105453,0.31704775059582424,0.0025271259183022245,0.017842794761211648,0.2741658577750808
1750761133.6471431,-2.0223042689224338,-1.7569990000000004,-0.9681245992868837,1.5668188643246383,-0.9009062496717632,-2.4710066123636363,0.009592436734938837,-0.06200000000000005,0.05255485021157899,0.0013687794296520807,0.03927016658445515,0.03929657478004148,5.825830779089443,3.3172331887105453,0.31704775059582424,0.0025271259183022245,0.017842794761211648,0.2741658577750808
1750761133.647414,-2.02224532185153,-1.7573800000000004,-0.9678016412557442,1.5668272756950044,-0.9006649281642041,-2.4707651285734555,0.01005658689953265,-0.06500000000000004,0.0550978268347199,0.0014350106923771812,0.04117033593531588,0.04119802194681767,5.824954136946185,3.316441600673213,0.3170488292311174,0.002526130394982558,0.0178427947583553,0.27402121663946455
1750761133.6492412,-2.0222250539610096,-1.757511000000001,-0.9676905979432009,1.5668301677934766,-0.9005819541025497,-2.47068209871384,0.010211303621063922,-0.06600000000000004,0.05594548570910021,0.001457087779952215,0.041803725718936126,0.0418318376690764,5.824652646915848,3.3161693488319295,0.3170492010720762,0.0025257878362951944,0.017842794757374016,0.2739714788395918
1750761133.6511388,-2.0222044766370457,-1.7576440000000009,-0.9675778593129083,1.566833104046124,-0.9004977132613279,-2.4705978012227794,0.010366020342595194,-0.06700000000000005,0.05679314458348052,0.0014791648675272484,0.04243711550255637,0.04246565339133514,5.824346516091618,3.315892899372872,0.31704957909860193,0.0025254399085390252,0.017842794756378174,0.27392097878617133
1750761133.6529555,-2.0221835898796385,-1.7577790000000002,-0.9674634253648664,1.5668360844529468,-0.9004122056405395,-2.4705122361002743,0.010520737064126465,-0.06800000000000005,0.05764080345786082,0.001501241955102282,0.04307050528617661,0.04309946911359387,5.824035742753363,3.3156122504324914,0.3170499633337967,0.0025250866054067605,0.017842794755367798,0.273869716350956
1750761133.654985,-2.02216239368879,-1.7579160000000007,-0.9673472960990761,1.5668391090139446,-0.9003254312401836,-2.470425403346325,0.010675453785657736,-0.06900000000000005,0.05848846233224113,0.0015233190426773156,0.04370389506979686,0.04373328483585261,5.823720325155272,3.315327400119556,0.3170503538011077,0.0025247279204976022,0.0178427947543431,0.27381769140402706
1750761133.6569085,-2.022140888064497,-1.7580550000000006,-0.9672294715155374,1.5668421777291175,-0.9002373900602603,-2.470337302960931,0.010830170507189008,-0.07000000000000005,0.059336121206621434,0.0015453961302523492,0.044337284853417105,0.044367100558111335,5.823400261525839,3.315038346515205,0.3170507505243287,0.002524363847317291,0.01784279475330352,0.2737649038138077
1750761133.6588762,-2.0221190730067606,-1.7581960000000008,-0.9671099516142503,1.5668452905984656,-0.9001480821007695,-2.4702479349440924,0.010984887228720281,-0.07100000000000005,0.06018378008100174,0.0015674732178273827,0.04497067463703735,0.04500091628037007,5.823075550067873,3.31474508767291,0.3170511535275988,0.0025239943792783976,0.017842794752249654,0.2737113534470896
1750761133.660903,-2.022096948515582,-1.7583390000000003,-0.9669887363952139,1.5668484476219888,-0.9000575073617121,-2.4701572992958094,0.011139603950251552,-0.07200000000000005,0.061031438955382045,0.0015895503054024162,0.04560406442065759,0.045634732002628804,5.822746188958522,3.31444762161854,0.3170515628354037,0.002523619509700035,0.017842794751181338,0.2736570401690124
1750761133.664634,-2.022096948515582,-1.7583390000000003,-0.9669887363952139,1.5668484476219888,-0.9000575073617121,-2.4701572992958094,0.011139603950251552,-0.07200000000000005,0.061031438955382045,0.0015895503054024162,0.04560406442065759,0.045634732002628804,5.822746188958522,3.31444762161854,0.3170515628354037,0.002523619509700035,0.017842794751181338,0.2736570401690124
1750761133.6651356,-2.02207451459096,-1.7584840000000002,-0.9668658258584291,1.5668516487996873,-0.8999656658430872,-2.470065396016082,0.011294320671782824,-0.07300000000000005,0.06187909782976236,0.0016116273929774499,0.046237454204277835,0.04626854772488754,5.822412176349267,3.314145946350348,0.31705197847257494,0.0025232392318082124,0.017842794750098586,0.2736019638431108
1750761133.6671464,-2.0220517712328947,-1.7586310000000003,-0.966741220003895,1.5668548941315608,-0.8998725575448949,-2.46997222510491,0.011449037393314095,-0.07400000000000005,0.06272675670414266,0.0016337044805524834,0.04687084398789808,0.046902363447146274,5.822073510365925,3.313840059839001,0.31705240046428856,0.00252285353873573,0.017842794749001425,0.2735461243313064
1750761133.669001,-2.022028718441387,-1.7587800000000007,-0.9666149188316115,1.5668581836176094,-0.8997781824671351,-2.4698777865622934,0.011603754114845367,-0.07500000000000005,0.06357441557852296,0.0016557815681275169,0.04750423377151833,0.047536179169405,5.821730189108685,3.313529960027594,0.3170528288360689,0.002522462423522365,0.017842794747890068,0.27348952149392486
1750761133.6708813,-2.022005356216435,-1.7589310000000005,-0.9664869223415806,1.5668615172578333,-0.8996825406098088,-2.4697820803882324,0.011758470836376638,-0.07600000000000005,0.06442207445290327,0.0016778586557025506,0.04813762355513857,0.04816999489166374,5.821382210652073,3.3132156448316694,0.3170532636137833,0.002522065879114942,0.017842794746763948,0.27343215518972314
1750761133.672874,-2.022005356216435,-1.7589310000000005,-0.9664869223415806,1.5668615172578333,-0.8996825406098088,-2.4697820803882324,0.011758470836376638,-0.07600000000000005,0.06442207445290327,0.0016778586557025506,0.04813762355513857,0.04816999489166374,5.821382210652073,3.3132156448316694,0.3170532636137833,0.002522065879114942,0.017842794746763948,0.27343215518972314
1750761133.6746786,-2.0219816845580407,-1.7590840000000005,-0.9663572305338004,1.5668648950522321,-0.899585631972915,-2.4696851065827268,0.01191318755790791,-0.07700000000000005,0.06526973332728359,0.001699935743277584,0.048771013338758815,0.04880381061392247,5.821029573045013,3.312897112139232,0.3170537048236466,0.0025216638983671714,0.01784279474562368,0.2733740252758672
1750761133.676872,-2.021957703466203,-1.7592390000000009,-0.9662258434082718,1.5668683170008064,-0.8994874565564537,-2.4695868651457764,0.012067904279439181,-0.07800000000000006,0.06611739220166389,0.0017220128308526176,0.04940440312237906,0.049437626336181206,5.82067227431078,3.31257435981076,0.317054152492217,0.002521256474040078,0.017842794744469082,0.2733151316079829
1750761133.6789963,-2.021933412940923,-1.7593960000000006,-0.9660927609649939,1.5668717831035557,-0.8993880143604258,-2.469487356077382,0.012222621000970452,-0.07900000000000006,0.0669650510760442,0.0017440899184276513,0.0500377929059993,0.05007144205843994,5.820310312447058,3.312247385679239,0.3170546066464009,0.002520843598801777,0.017842794743300187,0.27325547404014844
1750761133.6808822,-2.0219088129821996,-1.7595550000000006,-0.9659579832039675,1.5668752933604801,-0.8992873053848296,-2.469386579377543,0.012377337722501724,-0.08000000000000006,0.0678127099504245,0.0017661670060026848,0.05067118268961955,0.05070525778069867,5.819943685425916,3.311916187550168,0.317055067313448,0.002520425265227666,0.017842794742117207,0.2731950524249113
1750761133.682835,-2.021883903590033,-1.759716000000001,-0.9658215101251919,1.5668788477715796,-0.8991853296296668,-2.4692845350462593,0.012532054444032995,-0.08100000000000006,0.06866036882480481,0.0017882440935777183,0.051304572473239794,0.051339073502957404,5.81957239119383,3.3115807632015826,0.31705553452095464,0.0025200014658005926,0.017842794740919578,0.27313386661331396
1750761133.6848395,-2.021858684764423,-1.7598790000000006,-0.9656833417286679,1.5668824463368545,-0.8990820870949365,-2.469181223083531,0.012686771165564268,-0.08200000000000006,0.06950802769918511,0.0018103211811527518,0.05193796225686004,0.05197288922521614,5.819196427671696,3.3112411103840733,0.3170560082968614,0.0025195721929107033,0.01784279473970791,0.27307191645488016
1750761133.686955,-2.0218331565053713,-1.7600440000000006,-0.9655434780143954,1.5668860890563043,-0.8989775777806397,-2.4690766434893585,0.01284148788709554,-0.08300000000000006,0.07035568657356542,0.0018323982687277855,0.05257135204048028,0.052606704947474874,5.8188157927548305,3.310897226820795,0.3170564886694544,0.002519137438855681,0.017842794738482038,0.2730092017976576
1750761133.6888535,-2.0218073188128756,-1.760211,-0.9654019189823737,1.5668897759299294,-0.8988718016867745,-2.4689707962637413,0.012996204608626811,-0.08400000000000006,0.07120334544794572,0.001854475356302819,0.053204741824100524,0.05324052066973361,5.818430484312979,3.3105491102075097,0.317056975667365,0.002518697195840786,0.017842794737241978,0.27294572248821725
1750761133.690881,-2.0217811716869365,-1.7603800000000005,-0.9652586646326036,1.5668935069577294,-0.8987647588133427,-2.4688636814066793,0.013150921330158083,-0.08500000000000006,0.07205100432232603,0.0018765524438778525,0.05383813160772077,0.05387433639199234,5.818040500190336,3.3101967582125815,0.3170574693195695,0.002518251455978923,0.01784279473598776,0.2728814783716708
1750761133.6974552,-2.021754715127555,-1.7605510000000004,-0.9651137149650841,1.5668972821397047,-0.8986564491603435,-2.468755298918173,0.013305638051689354,-0.08600000000000006,0.07289866319670633,0.0018986295314528862,0.05447152139134102,0.05450815211425107,5.817645838205553,3.3098401684770073,0.3170579696553893,0.0025178002112907186,0.0178427947347196,0.27281646929168296
1750761133.6980646,-2.021754715127555,-1.7605510000000004,-0.9651137149650841,1.5668972821397047,-0.8986564491603435,-2.468755298918173,0.013305638051689354,-0.08600000000000006,0.07289866319670633,0.0018986295314528862,0.05447152139134102,0.05450815211425107,5.817645838205553,3.3098401684770073,0.3170579696553893,0.0025178002112907186,0.0178427947347196,0.27281646929168296
1750761133.6983674,-2.02172794913473,-1.7607240000000006,-0.9649670699798163,1.5669011014758554,-0.8985468727277777,-2.4686456487982222,0.013460354773220625,-0.08700000000000006,0.07374632207108664,0.0019207066190279197,0.05510491117496126,0.055141967836509806,5.817246496151728,3.3094793386144365,0.3170584767044901,0.002517343453704684,0.01784279473343694,0.27275069509050015
1750761133.698636,-2.0216734888487506,-1.761076000000001,-0.9646686940560345,1.5669088726106817,-0.8983239195239436,-2.468422545663987,0.013769788216283168,-0.08900000000000007,0.07544163981984725,0.001964860794177987,0.05637169074220175,0.056409599281027276,5.816433762881771,3.3087449488262846,0.3170595110629241,0.0025164133670921183,0.017842794730829777,0.2726168506864128
1750761133.7009058,-2.021645794555596,-1.7612550000000002,-0.9645169631175206,1.5669128244093575,-0.8982105427526754,-2.468309092649703,0.01392450493781444,-0.09000000000000007,0.07628929869422756,0.0019869378817530202,0.05700508052582199,0.05704341500328601,5.816020367124259,3.308371383991447,0.3170600384333135,0.002515940021462222,0.01784279472950513,0.2725487801609709
1750761133.7028265,-2.0216177908289996,-1.7614360000000007,-0.9643635368612582,1.5669168203622088,-0.8980958992018397,-2.4681943720039743,0.014079221659345711,-0.09100000000000007,0.07713695756860788,0.002009014969328054,0.05763847030944224,0.05767723072554474,5.81560228221497,3.307993569211124,0.31706057263909565,0.0025154611297278557,0.017842794728166675,0.2724799438692732
1750761133.7047985,-2.021589477668959,-1.7616190000000005,-0.9642084152872465,1.5669208604692348,-0.8979799888714375,-2.4680783837268008,0.014233938380876984,-0.09200000000000007,0.07798461644298818,0.0020310920569030877,0.05827186009306248,0.05831104644780347,5.8151795058194695,3.307611501962544,0.3170611137116595,0.002514976683357669,0.017842794726813844,0.27241034164664346
1750761133.7068176,-2.021589477668959,-1.7616190000000005,-0.9642084152872465,1.5669208604692348,-0.8979799888714375,-2.4680783837268008,0.014233938380876984,-0.09200000000000007,0.07798461644298818,0.0020310920569030877,0.05827186009306248,0.05831104644780347,5.8151795058194695,3.307611501962544,0.3170611137116595,0.002514976683357669,0.017842794726813844,0.27241034164664346
1750761133.7087476,-2.0215608550754762,-1.7618040000000006,-0.9640515983954856,1.5669249447304363,-0.8978628117614678,-2.467961127818183,0.014388655102408256,-0.09300000000000007,0.07883227531736849,0.002053169144478121,0.058905249876682726,0.05894486217006221,5.81475203557786,3.307225179695694,0.31706166168273947,0.0025144866737286144,0.017842794725447253,0.2723399733270485
1750761133.710703,-2.021531923048549,-1.761991,-0.9638930861859771,1.5669290731458128,-0.8977443678719306,-2.4678426042781205,0.014543371823939527,-0.09400000000000007,0.07967993419174879,0.0020752462320531547,0.05953863966030297,0.05957867789232094,5.81431986910476,3.3068345998333646,0.3170622165844136,0.002513991092126065,0.017842794724066736,0.27226883874314267
1750761133.7143734,-2.0215026815881796,-1.7621800000000007,-0.9637328786587194,1.5669332457153646,-0.8976246572028268,-2.467722813106614,0.014698088545470799,-0.09500000000000007,0.0805275930661291,0.0020973233196281884,0.06017202944392321,0.06021249361457968,5.813883003989353,3.306439759771163,0.317062778449104,0.0025134899297438377,0.017842794722672316,0.2721969377262763
1750761133.7148604,-2.0214731306943676,-1.7623710000000008,-0.9635709758137123,1.5669374624390913,-0.8975036797541556,-2.4676017543036624,0.01485280526700207,-0.09600000000000007,0.0813752519405094,0.0021194004072032217,0.06080541922754346,0.060846309336838406,5.813441437795374,3.3060406568775393,0.31706334730957675,0.002512983177684228,0.017842794721264224,0.27212427010650125
1750761133.716769,-2.0214432703671115,-1.7625640000000002,-0.9634073776509569,1.5669417233169933,-0.8973814355259169,-2.467479427869266,0.015007521988533341,-0.09700000000000007,0.08222291081488971,0.0021414774947782554,0.061438809011163706,0.06148012505909714,5.812995168061114,3.3056372884938177,0.31706392319894283,0.002512470826958419,0.01784279471984189,0.2720508357126127
1750761133.718768,-2.021413100606413,-1.7627590000000009,-0.963242084170453,1.5669460283490704,-0.8972579245181107,-2.467355833803426,0.015162238710064613,-0.09800000000000007,0.08307056968927001,0.002163554582353289,0.06207219879478395,0.062113940781355875,5.812544192299452,3.30522965193419,0.3170645061506561,0.0025119528684860145,0.017842794718405938,0.2719766343721275
1750761133.7210455,-2.021382621412272,-1.7629560000000009,-0.9630750953721998,1.5669503775353228,-0.8971331467307371,-2.4672309721061407,0.015316955431595884,-0.09900000000000007,0.08391822856365032,0.0021856316699283224,0.06270558857840419,0.06274775650361461,5.812088507997857,3.3048177444857747,0.31706509619851503,0.002511429293095652,0.017842794716956198,0.2719016659113367
1750761133.7227588,-2.0213518327846867,-1.7631550000000002,-0.9629064112561982,1.56695477087575,-0.8970071021637969,-2.4671048427774114,0.015471672153127156,-0.10000000000000007,0.08476588743803062,0.002207708757503356,0.06333897836202444,0.06338157222587334,5.811628112618387,3.304401563408623,0.3170656933766618,0.0025109000915248024,0.017842794715492893,0.2718259301553046
1750761133.724763,-2.021320734723659,-1.763356,-0.9627360318224474,1.5669592083703527,-0.8968797908172892,-2.4669774458172373,0.015626388874658427,-0.10100000000000008,0.08561354631241093,0.0022297858450783894,0.06397236814564468,0.06401538794813208,5.811163003597732,3.303981105935733,0.31706629771958206,0.002510365254419973,0.01784279471401527,0.2717494269278908
1750761133.7267172,-2.021289327229189,-1.7635590000000008,-0.9625639570709481,1.5669636900191306,-0.896751212691214,-2.466848781225619,0.0157811055961897,-0.10200000000000008,0.08646120518679123,0.002251862932653423,0.06460575792926493,0.06464920367039081,5.810693178347194,3.303556369273084,0.31706690926210496,0.0025098247723367895,0.017842794712524725,0.2716721560517643
1750761133.7286825,-2.0212576103012747,-1.763764,-0.9623901870017004,1.5669682158220835,-0.8966213677855723,-2.466718849002556,0.01593582231772097,-0.10300000000000008,0.08730886406117154,0.002273940020228457,0.06523914771288516,0.06528301939264955,5.810218634252706,3.3031273505996763,0.31706752803940375,0.002509278635739995,0.01784279471101973,0.27159411734842553
1750761133.7307022,-2.021225583939918,-1.7639710000000006,-0.9622147216147034,1.5669727857792115,-0.8964902561003623,-2.4665876491480483,0.01609053903925224,-0.10400000000000008,0.08815652293555185,0.00229601710780349,0.06587253749650542,0.06591683511490827,5.809739368674865,3.3026940470675146,0.3170681540869943,0.002508726835003645,0.017842794709501876,0.2715153106382138
1750761133.7326329,-2.021193248145117,-1.7641800000000005,-0.9620375609099581,1.5669773998905145,-0.8963578776355856,-2.4664551816620963,0.016245255760783513,-0.10500000000000008,0.08900418180993216,0.002318094195378524,0.06650592728012567,0.066550650837167,5.809255378948906,3.302256455801677,0.31706878744073685,0.0025081693604113737,0.017842794707970015,0.2714357357403589
1750761133.734841,-2.021160602916874,-1.7643910000000007,-0.9618587048874643,1.566982058155993,-0.8962242323912424,-2.4663214465446996,0.016399972482314784,-0.10600000000000008,0.08985184068431247,0.0023401712829535576,0.0671393170637459,0.06718446655942574,5.808766662384762,3.3018145739003026,0.317069428136833,0.0025076062021559932,0.017842794706424185,0.27135539247293605
1750761133.7367702,-2.021127648255188,-1.7646040000000003,-0.9616781535472212,1.5669867605756465,-0.8960893203673308,-2.4661864437958583,0.016554689203846056,-0.10700000000000008,0.09069949955869278,0.002362248370528591,0.06777270684736615,0.06781828228168447,5.8082732162670325,3.3013683984346405,0.31707007621182937,0.0025070373503400588,0.017842794704865588,0.271274280652946
1750761133.7386158,-2.021094384160059,-1.764819000000001,-0.9614959068892297,1.566991507149475,-0.8959531415638526,-2.4660501734155726,0.01670940592537733,-0.10800000000000008,0.09154715843307308,0.0023843254581036246,0.06840609663098639,0.06845209800394321,5.807775037855022,3.3009179264490713,0.31707073170261535,0.0025064627949758418,0.017842794703292687,0.2711924000963022
1750761133.7408457,-2.0210608106314867,-1.7650360000000003,-0.9613119649134889,1.5669962978774787,-0.895815695980807,-2.4659126354038428,0.016864122646908602,-0.10900000000000008,0.09239481730745339,0.0024064025456786583,0.06903948641460664,0.06908591372620194,5.807272124382732,3.3004631549611223,0.317071394646422,0.0025058825259852984,0.017842794701707083,0.2711097506178569
1750761133.743373,-2.021026927669471,-1.7652550000000007,-0.9611263276199997,1.5670011327596578,-0.8956769836181948,-2.465773829760668,0.017018839368439873,-0.11000000000000008,0.09324247618183369,0.0024284796332536916,0.06967287619822689,0.06971972944846068,5.8067644730589,3.3000040809614983,0.31707206508082425,0.0025052965332003473,0.01784279470010763,0.2710263320314187
1750761133.7461634,-2.021026927669471,-1.7652550000000007,-0.9611263276199997,1.5670011327596578,-0.8956769836181948,-2.465773829760668,0.017018839368439873,-0.11000000000000008,0.09324247618183369,0.0024284796332536916,0.06967287619822689,0.06971972944846068,5.8067644730589,3.3000040809614983,0.31707206508082425,0.0025052965332003473,0.01784279470010763,0.2710263320314187
1750761133.746701,-2.0209582334451115,-1.7656990000000006,-0.9607499670797743,1.567010934986541,-0.8953957585542671,-2.4654924155799853,0.017328272811502416,-0.11200000000000009,0.0949377939305943,0.002472633808403759,0.07093965576546737,0.07098736089297815,5.80573494556523,3.299073013256104,0.31707342857342763,0.0025041073351248044,0.017842794696868485,0.2708571867846953
1750761133.7488093,-2.0209234221827668,-1.765924,-0.960559243833039,1.5670159023312455,-0.8952532458529525,-2.465349807042477,0.017482989533033687,-0.11300000000000009,0.09578545280497461,0.0024947108959787923,0.07157304554908761,0.07162117661523688,5.805213063686582,3.298601013397881,0.31707412170849136,0.0025035041090483157,0.017842794695228467,0.2707714597469824
1750761133.7508488,-2.0208883014869787,-1.7661510000000007,-0.9603668252685544,1.567020913830125,-0.8951094663720705,-2.465205930873524,0.01763770625456496,-0.11400000000000009,0.09663311167935491,0.002516787983553826,0.07220643533270786,0.0722549923374956,5.804686432538799,3.2981246987231136,0.31707482248787516,0.0025028951176058294,0.017842794693575904,0.2706849628464526
1750761133.7528322,-2.0208528713577483,-1.7663800000000007,-0.9601727113863214,1.5670259694831796,-0.8949644201116218,-2.465060787073127,0.01779242297609623,-0.11500000000000009,0.09748077055373522,0.0025388650711288593,0.07283982511632811,0.07288880805975434,5.8041550492044225,3.297644066088801,0.31707553095086644,0.0025022803501803265,0.017842794691909657,0.27059769589200594
1750761133.7548795,-2.0208171317950754,-1.7666110000000002,-0.95997690218634,1.5670310692904095,-0.8948181070716057,-2.464914375641285,0.017947139697627502,-0.11600000000000009,0.09832842942811552,0.002560942158703893,0.07347321489994835,0.07352262378201307,5.80361891074079,3.297159112325272,0.31707624713709437,0.002501659796065086,0.01784279469022976,0.27050965869157656
1750761133.7568724,-2.0207810827989583,-1.7668440000000007,-0.9597793976686093,1.5670362132518145,-0.8946705272520221,-2.464766696577999,0.018101856419158773,-0.11700000000000009,0.09917608830249583,0.0025830192462789267,0.0741066046835686,0.07415643950427181,5.8030780141800475,3.2966698342362215,0.3170769710865303,0.0025010334444641176,0.017842794688537417,0.27042085105221536
1750761133.75876,-2.020744724369399,-1.7670790000000007,-0.9595801978331302,1.5670414013673946,-0.8945216806528711,-2.464617749883268,0.018256573140690045,-0.11800000000000009,0.10002374717687613,0.00260509633385396,0.07473999446718883,0.07479025522653054,5.802532356529186,3.2961762285987413,0.31707770283948805,0.002500401284492135,0.0178427946868311,0.27033127278008406
1750761133.7606897,-2.020708056506395,-1.767316000000001,-0.9593793026799018,1.5670466336371498,-0.8943715672741526,-2.464467535557093,0.018411289862221316,-0.11900000000000009,0.10087140605125645,0.0026271734214289937,0.07537338425080908,0.07542407094878928,5.801981934770017,3.295678292163336,0.31707844243662264,0.002499763305174767,0.017842794685112406,0.2702409236804727
1750761133.7626908,-2.020671079209949,-1.7675550000000007,-0.959176712208925,1.5670519100610802,-0.8942201871158675,-2.464316053599473,0.018566006583752587,-0.12000000000000009,0.10171906492563676,0.0026492505090040274,0.07600677403442932,0.07605788667104801,5.801426745859232,3.295176021653963,0.3170791899189302,0.0024991194954485014,0.01784279468337981,0.27014980355783047
1750761133.7661555,-2.020671079209949,-1.7675550000000007,-0.959176712208925,1.5670519100610802,-0.8942201871158675,-2.464316053599473,0.018566006583752587,-0.12000000000000009,0.10171906492563676,0.0026492505090040274,0.07600677403442932,0.07605788667104801,5.801426745859232,3.295176021653963,0.3170791899189302,0.0024991194954485014,0.01784279468337981,0.27014980355783047
1750761133.7667685,-2.0205961963167285,-1.7680390000000008,-0.9587664453137243,1.5670625953714667,-0.8939136264605958,-2.4640092867898997,0.01887544002681513,-0.1220000000000001,0.10341438267439737,0.0026934046841540944,0.07727355360166982,0.07732551811556548,5.800302054283883,3.29415846517655,0.317080708704762,0.002497814340070862,0.017842794679876556,0.26996524945713585
1750761133.7689614,-2.0205582907199533,-1.7682840000000004,-0.9585587688895014,1.5670680042579226,-0.8937584459636083,-2.4638540019379462,0.0190301567483464,-0.1230000000000001,0.10426204154877768,0.002715481771729128,0.07790694338529006,0.07795933383782422,5.799732545407084,3.29364317252393,0.3170814800919875,0.0024971529718483074,0.0178427946781048,0.26987181508393626
1750761133.7709422,-2.020520075689735,-1.7685310000000003,-0.9583493971475292,1.5670734572985536,-0.8936019986870543,-2.4636974494545485,0.019184873469877673,-0.1240000000000001,0.10510970042315798,0.0027375588593041614,0.0785403331689103,0.07859314956008295,5.7991582569542235,3.293123532428226,0.3170822595317891,0.0024964857280747603,0.01784279467632084,0.2697776088974525
1750761133.7729564,-2.020520075689735,-1.7685310000000003,-0.9583493971475292,1.5670734572985536,-0.8936019986870543,-2.4636974494545485,0.019184873469877673,-0.1240000000000001,0.10510970042315798,0.0027375588593041614,0.0785403331689103,0.07859314956008295,5.7991582569542235,3.293123532428226,0.3170822595317891,0.0024964857280747603,0.01784279467632084,0.2697776088974525
1750761133.77491,-2.020481551226074,-1.7687800000000005,-0.9581383300878086,1.5670789544933597,-0.8934442846309327,-2.463539629339706,0.019339590191408945,-0.12500000000000008,0.10595735929753827,0.0027596359468791947,0.07917372295253054,0.07922696528234167,5.79857918575648,3.292599541481071,0.3170830470668699,0.002495812597243179,0.017842794674523158,0.26968263069821063
1750761133.7768865,-2.0204427173289687,-1.769031,-0.9579255677103395,1.567084495842341,-0.8932853037952446,-2.463380541593419,0.019494306912940216,-0.12600000000000008,0.10680501817191858,0.0027817130344542284,0.07980711273615078,0.07986078100460041,5.797995328619962,3.29207119624772,0.3170838427402764,0.002495133567758397,0.017842794672712953,0.26958688028604444
1750761133.7788327,-2.020403573998422,-1.7692840000000007,-0.9577111100151212,1.5670900813454975,-0.8931250561799882,-2.4632201862156875,0.019649023634471487,-0.12700000000000009,0.10765267704629888,0.002803790122029262,0.08044050251977103,0.08049459672685914,5.797406682325754,3.2915384932670744,0.31708464659539265,0.002494448627936612,0.017842794670890273,0.26949035746005134
1750761133.7808516,-2.020364121234431,-1.769539,-0.9574949570021545,1.5670957110028292,-0.8929635417851651,-2.463058563206512,0.01980374035600276,-0.12800000000000009,0.10850033592067919,0.0028258672096042954,0.08107389230339128,0.08112841244911788,5.796813243629899,3.291001429051735,0.317085458675946,0.002493757766006187,0.01784279466905436,0.26939306201867896
1750761133.782791,-2.020324359036998,-1.7697960000000004,-0.9572771086714384,1.567101384814336,-0.8928007606107746,-2.462895672565891,0.01995845707753403,-0.1290000000000001,0.1093479947950595,0.002847944297179329,0.08170728208701152,0.0817622281713766,5.796215009263433,3.2904600000879975,0.317086279026003,0.002493060970107405,0.017842794667205255,0.26929499375971117
1750761133.7848456,-2.0202842874061213,-1.7700550000000002,-0.957057565022974,1.5671071027800179,-0.8926367126568167,-2.462731514293826,0.0201131737990653,-0.1300000000000001,0.1101956536694398,0.0028700213847543624,0.08234067187063177,0.08239604389363533,5.795611975932393,3.2899142028359143,0.3170871076899715,0.0024923582282927693,0.017842794665344174,0.2691961524803253
1750761133.7869904,-2.0202439063418023,-1.7703160000000002,-0.9568363260567612,1.567112864899875,-0.8924713979232921,-2.4625660883903167,0.020267890520596573,-0.1310000000000001,0.11104331254382012,0.002892098472329396,0.082974061654252,0.08302985961589407,5.795004140317838,3.289364033729302,0.3170879447125996,0.0024916495285268697,0.017842794663469587,0.269096537977052
1750761133.7887447,-2.020203215844039,-1.7705790000000006,-0.956613391772799,1.5671186711739071,-0.8923048164102001,-2.4623993948553626,0.020422607242127844,-0.1320000000000001,0.11189097141820042,0.00291417555990443,0.08360745143787225,0.0836636753381528,5.794391499075854,3.2888094891757964,0.3170887901389747,0.0024909348586867625,0.0178427946615831,0.26899615004586386
1750761133.7909367,-2.0201622159128334,-1.7708440000000003,-0.9563887621710876,1.5671245216021146,-0.8921369681175406,-2.462231433688964,0.020577323963659116,-0.1330000000000001,0.11273863029258073,0.002936252647479463,0.0842408412214925,0.08429749106041154,5.79377404883759,3.288250565556863,0.3170896440145264,0.002490214206561992,0.01784279465968357,0.26889498848216464
1750761133.7936022,-2.0201209065481844,-1.7711110000000003,-0.9561624372516286,1.5671304161844972,-0.8919678530453137,-2.462062204891121,0.020732040685190387,-0.1340000000000001,0.11358628916696104,0.002958329735054497,0.08487423100511274,0.08493130678267027,5.7931517862092505,3.2876872592278352,0.3170905063850219,0.002489487559854758,0.017842794657771045,0.26879305308081664
1750761133.795215,-2.020079287750092,-1.7713800000000006,-0.9559344170144204,1.5671363549210549,-0.8917974711935202,-2.4618917084618333,0.02088675740672166,-0.1350000000000001,0.11443394804134134,0.0029804068226295306,0.08550762078873299,0.08556512250492901,5.792524707772123,3.287119566517956,0.31709137729657005,0.0024887549061799216,0.01784279465584673,0.2686903436361681
1750761133.7970614,-2.0200373595185575,-1.7716510000000003,-0.9557047014594628,1.5671423378117877,-0.8916258225621592,-2.4617199444011013,0.02104147412825293,-0.1360000000000001,0.11528160691572165,0.003002483910204564,0.08614101057235322,0.08619893822718774,5.7918928100826035,3.2865474837303976,0.31709225679561887,0.0024880162330653006,0.017842794653909103,0.268586859942075
1750761133.798797,-2.0199951218535794,-1.7719240000000003,-0.9554732905867569,1.5671483648566957,-0.8914529071512307,-2.4615469127089247,0.0211961908497842,-0.1370000000000001,0.11612926579010195,0.0030245609977795976,0.08677440035597347,0.08683275394944648,5.791256089672187,3.2859710071422965,0.31709314492895546,0.002487271527951733,0.01784279465195977,0.2684826017919224
1750761133.8007982,-2.019952574755158,-1.7721990000000005,-0.9552401843963025,1.5671544360557788,-0.8912787249607357,-2.4613726133853033,0.021350907571315473,-0.1380000000000001,0.11697692466448226,0.0030466380853546313,0.08740779013959372,0.08746656967170521,5.790614543047507,3.2853901330047917,0.31709404174370664,0.0024865207781931097,0.017842794649997593,0.2683775689786517
1750761133.8027427,-2.0199097182232943,-1.7724760000000002,-0.9550053828880998,1.567160551409037,-0.8911032759906723,-2.4611970464302377,0.021505624292846744,-0.1390000000000001,0.11782458353886256,0.0030687151729296646,0.08804117992321396,0.08810038539396393,5.789968166690347,3.2848048575430537,0.3170949472873389,0.0024857639710566155,0.017842794648022617,0.26827176129477653
1750761133.804821,-2.0198665522579873,-1.772755,-0.9547688860621468,1.5671667109164704,-0.8909265602410423,-2.4610202118437274,0.021660341014378016,-0.1400000000000001,0.11867224241324287,0.0030907922605046983,0.08867456970683421,0.08873420111622267,5.789316957057653,3.284215176956319,0.3170958616076576,0.002485001093723048,0.017842794646036053,0.26816517853243665
1750761133.8067336,-2.019823076859236,-1.7730360000000003,-0.9545306939184464,1.567172914578079,-0.8907485777118449,-2.460842109625773,0.021815057735909287,-0.1410000000000001,0.11951990128762317,0.003112869348079732,0.08930795949045445,0.0893680168384814,5.788660910581541,3.2836210874179255,0.3170967847528073,0.002484232133286379,0.017842794644036375,0.2680578204833649
1750761133.8087254,-2.019779292027043,-1.7733190000000008,-0.9542908064569966,1.567179162393863,-0.8905693284030809,-2.4606627397763736,0.021969774457440562,-0.1420000000000001,0.12036756016200348,0.0031349464356547653,0.0899413492740747,0.09000183256074014,5.788000023669347,3.283022585075329,0.3170977167712707,0.0024834570767544835,0.017842794642025192,0.26794968693896676
1750761133.812748,-2.019735197761406,-1.7736040000000006,-0.9540492236777984,1.5671854543638217,-0.8903888123147485,-2.4604821022955297,0.022124491178971833,-0.1430000000000001,0.12121521903638378,0.003157023523229799,0.09057473905769493,0.09063564828299887,5.787334292703597,3.282419666050179,0.31709865771187046,0.0024826759110490103,0.01784279464000098,0.2678407776903222
1750761133.81312,-2.019735197761406,-1.7736040000000006,-0.9540492236777984,1.5671854543638217,-0.8903888123147485,-2.4604821022955297,0.022124491178971833,-0.1430000000000001,0.12121521903638378,0.003157023523229799,0.09057473905769493,0.09063564828299887,5.787334292703597,3.282419666050179,0.31709865771187046,0.0024826759110490103,0.01784279464000098,0.2678407776903222
1750761133.8149245,-2.0196907940623277,-1.7738910000000008,-0.953805945580851,1.5671917904879558,-0.8902070294468496,-2.4603001971832414,0.022279207900503105,-0.1440000000000001,0.12206287791076409,0.0031791006108048323,0.09120812884131518,0.09126946400525761,5.786663714042081,3.2818123264383026,0.3170996076237667,0.0024818886230055055,0.017842794637965346,0.2677310925282084
1750761133.8167171,-2.019646080929805,-1.7741800000000003,-0.9535609721661551,1.567198170766265,-0.8900239797993841,-2.460117024439509,0.022433924622034376,-0.1450000000000001,0.1229105367851444,0.003201177698379866,0.09184151862493543,0.09190327972751634,5.785988284017808,3.28120056230978,0.31710056655645896,0.002481095199373676,0.017842794635917158,0.2676206312431316
1750761133.818903,-2.0196010583638397,-1.7744710000000001,-0.9533143034337108,1.5672045951987492,-0.8898396633723502,-2.4599325840643314,0.022588641343565648,-0.1460000000000001,0.12375819565952471,0.0032232547859548997,0.09247490840855567,0.09253709544977508,5.785307998939064,3.280584369708946,0.3171015345597844,0.002480295626817343,0.017842794633856456,0.2675093936253481
1750761133.8207955,-2.0195557263644304,-1.7747640000000002,-0.9530659393835172,1.5672110637854086,-0.8896540801657498,-2.45974687605771,0.02274335806509692,-0.1470000000000001,0.12460585453390502,0.003245331873529933,0.09310829819217592,0.09317091117203381,5.784622855089425,3.2799637446544576,0.31710251168391773,0.0024794898919147626,0.01784279463178446,0.26739737946489195
1750761133.8228843,-2.0195100849315786,-1.7750590000000006,-0.9528158800155753,1.5672175765262435,-0.8894672301795818,-2.4595599004196433,0.02289807478662819,-0.1480000000000001,0.1254535134082853,0.0032674089611049667,0.09374168797579616,0.09380472689429255,5.783932848727768,3.279338683139297,0.31710349797937293,0.002478677981158731,0.017842794629699642,0.2672845885515989
1750761133.8246984,-2.0194641340652844,-1.7753560000000004,-0.952564125329884,1.567224133421253,-0.8892791134138465,-2.4593716571501325,0.023052791508159462,-0.1490000000000001,0.12630117228266563,0.0032894860486800005,0.0943750777594164,0.09443854261655128,5.7832379760882935,3.2787091811308358,0.31710449349700265,0.002477859880956542,0.017842794627603617,0.2671710206751342
1750761133.8268518,-2.019417873765546,-1.7756550000000004,-0.9523106753264443,1.5672307344704381,-0.8890897298685436,-2.4591821462491774,0.023207508229690733,-0.1500000000000001,0.12714883115704592,0.0033115631362550337,0.09500846754303666,0.09507235833881,5.782538233380531,3.278075234570858,0.3171054982879927,0.0024770355776303696,0.017842794625495248,0.26705667562501
1750761133.8287334,-2.019371304032365,-1.7759560000000008,-0.9520555300052562,1.5672373796737982,-0.8888990795436742,-2.458991367716777,0.023362224951222005,-0.1510000000000001,0.12799649003142624,0.0033336402238300675,0.09564185732665689,0.09570617406106874,5.7818336167893785,3.277436839375589,0.3171065124038729,0.0024762050574174644,0.017842794623374587,0.2669415531906444
1750761133.830734,-2.019324424865742,-1.7762590000000005,-0.9517986893663188,1.5672440690313334,-0.8887071624392373,-2.458799321552933,0.023516941672753276,-0.1520000000000001,0.12884414890580653,0.003355717311405101,0.09627524711027714,0.09633998978332747,5.781124122475104,3.276793991435741,0.31710753589650365,0.0024753683064698425,0.01784279462124284,0.2668256531613242
1750761133.8327572,-2.0192772362656743,-1.7765640000000005,-0.951540153409633,1.5672508025430438,-0.888513978555233,-2.458606007757644,0.023671658394284548,-0.1530000000000001,0.12969180778018685,0.0033777943989801345,0.09690863689389738,0.09697380550558621,5.780409746573369,3.2761466866165625,0.3171085688180898,0.002474525310854954,0.017842794619098497,0.26670897532629534
1750761133.834717,-2.0192297382321645,-1.7768710000000008,-0.951279922135198,1.5672575802089292,-0.888319527891662,-2.4584114263309105,0.02382637511581582,-0.1540000000000001,0.13053946665456717,0.003399871486555168,0.09754202667751763,0.09760762122784494,5.779690485195251,3.2754949207578394,0.3171096112211664,0.0024736760565555954,0.017842794616943162,0.26659151947475596
1750761133.8367245,-2.0191819307652104,-1.7771800000000004,-0.9510179955430145,1.56726440202899,-0.8881238104485227,-2.4582155772727328,0.02398109183734709,-0.1550000000000001,0.13138712552894746,0.003421948574130202,0.09817541646113788,0.09824143695010368,5.778966334427255,3.2748386896739774,0.3171106631586084,0.002472820529470061,0.017842794614775708,0.26647328539589266
1750761133.8387516,-2.0191338138648147,-1.7774910000000004,-0.9507543736330817,1.567271268003226,-0.8879268262258169,-2.4580184605831104,0.024135808558878362,-0.1560000000000001,0.13223478440332778,0.003444025661705235,0.09880880624475812,0.09887525267236241,5.778237290331348,3.2741779891539924,0.31711172468362986,0.0024719587154122774,0.01784279461259618,0.26635427287890473
1750761133.8424811,-2.0191338138648147,-1.7774910000000004,-0.9507543736330817,1.567271268003226,-0.8879268262258169,-2.4580184605831104,0.024135808558878362,-0.1560000000000001,0.13223478440332778,0.003444025661705235,0.09880880624475812,0.09887525267236241,5.778237290331348,3.2741779891539924,0.31711172468362986,0.0024719587154122774,0.01784279461259618,0.26635427287890473
1750761133.8441477,-2.0191338138648147,-1.7774910000000004,-0.9507543736330817,1.567271268003226,-0.8879268262258169,-2.4580184605831104,0.024135808558878362,-0.1560000000000001,0.13223478440332778,0.003444025661705235,0.09880880624475812,0.09887525267236241,5.778237290331348,3.2741779891539924,0.31711172468362986,0.0024719587154122774,0.01784279461259618,0.26635427287890473
1750761133.8447855,-2.0190366517636935,-1.7781190000000002,-0.9502220438599709,1.567285132414223,-0.8875290574417036,-2.457620424309532,0.024445242001940905,-0.1580000000000001,0.1339301021520884,0.0034881798368553026,0.1000755858119986,0.10014288411687988,5.7767645062809825,3.2728431628351817,0.31711387671093355,0.002470216169215197,0.01784279460820304,0.2661139116875847
1750761133.8468752,-2.018987606562968,-1.778436000000001,-0.9499533359967929,1.5672921308509842,-0.8873282728802963,-2.457419504725576,0.024599958723472176,-0.1590000000000001,0.13477776102646868,0.003510256924430336,0.10070897559561885,0.10077669983913862,5.776020758327862,3.2721690284879195,0.31711496732132066,0.002469335408283508,0.01784279460598952,0.26599256259196663
1750761133.8486826,-2.018938251928799,-1.7787550000000003,-0.9496829328158656,1.5672991734419206,-0.8871262215393205,-2.457217317510175,0.024754675445003448,-0.16000000000000011,0.135625419900849,0.0035323340120053696,0.1013423653792391,0.10141051556139734,5.775272101049559,3.271490407607761,0.3171160677354977,0.002468448302795179,0.017842794603764107,0.26587043421570056
1750761133.8508663,-2.0188885878611877,-1.7790760000000008,-0.949410834317189,1.5673062601870322,-0.8869229034187791,-2.45701386266333,0.02490939216653472,-0.16100000000000012,0.1364730787752293,0.003554411099580403,0.10197575516285934,0.10204433128365607,5.774518530385565,3.2708072958574634,0.31711717800835354,0.0024675548381449075,0.01784279460152685,0.26574752634848614
1750761133.8526945,-2.0188885878611877,-1.7790760000000008,-0.949410834317189,1.5673062601870322,-0.8869229034187791,-2.45701386266333,0.02490939216653472,-0.16100000000000012,0.1364730787752293,0.003554411099580403,0.10197575516285934,0.10204433128365607,5.774518530385565,3.2708072958574634,0.31711717800835354,0.0024675548381449075,0.01784279460152685,0.26574752634848614
1750761133.8548305,-2.018838614360133,-1.7793990000000006,-0.949137040500764,1.567313391086319,-0.8867183185186693,-2.4568091401850407,0.02506410888806599,-0.16200000000000012,0.13732073764960961,0.0035764881871554366,0.10260914494647959,0.10267814700591481,5.773760042250955,3.2701196888746744,0.31711829819511994,0.002466654999643794,0.01784279459927897,0.26562383878016455
1750761133.856733,-2.018788331425636,-1.7797240000000007,-0.9488615513665906,1.5673205661397809,-0.886512466838993,-2.4566031500753063,0.025218825609597265,-0.16300000000000012,0.1381683965239899,0.0035985652747304703,0.10324253473009982,0.10331196272817354,5.772996632536388,3.2694275822719265,0.3171194283513572,0.0024657487725197784,0.017842794597018947,0.2654993713008104
1750761133.8588245,-2.018737739057695,-1.7800510000000003,-0.9485843669146687,1.567327785347418,-0.8863053483797492,-2.456395892334128,0.025373542331128537,-0.16400000000000012,0.13901605539837023,0.0036206423623055036,0.10387592451372007,0.10394577845043228,5.772228297108119,3.268730971636713,0.3171205685329679,0.0024648361419177364,0.017842794594748395,0.2653741237007297
1750761133.8606496,-2.018686837256311,-1.780380000000001,-0.9483054871449976,1.5673350487092301,-0.8860969631409379,-2.4561873669615046,0.025528259052659808,-0.16500000000000012,0.13986371427275052,0.0036427194498805373,0.10450931429734032,0.10457959417269101,5.771455031808051,3.2680298525314915,0.3171217187961825,0.0024639170928996298,0.01784279459246619,0.2652480957704917
1750761133.863674,-2.018635626021484,-1.7807110000000002,-0.9480249120575772,1.5673423562252176,-0.88588731112256,-2.455977573957437,0.02568297577419108,-0.16600000000000012,0.14071137314713084,0.003664796537455571,0.10514270408096056,0.10521340989494975,5.770676832453732,3.2673242204937707,0.3171228791975746,0.00246299161044458,0.017842794590172375,0.2651212873009627
1750761133.8648381,-2.0185841053532148,-1.7810440000000005,-0.9477426416524093,1.56734970789538,-0.8856763923246138,-2.455766513321925,0.02583769249572235,-0.16700000000000012,0.14155903202151116,0.0036868736250306043,0.10577609386458081,0.10584722561720848,5.769893694838363,3.26661407103609,0.31712404979404435,0.0024620596794491163,0.01784279458786818,0.26499369808332873
1750761133.8666747,-2.018532275251501,-1.7813790000000003,-0.9474586759294912,1.5673571037197176,-0.8854642067471019,-2.455554185054968,0.025992409217253622,-0.16800000000000012,0.14240669089589145,0.003708950712605638,0.10640948364820105,0.10648104133946722,5.769105614730849,3.265899399646129,0.31712523064283143,0.0024611212847274,0.017842794585552078,0.26486532790913203
1750761133.8686879,-2.018480135716345,-1.7817160000000003,-0.9471730148888255,1.5673645436982304,-0.8852507543900217,-2.455340589156567,0.026147125938784894,-0.16900000000000012,0.14325434977027177,0.0037310278001806718,0.1070428734318213,0.10711485706172595,5.768312587875808,3.2651802017866904,0.31712642180151096,0.002460176411011219,0.01784279458322569,0.2647361765702949
1750761133.8707705,-2.0184276867477458,-1.7820550000000006,-0.9468856585304106,1.5673720278309182,-0.8850360352533739,-2.455125725626721,0.026301842660316165,-0.17000000000000012,0.14410200864465206,0.003753104887755705,0.10767626321544153,0.10774867278398469,5.767514609993584,3.2644564728957715,0.31712762332798655,0.0024592250429502694,0.0178427945808875,0.2646062438591498
1750761133.8727202,-2.018374928345704,-1.7823960000000003,-0.9465966068542464,1.5673795561177815,-0.8848200493371596,-2.454909594465431,0.026456559381847437,-0.17100000000000012,0.14494966751903238,0.0037751819753307388,0.10830965299906178,0.10838248850624341,5.766711676780276,3.2637282083866,0.31712883528050334,0.002458267165112341,0.017842794578539118,0.2644755295684674
1750761133.8747866,-2.018321860510218,-1.7827390000000003,-0.9463058598603347,1.5673871285588197,-0.8846027966413779,-2.4546921956726964,0.026611276103378708,-0.17200000000000013,0.14579732639341267,0.0037972590629057725,0.10894304278268203,0.10901630422850214,5.765903783907751,3.262995403647681,0.317130057717633,0.002457302761983492,0.017842794576179426,0.2643440334915121
1750761133.8766677,-2.0182684832412905,-1.7830840000000006,-0.9460134175486727,1.567394745154033,-0.8843842771660286,-2.454473529248517,0.02676599282490998,-0.17300000000000013,0.146644985267793,0.0038193361504808058,0.10957643256630227,0.10965011995076088,5.765090927023694,3.2622580540428174,0.3171312906982876,0.002456331817967972,0.01784279457380847,0.26421175542201336
1750761133.8788035,-2.0182147965389188,-1.7834310000000002,-0.9457192799192633,1.5674024059034215,-0.8841644909111128,-2.454253595192893,0.02692070954644125,-0.17400000000000013,0.14749264414217328,0.0038414132380558395,0.11020982234992252,0.11028393567301961,5.76427310175158,3.261516154911189,0.31713253428170596,0.0024553543173887874,0.01784279457142748,0.26407869515425697
1750761133.8806317,-2.0181608004031046,-1.7837800000000001,-0.9454234469721046,1.5674101108069853,-0.8839434378766295,-2.454032393505825,0.027075426267972522,-0.17500000000000013,0.1483403030165536,0.0038634903256308728,0.11084321213354276,0.11091775139527835,5.763450303690743,3.2607697015673534,0.3171337885274671,0.0024543702444875903,0.017842794569034932,0.26394485248308436
1750761133.882652,-2.018106494833847,-1.7841310000000004,-0.9451259187071965,1.5674178598647242,-0.8837211180625788,-2.453809924187312,0.027230142989503794,-0.17600000000000013,0.1491879618909339,0.0038855674132059065,0.111476601917163,0.11155156711753708,5.762622528416369,3.2600186893013237,0.31713505349547605,0.002453379583424972,0.01784279456663245,0.2638102272039298
1750761133.8846714,-2.0180518798311464,-1.7844840000000008,-0.9448266951245401,1.5674256530766382,-0.8834975314689606,-2.453586187237355,0.027384859711035065,-0.17700000000000013,0.1500356207653142,0.00390764450078094,0.11210999170078326,0.11218538283979582,5.761789771479536,3.259263113378594,0.3171363292459778,0.0024523823182805615,0.01784279456421891,0.2636748191128537
1750761133.8868704,-2.0179969553950023,-1.7848390000000007,-0.9445257762241352,1.5674334904427272,-0.8832726780957758,-2.453361182655953,0.027539576432566337,-0.17800000000000013,0.1508832796396945,0.003929721588355974,0.1127433814844035,0.11281919856205455,5.760952028407222,3.258502969040188,0.3171376158395429,0.002451378433053261,0.01784279456179436,0.26353862800656686
1750761133.8931284,-2.017941721525416,-1.785196000000001,-0.944223162005982,1.5674413719629916,-0.8830465579430227,-2.4531349104431066,0.027694293154097608,-0.17900000000000013,0.15173093851407482,0.003951798675931008,0.11337677126802374,0.11345301428431329,5.760109294702336,3.257738251502694,0.3171389133370814,0.0024503679116614375,0.017842794559360026,0.2634016536824706
1750761133.8934271,-2.017886178222387,-1.7855550000000004,-0.9439188524700795,1.567449297637431,-0.8828191710107038,-2.452907370598816,0.02784900987562888,-0.18000000000000013,0.1525785973884551,0.0039738757635060405,0.11401016105164398,0.11408683000657202,5.759261565843744,3.256968955958328,0.3171402217998289,0.0024493507379429727,0.0178427945569144,0.26326389593868105
1750761133.894849,-2.017830325485914,-1.7859160000000003,-0.9436128476164276,1.5674572674660456,-0.8825905172988167,-2.4526785631230803,0.02800372659716015,-0.18100000000000013,0.15342625626283543,0.003995952851081074,0.11464355083526423,0.11472064572883074,5.75840883728627,3.256195077574964,0.31714154128935956,0.002448326895655632,0.017842794554459095,0.2631253545740584
1750761133.8968027,-2.0177741633159982,-1.7862790000000004,-0.9433051474450282,1.5674652814488352,-0.882360596807362,-2.4524484880159005,0.028158443318691422,-0.18200000000000013,0.15427391513721575,0.004018029938656108,0.11527694061888448,0.11535446145108948,5.7575511044607515,3.2554166114961673,0.3171428718675731,0.0024472963684771597,0.017842794551992988,0.2629860293882675
1750761133.8989108,-2.0177176917126385,-1.7866440000000008,-0.9429957519558787,1.5674733395858,-0.8821294095363408,-2.452217145277276,0.028313160040222694,-0.18300000000000013,0.15512157401159604,0.004040107026231142,0.11591033040250472,0.11598827717334821,5.75668836277404,3.254633552841279,0.3171442135967045,0.002446259140005287,0.01784279454951614,0.26284592018175
1750761133.9007025,-2.017660910675837,-1.7870110000000006,-0.9426846611489816,1.5674814418769403,-0.8818969554857521,-2.451984534907207,0.02846787676175397,-0.18400000000000014,0.15596923288597636,0.004062184113806175,0.11654372018612497,0.11662209289560695,5.755820607609037,3.2538458967054096,0.3171455665393217,0.002445215193758242,0.01784279454702977,0.2627050267558163
1750761133.9029508,-2.0176038202055917,-1.7873800000000006,-0.9423718750243353,1.5674895883222553,-0.8816632346555959,-2.4517506569056935,0.02862259348328524,-0.18500000000000014,0.15681689176035665,0.004084261201381208,0.1171771099697452,0.11725590861786568,5.754947834324689,3.2530536381595283,0.31714693075831824,0.0024441645131746143,0.017842794544532373,0.26256334891264976
1750761133.9047813,-2.017546420301904,-1.787751,-0.9420573935819405,1.5674977789217457,-0.8814282470458732,-2.4515155112727354,0.02877731020481651,-0.18600000000000014,0.15766455063473697,0.004106338288956242,0.11781049975336545,0.11788972434012442,5.754070038256067,3.252256772250488,0.31714830631692587,0.0024431070816139,0.017842794542025565,0.26242088645534206
1750761133.9070058,-2.0174887109647726,-1.7881240000000007,-0.9417412168217965,1.567506013675411,-0.881191992656583,-2.451279098008333,0.028932026926347783,-0.18700000000000014,0.15851220950911726,0.004128415376531276,0.1184438895369857,0.11852354006238315,5.753187214714323,3.2514552940010635,0.3171496932786992,0.0024420428823562317,0.017842794539508225,0.26227763918792785
1750761133.910367,-2.017430692194198,-1.7884990000000007,-0.941423344743904,1.567514292583252,-0.8809544714877253,-2.451041417112486,0.029086743647879054,-0.18800000000000014,0.15935986838349758,0.004150492464106309,0.11907727932060594,0.11915735578464189,5.752299358986771,3.250649198410021,0.3171510917075313,0.0024409718986029842,0.01784279453698041,0.26213360691541676
1750761133.91072,-2.017372363990181,-1.7888760000000001,-0.9411037773482622,1.5675226156452675,-0.8807156835393002,-2.4508024685851946,0.029241460369410326,-0.18900000000000014,0.16020752725787787,0.004172569551681343,0.11971066910422619,0.11979117150690062,5.751406466336879,3.2498384804521465,0.3171525016676384,0.002439894113476668,0.017842794534443346,0.2619887894438275
1750761133.9129052,-2.0173137263527208,-1.7892550000000007,-0.9407825146348721,1.5675309828614585,-0.8804756288113085,-2.4505622524264585,0.029396177090941597,-0.19000000000000014,0.1610551861322582,0.004194646639256377,0.12034405888784643,0.12042498722915936,5.750508532004297,3.2490231350783016,0.3171539232235736,0.0024388095100213465,0.017842794531895526,0.2618431865802224
1750761133.9147005,-2.017254779281817,-1.7896360000000007,-0.9404595566037335,1.5675393942318248,-0.8802343073037493,-2.450320768636278,0.02955089381247287,-0.19100000000000014,0.16190284500663848,0.00421672372683141,0.12097744867146668,0.12105880295141809,5.749605551204885,3.2482031572154653,0.31715535644021275,0.0024377180712026195,0.017842794529338568,0.26169679813273494
1750761133.9168713,-2.017195522777471,-1.790019000000001,-0.9401349032548456,1.567547849756366,-0.8799917190166227,-2.450078017214653,0.02970561053400414,-0.19200000000000014,0.1627505038810188,0.004238800814406443,0.12161083845508693,0.12169261867367681,5.748697519130753,3.2473785417667806,0.31715680138276875,0.002436619779907966,0.017842794526771354,0.26154962391060504
1750761133.9189155,-2.017135956839681,-1.7904040000000006,-0.9398085545882093,1.5675563494350824,-0.8797478639499285,-2.449833998161583,0.02986032725553541,-0.19300000000000014,0.1635981627553991,0.004260877901981477,0.12224422823870716,0.12232643439593555,5.747784430950252,3.246549283611619,0.3171582581167768,0.00243551461894696,0.01784279452419394,0.261401663724239
1750761133.9207745,-2.017076081468449,-1.7907910000000005,-0.9394805106038238,1.5675648932679738,-0.8795027421036679,-2.449588711477069,0.030015043977066683,-0.19400000000000014,0.16444582162977942,0.004282954989556511,0.12287761802232741,0.12296025011819428,5.746866281808034,3.2457153776055936,0.317159726708108,0.002434402571051158,0.017842794521607558,0.26125291738518164
1750761133.9227977,-2.0170158966637732,-1.7911800000000007,-0.9391507713016898,1.5675734812550406,-0.8792563534778397,-2.4493421571611105,0.030169760698597954,-0.19500000000000015,0.16529348050415973,0.0043050320771315445,0.12351100780594765,0.12359406584045302,5.745943066825045,3.2448768185806465,0.3171612072229565,0.002433283618874753,0.017842794519010698,0.2611033847062147
1750761133.9246209,-2.016955402425655,-1.7915710000000002,-0.9388193366818074,1.5675821133962824,-0.8790086980724441,-2.449094335213707,0.030324477420129226,-0.19600000000000015,0.16614113937854003,0.004327109164706578,0.1241443975895679,0.12422788156271175,5.745014781098581,3.244033601345075,0.31716269972784794,0.0024321577449944163,0.01784279451640498,0.2609530655013581
1750761133.9268026,-2.0168945987540923,-1.7919640000000001,-0.9384862067441757,1.5675907896916994,-0.878759775887481,-2.4488452456348595,0.030479194141660497,-0.19700000000000015,0.16698879825292035,0.004349186252281611,0.12477778737318813,0.12486169728497049,5.744081419702285,3.2431857206835804,0.3171642042896388,0.0024310249319096497,0.017842794513788902,0.26080195958591146
1750761133.9287283,-2.0168334856490873,-1.7923590000000003,-0.9381513814887956,1.5675995101412914,-0.8785095869229513,-2.448594888424567,0.03063391086319177,-0.19800000000000015,0.16783645712730064,0.004371263339856645,0.12541117715680838,0.12549551300722922,5.743142977686196,3.242333171357322,0.3171657209755076,0.0024298851620430167,0.01784279451116408,0.2606500667764904
1750761133.9306974,-2.01677206311064,-1.7927560000000007,-0.9378148609156671,1.5676082747450588,-0.8782581311788542,-2.4483432635828306,0.03078862758472304,-0.19900000000000015,0.16868411600168096,0.0043933404274316785,0.12604456694042862,0.12612932872948796,5.742199450076771,3.241475948103976,0.3171672498529684,0.0024287384177401885,0.01784279450852901,0.26049738689105784
1750761133.9327004,-2.016710331138749,-1.7931550000000005,-0.9374766450247893,1.5676170835030012,-0.8780054086551896,-2.4480903711096493,0.03094334430625431,-0.20000000000000015,0.16953177487606125,0.004415417515006712,0.12667795672404888,0.1267631444517467,5.741250831876882,3.240614045637764,0.31716879098985556,0.0024275846812702616,0.017842794505885703,0.26034391974896265
1750761133.934644,-2.016648289733415,-1.7935560000000006,-0.9371367338161622,1.5676259364151188,-0.8777514193519576,-2.447836211005024,0.031098061027785583,-0.20100000000000015,0.17037943375044157,0.004437494602581746,0.12731134650766912,0.12739696017400542,5.740297118065885,3.239747458649529,0.3171703444543383,0.0024264239348259645,0.017842794503231483,0.2601896651709735
1750761133.940819,-2.0165859388946377,-1.793959000000001,-0.9367951272897876,1.5676348334814114,-0.8774961632691589,-2.4475807832689536,0.031252777749316854,-0.20200000000000015,0.17122709262482186,0.004459571690156779,0.12794473629128936,0.12803077589626416,5.739338303599609,3.238876181806753,0.31717191031490505,0.002425256160523776,0.017842794500568755,0.2600346229793138
1750761133.941236,-2.016523278622417,-1.7943640000000007,-0.9364518254456629,1.5676437747018794,-0.8772396404067928,-2.4473240879014386,0.031407494470848125,-0.20300000000000015,0.17207475149920218,0.0044816487777318125,0.12857812607490962,0.1286645916185229,5.738374383410422,3.2380002097536416,0.31717348864038,0.002424081340404334,0.017842794497897572,0.2598787929976965
1750761133.9428189,-2.016460308916754,-1.7947710000000008,-0.9361068282837905,1.5676527600765224,-0.8769818507648592,-2.4470661249024794,0.0315622111923794,-0.20400000000000015,0.17292241037358247,0.004503725865306846,0.12921151585852986,0.12929840734078163,5.737405352407212,3.237119537111151,0.3171750794999055,0.002422899456432277,0.017842794495215655,0.25972217505136463
1750761133.9448383,-2.0163970297776483,-1.7951800000000002,-0.935760135804169,1.5676617896053406,-0.8767227943433582,-2.4468068942720755,0.03171692791391067,-0.20500000000000015,0.1737700692479628,0.00452580295288188,0.1298449056421501,0.12993222306304036,5.736431205475454,3.236234158477052,0.3171766829629584,0.0024217104904968216,0.017842794492525408,0.25956476896712155
1750761133.9466965,-2.0163334412050986,-1.7955910000000008,-0.935411748006798,1.567670863288334,-0.8764624711422906,-2.446546396010227,0.03187164463544194,-0.20600000000000016,0.17461772812234308,0.004547880040456914,0.13047829542577033,0.1305660387852991,5.735451937477194,3.235344068425972,0.3171782990993344,0.0024205144244117734,0.017842794489826102,0.2594065745733685
1750761133.9489543,-2.0162695431991065,-1.7960040000000008,-0.9350616648916796,1.5676799811255024,-0.8762008811616555,-2.446284630116934,0.03202636135697321,-0.20700000000000016,0.1754653869967234,0.004569957128031947,0.1311116852093906,0.1311998545075578,5.734467543251138,3.234449261509461,0.31717992797916233,0.002419311239915672,0.017842794487118587,0.2592475917001333
1750761133.9507275,-2.016205335759671,-1.7964190000000002,-0.9347098864588119,1.567689143116846,-0.875938024401453,-2.446021596592197,0.03218107807850448,-0.20800000000000016,0.1763130458711037,0.00459203421560698,0.13174507499301083,0.13183367022981654,5.733478017612611,3.233549732256028,0.3171815696728897,0.0024181009186725025,0.01784279448440057,0.2590878201791622
1750761133.952755,-2.016140818886792,-1.7968360000000008,-0.9343564127081949,1.5676983492623648,-0.875673900861683,-2.445757295436015,0.032335794800035754,-0.20900000000000016,0.177160704745484,0.004614111303182014,0.13237846477663107,0.13246748595207528,5.732483355353623,3.232645475171194,0.3171832242512963,0.0024168834422710244,0.017842794481674466,0.25892725984383597
1750761133.954648,-2.01607599258047,-1.7972550000000007,-0.9340012436398295,1.5677075995620589,-0.8754085105423464,-2.4454917266483887,0.032490511521567025,-0.21000000000000016,0.17800836361986433,0.004636188390757048,0.13301185456025133,0.133101301674334,5.731483551242901,3.231736484737566,0.3171848917854813,0.002415658792225714,0.01784279447894033,0.25876591052933273
1750761133.9567661,-2.0160108568407065,-1.797676000000001,-0.9336443792537157,1.5677168940159278,-0.8751418534434423,-2.4452248902293174,0.0326452282430983,-0.21100000000000016,0.17885602249424462,0.004658265478332081,0.13364524434387157,0.13373511739659275,5.730478600025905,3.2308227554148576,0.31718657234687136,0.00241442694997673,0.01784279447619588,0.258603772072598
1750761133.9604478,-2.0159454116674986,-1.7980990000000006,-0.9332858195498526,1.5677262326239723,-0.8748739295649708,-2.4449567861788024,0.03279994496462957,-0.21200000000000016,0.17970368136862494,0.004680342565907115,0.1342786341274918,0.13436893311885148,5.729468496424834,3.2299042816399783,0.31718826600722066,0.00241318789689017,0.017842794473443523,0.2584408443123996
1750761133.9608574,-2.0158796570608475,-1.7985240000000005,-0.932925564528241,1.5677356153861914,-0.8746047389069327,-2.4446874144968422,0.03295466168616084,-0.21300000000000016,0.18055134024300523,0.004702419653482149,0.13491202391111204,0.13500274884111022,5.728453235138699,3.228981057827052,0.31718997283860123,0.002411941614258171,0.017842794470682533,0.2582771270893615
1750761133.9629164,-2.015813593020754,-1.7989510000000006,-0.9325636141888811,1.567745042302586,-0.8743342814693262,-2.444416775183438,0.03310937840769211,-0.21400000000000016,0.18139899911738555,0.004724496741057182,0.1355454136947323,0.13563656456336895,5.72743281084332,3.228053078367489,0.3171916929134158,0.0024106880832993017,0.017842794467913765,0.25811262024600307
1750761133.9647708,-2.015747219547217,-1.799380000000001,-0.9321999685317719,1.5677545133731559,-0.8740625572521532,-2.4441448682385887,0.03326409512922338,-0.21500000000000016,0.18224665799176584,0.004746573828632215,0.13617880347835254,0.13627038028562768,5.726407218191361,3.2271203376300424,0.3171934263043856,0.002409427285158728,0.017842794465134926,0.25794732362677647
1750761133.9668424,-2.015680536640237,-1.799811,-0.9318346275569134,1.5677640285979006,-0.8737895662554127,-2.4438716936622953,0.03341881185075466,-0.21600000000000016,0.18309431686614616,0.004768650916207249,0.13681219326197278,0.13690419600788642,5.725376451812371,3.2261828299608677,0.31719517308456097,0.0024081592009082588,0.017842794462348432,0.2577812370781063
1750761133.9689972,-2.015680536640237,-1.799811,-0.9318346275569134,1.5677640285979006,-0.8737895662554127,-2.4438716936622953,0.03341881185075466,-0.21600000000000016,0.18309431686614616,0.004768650916207249,0.13681219326197278,0.13690419600788642,5.725376451812371,3.2261828299608677,0.31719517308456097,0.0024081592009082588,0.017842794462348432,0.2577812370781063
1750761133.971015,-2.015613544299814,-1.800244000000001,-0.9314675912643064,1.5677735879768206,-0.8735153084791056,-2.443597251454557,0.03357352857228593,-0.21700000000000016,0.18394197574052645,0.004790728003782283,0.13744558304559304,0.13753801173014515,5.724340506312772,3.2252405496835355,0.3171969333273086,0.0024068838115468404,0.01784279445955434,0.2576143604484247
1750761133.972863,-2.0155462425259483,-1.8006790000000006,-0.931098859653952,1.5677831915099159,-0.8732397839232311,-2.443321541615375,0.033728245293817204,-0.21800000000000017,0.18478963461490677,0.0048128050913573165,0.13807897282921328,0.1381718274524039,5.723299376275962,3.2242934910991563,0.3171987071063257,0.002405601098000623,0.01784279445675037,0.2574466935882111
1750761133.9747534,-2.015478631318638,-1.8011160000000004,-0.9307284327258474,1.567792839197186,-0.8729629925877891,-2.443044564144748,0.033882962015348475,-0.21900000000000017,0.18563729348928706,0.004834882178932349,0.1387123626128335,0.13880564317466262,5.7222530562622635,3.2233416484863806,0.3172004944956257,0.002404311041123171,0.01784279445393893,0.2572782363500341
1750761133.9768448,-2.0154107106778856,-1.8015550000000005,-0.9303563104799943,1.5678025310386314,-0.8726849344727796,-2.442766319042676,0.034037678736879746,-0.22000000000000017,0.18648495236366738,0.004856959266507383,0.13934575239645378,0.13943945889692136,5.721201540809014,3.2223850161014718,0.3172022955695503,0.002403013621695869,0.017842794451120088,0.2571089885885836
1750761133.9788651,-2.0153424806036906,-1.8019960000000008,-0.9299824929163929,1.567812267034252,-0.8724056095782027,-2.44248680630916,0.03419239545841102,-0.22100000000000017,0.18733261123804767,0.004879036354082417,0.139979142180074,0.1400732746191801,5.720144824430559,3.2214235881783617,0.31720411040275676,0.002401708820427855,0.017842794448291555,0.25693895016071616
1750761133.9808364,-2.015273941096053,-1.8024390000000006,-0.9296069800350422,1.5678220471840478,-0.8721250179040592,-2.4422060259441993,0.03434711217994229,-0.22200000000000017,0.188180270112428,0.0049011134416574505,0.14061253196369425,0.14070709034143883,5.719082901618298,3.2204573589287144,0.3172059390702318,0.0024003966179565045,0.01784279444545575,0.25676812092549056
1750761133.9828696,-2.0152050921549716,-1.8028840000000006,-0.929229771835943,1.5678318714880186,-0.8718431594503482,-2.441923977947794,0.03450182890147356,-0.22300000000000017,0.18902792898680829,0.004923190529232484,0.14124592174731448,0.14134090606369756,5.718015766840695,3.2194863225419725,0.317207781647276,0.002399076994847532,0.017842794442611946,0.2565965007442076
1750761133.9889178,-2.0151359337804466,-1.803331,-0.9288508683190946,1.5678417399461648,-0.8715600342170697,-2.4416406623199447,0.03465654562300483,-0.22400000000000017,0.1898755878611886,0.004945267616807518,0.14187931153093475,0.1419747217859563,5.716943414543349,3.218510473185424,0.3172096382095188,0.0023977499315953068,0.017842794439760997,0.25642408948045026
1750761133.989308,-2.0149966887310686,-1.8042310000000006,-0.9280879753321525,1.5678616093249822,-0.8709899834118113,-2.4410702281699117,0.034965979066067375,-0.22600000000000017,0.19157090560994922,0.0049894217919575845,0.14314609109817522,0.14324235323047377,5.714783035057488,3.2165443121215396,0.3172133935936981,0.0023950734062827524,0.017842794434033235,0.2560768931714931
1750761133.990776,-2.0149266020562155,-1.8046840000000008,-0.9277039858620579,1.5678716102456538,-0.8707030578398314,-2.4407831096477284,0.035120695787598646,-0.22700000000000017,0.19241856448432954,0.005011498879532618,0.14377948088179549,0.1438761689527325,5.7136949966459705,3.215553988638484,0.31721529256849273,0.0023937239048562628,0.017842794431158892,0.255902107865228
1750761133.99298,-2.0148562059479183,-1.8051390000000005,-0.927318301074215,1.5678816553205004,-0.8704148654882848,-2.440494723494101,0.03527541250912992,-0.22800000000000017,0.19326622335870983,0.005033575967107652,0.14441287066541572,0.1445099846749912,5.712601718268746,3.214558828634279,0.31721720583419116,0.0023923668845544656,0.01784279442827532,0.2557265309544232
1750761133.9948347,-2.0147855004061785,-1.8055960000000004,-0.9269309209686236,1.5678917445495222,-0.87012540635717,-2.4402050697090285,0.03543012923066119,-0.22900000000000018,0.19411388223309015,0.005055653054682686,0.14504626044903596,0.14514380039724994,5.711503194257417,3.213558826166263,0.31721913346802477,0.0023910023255185524,0.01784279442538493,0.2555501623147096
1750761133.9968247,-2.0147144854309955,-1.8060550000000006,-0.926541845545283,1.5679018779327192,-0.8698346804464885,-2.4399141482925115,0.03558484595219246,-0.23000000000000018,0.19496154110747044,0.0050777301422577185,0.14567965023265622,0.14577761611950868,5.710399418920858,3.2125539752699583,0.317221075547537,0.002389630207819117,0.017842794422487793,0.2553730018241631
1750761133.9986947,-2.01464316102237,-1.8065160000000002,-0.9261510748041939,1.5679120554700912,-0.8695426877562396,-2.4396219592445503,0.03573956267372373,-0.23100000000000018,0.19580919998185076,0.005099807229832752,0.14631304001627646,0.14641143184176741,5.709290386545288,3.2115442699591403,0.31722303215059694,0.0023882505114574872,0.017842794419581625,0.25519504936347565
1750761134.0007162,-2.0145715271803004,-1.8069790000000001,-0.9257586087453555,1.5679222771616386,-0.8692494282864232,-2.4393285025651448,0.035894279395255003,-0.23200000000000018,0.19665685885623105,0.005121884317407786,0.1469464297998967,0.14704524756402615,5.708176091394261,3.210529704225881,0.31722500335538684,0.0023868632163653,0.017842794416668844,0.2550163048159282
1750761134.0026658,-2.0144995839047883,-1.8074440000000003,-0.9253644473687688,1.567932543007361,-0.8689549020370402,-2.439033778254294,0.036048996116786275,-0.23300000000000018,0.19750451773061137,0.00514396140498282,0.14757981958351693,0.14767906328628488,5.707056527708738,3.2095102720406192,0.3172269892404128,0.0023854683024049756,0.01784279441374873,0.2548367680674506
1750761134.006374,-2.014427331195833,-1.8079110000000007,-0.9249685906744336,1.5679428530072583,-0.8686591090080888,-2.4387377863119997,0.036203712838317546,-0.23400000000000018,0.19835217660499166,0.005166038492557853,0.1482132093671372,0.14831287900854362,5.705931689707083,3.208485967352212,0.3172289898844931,0.0023840657493699375,0.017842794410822132,0.25465643900665746
1750761134.0067575,-2.014354769053435,-1.8083800000000005,-0.9245710386623491,1.5679532071613311,-0.8683620491995709,-2.43844052673826,0.03635842955984882,-0.23500000000000018,0.19919983547937198,0.005188115580132887,0.14884659915075743,0.14894669473080235,5.704801571585133,3.2074567840880133,0.31723100536677085,0.0023826555369848854,0.01784279440788678,0.25447531752489333
1750761134.00881,-2.014281897477594,-1.8088510000000007,-0.9241717913325154,1.567963605469579,-0.8680637226114865,-2.438141999533076,0.03651314628138009,-0.23600000000000018,0.20004749435375227,0.00521019266770792,0.14947998893437767,0.1495805104530611,5.703666167516188,3.2064227161539107,0.3172330357666997,0.0023812376449059112,0.017842794404945083,0.2542934035162724
1750761134.0106456,-2.0142087164683096,-1.8093240000000002,-0.9237708486849341,1.567974047932002,-0.8677641292438336,-2.437842204696448,0.03666786300291136,-0.23700000000000018,0.2008951532281326,0.005232269755282954,0.15011337871799793,0.15021432617531982,5.7025254716510725,3.2053837574343995,0.3172350811640569,0.002379812052720998,0.01784279440199711,0.254110696877721
1750761134.0126784,-2.014135226025582,-1.8097990000000008,-0.9233682107196035,1.5679845345486,-0.8674632690966142,-2.437541142228375,0.03682257972444263,-0.23800000000000018,0.2017428121025129,0.005254346842857987,0.15074676850161817,0.15084814189757856,5.70137947811816,3.2043399017926415,0.3172371416389313,0.0023783787399499446,0.017842794399040587,0.25392719750901954
1750761134.0146835,-2.0140614261494125,-1.810276,-0.9229638774365236,1.5679950653193733,-0.8671611421698273,-2.4372388121288577,0.0369772964459739,-0.23900000000000018,0.2025904709768932,0.005276423930433021,0.1513801582852384,0.1514819576198373,5.700228181023418,3.2032911430705235,0.31723921727173043,0.0023769376860448806,0.01784279439607793,0.253742905312846
1750761134.0169075,-2.013987316839799,-1.8107550000000003,-0.9225578488356954,1.5680056402443219,-0.866857748463473,-2.4369352143978955,0.037132013167505175,-0.24000000000000019,0.20343812985127352,0.005298501018008055,0.15201354806885864,0.15211577334209603,5.699071574450399,3.2022374750887272,0.3172413081431806,0.002375488870390445,0.017842794393108423,0.2535578201948158
1750761134.0188496,-2.0139128980967413,-1.811236000000001,-0.9221501249171187,1.5680162593234455,-0.866553087977552,-2.436630349035489,0.037286729889036446,-0.2410000000000002,0.2042857887256538,0.0053205781055830886,0.1526469378524789,0.15274958906435476,5.697909652460327,3.201178891646785,0.3172434143343183,0.0023740322723039588,0.017842794390132918,0.2533719420635266
1750761134.020883,-2.013838169920243,-1.811719,-0.9217407056807927,1.568026922556744,-0.8662471607120636,-2.4363242160416383,0.03744144661056772,-0.2420000000000002,0.20513344760003413,0.005342655193158121,0.15328032763609914,0.1533834047866135,5.6967424090921135,3.200115386523134,0.3172455359265019,0.0023725678710357543,0.01784279438714914,0.25318527083060105
1750761134.0227454,-2.0137631323102996,-1.8122040000000004,-0.9213295911267183,1.568037629944218,-0.8659399666670078,-2.436016815416343,0.03759616333209899,-0.2430000000000002,0.20598110647441442,0.005364732280733155,0.15391371741971938,0.15401722050887223,5.695569838362352,3.1990469534752006,0.31724767300139906,0.002371095645769553,0.017842794384159512,0.2529978064107275
1750761134.0247042,-2.0136877852669137,-1.812691000000001,-0.9209167812548955,1.568048381485867,-0.8656315058423845,-2.4357081471596027,0.03775088005363026,-0.2440000000000002,0.20682876534879474,0.005386809368308189,0.15454710720333964,0.15465103623113097,5.694391934265421,3.1979735862394385,0.31724982564099774,0.002369615575622379,0.017842794381164095,0.2528095487217059
1750761134.0267146,-2.0136121287900846,-1.813180000000001,-0.9205022760653234,1.5680591771816912,-0.8653217782381937,-2.4353982112714183,0.03790559677516153,-0.2450000000000002,0.20767642422317503,0.005408886455883223,0.15518049698695988,0.1552848519533897,5.693208690773459,3.1968952785314104,0.3172519939275952,0.0023681276396451856,0.017842794378160616,0.25262049768448985
1750761134.0286717,-2.013536162879813,-1.8136710000000003,-0.9200860755580029,1.5680700170316906,-0.8650107838544363,-2.435087007751789,0.0380603134966928,-0.2460000000000002,0.20852408309755535,0.005430963543458256,0.1558138867705801,0.15591866767564844,5.692020101836435,3.195812024045847,0.317254177943808,0.0023666318168229193,0.0178427943751515,0.2524306532232307
1750761134.0342777,-2.013459887536099,-1.8141640000000008,-0.9196681797329331,1.5680809010358652,-0.8646985226911115,-2.4347745366007154,0.038215030218224075,-0.2470000000000002,0.20937174197193564,0.005453040631033289,0.15644727655420038,0.15655248339790717,5.690826161382158,3.1947238164566993,0.3172563777725612,0.002365128086074802,0.01784279437213681,0.2522400152653199
1750761134.0362034,-2.0133833027589407,-1.8146590000000007,-0.9192485885901149,1.5680918291942147,-0.8643849947482201,-2.4344607978181974,0.038369746939755346,-0.2480000000000002,0.21021940084631596,0.005475117718608323,0.1570806663378206,0.1571862991201659,5.689626863316322,3.1936306494172264,0.3172585934970989,0.002363616426254706,0.017842794369114276,0.25204858374143413
1750761134.0368867,-2.013306408548339,-1.8151560000000009,-0.9188273021295474,1.5681028015067395,-0.8640702000257603,-2.434145791404235,0.03852446366128662,-0.2490000000000002,0.21106705972069625,0.005497194806183357,0.15771405612144085,0.1578201148424246,5.688422201522547,3.192532516560031,0.3172608252009724,0.0023620968161511178,0.017842794366086316,0.25185635858556693
1750761134.0388055,-2.0132292049042952,-1.8156550000000005,-0.9184043203512324,1.5681138179734395,-0.863754138523734,-2.433829517358828,0.03867918038281789,-0.25000000000000017,0.21191471859507655,0.005519271893758389,0.15834744590506108,0.15845393056468335,5.687212169862414,3.1914294114971606,0.3172630729680514,0.0023605692344880664,0.017842794363052222,0.2516633397351353
1750761134.0408015,-2.013151691826808,-1.8161560000000003,-0.9179796432551672,1.5681248785943145,-0.8634368102421401,-2.4335119756819763,0.03883389710434916,-0.25100000000000017,0.21276237746945686,0.005541348981333423,0.15898083568868132,0.15908774628694208,5.685996762175472,3.190321327820112,0.31726533688251457,0.0023590336599244245,0.017842794360012067,0.251469527130897
