mathias31415/primitives_from_planned_trajectory_python/data/saved_trajectories/trajectory_20250624_124207_executed.csv
timestamp,shoulder_lift_joint_pos,elbow_joint_pos,wrist_1_joint_pos,wrist_2_joint_pos,wrist_3_joint_pos,shoulder_pan_joint_pos,shoulder_lift_joint_vel,elbow_joint_vel,wrist_1_joint_vel,wrist_2_joint_vel,wrist_3_joint_vel,shoulder_pan_joint_vel,shoulder_lift_joint_eff,elbow_joint_eff,wrist_1_joint_eff,wrist_2_joint_eff,wrist_3_joint_eff,shoulder_pan_joint_eff
1750761732.6116493,-2.0229019145270577,-1.7531210359339902,-0.9714578127173219,1.566711444286876,-0.9032431677439492,-2.4735194559046465,0.0,0.0,0.0,0.0,0.0,0.0,5.85667396406452,3.5183960678848347,0.29969238763016204,-0.0003370197393360158,0.0,-1.2073756010825764e-17
1750761732.6134534,-2.0229019145270577,-1.7531210359339902,-0.9714578127173219,1.566711444286876,-0.9032431677439492,-2.4735194559046465,0.0,0.0,0.0,0.0,0.0,0.0,5.85667396406452,3.5183960678848347,0.29969238763016204,-0.0003370197393360158,0.0,-1.2073756010825764e-17
1750761732.6139798,-2.0229019145270577,-1.7531210359339902,-0.9714578127173219,1.566711444286876,-0.9032431677439492,-2.4735194559046465,0.0,0.0,0.0,0.0,0.0,0.0,5.85667396406452,3.5183960678848347,0.29969238763016204,-0.0003370197393360158,0.0,-1.2073756010825764e-17
1750761732.6144538,-2.0229019145270577,-1.7531210359339902,-0.9714578127173219,1.566711444286876,-0.9032431677439492,-2.4735194559046465,0.0,0.0,0.0,0.0,0.0,0.0,5.85667396406452,3.5183960678848347,0.29969238763016204,-0.0003370197393360158,0.0,-1.2073756010825764e-17
1750761732.6149015,-2.0229019145270577,-1.7531210359339902,-0.9714578127173219,1.566711444286876,-0.9032431677439492,-2.4735194559046465,0.0,0.0,0.0,0.0,0.0,0.0,5.85667396406452,3.5183960678848347,0.29969238763016204,-0.0003370197393360158,0.0,-1.2073756010825764e-17
1750761732.6153722,-2.0229019145270577,-1.7531210359339902,-0.9714578127173219,1.566711444286876,-0.9032431677439492,-2.4735194559046465,0.0,0.0,0.0,0.0,0.0,0.0,5.85667396406452,3.5183960678848347,0.29969238763016204,-0.0003370197393360158,0.0,-1.2073756010825764e-17
1750761732.6169481,-2.0229019145270577,-1.7531210359339902,-0.9714578127173219,1.566711444286876,-0.9032431677439492,-2.4735194559046465,0.0,0.0,0.0,0.0,0.0,0.0,5.85667396406452,3.5183960678848347,0.29969238763016204,-0.0003370197393360158,0.0,-1.2073756010825764e-17
1750761732.6191833,-2.0229019145270577,-1.7531210359339902,-0.9714578127173219,1.566711444286876,-0.9032431677439492,-2.4735194559046465,0.0,0.0,0.0,0.0,0.0,0.0,5.85667396406452,3.5183960678848347,0.29969238763016204,-0.0003370197393360158,0.0,-1.2073756010825764e-17
1750761732.6209428,-2.0229019145270577,-1.7531210359339902,-0.9714578127173219,1.566711444286876,-0.9032431677439492,-2.4735194559046465,0.0,0.0,0.0,0.0,0.0,0.0,5.85667396406452,3.5183960678848347,0.29969238763016204,-0.0003370197393360158,0.0,-1.2073756010825764e-17
1750761732.6229732,-2.0229019145270577,-1.7531210359339902,-0.9714578127173219,1.566711444286876,-0.9032431677439492,-2.4735194559046465,0.0,0.0,0.0,0.0,0.0,0.0,5.85667396406452,3.5183960678848347,0.29969238763016204,-0.0003370197393360158,0.0,-1.2073756010825764e-17
1750761732.6249802,-2.0229019145270577,-1.7531210359339902,-0.9714578127173219,1.566711444286876,-0.9032431677439492,-2.4735194559046465,0.0,0.0,0.0,0.0,0.0,0.0,5.85667396406452,3.5183960678848347,0.29969238763016204,-0.0003370197393360158,0.0,-1.2073756010825764e-17
1750761732.6284797,-2.0229019145270577,-1.7531210359339902,-0.9714578127173219,1.566711444286876,-0.9032431677439492,-2.4735194559046465,0.0,0.0,0.0,0.0,0.0,0.0,5.85667396406452,3.5183960678848347,0.29969238763016204,-0.0003370197393360158,0.0,-1.2073756010825764e-17
1750761732.6291285,-2.0229019145270577,-1.7531210359339902,-0.9714578127173219,1.566711444286876,-0.9032431677439492,-2.4735194559046465,0.0,0.0,0.0,0.0,0.0,0.0,5.85667396406452,3.5183960678848347,0.29969238763016204,-0.0003370197393360158,0.0,-1.2073756010825764e-17
1750761732.6311827,-2.0229012956580767,-1.7531250359339898,-0.9714544215691863,1.566711532436565,-0.9032406347655053,-2.4735169199734193,0.0003094344906041139,-0.002,0.0016955740677747702,4.407484455515916e-05,0.0012664892217624448,0.0012679656135416023,5.834716978455656,3.325265447490157,0.31703689428835996,0.0025347465176838624,0.017838700367591245,0.2757036411480324
1750761732.6334536,-2.0229005220718506,-1.7531300359339905,-0.9714501826340172,1.5667116426236765,-0.9032374685424509,-2.473513750059386,0.00046415173590617085,-0.003,0.0025433611016621553,6.611226683273873e-05,0.0018997338326436674,0.0019019484203124032,5.834705518062175,3.325255106740957,0.31703690790375794,0.0025347335933142185,0.017838700367551894,0.2757017459505992
1750761732.6350946,-2.022899439051133,-1.7531370359339906,-0.9714442481247794,1.5667117968856323,-0.9032330358301754,-2.473509312179738,0.0006188689812082278,-0.004,0.0033911481355495404,8.814968911031831e-05,0.0025329784435248895,0.0025359312270832046,5.83468947342047,3.3252406295933965,0.3170369269665341,0.0025347154988622812,0.017838700367496775,0.2756990926669935
1750761732.6381133,-2.022898046595925,-1.75314603593399,-0.9714366180414746,1.5667119952224329,-0.9032273366286772,-2.4735036063344773,0.0007735862265102847,-0.005,0.0042389351694369255,0.0001101871113878979,0.003166223054406112,0.0031699140338540058,5.834668844439721,3.325222015948786,0.3170369514779065,0.002534692233993635,0.017838700367425946,0.27569568129001604
1750761732.6394782,-2.0228963447062274,-1.7531570359339899,-0.9714272923841021,1.5667122376340779,-0.9032203709379578,-2.4734966325236027,0.0009283034718123417,-0.006,0.005086722203324311,0.00013222453366547746,0.0037994676652873347,0.0038038968406248065,5.834643631003145,3.3251992656802387,0.3170369814394414,0.002534663798278292,0.017838700367339363,0.2756915118104121
1750761732.6414158,-2.0228963447062274,-1.7531570359339899,-0.9714272923841021,1.5667122376340779,-0.9032203709379578,-2.4734966325236027,0.0009283034718123417,-0.006,0.005086722203324311,0.00013222453366547746,0.0037994676652873347,0.0038038968406248065,5.834643631003145,3.3251992656802387,0.3170369814394414,0.002534663798278292,0.017838700367339363,0.2756915118104121
1750761732.6434937,-2.0228943333820375,-1.75317003593399,-0.9714162711526617,1.5667125241205675,-0.9032121387580156,-2.473488390747115,0.0010830207171143985,-0.007,0.005934509237211696,0.00015426195594305705,0.004432712276168557,0.004437879647395608,5.834613832968004,3.325172378632691,0.317037016853054,0.0025346301911907654,0.017838700367237025,0.27568658421687353
1750761732.6453853,-2.022892012623359,-1.7531850359339902,-0.9714035543471535,1.5667128546819016,-0.9032026400888524,-2.473478881005013,0.0012377379624164556,-0.008,0.006782296271099081,0.00017629937822063663,0.005065956887049779,0.005071862454166409,5.834579450165637,3.325141354622864,0.31703705772100665,0.002534591412109977,0.017838700367118963,0.27568089849603516
1750761732.6472368,-2.022889382430188,-1.75320203593399,-0.9713891419675766,1.5667132293180803,-0.9031918749304682,-2.4734681032972983,0.0013924552077185127,-0.009000000000000001,0.007630083304986467,0.00019833680049821624,0.005699201497931002,0.00570584526093721,5.834540482401401,3.325106193439313,0.3170371040459107,0.0025345474603193758,0.01783870036698519,0.2756744546324807
1750761732.6494136,-2.022886442802527,-1.75322103593399,-0.9713730340139328,1.5667136480291037,-0.903179843282861,-2.4734560576239693,0.0015471724530205697,-0.010000000000000002,0.008477870338873853,0.00022037422277579582,0.006332446108812225,0.006339828067708012,5.834496929454728,3.3250668948423847,0.31703715583072456,0.0025344983350068595,0.01783870036683566,0.2756672526087432
1750761732.6509113,-2.022883193740376,-1.7532420359339902,-0.9713552304862212,1.5667141108149716,-0.9031665451460329,-2.4734427439850273,0.0017018896983226268,-0.011000000000000003,0.009325657372761238,0.00024241164505337543,0.006965690719693448,0.006973810874478814,5.834448791079105,3.325023458564245,0.31703721307875576,0.0025344440352647888,0.01783870036667041,0.27565929240530307
1750761732.652945,-2.0228796352437346,-1.7532650359339899,-0.9713357313844417,1.5667146176756839,-0.9031519805199819,-2.4734281623804715,0.0018566069436246838,-0.012000000000000004,0.010173444406648625,0.00026444906733095504,0.007598935330574671,0.007607793681249616,5.83439606700206,3.324975884308881,0.3170372757936595,0.002534384560090048,0.017838700366489425,0.2756505740005947
1750761732.6550107,-2.022875767312602,-1.7532900359339898,-0.9713145367085954,1.5667151686112408,-0.9031361494047108,-2.4734123128103023,0.002011324188926741,-0.013000000000000005,0.01102123144053601,0.0002864864896085346,0.008232179941455895,0.008241776488020417,5.834338756925175,3.3249241717520848,0.31703734397943856,0.002534319908384023,0.01783870036629274,0.275641097371003
1750761732.657163,-2.0228715899469787,-1.75331703593399,-0.9712916464586803,1.5667157636216422,-0.9031190518002168,-2.4733951952745192,0.002166041434228798,-0.014000000000000005,0.011869018474423395,0.0003085239118861142,0.008865424552337117,0.00887575929479122,5.834276860524107,3.324868320541486,0.3170374176404449,0.0025342500789526097,0.017838700366080266,0.27563086249087204
1750761732.658946,-2.022867103146865,-1.7533460359339905,-0.9712670606346974,1.5667164027068883,-0.9031006877065009,-2.4733768097731232,0.0023207586795308552,-0.015000000000000006,0.012716805508310782,0.00033056133416369384,0.00949866916321834,0.00950974210156202,5.834210377448552,3.3248083302965186,0.3170374967813775,0.0025341750705062172,0.017838700365852125,0.2756198693324983
1750761732.6610417,-2.022862306912261,-1.7533770359339904,-0.9712407792366466,1.566717085866979,-0.9030810571235639,-2.473357156306113,0.002475475924832912,-0.016000000000000007,0.013564592542198167,0.0003525987564412734,0.010131913774099563,0.010143724908332822,5.834139307322281,3.3247442006084573,0.3170375814072839,0.00253409488165982,0.01783870036560832,0.27560811786614314
1750761732.6629808,-2.0228572012431654,-1.7534100359339906,-0.9712128022645281,1.5667178131019142,-0.903060160051405,-2.4733362348734897,0.0026301931701349693,-0.017000000000000008,0.014412379576085554,0.000374636178718853,0.010765158384980785,0.010777707715103623,5.834063649743113,3.3246759310404035,0.3170376715235597,0.002534009510932899,0.017838700365348712,0.275595608060027
1750761732.665418,-2.0228517861395794,-1.7534450359339901,-0.9711831297183426,1.5667185844116938,-0.9030379964900241,-2.4733140454752527,0.002784910415437026,-0.01800000000000001,0.015260166609972939,0.00039667360099643264,0.01139840299586201,0.011411690521874426,5.8339834042829395,3.324603521127286,0.31703776713594833,0.0025339189567495316,0.017838700365073498,0.2755823398803375
1750761732.6670046,-2.022846061601504,-1.75348203593399,-0.9711517615980885,1.566719399796318,-0.9030145664394214,-2.4732905881114022,0.0029396276607390835,-0.01900000000000001,0.016107953643860324,0.0004187110232740122,0.012031647606743232,0.012045673328645227,5.833898570487719,3.324526970375871,0.3170378682505409,0.0025338232174383635,0.01783870036478249,0.2755683132912255
1750761732.6689796,-2.022840027628937,-1.7535210359339901,-0.9711186979037674,1.566720259255787,-0.9029898698995966,-2.4732658627819384,0.0030943449060411403,-0.02000000000000001,0.01695574067774771,0.0004407484455515918,0.012664892217624455,0.012679656135416028,5.833809147877459,3.3244462782647717,0.31703797487377716,0.002533722291232658,0.017838700364475893,0.2755535282548194
1750761732.6709254,-2.0228336842218795,-1.7535620359339905,-0.9710839386353776,1.5667211627901003,-0.9029639068705508,-2.4732398694868607,0.0032490621513431976,-0.02100000000000001,0.017803527711635098,0.0004627858678291714,0.013298136828505678,0.013313638942186831,5.833715135946265,3.324361444244447,0.31703808701244507,0.002533616176270254,0.017838700364153505,0.275537984731217
1750761732.6732569,-2.0228336842218795,-1.7535620359339905,-0.9710839386353776,1.5667211627901003,-0.9029639068705508,-2.4732398694868607,0.0032490621513431976,-0.02100000000000001,0.017803527711635098,0.0004627858678291714,0.013298136828505678,0.013313638942186831,5.833715135946265,3.324361444244447,0.31703808701244507,0.002533616176270254,0.017838700364153505,0.275537984731217
1750761732.6809852,-2.0228270313803316,-1.7536050359339903,-0.9710474837929208,1.5667221103992583,-0.9029366773522831,-2.4732126082261696,0.0034037793966452544,-0.022000000000000013,0.018651314745522483,0.000484823290106751,0.013931381439386901,0.013947621748957632,5.833616534162289,3.324272467737202,0.31703820467367916,0.002533504870593637,0.01783870036381554,0.27552168267849386
1750761732.6819522,-2.0228270313803316,-1.7536050359339903,-0.9710474837929208,1.5667221103992583,-0.9029366773522831,-2.4732126082261696,0.0034037793966452544,-0.022000000000000013,0.018651314745522483,0.000484823290106751,0.013931381439386901,0.013947621748957632,5.833616534162289,3.324272467737202,0.31703820467367916,0.002533504870593637,0.01783870036381554,0.27552168267849386
1750761732.6830175,-2.0228127973937635,-1.7536970359339898,-0.970969487385803,1.5667241378421077,-0.9028784188480818,-2.4731542818079464,0.003713213887249369,-0.024000000000000014,0.020346888813297253,0.0005288981346619102,0.015197870661149348,0.015215587362499235,5.833405558779006,3.3240820848104566,0.31703845659412877,0.0025332666787909615,0.017838700363092493,0.27548680280790155
1750761732.683824,-2.0228052162487433,-1.7537460359339905,-0.970927945821142,1.5667252176757993,-0.9028473898621483,-2.4731232166504147,0.003867931132551426,-0.025000000000000015,0.02119467584718464,0.0005509355569394898,0.01583111527203057,0.015849570169270036,5.833293183986397,3.323980677094859,0.31703859086935476,0.00253313978827321,0.017838700362707474,0.2754682248961049
1750761732.6850345,-2.0227973256692335,-1.7537970359339905,-0.9708847086824139,1.5667263415843355,-0.9028150943869937,-2.4730908835272696,0.004022648377853483,-0.026000000000000016,0.022042462881072027,0.0005729729792170693,0.016464359882911794,0.01648355297604084,5.833176216954416,3.3238751243001663,0.31703873069916805,0.0025330076982579028,0.017838700362306757,0.27544888826734254
1750761732.6869726,-2.0227973256692335,-1.7537970359339905,-0.9708847086824139,1.5667263415843355,-0.9028150943869937,-2.4730908835272696,0.004022648377853483,-0.026000000000000016,0.022042462881072027,0.0005729729792170693,0.016464359882911794,0.01648355297604084,5.833176216954416,3.3238751243001663,0.31703873069916805,0.0025330076982579028,0.017838700362306757,0.27544888826734254
1750761732.6890645,-2.0227891256552324,-1.75385003593399,-0.9708397759696181,1.5667275095677162,-0.9027815324226172,-2.4730572824385106,0.00417736562315554,-0.027000000000000017,0.02289024991495941,0.000595010401494649,0.017097604493793016,0.01711753578281164,5.833054657021613,3.3237654257080163,0.31703887609244413,0.00253287040631092,0.01783870036189044,0.27542879286963057
1750761732.6908753,-2.0227806162067408,-1.7539050359339896,-0.9707931476827545,1.5667287216259416,-0.9027467039690187,-2.4730224133841383,0.004332082868457597,-0.028000000000000018,0.023738036948846797,0.0006170478237722286,0.017730849104674238,0.017751518589582443,5.832928503500624,3.323651580571913,0.31703902705840514,0.0025327279099029965,0.017838700361458484,0.2754079386489941
1750761732.692799,-2.0227717973237587,-1.7539620359339905,-0.970744823821823,1.5667299777590113,-0.9027106090261983,-2.472986276364152,0.0044868001137596545,-0.02900000000000002,0.024585823982734182,0.0006390852460498082,0.018364093715555464,0.018385501396353244,5.832797755678186,3.3235335881172654,0.3170391836066222,0.0025325802064095813,0.017838700361011,0.2753863255494588
1750761732.6946871,-2.022762669006285,-1.7540210359339898,-0.9706948043868229,1.5667312779669258,-0.9026732475941559,-2.4729488713785526,0.004641517359061711,-0.03000000000000002,0.02543361101662157,0.0006611226683273878,0.018997338326436686,0.019019484203124045,5.832662412815116,3.3234114475413765,0.317039345747014,0.0025324272931109655,0.0178387003605477,0.2753639535130624
1750761732.6972802,-2.022753231254322,-1.7540820359339904,-0.9706430893777558,1.5667326222496847,-0.9026346196728925,-2.4729101984273396,0.004796234604363768,-0.03100000000000002,0.026281398050508956,0.0006831600906049674,0.019630582937317908,0.019653467009894846,5.832522474146341,3.3232851580134373,0.31703951348984577,0.0025322691671922355,0.01783870036006888,0.2753408224798586
1750761732.6991012,-2.0227434840678686,-1.7541450359339903,-0.9705896787946209,1.5667340106072882,-0.9025947252624071,-2.4728702575105133,0.004950951849665825,-0.03200000000000002,0.02712918508439634,0.0007051975128825469,0.02026382754819913,0.020287449816665647,5.832377938880878,3.323154718674559,0.31703968684573214,0.0025321058257433745,0.017838700359574456,0.2753169323879204
1750761732.701019,-2.0227334274469237,-1.7542100359339905,-0.9705345726374182,1.5667354430397362,-0.9025535643626998,-2.472829048628073,0.005105669094967883,-0.03300000000000002,0.027976972118283726,0.0007272349351601265,0.020897072159080352,0.020921432623436452,5.832228806201845,3.3230201286377676,0.31703986582563476,0.002531937265759226,0.017838700359064437,0.27529228317334953
1750761732.703493,-2.0227230613914884,-1.75427703593399,-0.9704777709061485,1.5667369195470289,-0.9025111369737706,-2.4727865717800195,0.0052603863402699395,-0.03400000000000002,0.02882475915217111,0.0007492723574377062,0.021530316769961578,0.021555415430207253,5.8320750752664745,3.3228813869880103,0.31704005044086303,0.0025317634841395377,0.01783870035853893,0.2752668747702718
1750761732.7054808,-2.0227123859015625,-1.75434603593399,-0.9704192736008102,1.566738440129166,-0.9024674430956194,-2.472742826966352,0.005415103585571996,-0.035000000000000024,0.0296725461860585,0.0007713097797152858,0.0221635613808428,0.022189398236978054,5.831916745206102,3.322738492782158,0.31704024070307374,0.0025315844776890267,0.01783870035799766,0.2752407071108607
1750761732.710619,-2.0227014009771462,-1.7544170359339901,-0.970359080721404,1.5667400047861477,-0.9024224827282472,-2.4726978141870717,0.005569820830874053,-0.036000000000000025,0.030520333219945885,0.0007933472019928654,0.022796805991724022,0.022823381043748855,5.831753815126181,3.3225914450490244,0.3170404366242716,0.0025314002431173943,0.017838700357440913,0.27521378012532427
1750761732.7112315,-2.0227014009771462,-1.7544170359339901,-0.970359080721404,1.5667400047861477,-0.9024224827282472,-2.4726978141870717,0.005569820830874053,-0.036000000000000025,0.030520333219945885,0.0007933472019928654,0.022796805991724022,0.022823381043748855,5.831753815126181,3.3225914450490244,0.3170404366242716,0.0025314002431173943,0.017838700357440913,0.27521378012532427
1750761732.7115571,-2.022678502824842,-1.7545650359339904,-0.9702336082403882,1.5667432663246448,-0.9023287625258369,-2.4726039847316694,0.005879255321478168,-0.03800000000000003,0.032215907287720655,0.0008374220465480245,0.02406329521348647,0.024091346657290458,5.8314141512000965,3.322284884975923,0.31704084549338607,0.0025310160759745067,0.017838700356280865,0.27515764788696867
1750761732.713128,-2.0226665895969536,-1.7546420359339905,-0.9701683286387794,1.56674496320616,-0.9022800026907989,-2.472555168055548,0.006033972566780225,-0.03900000000000003,0.03306369432160804,0.0008594594688256041,0.024696539824367692,0.02472532946406126,5.831237415435438,3.322125370553346,0.3170410584670501,0.0025308161363477807,0.01783870035567739,0.27512844248483936
1750761732.7152905,-2.0226543669345745,-1.75472103593399,-0.970101353463102,1.56674670416252,-0.9022299763665389,-2.472505083413813,0.006188689812082282,-0.04000000000000003,0.033911481355495425,0.0008814968911031838,0.025329784435248914,0.025359312270832064,5.831056075814257,3.3219616984382956,0.31704127715119557,0.00253061095448907,0.01783870035505849,0.275098477457979
1750761732.7172983,-2.022641834837705,-1.7548020359339898,-0.9700326827133576,1.5667484891937244,-0.9021786835530579,-2.472453730806465,0.006343407057384339,-0.04100000000000003,0.034759268389382814,0.0009035343133807634,0.025963029046130136,0.025993295077602865,5.83087013131264,3.321793867519401,0.31704150155956606,0.0025304005266333558,0.017838700354424076,0.27506775272689965
1750761732.7191765,-2.022628993306345,-1.7548850359339898,-0.9699623163895446,1.5667503182997735,-0.9021261242503549,-2.472401110233503,0.006498124302686396,-0.04200000000000003,0.0356070554232702,0.000925571735658343,0.026596273657011362,0.026627277884373666,5.830679580880806,3.3216218766572796,0.3170417317062504,0.002530184848920929,0.017838700353774262,0.27503626821020394
1750761732.721466,-2.022628993306345,-1.7548850359339898,-0.9699623163895446,1.5667503182997735,-0.9021261242503549,-2.472401110233503,0.006498124302686396,-0.04200000000000003,0.0356070554232702,0.000925571735658343,0.026596273657011362,0.026627277884373666,5.830679580880806,3.3216218766572796,0.3170417317062504,0.002530184848920929,0.017838700353774262,0.27503626821020394
1750761732.7239313,-2.0226023819401533,-1.7550570359339899,-0.9698164970197158,1.5667541087364054,-0.9020172061772831,-2.472292065190738,0.0068075587932905106,-0.04400000000000003,0.03730262949104497,0.0009696465802135021,0.027862762878773806,0.027895243497915268,5.830284657898086,3.3212654104058528,0.3170422092726586,0.0025297377280128898,0.017838700352427895,0.27497101948480407
1750761732.7253497,-2.022588612105321,-1.7551460359339899,-0.9697410439737002,1.566756070066988,-0.9019608474069152,-2.472235640720936,0.006962276038592567,-0.04500000000000003,0.038150416524932354,0.0009916840024910818,0.02849600748965503,0.02852922630468607,5.8300802831183836,3.321080932597824,0.3170424567222989,0.0025295062766239437,0.017838700351731556,0.27493725510376554
1750761732.727066,-2.022588612105321,-1.7551460359339899,-0.9697410439737002,1.566756070066988,-0.9019608474069152,-2.472235640720936,0.006962276038592567,-0.04500000000000003,0.038150416524932354,0.0009916840024910818,0.02849600748965503,0.02852922630468607,5.8300802831183836,3.321080932597824,0.3170424567222989,0.0025295062766239437,0.017838700351731556,0.27493725510376554
1750761732.7286882,-2.022574532835998,-1.7552370359339902,-0.9696638953536159,1.5667580754724153,-0.9019032221473244,-2.4721779482855193,0.007116993283894624,-0.046000000000000034,0.03899820355881974,0.0010137214247686614,0.029129252100536254,0.02916320911145687,5.829871297950825,3.3208922900091387,0.3170427099700874,0.002529269558991698,0.017838700351019872,0.2749027305924574
1750761732.7307272,-2.0225601441321857,-1.7553300359339898,-0.9695850511594646,1.566760124952687,-0.9018443303985126,-2.47211898788449,0.007271710529196681,-0.047000000000000035,0.03984599059270713,0.001035758847046241,0.029762496711417476,0.029797191918227675,5.829657701216411,3.3206994813605206,0.31704296903185003,0.002529027570782847,0.01783870035029255,0.2748674458599939
1750761732.7328455,-2.022545445993882,-1.7554250359339907,-0.9695045113912455,1.5667622185078034,-0.9017841721604789,-2.4720587595178465,0.007426427774498739,-0.048000000000000036,0.04069377762659451,0.0010577962693238206,0.0303957413222987,0.030431174724998476,5.829439491710283,3.3205025053447286,0.3170432339237606,0.00252878030756947,0.01783870034954991,0.27483140081360896
1750761732.7377372,-2.022515121413802,-1.7556210359339897,-0.9693383451326039,1.56676653784257,-0.9016600562167465,-2.4719344988877197,0.0077358622651028525,-0.05000000000000004,0.04238935169436928,0.0011018711138789797,0.03166223054406114,0.03169914033854008,5.828989229434399,3.320096045843026,0.31704378126445915,0.0025282699379449674,0.01783870034801841,0.27475702939871854
1750761732.7381816,-2.022515121413802,-1.7556210359339897,-0.9693383451326039,1.56676653784257,-0.9016600562167465,-2.4719344988877197,0.0077358622651028525,-0.05000000000000004,0.04238935169436928,0.0011018711138789797,0.03166223054406114,0.03169914033854008,5.828989229434399,3.320096045843026,0.31704378126445915,0.0025282699379449674,0.01783870034801841,0.27475702939871854
1750761732.7396243,-2.0224994949720276,-1.7557220359339905,-0.9692527186421804,1.5667687636222198,-0.9015960985110469,-2.4718704666242357,0.00789057951040491,-0.05100000000000004,0.04323713872825667,0.0011239085361565593,0.03229547515494237,0.03233312314531088,5.828757174125846,3.3198865596029843,0.3170440637473303,0.00252800682220547,0.017838700347229685,0.27471870283539
1750761732.7409694,-2.022483559095761,-1.7558250359339898,-0.9691653965776901,1.5667710334767144,-0.9015308743161263,-2.4718051663951384,0.008045296755706966,-0.05200000000000004,0.04408492576214406,0.001145945958434139,0.03292871976582359,0.03296710595208168,5.828520500967992,3.31967290048757,0.31704435212851695,0.0025277384128048926,0.017838700346425297,0.2746796155685183
1750761732.7429757,-2.022467313785004,-1.7559300359339902,-0.9690763789391319,1.5667733474060537,-0.9014643836319838,-2.471738598200427,0.008200014001009025,-0.05300000000000004,0.04493271279603144,0.0011679833807117185,0.03356196437670481,0.03360108875885248,5.828279208626916,3.319455067049952,0.317044646425928,0.0025274647048430608,0.01783870034560595,0.2746397674960945
1750761732.7450812,-2.0224507590397565,-1.75603703593399,-0.9689856657265059,1.5667757054102374,-0.9013966264586193,-2.471670762040103,0.008354731246311082,-0.05400000000000004,0.04578049982991883,0.001190020802989298,0.03419520898758604,0.03423507156562328,5.828033295742899,3.3192330578154405,0.3170449466578209,0.002527185693325474,0.017838700344771075,0.2745991585142869
1750761732.7469647,-2.0224338948600185,-1.7561460359339902,-0.968893256939813,1.5667781074892655,-0.9013276027960337,-2.4716016579141646,0.008509448491613138,-0.05500000000000004,0.04662828686380621,0.0012120582252668776,0.03482845359846726,0.034869054372394084,5.827782760930426,3.3190068712814664,0.317045252842798,0.002526901373163375,0.01783870034392068,0.27455778851744966
1750761732.7489855,-2.02241672124579,-1.7562570359339897,-0.9687991525790514,1.5667805536431385,-0.9012573126442254,-2.4715312858226133,0.008664165736915195,-0.05600000000000004,0.0474760738976936,0.0012340956475444572,0.03546169820934848,0.035503037179164885,5.827527602778204,3.3187765059176133,0.31704556499981074,0.002526611739173828,0.017838700343055378,0.2745156573981314
1750761732.7510817,-2.022399238197071,-1.7563700359339904,-0.9687033526442219,1.5667830438718557,-0.901185756003196,-2.471459645765448,0.008818882982217252,-0.057000000000000044,0.04832386093158099,0.001256133069822037,0.03609494282022971,0.036137019985935694,5.827267819849146,3.3185419601656085,0.3170458831481553,0.0025263167860796664,0.017838700342174593,0.2744727650470888
1750761732.7534254,-2.0223814457138616,-1.7564850359339896,-0.9686058571353247,1.5667855781754176,-0.9011129328729446,-2.4713867377426695,0.008973600227519309,-0.058000000000000045,0.04917164796546837,0.0012781704920996166,0.03672818743111093,0.036771002792706495,5.827003410680405,3.3183032324393626,0.3170462073074758,0.0025260165085095746,0.017838700341278338,0.27442911135328024
1750761732.7553384,-2.0223633437961617,-1.75660203593399,-0.9685066660523596,1.5667881565538242,-0.9010388432534713,-2.4713125617542775,0.009128317472821366,-0.059000000000000045,0.05001943499935576,0.0013002079143771962,0.03736143204199215,0.037404985599477296,5.8267343737833475,3.3180603211249577,0.31704653749776346,0.0025257109009983176,0.01783870034036722,0.2743846962039063
1750761732.757138,-2.0223449324439704,-1.7567210359339906,-0.9684057793953276,1.5667907790070752,-0.9009634871447769,-2.4712371178002717,0.009283034718123423,-0.060000000000000046,0.05086722203324314,0.0013222453366547758,0.03799467665287337,0.0380389684062481,5.826460707643599,3.3178132245806773,0.31704687373935464,0.0025253999579865033,0.017838700339440475,0.2743395194843893
1750761732.7591064,-2.0223262116572887,-1.7568420359339907,-0.9683031971642269,1.5667934455351709,-0.9008868645468606,-2.4711604058806524,0.009437751963425481,-0.06100000000000005,0.05171500906713053,0.0013442827589323554,0.0386279212637546,0.0386729512130189,5.826182410721029,3.3175619411370207,0.31704721605293484,0.0025250836738208537,0.017838700338498905,0.2742935810783981
1750761732.7647684,-2.0223071814361164,-1.7569650359339901,-0.9681989193590592,1.566796156138111,-0.9008089754597215,-2.4710824259954194,0.009592469208727538,-0.06200000000000005,0.05256279610101792,0.001366320181209935,0.03926116587463582,0.0393069340197897,5.825899481449745,3.317306469096698,0.31704756445953347,0.0025247620427541477,0.01783870033754193,0.27424688086785626
1750761732.7696352,-2.0223071814361164,-1.7569650359339901,-0.9681989193590592,1.566796156138111,-0.9008089754597215,-2.4710824259954194,0.009592469208727538,-0.06200000000000005,0.05256279610101792,0.001366320181209935,0.03926116587463582,0.0393069340197897,5.825899481449745,3.317306469096698,0.31704756445953347,0.0025247620427541477,0.01783870033754193,0.27424688086785626
1750761732.7713861,-2.0222073888128964,-1.7576100359339897,-0.9676520967222011,1.5668103702754799,-0.900400532685703,-2.4706735070850523,0.010366055435237822,-0.06700000000000005,0.05680173127045484,0.0014765072925978328,0.04242738892904193,0.042476848053643705,5.8244152932553055,3.315966218597636,0.3170493986481358,0.002523073476186522,0.01783870033252968,0.27400194849334863
1750761732.7735345,-2.0222073888128964,-1.7576100359339897,-0.9676520967222011,1.5668103702754799,-0.900400532685703,-2.4706735070850523,0.010366055435237822,-0.06700000000000005,0.05680173127045484,0.0014765072925978328,0.04242738892904193,0.042476848053643705,5.8244152932553055,3.315966218597636,0.3170493986481358,0.002523073476186522,0.01783870033252968,0.27400194849334863
1750761732.7750323,-2.0221865019847804,-1.75774503593399,-0.9675376454726266,1.5668133453274875,-0.900315044663234,-2.4705879194061384,0.010520772680539879,-0.06800000000000005,0.05764951830434222,0.0014985447148754124,0.043060633539923156,0.043110830860414506,5.824104535567232,3.31568557778071,0.317049784073893,0.002522719637770722,0.017838700331481883,0.27395067487948116
1750761732.7773817,-2.022165305722174,-1.7578820359339904,-0.9674214986489842,1.5668163644543396,-0.9002282901515439,-2.4705010637616107,0.010675489925841936,-0.06900000000000005,0.05849730533822961,0.001520582137152992,0.043693878150804374,0.04374481366718531,5.823789133848931,3.3154007357096194,0.317050175749584,0.002522360409598909,0.017838700330418816,0.2738986385865509
1750761732.7793205,-2.022143800025077,-1.7580210359339903,-0.967303656251274,1.566819427656036,-0.9001402691506311,-2.4704129401514696,0.010830207171143993,-0.07000000000000005,0.059345092372117,0.0015426195594305716,0.0443271227616856,0.04437879647395611,5.823469086328798,3.3151116904654025,0.3170505736990096,0.0025219957851747203,0.017838700329341095,0.27384583948290747
1750761732.781038,-2.0221219848934897,-1.7581620359339905,-0.967184118279496,1.5668225349325773,-0.9000509816604971,-2.4703235485757147,0.01098492441644605,-0.07100000000000005,0.06019287940600438,0.0015646569817081512,0.044960367372566826,0.04501277928072691,5.82314439120955,3.3148184401014538,0.3170509779463173,0.0025216257579084474,0.017838700328248146,0.2737922774352559
1750761732.7830613,-2.022099860327412,-1.75830503593399,-0.9670628847336493,1.566825686283963,-0.8999604276811413,-2.470232889034347,0.011139641661748106,-0.07200000000000005,0.06104066643989177,0.0015866944039857308,0.045593611983448044,0.04564676208749771,5.822815046668223,3.3145209826435496,0.31705138851600156,0.0025212503211170423,0.017838700327139988,0.2737379523086691
1750761732.7849007,-2.0220774263268435,-1.7584500359339899,-0.9669399556137357,1.5668288817101932,-0.8998686072125635,-2.470140961527365,0.011294358907050165,-0.07300000000000005,0.06188845347377915,0.0016087318262633103,0.04622685659432927,0.04628074489426851,5.822481050856199,3.314219316089854,0.31705180543290074,0.0025208694680242485,0.017838700326017237,0.2736828639665978
1750761732.7867577,-2.022054682891784,-1.75859703593399,-0.9668153309197542,1.566832121211268,-0.8997755202547637,-2.4700477660547695,0.011449076152352222,-0.07400000000000005,0.06273624050766655,0.00163076924854089,0.04686010120521049,0.04691472770103931,5.822142401899193,3.3139134384109443,0.31705222872220157,0.002520483191760604,0.017838700324879123,0.2736270122708851
1750761732.7887175,-2.0220316300222336,-1.7587460359339904,-0.966689010651705,1.5668354047871873,-0.899681166807742,-2.4699533026165605,0.011603793397654279,-0.07500000000000005,0.06358402754155393,0.0016528066708184695,0.047493345816091714,0.047548710507810114,5.821799097897279,3.313603347549823,0.31705265840943364,0.0025200914853635748,0.017838700323726458,0.273570397081777
1750761732.791768,-2.022008267718193,-1.7588970359339902,-0.9665609948095888,1.5668387324379511,-0.8995855468714993,-2.469857571212738,0.011758510642956336,-0.07600000000000005,0.06443181457544131,0.001674844093096049,0.04812659042697294,0.048182693314580916,5.821451136924889,3.3132890414219376,0.31705309452047514,0.002519694341777553,0.01783870032255867,0.27351301825793967
1750761732.7930424,-2.021984595979662,-1.7590500359339902,-0.9664312833934039,1.5668421041635596,-0.8994886604460346,-2.4697605718433024,0.011913227888258392,-0.07700000000000005,0.06527960160932869,0.0016968815153736287,0.04875983503785416,0.04881667612135172,5.8210985170308245,3.3129705179151956,0.3170535370815489,0.002519291753853997,0.017838700321375783,0.2734548756564668
1750761732.7954237,-2.0219606148066394,-1.7592050359339897,-0.9662998764031512,1.5668455199640128,-0.899390507531348,-2.469662304508253,0.01206794513356045,-0.07800000000000006,0.06612738864321609,0.0017189189376512082,0.049393079648735384,0.04945065892812252,5.820741236238263,3.312647774889989,0.3170539861192235,0.0025188837143514447,0.017838700320178407,0.2733959691328957
1750761732.7970092,-2.021936324199128,-1.7593620359339903,-0.9661667738388307,1.5668489798393104,-0.8992910881274394,-2.46956276920759,0.012222662378862506,-0.07900000000000006,0.06697517567710347,0.0017409563599287878,0.0500263242596166,0.050084641734893326,5.8203792925447715,3.3123208101791923,0.31705444166041113,0.0025184702159356137,0.01783870031896578,0.27333629854122227
1750761732.798917,-2.0219117241571247,-1.7595210359339903,-0.9660319757004423,1.5668524837894524,-0.8991904022343089,-2.4694619659413135,0.012377379624164565,-0.08000000000000006,0.06782296271099085,0.0017629937822063676,0.05065956887049783,0.05071862454166413,5.820012683922299,3.311989621588219,0.3170549037323734,0.0025180512511793923,0.017838700317738713,0.2732758637339016
1750761732.800876,-2.021886814680631,-1.7596820359339898,-0.965895481987987,1.566856031814439,-0.8990884498519573,-2.4693598947094233,0.012532096869466621,-0.08100000000000006,0.06867074974487825,0.0017850312044839472,0.051292813481379054,0.05135260734843493,5.819641408317216,3.311654206895,0.31705537236271464,0.002517626812563122,0.017838700316496633,0.27321466456188903
1750761732.8031294,-2.0218615957696464,-1.7598450359339903,-0.965757292701463,1.5668596239142705,-0.8989852309803839,-2.4692565555119197,0.012686814114768678,-0.08200000000000006,0.06951853677876563,0.0018070686267615268,0.05192605809226027,0.05198659015520573,5.8192654636502965,3.3113145638500203,0.317055847579384,0.0025171968924744556,0.017838700315239573,0.2731527008746271
1750761732.8047585,-2.0218360674241715,-1.7600100359339903,-0.9656174078408721,1.5668632600889463,-0.8988807456195884,-2.4691519483488023,0.012841531360070735,-0.08300000000000006,0.07036632381265301,0.0018291060490391064,0.0525593027031415,0.05262057296197653,5.818884847816742,3.3109706901763416,0.31705632941067813,0.0025167614832084934,0.01783870031396814,0.27308997252006983
1750761732.8067453,-2.021810229644206,-1.7601770359339906,-0.9654758274062125,1.5668669403384665,-0.898774993769571,-2.469046073220072,0.012996248605372792,-0.08400000000000006,0.0712141108465404,0.001851143471316686,0.053192547314022724,0.05325455576874733,5.818499558686182,3.3106225835696153,0.3170568178852381,0.0025163205769679004,0.01783870031268177,0.27302647934469954
1750761732.808791,-2.0217840824297504,-1.7603460359339902,-0.965332551397486,1.5668706646628314,-0.8986679754303326,-2.4689389301257276,0.013150965850674849,-0.08500000000000006,0.07206189788042779,0.0018731808935942655,0.05382579192490394,0.05388853857551813,5.818109594102694,3.310270241698108,0.31705731303204837,0.0025158741658629735,0.017838700311380486,0.2729622211935363
1750761732.8107374,-2.021757625780804,-1.7605170359339901,-0.9651875798146907,1.566874433062041,-0.8985596906018714,-2.4688305190657696,0.013305683095976906,-0.08600000000000006,0.07290968491431517,0.0018952183158718451,0.05445903653578517,0.054522521382288934,5.817714951884795,3.3099136622027046,0.3170578148804413,0.0025154222419116897,0.0178387003100649,0.2728971979101553
1750761732.8127925,-2.0217308596973664,-1.7606900359339903,-0.9650409126578285,1.566878245536095,-0.898450139284189,-2.468720840040198,0.013460400341278964,-0.08700000000000006,0.07375747194820255,0.0019172557381494247,0.05509228114666639,0.055156504189059735,5.81731562982547,3.3095528426969527,0.3170583234600923,0.002514964797039779,0.01783870030873426,0.27283140933670047
1750761732.8149307,-2.0217037841794383,-1.76086503593399,-0.9648925499268977,1.5668821020849935,-0.8983393214772848,-2.4686098930490132,0.013615117586581021,-0.08800000000000006,0.07460525898208994,0.0019392931604270043,0.05572552575754761,0.055790486995830536,5.816911625692175,3.309187780767064,0.31705883880102287,0.0025145018230808393,0.01783870030738937,0.27276485531389977
1750761732.8169093,-2.0216763992270206,-1.7610420359339898,-0.9647424916218998,1.5668860027087366,-0.8982272371811586,-2.468497678092215,0.013769834831883078,-0.08900000000000007,0.07545304601597733,0.001961330582704584,0.05635877036842884,0.05642446980260134,5.816502937226858,3.3088184739719426,0.317059360933597,0.002514033311776432,0.017838700306029662,0.27269753568108124
1750761732.8189218,-2.0216487048401106,-1.76122103593399,-0.9645907377428342,1.5668899474073243,-0.8981138863958114,-2.468384195169803,0.013924552077185135,-0.09000000000000007,0.07630083304986471,0.0019833680049821637,0.05699201497931006,0.05705845260937214,5.816089562145925,3.308444919843203,0.31705988988852707,0.002513559254776087,0.01783870030465517,0.27262945027618285
1750761732.8207805,-2.021620701018712,-1.7614020359339904,-0.9644372882897008,1.5668939361807566,-0.8979992691212413,-2.4682694442817774,0.014079269322487192,-0.09100000000000007,0.0771486200837521,0.0020054054272597432,0.05762525959019128,0.05769243541614294,5.815671498140334,3.3080671158851933,0.31706042569686765,0.002513079643637451,0.01783870030326651,0.2725605989357786
1750761732.82315,-2.021592387762821,-1.7615850359339902,-0.9642821432624995,1.5668979690290334,-0.8978833853574502,-2.4681534254281385,0.014233986567789248,-0.09200000000000007,0.07799640711763949,0.002027442849537323,0.05825850420107251,0.05832641822291374,5.8152487428755,3.3076850595750185,0.31706096839001746,0.0025125944698263657,0.017838700301863117,0.27249098149508205
1750761732.8253787,-2.0215637650724396,-1.7617700359339903,-0.9641253026612295,1.5669020459521548,-0.897766235104438,-2.468036138608886,0.014388703813091305,-0.09300000000000007,0.07884419415152687,0.0020494802718149024,0.05889174881195373,0.05896040102968455,5.814821293991402,3.307298748362557,0.3170615179997223,0.0025121037247169266,0.017838700300445008,0.2724205977879736
1750761732.8276224,-2.0215348329475686,-1.7619570359339907,-0.9639667664858926,1.5669061669501205,-0.897647818362203,-2.4679175838240197,0.014543421058393362,-0.09400000000000007,0.07969198118541426,0.002071517694092482,0.05952499342283495,0.05959438383645535,5.814389149102535,3.3069081796704753,0.31706207455807034,0.0025116073995915048,0.017838700299012814,0.27234944764699726
1750761732.8288589,-2.021505591388207,-1.7621460359339904,-0.9638065347364879,1.5669103320229312,-0.897528135130746,-2.46779776107354,0.01469813830369542,-0.09500000000000007,0.08053976821930164,0.0020935551163700616,0.06015823803371617,0.06022836664322615,5.8139523057979385,3.3065133508942735,0.31706263809749347,0.0025111054856410938,0.01783870029756577,0.2722775309034091
1750761732.8308191,-2.0214760403943544,-1.7623370359339905,-0.9636446074130154,1.566914541170586,-0.897407185410068,-2.467676670357447,0.014852855548997478,-0.09600000000000007,0.08138755525318903,0.002115592538647641,0.0607914826445974,0.06086234944999695,5.8135107616412025,3.306114259402285,0.3170632086507702,0.002510597973965017,0.017838700296104685,0.27220484738716005
1750761732.8327754,-2.021446179966011,-1.76253003593399,-0.9634809845154759,1.5669187943930856,-0.8972849692001681,-2.46755431167574,0.015007572794299534,-0.09700000000000007,0.08223534228707641,0.0021376299609252207,0.06142472725547862,0.061496332256767754,5.813064514170494,3.3057109025357065,0.3170637862510215,0.002510084855571331,0.017838700294629004,0.27213139692693317
1750761732.8347597,-2.0214160101031773,-1.7627250359339897,-0.9633156660438678,1.5669230916904298,-0.8971614865010462,-2.4674306850284196,0.015162290039601591,-0.09800000000000007,0.0830831293209638,0.0021596673832028003,0.06205797186635984,0.062130315063538555,5.812613560898549,3.30530327760862,0.31706437093171363,0.0025095661213767576,0.017838700293138752,0.27205717935015167
1750761732.836811,-2.0214160101031773,-1.7627250359339897,-0.9633156660438678,1.5669230916904298,-0.8971614865010462,-2.4674306850284196,0.015162290039601591,-0.09800000000000007,0.0830831293209638,0.0021596673832028003,0.06205797186635984,0.062130315063538555,5.812613560898549,3.30530327760862,0.31706437093171363,0.0025095661213767576,0.017838700293138752,0.27205717935015167
1750761732.838801,-2.021385530805852,-1.7629220359339897,-0.9631486519981918,1.5669274330626184,-0.8970367373127024,-2.467305790415486,0.015317007284903648,-0.09900000000000007,0.08393091635485118,0.00218170480548038,0.06269121647724106,0.06276429787030935,5.812157899312692,3.304891381908024,0.3170649627266547,0.002509041762206767,0.01783870029163435,0.2719821944829938
1750761732.8407915,-2.0213547420740365,-1.76312103593399,-0.962979942378448,1.5669318185096517,-0.8969107216351366,-2.4671796278369387,0.015471724530205705,-0.10000000000000007,0.08477870338873857,0.0022037422277579595,0.06332446108812229,0.06339828067708016,5.811697526874849,3.3044752126938337,0.31706556166999894,0.002508511768795875,0.01783870029011583,0.2719064421504318
1750761732.8427641,-2.0213236439077313,-1.7633220359339905,-0.9628095371846364,1.5669362480315294,-0.8967834394683498,-2.4670521972927775,0.015626441775507764,-0.10100000000000008,0.08562649042262596,0.002225779650035539,0.06395770569900351,0.06403226348385097,5.811232441021564,3.3040547671989313,0.31706616779624386,0.0025079761317873166,0.017838700288582827,0.27182992217620183
1750761732.845793,-2.0212922363069357,-1.7635250359339905,-0.9626374364167578,1.5669407216282518,-0.8966548908123411,-2.466923498783003,0.01578115902080982,-0.10200000000000008,0.08647427745651334,0.0022478170723131186,0.06459095030988474,0.06466624629062176,5.810762639163991,3.3036300426291794,0.31706678114022874,0.0025074348417335568,0.017838700287035564,0.2717526343828664
1750761732.8467226,-2.0212605192716477,-1.7637300359339907,-0.9624636400748106,1.5669452392998187,-0.8965250756671104,-2.466793532307615,0.015935876266111877,-0.10300000000000008,0.08732206449040072,0.0022698544945906982,0.06522419492076596,0.06530022909739257,5.8102881186879145,3.3032010361634434,0.31706740173714015,0.00250688788909633,0.01783870028547407,0.2716745785918355
1750761732.848646,-2.021228492801871,-1.7639370359339903,-0.9622881481587964,1.5669498010462302,-0.8963939940326577,-2.4666622978666135,0.016090593511413932,-0.10400000000000008,0.08816985152428812,0.002291891916868278,0.06585743953164717,0.06593421190416336,5.809808876953797,3.3027677449536053,0.3170680296225056,0.0025063352642463346,0.01783870028389799,0.2715957546233208
1750761732.850656,-2.0211961568976022,-1.7641460359339902,-0.9621109606687135,1.5669544068674863,-0.896261645908984,-2.4665297954599983,0.01624531075671599,-0.10500000000000008,0.0890176385581755,0.0023139293391458574,0.0664906841425284,0.06656819471093417,5.809324911296717,3.3023301661246123,0.3170686648321954,0.002505776957463988,0.017838700282308523,0.27151616229644787
1750761732.8527627,-2.0211635115588438,-1.7643570359339904,-0.9619320776045637,1.5669590567635867,-0.8961280312960875,-2.4663960250877697,0.01640002800201805,-0.10600000000000008,0.08986542559206288,0.002335966761423437,0.06712392875340963,0.06720217751770496,5.808836219026454,3.301888296774477,0.3170693074024255,0.0025052129589387415,0.017838700280704525,0.271435801429173
1750761732.85468,-2.021130556785595,-1.76457003593399,-0.9617514989663452,1.566963750734532,-0.89599315019397,-2.4662609867499277,0.016554745247320105,-0.10700000000000008,0.09071321262595027,0.0023580041837010166,0.06775717336429085,0.06783616032447577,5.808342797427463,3.301442133974322,0.3170699573697537,0.0025046432587700735,0.01783870027908642,0.27135467183840556
1750761732.8567293,-2.0210972925778545,-1.7647850359339898,-0.9615692247540597,1.5669684887803217,-0.8958570026026305,-2.466124680446472,0.016709462492622163,-0.10800000000000008,0.09156099965983766,0.002380041605978596,0.06839041797517208,0.06847014313124657,5.807844643758887,3.3009916747683894,0.31707061477108167,0.002504067846966636,0.01783870027745424,0.2712727733399186
1750761732.8586884,-2.0210637189356238,-1.76500203593399,-0.9613852549677055,1.5669732709009558,-0.895719588522069,-2.4659871061774026,0.016864179737924218,-0.10900000000000008,0.09240878669372504,0.0024020790282561757,0.06902366258605329,0.06910412593801737,5.80734175525458,3.300536916174076,0.3170712796436521,0.0025034867134472614,0.017838700275807622,0.27119010574847735
1750761732.8607564,-2.0210298358589025,-1.7652210359339904,-0.9611995896072845,1.5669780970964347,-0.8955809079522865,-2.46584826394272,0.017018896983226277,-0.11000000000000008,0.09325657372761242,0.0024241164505337553,0.06965690719693451,0.06973810874478817,5.806834129123128,3.300077855181955,0.31707195202505334,0.0025028998480402576,0.017838700274147773,0.27110666887774904
1750761732.8626366,-2.0209956433476908,-1.7654420359339902,-0.9610122286727956,1.566982967366758,-0.8954409608932821,-2.4657081537424235,0.017173614228528332,-0.11100000000000008,0.09410436076149982,0.002446153872811335,0.07029015180781574,0.07037209155155898,5.806321762547831,3.299614488755803,0.31707263195321556,0.002502307240484246,0.01783870027247355,0.27102246254042767
1750761732.864714,-2.0209611414019886,-1.7656650359339903,-0.9608231721642388,1.5669878817119258,-0.8952997473450548,-2.4655667755765136,0.01732833147383039,-0.11200000000000009,0.0949521477953872,0.0024681912950889145,0.07092339641869697,0.07100607435832977,5.805804652686756,3.299146813832625,0.31707331946641004,0.0025017088804275525,0.01783870027078538,0.2709374865481502
1750761732.8667948,-2.020926330021796,-1.7658900359339906,-0.9606324200816143,1.5669928401319384,-0.8951572673076065,-2.4654241294449903,0.01748304871913245,-0.11300000000000009,0.09579993482927458,0.002490228717366494,0.07155664102957819,0.07164005716510058,5.805282796672713,3.298674827322686,0.3170740146032532,0.002501104757429037,0.01783870026908329,0.270851740711618
1750761732.8686197,-2.0208912092071127,-1.7661170359339904,-0.9604399724249211,1.5669978426267954,-0.8950135207809371,-2.4652802153478532,0.017637765964434504,-0.11400000000000009,0.09664772186316198,0.002512266139644074,0.07218988564045942,0.07227403997187139,5.804756191613291,3.2981985261095286,0.31707471740270304,0.0025004948609574818,0.017838700267367318,0.27076522484051946
1750761732.870753,-2.0208557789579373,-1.7663460359339904,-0.9602458291941609,1.5670028891964969,-0.8948685077650449,-2.4651350332851028,0.017792483209736563,-0.11500000000000009,0.09749550889704936,0.0025343035619216536,0.07282313025134063,0.07290802277864218,5.804224834590863,3.2977179070500093,0.3170754279040587,0.0024998791803921595,0.0178387002656371,0.27067793874361507
1750761732.8767948,-2.0208200392742732,-1.7665770359339898,-0.9600499903893329,1.567007979841043,-0.8947222282599316,-2.4649885832567384,0.017947200455038618,-0.11600000000000009,0.09834329593093674,0.0025563409841992332,0.07345637486222185,0.07354200558541299,5.803688722662612,3.2972329669743146,0.3170761461469635,0.0024992577050230646,0.01783870026389385,0.27058988222875735
1750761732.8771288,-2.0207839901561178,-1.7668100359339904,-0.9598524560104371,1.5670131145604338,-0.8945746822655964,-2.464840865262761,0.018101917700340676,-0.11700000000000009,0.09919108296482414,0.002578378406476813,0.07408961947310308,0.07417598839218378,5.803147852860519,3.296743702685995,0.3170768721714022,0.002498630424050372,0.017838700262136423,0.2705010551028447
1750761732.8773122,-2.020747631603472,-1.7670450359339904,-0.9596532260574744,1.567018293354669,-0.8944258697820393,-2.46469187930317,0.01825663494564273,-0.11800000000000009,0.10003886999871152,0.0026004158287543924,0.0747228640839843,0.07480997119895459,5.802602222191393,3.296250110962,0.3170776060177001,0.002497997326585341,0.017838700260365246,0.27041145717194165
1750761732.8786852,-2.0207109636163354,-1.7672820359339898,-0.959452300530443,1.5670235162237487,-0.8942757908092602,-2.464541625377965,0.01841135219094479,-0.11900000000000009,0.1008866570325989,0.002622453251031972,0.07535610869486553,0.07544395400572539,5.802051827636904,3.2957521885526972,0.3170783477265278,0.0024973584016496756,0.017838700258580354,0.2703210882411908
1750761732.880744,-2.0206739861947085,-1.7675210359339903,-0.9592496794293437,1.567028783167673,-0.8941244453472592,-2.464390103487147,0.018566069436246845,-0.12000000000000009,0.10173444406648628,0.0026444906733095516,0.07598935330574674,0.0760779368124962,5.8014966661535485,3.295249932181888,0.3170790973388946,0.002496713638176403,0.01783870025678139,0.27022994811494266
1750761732.882756,-2.0206366993385902,-1.7677620359339903,-0.9590453627541766,1.567034094186442,-0.8939718333960371,-2.4642373136307154,0.018720786681548904,-0.1210000000000001,0.10258223110037368,0.002666528095587131,0.07662259791662797,0.07671191961926699,5.80093673467271,3.294743338546874,0.31707985489615376,0.0024960630250091846,0.017838700254969562,0.27013803659666763
1750761732.8846765,-2.0205991030479815,-1.7680050359339905,-0.9588393505049417,1.5670394492800555,-0.8938179549555931,-2.46408325580867,0.018875503926850962,-0.1220000000000001,0.10343001813426106,0.0026885655178647107,0.0772558425275092,0.0773459024260378,5.800372030100646,3.2942324043184366,0.3170806204399975,0.0024954065509031967,0.017838700253143727,0.27004535348908515
1750761732.8867085,-2.0205611973228823,-1.76825003593399,-0.9586316426816399,1.5670448484485133,-0.8936628100259272,-2.463927930021011,0.019030221172153017,-0.1230000000000001,0.10427780516814844,0.0027106029401422903,0.07788908713839042,0.07797988523280859,5.799802549318521,3.293717126140907,0.31708139401246244,0.0024947442045245155,0.01783870025130432,0.26995189859407764
1750761732.888744,-2.0205229821632926,-1.76849703593399,-0.9584222392842694,1.567050291691816,-0.8935063986070393,-2.4637713362677385,0.019184938417455076,-0.1240000000000001,0.10512559220203584,0.00273264036241987,0.07852233174927165,0.0786138680395794,5.799228289182403,3.2931975006321728,0.3170821756559256,0.002494075974451012,0.017838700249451372,0.2698576717128162
1750761732.8907294,-2.0204844575692125,-1.7687460359339902,-0.9582111403128319,1.567055779009963,-0.8933487206989303,-2.4636134745488527,0.01933965566275713,-0.12500000000000008,0.1059733792359232,0.002754677784697449,0.07915557636015286,0.07924785084635019,5.798649246523293,3.2926735243837157,0.3170829654131028,0.0024934018491715687,0.017838700247584525,0.2697626726456807
1750761732.8947706,-2.0204844575692125,-1.7687460359339902,-0.9582111403128319,1.567055779009963,-0.8933487206989303,-2.4636134745488527,0.01933965566275713,-0.12500000000000008,0.1059733792359232,0.002754677784697449,0.07915557636015286,0.07924785084635019,5.798649246523293,3.2926735243837157,0.3170829654131028,0.0024934018491715687,0.017838700247584525,0.2697626726456807
1750761732.8950884,-2.020445623540642,-1.7689970359339906,-0.9579983457673258,1.5670613104029547,-0.8931897763015986,-2.463454344864353,0.019494372908059186,-0.12600000000000008,0.10682116626981059,0.0027767152069750286,0.07978882097103408,0.07988183365312099,5.7980654181471225,3.292145193960631,0.3170837633270559,0.002492721817087159,0.017838700245704997,0.26966690119237446
1750761732.8968725,-2.0204064800775807,-1.7692500359339904,-0.9577838556477527,1.567066885870791,-0.8930295654150457,-2.46329394721424,0.019649090153361245,-0.12700000000000009,0.10766895330369798,0.002798752629252608,0.0804220655819153,0.0805158164598918,5.797476800834794,3.2916125059016825,0.3170845694411835,0.0024920358665102343,0.01783870024381125,0.2695703571518852
1750761732.8987956,-2.020367027180029,-1.7695050359339906,-0.9575676699541109,1.5670725054134718,-0.892868088039271,-2.4631322815985137,0.0198038073986633,-0.12800000000000009,0.10851674033758536,0.0028207900515301878,0.08105531019279652,0.08114979926666259,5.7968833913421705,3.291075456719303,0.3170853837992261,0.0024913439856649846,0.017838700241904894,0.2694730403225055
1750761732.9007945,-2.020327264847986,-1.76976203593399,-0.9573497886864022,1.5670781690309972,-0.8927053441742743,-2.4629693480171735,0.01995852464396536,-0.1290000000000001,0.10936452737147274,0.0028428274738077674,0.08168855480367775,0.0817837820734334,5.796285186400103,3.290534042899644,0.31708620644526636,0.002490646162687935,0.01783870023998479,0.2693749505019185
1750761732.9027047,-2.0202871930814528,-1.7700210359339899,-0.9571302118446248,1.567083876723367,-0.8925413338200565,-2.46280514647022,0.020113241889267417,-0.1300000000000001,0.11021231440536014,0.002864864896085347,0.08232179941455897,0.08241776488020419,5.795682182714452,3.289988260902595,0.3170870374237268,0.00248994238562728,0.017838700238051366,0.2692760874871258
1750761732.9049203,-2.0202468118804298,-1.77028203593399,-0.9569089394287804,1.5670896284905815,-0.8923760569766168,-2.462639676957653,0.020267959134569472,-0.1310000000000001,0.11106010143924752,0.0028869023183629265,0.0829550440254402,0.083051747686975,5.795074376966085,3.289438107161818,0.3170878767793686,0.0024892326424438625,0.017838700236104656,0.2691764510745699
1750761732.9068851,-2.0202061212449145,-1.7705450359339903,-0.9566859714388682,1.5670954243326405,-0.8922095136439552,-2.462472939479472,0.02042267637987153,-0.1320000000000001,0.1119078884731349,0.002908939740640506,0.08358828863632141,0.08368573049374581,5.794461765810908,3.2888835780847923,0.3170887245572968,0.0024885169210104854,0.017838700234144314,0.26907604106006394
1750761732.908871,-2.0201651211749097,-1.77081003593399,-0.9564613078748883,1.567101264249544,-0.8920417038220716,-2.4623049340356777,0.020577393625173586,-0.1330000000000001,0.1127556755070223,0.002930977162918086,0.08422153324720263,0.0843197133005166,5.793844345879879,3.28832467005282,0.31708958080295435,0.0024877952091126206,0.01783870023217154,0.26897485723887743
1750761732.9108047,-2.0201238116704143,-1.77107703593399,-0.9562349487368405,1.5671071482412922,-0.8918726275109661,-2.46213566062627,0.020732110870475644,-0.1340000000000001,0.11360346254090968,0.0029530145851956657,0.08485477785808386,0.08495369610728741,5.793222113779014,3.28776137942108,0.31709044556212357,0.0024870674944483845,0.017838700230185217,0.26887289940575704
1750761732.912741,-2.0200821927314276,-1.7713460359339903,-0.9560068940247239,1.5671130763078849,-0.8917022847106386,-2.4619651192512486,0.0208868281157777,-0.1350000000000001,0.11445124957479706,0.0029750520074732453,0.08548802246896509,0.0855876789140582,5.792595066089407,3.287193702518649,0.31709131888092934,0.0024863337646283917,0.017838700228185764,0.26877016735489
1750761732.9148705,-2.0200402643579505,-1.77161703593399,-0.9557771437385405,1.567119048449322,-0.8915306754210901,-2.4617933099106137,0.021041545361079758,-0.1360000000000001,0.11529903660868444,0.002997089429750825,0.08612126707984631,0.08622166172082901,5.791963199367266,3.286621635648539,0.31709220080583467,0.0024855940071764047,0.017838700226173218,0.2686666608800196
1750761732.9167464,-2.019998026549983,-1.77189003593399,-0.9555456978782892,1.5671250646656039,-0.8913577996423196,-2.4616202326043655,0.021196262606381817,-0.1370000000000001,0.11614682364257184,0.0030191268520284044,0.08675451169072754,0.0868556445275998,5.791326510143891,3.2860451750877244,0.3170930913836429,0.0024848482095288296,0.017838700224147623,0.2685623797743687
1750761732.9188669,-2.0199554793075247,-1.7721650359339902,-0.9553125564439702,1.5671311249567301,-0.8911836573743273,-2.4614458873325034,0.021350979851683872,-0.1380000000000001,0.11699461067645922,0.003041164274305984,0.08738775630160875,0.08748962733437061,5.790684994925722,3.285464317087176,0.31709399066149496,0.0024840963590355243,0.01783870022210863,0.26845732383076676
1750761732.9242203,-2.019912622630576,-1.7724420359339899,-0.9550777194355842,1.567137229322701,-0.8910082486171129,-2.461270274095028,0.02150569709698593,-0.1390000000000001,0.1178423977103466,0.0030632016965835636,0.08802100091248997,0.08812361014114141,5.790038650194353,3.284879057871902,0.3170948986868744,0.0024833384429592455,0.017838700220057443,0.2683514928415678
1750761732.925032,-2.019869456519137,-1.7727210359339907,-0.9548411868531295,1.5671433777635164,-0.8908315733706775,-2.461093392891939,0.021660414342287986,-0.1400000000000001,0.118690184744234,0.003085239118861143,0.0886542455233712,0.08875759294791222,5.7893874724065135,3.2842893936409667,0.3170958155076025,0.0024825744484764677,0.017838700217992942,0.26824488659878004
1750761732.9271162,-2.0198259809732075,-1.77300203593399,-0.9546029586966069,1.5671495702791765,-0.8906536316350193,-2.4609152437232362,0.021815131587590044,-0.1410000000000001,0.11953797177812138,0.0031072765411387228,0.08928749013425243,0.08939157575468301,5.788731457994148,3.283695320567544,0.31709674117183845,0.0024818043626768233,0.01783870021591555,0.26813750489398813
1750761732.9289215,-2.0197821959927875,-1.7732850359339905,-0.9543630349660166,1.5671558068696811,-0.89047442341014,-2.46073582658892,0.0219698488328921,-0.1420000000000001,0.12038575881200876,0.0031293139634163024,0.08992073474513365,0.09002555856145382,5.788070603364373,3.2830968347989296,0.31709767572808284,0.0024810281725639494,0.017838700213825304,0.26802934751847696
1750761732.93077,-2.019738101577876,-1.7735700359339903,-0.9541214156613584,1.56716208753503,-0.8902939486960388,-2.4605551414889906,0.022124566078194158,-0.1430000000000001,0.12123354584589616,0.003151351385693882,0.09055397935601486,0.09065954136822461,5.787404904899525,3.2824939324565907,0.3170986192251738,0.0024802458650548444,0.017838700211721865,0.26792041426315677
1750761732.9327786,-2.0196936977284743,-1.7738570359339905,-0.9538781007826334,1.5671684122752239,-0.8901122074927166,-2.460373188423447,0.022279283323496213,-0.1440000000000001,0.12208133287978354,0.0031733888079714615,0.09118722396689609,0.09129352417499542,5.786734358957168,3.281886609636188,0.3170995717122869,0.002479457426980891,0.017838700209606442,0.26781070491868925
1750761732.9347713,-2.019648984444582,-1.77414603593399,-0.9536330903298396,1.567174781090262,-0.8899291998001715,-2.4601899673922905,0.02243400056879827,-0.1450000000000001,0.12292911991367092,0.003195426230249041,0.09182046857777731,0.09192750698176623,5.786058961870131,3.281274862407629,0.31710053323893916,0.0024786628450870997,0.017838700207477905,0.2677002192754182
1750761732.9367437,-2.019603961726199,-1.7744370359339907,-0.9533863843029788,1.5671811939801448,-0.8897449256184053,-2.4600054783955203,0.02258871781410033,-0.1460000000000001,0.1237769069475583,0.0032174636525266207,0.09245371318865854,0.09256148978853702,5.785378709946491,3.2806586868150798,0.3171015038549837,0.0024778621060328482,0.017838700205336684,0.26758895712345565
1750761732.9387164,-2.019558629573325,-1.77473003593399,-0.9531379827020494,1.5671876509448721,-0.8895593849474164,-2.4598197214331363,0.022743435059402385,-0.1470000000000001,0.1246246939814457,0.0032395010748042003,0.09308695779953977,0.09319547259530783,5.784693599469606,3.280038078877017,0.3171024836106134,0.0024770551963920117,0.017838700203182827,0.26747691825270953
1750761732.940803,-2.0195129879859612,-1.7750250359339903,-0.9528878855270531,1.5671941519844441,-0.8893725777872072,-2.459632696505139,0.022898152304704444,-0.1480000000000001,0.1254724810153331,0.00326153849708178,0.09372020241042098,0.09382945540207863,5.78400362669816,3.2794130345862493,0.3171034725563572,0.0024762421026525757,0.01783870020101598,0.2673641024528449
1750761732.942824,-2.019467036964107,-1.77532203593399,-0.952636092777988,1.5672006970988606,-0.8891845041377753,-2.4594444036115277,0.0230528695500065,-0.1490000000000001,0.12632026804922047,0.0032835759193593594,0.0943534470213022,0.09446343820884943,5.783308787866128,3.2787835499099764,0.31710447074308323,0.002475422811217514,0.017838700198837362,0.2672505095134069
1750761732.9453006,-2.019467036964107,-1.77532203593399,-0.952636092777988,1.5672006970988606,-0.8891845041377753,-2.4594444036115277,0.0230528695500065,-0.1490000000000001,0.12632026804922047,0.0032835759193593594,0.0943534470213022,0.09446343820884943,5.783308787866128,3.2787835499099764,0.31710447074308323,0.002475422811217514,0.017838700198837362,0.2672505095134069
1750761732.9469068,-2.0193742066169253,-1.7759220359339905,-0.9521274205576553,1.567213919552227,-0.8888045573712464,-2.4590640139274655,0.023362304040610612,-0.1510000000000001,0.12801584211699524,0.0033276507639145186,0.09561993624306465,0.09573140382239104,5.7819044968329765,3.277511243141771,0.31710649504464666,0.0024737655804452506,0.01783870019444186,0.26702099137312385
1750761732.9488466,-2.019327327291599,-1.7762250359339902,-0.9518705410863877,1.5672205968911772,-0.8886126842541495,-2.4588719171370137,0.02351702128591267,-0.1520000000000001,0.12886362915088262,0.003349688186192098,0.09625318085394588,0.09636538662916183,5.781195036976597,3.2768684128564276,0.31710752126290764,0.002472927613488023,0.017838700192225453,0.2669050657506888
1750761732.950941,-2.019280138531782,-1.7765300359339902,-0.9516119660410522,1.5672273183049719,-0.8884195446478307,-2.458678552380949,0.02367173853121473,-0.1530000000000001,0.12971141618477,0.0033717256084696778,0.09688642546482709,0.09699936943593264,5.780480695749142,3.276221125798824,0.31710855692900025,0.002472083393595371,0.017838700189996275,0.26678836214555146
1750761732.952871,-2.0192326403374743,-1.7768370359339904,-0.951351695421649,1.567234083793611,-0.8882251385522899,-2.4584839196592703,0.023826455776516785,-0.1540000000000001,0.13055920321865738,0.0033937630307472573,0.09751967007570832,0.09763335224270343,5.779761469261478,3.275569377808577,0.31710960209548,0.002471232906745139,0.017838700187755546,0.26667088034673475
1750761732.9548092,-2.0191848327086763,-1.7771460359339901,-0.9510897292281779,1.5672408933570947,-0.8880294659675281,-2.458288018971978,0.023981173021818843,-0.1550000000000001,0.1314069902525448,0.003415800453024837,0.09815291468658954,0.09826733504947424,5.779037353599891,3.2749131646999015,0.3171106568152402,0.002470376138831064,0.017838700185502137,0.26655262014330056
1750761732.956777,-2.019136715645387,-1.77745703593399,-0.9508260674606381,1.5672477469954231,-0.8878325268935434,-2.4580908503190724,0.0241358902671209,-0.1560000000000001,0.13225477728643217,0.0034378378753024165,0.09878615929747077,0.09890131785624504,5.778308344826119,3.274252482261641,0.3171117211415074,0.0024695130756621224,0.017838700183236484,0.26643358132427303
1750761732.9590354,-2.019088289147607,-1.7777700359339903,-0.9505607101190314,1.567254644708596,-0.8876343213303377,-2.457892413700553,0.024290607512422957,-0.1570000000000001,0.13310256432031956,0.003459875297579996,0.099419403908352,0.09953530066301584,5.777574438977375,3.2735873262573114,0.3171127951278503,0.0024686437029634426,0.01783870018095863,0.2663137636787648
1750761732.9608207,-2.019088289147607,-1.7777700359339903,-0.9505607101190314,1.567254644708596,-0.8876343213303377,-2.457892413700553,0.024290607512422957,-0.1570000000000001,0.13310256432031956,0.003459875297579996,0.099419403908352,0.09953530066301584,5.777574438977375,3.2735873262573114,0.3171127951278503,0.0024686437029634426,0.01783870018095863,0.2663137636787648
1750761732.9629838,-2.019039553215338,-1.77808503593399,-0.9502936572033569,1.5672615864966135,-0.88743484927791,-2.45769270911642,0.024445324757725012,-0.1580000000000001,0.13395035135420694,0.0034819127198575757,0.1000526485192332,0.10016928346978665,5.776835632066351,3.272917692425135,0.3171138788281699,0.0024677680063758044,0.017838700178668232,0.2661931669959143
1750761732.9648852,-2.018990507848576,-1.7784020359339898,-0.9500249087136146,1.5672685723594755,-0.8872341107362613,-2.457491736566674,0.02460004200302707,-0.1590000000000001,0.13479813838809432,0.0035039501421351552,0.10068589313011443,0.10080326627655745,5.77609192008125,3.2722435764780906,0.3171149722967056,0.002466885971456184,0.01783870017636651,0.2660717910649743
1750761732.9668255,-2.018941153047325,-1.77872103593399,-0.9497544646498053,1.5672756022971819,-0.8870321057053898,-2.457289496051314,0.02475475924832913,-0.16000000000000011,0.1356459254219817,0.0035259875644127353,0.10131913774099566,0.10143724908332825,5.775343298985802,3.2715649741039283,0.31711607558803173,0.0024659975836779893,0.017838700174052334,0.2659496356753385
1750761732.9688528,-2.018891488811583,-1.7790420359339905,-0.9494823250119273,1.5672826763097332,-0.8868288341852972,-2.4570859875703404,0.024909476493631184,-0.16100000000000012,0.13649371245586908,0.003548024986690315,0.10195238235187688,0.10207123189009905,5.774589764719287,3.270881880965235,0.3171171887570591,0.002465102828430684,0.017838700171726143,0.2658267006165083
1750761732.970793,-2.01884151514135,-1.7793650359339903,-0.9492084897999815,1.5672897943971287,-0.8866242961759827,-2.4568812111237537,0.025064193738933243,-0.16200000000000012,0.1373414994897565,0.0035700624089678944,0.10258562696275811,0.10270521469686986,5.773831313196548,3.2701942926994634,0.3171183118590357,0.002464201691020662,0.017838700169387982,0.2657029856782152
1750761732.9728007,-2.0187912320366275,-1.7796900359339904,-0.9489329590139679,1.5672969565593688,-0.8864184916774462,-2.456675166711553,0.025218910984235298,-0.16300000000000012,0.13818928652364387,0.003592099831245474,0.10321887157363933,0.10333919750364065,5.773067940308006,3.2695022049189504,0.3171194449495404,0.002463294156670694,0.017838700167037903,0.26557849065034633
1750761732.9800322,-2.0187406394974134,-1.78001703593399,-0.9486557326538865,1.5673041627964537,-0.8862114206896878,-2.456467854333739,0.025373628229537357,-0.16400000000000012,0.13903707355753125,0.0036141372535230536,0.10385211618452055,0.10397318031041146,5.77229964191971,3.2688056132110077,0.3171205880844942,0.0024623802105207923,0.01783870016467556,0.26545321532307714
1750761732.9803538,-2.018638526115515,-1.7806770359339907,-0.948096193211521,1.567318707495157,-0.8857934792465061,-2.4560494256812704,0.02568306272014147,-0.16600000000000012,0.14073264762530602,0.0036582120980782127,0.105118605406283,0.10524114592395306,5.7707482519861255,3.2673989002369264,0.31712290471309174,0.0024605330229654043,0.017838700159916614,0.26520032293223633
1750761732.9808555,-2.0185870052728285,-1.7810100359339902,-0.9478138801292371,1.5673260459567753,-0.8855826087910827,-2.4558383094066154,0.02583777996544353,-0.16700000000000012,0.1415804346591934,0.0036802495203557923,0.10575185001716422,0.10587512873072386,5.769965152051126,3.266688770020462,0.31712407832024664,0.002459599751425404,0.017838700157519326,0.26507270545040407
1750761732.9828835,-2.0185351749956526,-1.78134503593399,-0.9475298714728844,1.5673334284932383,-0.8853704718464375,-2.4556259251663475,0.025992497210745584,-0.16800000000000012,0.1424282216930808,0.003702286942633372,0.10638509462804545,0.10650911153749466,5.7691771098369875,3.2659741179759667,0.3171252621988718,0.002458660007816762,0.017838700155110358,0.26494430683270465
1750761732.9847848,-2.0184830352839853,-1.78168203593399,-0.9472441672424647,1.5673408551045458,-0.8851570684125702,-2.4554122729604657,0.026147214456047643,-0.16900000000000012,0.1432760087269682,0.0037243243649109515,0.10701833923892666,0.10714309434426546,5.768384121088079,3.2652549395660557,0.31712645640655623,0.00245771377686591,0.017838700152689364,0.26481512687087855
1750761732.9868338,-2.0184305861378284,-1.7820210359339903,-0.9469567674379764,1.567348325790698,-0.884942398489482,-2.45519735278897,0.026301931701349698,-0.17000000000000012,0.14412379576085557,0.003746361787188531,0.10765158384980789,0.10777707715103627,5.767586181524518,3.2645312302285308,0.31712766100122963,0.002456761043217557,0.017838700150257573,0.2646851653571257
1750761732.9887538,-2.01837782755718,-1.78236203593399,-0.9466676720594212,1.5673558405516945,-0.8847264620771718,-2.4549811646518616,0.026456648946651756,-0.17100000000000012,0.14497158279474295,0.0037683992094661107,0.10828482846068911,0.10841105995780706,5.766783286842159,3.2638029853764263,0.31712887604115164,0.002455801791434015,0.017838700147813854,0.26455442208403607
1750761732.9906254,-2.0183247595420415,-1.78270503593399,-0.9463768811067972,1.5673633993875358,-0.8845092591756387,-2.454763708549139,0.02661136619195381,-0.17200000000000013,0.14581936982863034,0.0037904366317436902,0.10891807307157034,0.10904504276457787,5.765975432712629,3.263070200398037,0.31713010158491645,0.0024548360059962063,0.01783870014535865,0.26442289684472065
1750761732.9925878,-2.0182713820924123,-1.7830500359339903,-0.9460843945801063,1.5673710022982217,-0.8842907897848846,-2.4545449844808034,0.02676608343725587,-0.17300000000000013,0.14666715686251772,0.00381247405402127,0.10955131768245156,0.10967902557134868,5.765162614783369,3.2623328706569787,0.31713133769145263,0.002453863671303059,0.017838700142892013,0.264290589432748
1750761732.99643,-2.0182713820924123,-1.7830500359339903,-0.9460843945801063,1.5673710022982217,-0.8842907897848846,-2.4545449844808034,0.02676608343725587,-0.17300000000000013,0.14666715686251772,0.00381247405402127,0.10955131768245156,0.10967902557134868,5.765162614783369,3.2623328706569787,0.31713133769145263,0.002453863671303059,0.017838700142892013,0.264290589432748
1750761732.9970603,-2.0182176952082926,-1.78339703593399,-0.9457902124793476,1.5673786492837518,-0.8840710539049095,-2.4543249924468538,0.02692080068255793,-0.17400000000000013,0.1475149438964051,0.0038345114762988494,0.11018456229333277,0.11031300837811947,5.7643448286776175,3.2615909914922185,0.3171325844200221,0.0024528847716721465,0.0178387001404136,0.26415749964223606
1750761732.9989994,-2.0181636988896816,-1.7837460359339907,-0.945494334804521,1.5673863403441268,-0.8838500515357115,-2.4541037324472907,0.027075517927859984,-0.17500000000000013,0.1483627309302925,0.003856548898576429,0.110817806904214,0.11094699118489028,5.76352206999445,3.260844558218124,0.31713384183022103,0.002451899291339969,0.017838700137924636,0.26402362726788386
1750761733.000881,-2.018109393136581,-1.78409703593399,-0.9451967615556267,1.5673940754793463,-0.8836277826772925,-2.4538812044821143,0.027230235173162042,-0.17600000000000013,0.1492105179641799,0.0038785863208540086,0.11145105151509523,0.11158097399166107,5.7626943343088275,3.260093566124498,0.3171351099819751,0.0024509072144614855,0.017838700135423997,0.2638889721049388
1750761733.0027823,-2.01805477794899,-1.7844500359339897,-0.9448974927326637,1.5674018546894102,-0.8834042473296515,-2.453657408551324,0.027384952418464097,-0.17700000000000013,0.15005830499806727,0.003900623743131588,0.11208429612597645,0.11221495679843188,5.761861617171564,3.2593380104766347,0.3171363889355485,0.002449908525111117,0.017838700132912128,0.26375353394932166
1750761733.004774,-2.0179998533269075,-1.7848050359339904,-0.9445965283356337,1.5674096779743187,-0.8831794454927886,-2.4534323446549204,0.027539669663766156,-0.17800000000000013,0.15090609203195465,0.003922661165409168,0.11271754073685768,0.11284893960520267,5.761023914109392,3.2585778865153485,0.3171376787515344,0.0024489032072821542,0.01783870013038908,0.2636173125975562
1750761733.0067086,-2.0179446192703345,-1.7851620359339897,-0.9442938683645359,1.5674175453340717,-0.8829533771667037,-2.4532060127929034,0.02769438690906821,-0.17900000000000013,0.15175387906584203,0.003944698587686747,0.11335078534773889,0.11348292241197348,5.760181220624976,3.2578131894570337,0.3171389794908597,0.002447891244887579,0.01783870012785451,0.26348030784690446
1750761733.0089407,-2.017889075779271,-1.7855210359339901,-0.9439895128193703,1.5674254567686694,-0.8827260423513978,-2.4529784129652725,0.02784910415437027,-0.18000000000000013,0.15260166609972942,0.003966736009964327,0.11398402995862011,0.11411690521874428,5.759333532196923,3.257043914493691,0.3171402912147835,0.002446872621759735,0.01783870012530965,0.26334251949529275
1750761733.0109568,-2.0178332228537172,-1.78588203593399,-0.9436834617001377,1.5674334122781117,-0.8824974410468691,-2.4527495451720283,0.028003821399672325,-0.18100000000000013,0.15344945313361683,0.0039887734322419065,0.11461727456950134,0.11475088802551509,5.758480844279814,3.256270056792987,0.317141613984898,0.0024458473216509022,0.01783870012275337,0.2632039473414487
1750761733.0127733,-2.017777060493673,-1.78624503593399,-0.9433757150068365,1.5674414118623985,-0.8822675732531193,-2.4525194094131706,0.028158538644974383,-0.18200000000000013,0.1542972401675042,0.0040108108545194865,0.11525051918038257,0.11538487083228588,5.757623152304229,3.2554916114982873,0.31714294786312375,0.0024448153282330912,0.01783870012018612,0.26306459118482795
1750761733.014793,-2.017777060493673,-1.78624503593399,-0.9433757150068365,1.5674414118623985,-0.8822675732531193,-2.4525194094131706,0.028158538644974383,-0.18200000000000013,0.1542972401675042,0.0040108108545194865,0.11525051918038257,0.11538487083228588,5.757623152304229,3.2554916114982873,0.31714294786312375,0.0024448153282330912,0.01783870012018612,0.26306459118482795
1750761733.0169282,-2.017720588699137,-1.7866100359339905,-0.9430662727394674,1.5674494555215297,-0.8820364389701476,-2.452288005688699,0.028313255890276442,-0.18300000000000013,0.1551450272013916,0.004032848276797066,0.11588376379126379,0.11601885363905669,5.756760451676762,3.254708573728715,0.31714429291171836,0.002443776625098632,0.017838700117607954,0.2629244508257502
1750761733.01884,-2.017663807470111,-1.7869770359339903,-0.9427551348980305,1.5674575432555056,-0.8818040381979548,-2.452055333998614,0.028467973135578497,-0.18400000000000014,0.15599281423527897,0.004054885699074646,0.11651700840214502,0.11665283644582748,5.755892737780051,3.253920938579181,0.31714564919326765,0.002442731195759987,0.01783870011501892,0.26278352606532857
1750761733.0207741,-2.017606716806595,-1.7873460359339903,-0.9424423014825258,1.567465675064326,-0.8815703709365392,-2.451821394342916,0.028622690380880556,-0.18500000000000014,0.15684060126916635,0.004076923121352225,0.11715025301302623,0.11728681925259829,5.755020005972805,3.253128701120432,0.31714701677068874,0.002441679023650265,0.017838700112418684,0.26264181670560366
1750761733.0269432,-2.017549316708587,-1.7877170359339907,-0.9421277724929542,1.567473850947991,-0.8813354371859026,-2.4515861867216038,0.02877740762618261,-0.18600000000000014,0.15768838830305373,0.004098960543629805,0.11778349762390745,0.1179208020593691,5.754142251589811,3.252331856399118,0.3171483957072314,0.002440620092123084,0.017838700109808474,0.2624993225494822
1750761733.0273623,-2.0174916071760904,-1.7880900359339904,-0.9418115479293139,1.5674820709065007,-0.881099236946044,-2.4513497111346783,0.02893212487148467,-0.18700000000000014,0.15853617533694112,0.004120997965907384,0.11841674223478868,0.11855478486613989,5.753259469941991,3.2515303994377995,0.31714978606647504,0.0024395543844528953,0.017838700107187164,0.26235604340083163
1750761733.0286868,-2.017375259807623,-1.7888420359339907,-0.9411740120798306,1.5674986430480533,-0.880623036998661,-2.4508729560639866,0.029241559362088783,-0.18900000000000014,0.1602317494047159,0.004165072810462543,0.11968323145655113,0.1198227504796815,5.751478805976161,3.249913628765382,0.31715260130903733,0.0024374025733873875,0.017838700101912658,0.26206712934635046
1750761733.0307448,-2.017316621971654,-1.7892210359339904,-0.9408527007939878,1.5675069952310965,-0.8803830372911374,-2.4506326765802204,0.02939627660739084,-0.19000000000000014,0.1610795364386033,0.004187110232740123,0.12031647606743234,0.1204567332864523,5.750580914160757,3.2490983049794995,0.3171540263211682,0.0024363164361470915,0.017838700099259176,0.26192149405326265
1750761733.032681,-2.0172576747011934,-1.7896020359339904,-0.9405296939340761,1.5675153914889843,-0.8801417710943911,-2.450391129130841,0.029550993852692897,-0.19100000000000014,0.16192732347249067,0.004209147655017702,0.12094972067831357,0.1210907160932231,5.749677976085744,3.248278348804148,0.31715546301362335,0.0024352234550741297,0.01783870009659599,0.26177507299319075
1750761733.0346808,-2.0171984179962426,-1.7899850359339897,-0.9402049915000976,1.5675238318217166,-0.8798992384084237,-2.4501483137158475,0.029705711097994955,-0.19200000000000014,0.16277511050637805,0.004231185077295282,0.1215829652891948,0.1217246988999939,5.748769986942973,3.247453755142259,0.3171569114516339,0.002434123613050389,0.017838700093921987,0.261627865975235
1750761733.0366743,-2.0171984179962426,-1.7899850359339897,-0.9402049915000976,1.5675238318217166,-0.8798992384084237,-2.4501483137158475,0.029705711097994955,-0.19200000000000014,0.16277511050637805,0.004231185077295282,0.1215829652891948,0.1217246988999939,5.748769986942973,3.247453755142259,0.3171569114516339,0.002434123613050389,0.017838700093921987,0.261627865975235
1750761733.0386252,-2.017138851856801,-1.7903700359339902,-0.9398785934920504,1.5675323162292936,-0.8796554392332343,-2.4499042303352407,0.02986042834329701,-0.19300000000000014,0.16362289754026543,0.0042532224995728615,0.12221620990007602,0.1223586817067647,5.7478569419005145,3.2466245188729688,0.31715837170075983,0.0024330168928791912,0.01783870009123761,0.26147987280958773
1750761733.042862,-2.0170789762828694,-1.7907570359339902,-0.9395504999099362,1.567540844711715,-0.8794103735688239,-2.4496588789890206,0.03001514558859907,-0.19400000000000014,0.16447068457415281,0.0042752599218504415,0.12284945451095725,0.12299266451353551,5.746938836102761,3.245790634851694,0.3171598438268912,0.0024319032772865943,0.017838700088542915,0.2613310933076689
1750761733.0433674,-2.0170789762828694,-1.7907570359339902,-0.9395504999099362,1.567540844711715,-0.8794103735688239,-2.4496588789890206,0.03001514558859907,-0.19400000000000014,0.16447068457415281,0.0042752599218504415,0.12284945451095725,0.12299266451353551,5.746938836102761,3.245790634851694,0.3171598438268912,0.0024319032772865943,0.017838700088542915,0.2613310933076689
1750761733.0449376,-2.017018791274447,-1.7911460359339904,-0.9392207107537542,1.5675494172689808,-0.8791640414151907,-2.4494122596771866,0.030169862833901124,-0.19500000000000015,0.16531847160804022,0.004297297344128021,0.12348269912183846,0.1236266473203063,5.746015664670388,3.244952097910143,0.3171613278962473,0.0024307827489204697,0.017838700085837565,0.26118152728205657
1750761733.0468426,-2.0169582968315343,-1.79153703593399,-0.9388892260235044,1.5675580339010915,-0.8789164427723364,-2.449164372399739,0.030324580079203182,-0.19600000000000015,0.1661662586419276,0.004319334766405601,0.12411594373271968,0.12426063012707711,5.745087422700416,3.244108902856398,0.3171628239753732,0.0024296552903518777,0.017838700083122796,0.26103117454662655
1750761733.0488312,-2.01689749295413,-1.7919300359339907,-0.9385560457191859,1.5675666946080464,-0.8786675776402602,-2.4489152171566784,0.03047929732450524,-0.19700000000000015,0.167014045675815,0.00434137218868318,0.12474918834360091,0.1248946129338479,5.744154105266216,3.24326104447494,0.31716433213114775,0.0024285208840739833,0.01783870008039749,0.2608800349164814
1750761733.0508096,-2.0168363796422355,-1.79232503593399,-0.9382211698408005,1.5675753993898462,-0.878417446018962,-2.448664793948004,0.030634014569807296,-0.19800000000000015,0.16786183270970237,0.00436340961096076,0.12538243295448212,0.1255285957406187,5.743215707417556,3.242408517526713,0.31716585243077455,0.002427379512503559,0.0178387000776617,0.2607281082080841
1750761733.05279,-2.0167749568958513,-1.7927220359339904,-0.9378845983883473,1.5675841482464903,-0.8781660479084419,-2.448413102773716,0.030788731815109355,-0.19900000000000015,0.16870961974358975,0.004385447033238339,0.12601567756536336,0.12616257854738952,5.742272224180606,3.241551316749157,0.31716738494178587,0.0024262311579801494,0.01783870007491705,0.2605753942392318
1750761733.0547729,-2.016713224714975,-1.7931210359339902,-0.9375463313618262,1.5675929411779792,-0.8779133833086998,-2.4481601436338143,0.03094344906041141,-0.20000000000000015,0.16955740677747713,0.004407484455515919,0.12664892217624457,0.12679656135416031,5.741323650557967,3.240689436856285,0.3171689297320423,0.002425075802766641,0.017838700072160867,0.2604218928290639
1750761733.0567787,-2.0166511830996097,-1.7935220359339903,-0.9372063687612373,1.5676017781843123,-0.8776594522197367,-2.4479059165282995,0.03109816630571347,-0.20100000000000015,0.17040519381136454,0.004429521877793499,0.1272821667871258,0.1274305441609311,5.740369981528724,3.2398228725386993,0.31717048686973287,0.002423913429049788,0.017838700069396328,0.2602676037982133
1750761733.0589507,-2.0165888320497523,-1.7939250359339898,-0.9368647105865806,1.5676106592654904,-0.8774042546415517,-2.447650421457171,0.03125288355101553,-0.20200000000000015,0.17125298084525192,0.004451559300071078,0.12791541139800702,0.12806452696770193,5.739411212048418,3.2389516184636746,0.31717205642337065,0.002422744018940019,0.017838700066620364,0.260112526968731
1750761733.0607686,-2.0165261715654053,-1.7943300359339904,-0.936521356837857,1.5676195844215126,-0.8771477905741447,-2.4473936584204283,0.03140760079631758,-0.20300000000000015,0.1721007678791393,0.004473596722348658,0.12854865600888823,0.12869850977447272,5.738447337049132,3.2380756692751733,0.31717363846179997,0.0024215675544714214,0.017838700063835387,0.2599566621641203
1750761733.0627863,-2.016463201646568,-1.7947370359339905,-0.9361763075150646,1.5676285536523797,-0.8768900600175158,-2.447135627418073,0.03156231804161964,-0.20400000000000015,0.1729485549130267,0.004495634144626237,0.12918190061976947,0.12933249258124352,5.737478351439484,3.2371950195939405,0.3171752330541903,0.002420384017602787,0.017838700061041452,0.2598000092094872
1750761733.0647354,-2.016399922293239,-1.79514603593399,-0.9358295626182045,1.5676375669580913,-0.8766310629716658,-2.4468763284501036,0.0317170352869217,-0.20500000000000015,0.17379634194691407,0.004517671566903817,0.12981514523065069,0.1299664753880143,5.736504250104654,3.236309664017515,0.3171768402700375,0.002419193390217025,0.017838700058236272,0.2596425679314485
1750761733.0668302,-2.0163363335054196,-1.7955570359339905,-0.9354811221472765,1.5676466243386473,-0.8763707994365939,-2.446615761516521,0.031871752532223754,-0.20600000000000016,0.17464412898080145,0.0045397089891813965,0.13044838984153193,0.13060045819478514,5.735525027906408,3.2354195971202926,0.31717846017916346,0.0024179956541216787,0.017838700055423037,0.25948433815824656
1750761733.0719924,-2.0163363335054196,-1.7955570359339905,-0.9354811221472765,1.5676466243386473,-0.8763707994365939,-2.446615761516521,0.031871752532223754,-0.20600000000000016,0.17464412898080145,0.0045397089891813965,0.13044838984153193,0.13060045819478514,5.735525027906408,3.2354195971202926,0.31717846017916346,0.0024179956541216787,0.017838700055423037,0.25948433815824656
1750761733.0728035,-2.0162082276263096,-1.79638503593399,-0.934779154483218,1.567664871324293,-0.8758464728987843,-2.4460908237525145,0.032181187022827865,-0.20800000000000016,0.17633970304857624,0.004583783833736556,0.13171487906329435,0.13186842380832672,5.733551200249962,3.2336253075457044,0.3171817383581738,0.0024155787826563827,0.01783870004976559,0.2591655124474025
1750761733.0749464,-2.016143710535019,-1.7968020359339905,-0.9344256272900866,1.5676740609293829,-0.8755824098960465,-2.445826452922091,0.03233590426812993,-0.20900000000000016,0.17718749008246362,0.004605821256014136,0.1323481236741756,0.13250240661509752,5.73255658439853,3.2327210739019128,0.31718339676933066,0.002414359610526641,0.017838700046923853,0.259004916174566
1750761733.0767848,-2.0160788840092376,-1.7972210359339904,-0.9340704045228883,1.567683294609317,-0.8753170804040877,-2.445560814126054,0.03249062151343198,-0.21000000000000016,0.178035277116351,0.004627858678291715,0.1329813682850568,0.13313638942186834,5.731556826897293,3.2318121070045893,0.3171850681563154,0.002413133256167784,0.017838700044071166,0.25884353073619865
1750761733.0787516,-2.0160788840092376,-1.7972210359339904,-0.9340704045228883,1.567683294609317,-0.8753170804040877,-2.445560814126054,0.03249062151343198,-0.21000000000000016,0.178035277116351,0.004627858678291715,0.1329813682850568,0.13313638942186834,5.731556826897293,3.2318121070045893,0.3171850681563154,0.002413133256167784,0.017838700044071166,0.25884353073619865
1750761733.0806525,-2.016013748048964,-1.7976420359339897,-0.9337134861816212,1.567692572364096,-0.8750504844229061,-2.4452939073644036,0.03264533875873404,-0.21100000000000016,0.17888306415023839,0.004649896100569295,0.13361461289593804,0.13377037222863913,5.730551922491412,3.2308984013132322,0.31718675259057777,0.002411899701013391,0.01783870004121073,0.25868135596903424
1750761733.0826972,-2.015948302654202,-1.7980650359339903,-0.9333548722662872,1.5677018941937195,-0.8747826219525034,-2.4450257326371396,0.0328000560040361,-0.21200000000000016,0.17973085118412577,0.004671933522846874,0.13424785750681925,0.13440435503540993,5.729541865902823,3.229979951264492,0.31718845014389263,0.0024106589264232797,0.01783870003833947,0.2585183917117024
1750761733.0847688,-2.0158825478249485,-1.7984900359339901,-0.9329945627768854,1.5677112600981875,-0.8745134929928788,-2.444756289944262,0.032954773249338154,-0.21300000000000016,0.18057863821801315,0.004693970945124454,0.13488110211770046,0.13503833784218075,5.7285266518302125,3.2290567512722763,0.3171901608883594,0.0024094109136832726,0.017838700035459797,0.25835463780465207
1750761733.0887556,-2.0158164835612045,-1.7989170359339903,-0.9326325577134149,1.5677206700775,-0.8742430975440332,-2.4444855792857707,0.03310949049464021,-0.21400000000000016,0.18142642525190053,0.004716008367402033,0.1355143467285817,0.13567232064895154,5.727506274949127,3.2281287957277613,0.31719188489640243,0.002408155644005033,0.01783870003257177,0.2581900940901891
1750761733.0890868,-2.01575010986297,-1.79934603593399,-0.9322688570758775,1.567730124131657,-0.8739714356059647,-2.444213600661666,0.033264207739942264,-0.21500000000000016,0.18227421228578794,0.004738045789679613,0.13614759133946291,0.13630630345572234,5.726480729911924,3.227196078999463,0.31719362224076963,0.002406893098527564,0.017838700029673114,0.2580247604126279
1750761733.0911372,-2.015683426730245,-1.7997770359339906,-0.9319034608642722,1.5677396222606588,-0.8736985071786751,-2.4439403540719478,0.033418924985244326,-0.21600000000000016,0.18312199931967532,0.004760083211957192,0.13678083595034415,0.13694028626249313,5.725450011347852,3.226258595433289,0.31719537299453066,0.002405623258316025,0.017838700026767008,0.2578586366182032
1750761733.0927963,-2.0156164341630287,-1.8002100359339899,-0.9315363690785983,1.567749164464505,-0.8734243122621628,-2.4436658395166164,0.03357364223054638,-0.21700000000000016,0.1839697863535627,0.004782120634234772,0.13741408056122537,0.13757426906926395,5.724414113863047,3.225316339352602,0.31719713723108245,0.0024043461043629383,0.01783870002385039,0.25769172255518447
1750761733.094746,-2.015549132161323,-1.8006450359339903,-0.9311675817188574,1.5677587507431956,-0.8731488508564302,-2.443390056995671,0.033728359475848436,-0.21800000000000017,0.18481757338745008,0.0048041580565123514,0.13804732517210658,0.13820825187603475,5.723373032040598,3.2243693050582505,0.3171989150241423,0.002403061617587462,0.017838700020925677,0.25752401807383773
1750761733.0966907,-2.0154815207251255,-1.80108203593399,-0.9307970987850487,1.567768381096731,-0.8728721229614749,-2.4431130065091122,0.0338830767211505,-0.21900000000000017,0.18566536042133747,0.0048261954787899315,0.13868056978298782,0.13884223468280554,5.722326760440532,3.2234174868286556,0.317200706447751,0.002401769778836984,0.017838700017992922,0.25735552302659104
1750761733.0987115,-2.0154135998544387,-1.8015210359339902,-0.9304249202771722,1.5677780555251108,-0.8725941285772976,-2.44283468805694,0.034037793966452554,-0.22000000000000017,0.18651314745522485,0.004848232901067511,0.13931381439386903,0.13947621748957634,5.7212752935998745,3.2224608789198372,0.31720251157627194,0.0024004705688859514,0.01783870001504985,0.2571862372679468
1750761733.1006613,-2.0153453695492605,-1.8019620359339905,-0.9300510461952278,1.5677877740283352,-0.8723148677038992,-2.4425551016391536,0.03419251121175461,-0.22100000000000017,0.18736093448911226,0.004870270323345091,0.13994705900475027,0.14011020029634716,5.720218626032669,3.2214994755654978,0.31720433048439156,0.002399163968437067,0.01783870001209965,0.2570161606545962
1750761733.1026638,-2.0152768298095918,-1.8024050359339903,-0.9296754765392157,1.567797536606404,-0.8720343403412789,-2.4422742472557544,0.034347228457056664,-0.22200000000000017,0.18820872152299964,0.00489230774562267,0.14058030361563148,0.14074418310311795,5.719156752230011,3.2205332709770547,0.3172061632471147,0.002397849958120595,0.017838700009139258,0.2568452930453841
1750761733.1046488,-2.0152079806354317,-1.8028500359339903,-0.9292982113091357,1.5678073432593176,-0.8717525464894367,-2.4419921249067413,0.034501945702358726,-0.22300000000000017,0.18905650855688702,0.00491434516790025,0.14121354822651272,0.14137816590988875,5.718089666660071,3.219562259343717,0.3172080099397739,0.0023965285184959274,0.017838700006171868,0.25667363430147133
1750761733.10675,-2.015138822026781,-1.8032970359339906,-0.9289192505049879,1.5678171939870758,-0.8714694861483725,-2.441708734592115,0.03465666294766078,-0.22400000000000017,0.1899042955907744,0.004936382590177829,0.14184679283739393,0.14201214871665954,5.717017363768115,3.218586434832516,0.3172098706380182,0.0023951996300504413,0.017838700003194412,0.25650118428625235
1750761733.1088376,-2.015069353983641,-1.8037460359339903,-0.9285385941267732,1.5678270887896784,-0.8711851593180873,-2.4414240763118746,0.034811380192962836,-0.22500000000000017,0.19075208262466178,0.004958420012455409,0.14248003744827514,0.14264613152343036,5.715939837976582,3.217605791588391,0.3172117454178196,0.0023938632732006947,0.017838700000209307,0.25632794286546706
1750761733.1106539,-2.0149995765060105,-1.8041970359339903,-0.9281562421744898,1.5678370276671256,-0.8708995659985801,-2.441138150066021,0.0349660974382649,-0.22600000000000017,0.19159986965854917,0.004980457434732988,0.14311328205915638,0.14328011433020116,5.714857083685054,3.216620323734229,0.31721363435547084,0.0023925194282917468,0.01783869999721662,0.256153909907166
1750761733.1157253,-2.0149294895938876,-1.8046500359339905,-0.9277721946481385,1.5678470106194173,-0.870612706189851,-2.440850955854554,0.03512081468356695,-0.22700000000000017,0.19244765669243655,0.005002494857010568,0.1437465266700376,0.14391409713697195,5.713769095270292,3.2156300253709325,0.3172155375275845,0.002391168075598673,0.017838699994214065,0.2559790852818781
1750761733.1162586,-2.0149294895938876,-1.8046500359339905,-0.9277721946481385,1.5678470106194173,-0.870612706189851,-2.440850955854554,0.03512081468356695,-0.22700000000000017,0.19244765669243655,0.005002494857010568,0.1437465266700376,0.14391409713697195,5.713769095270292,3.2156300253709325,0.3172155375275845,0.002391168075598673,0.017838699994214065,0.2559790852818781
1750761733.1178002,-2.0147883874661723,-1.8055620359339901,-0.9269990128732335,1.5678671087485345,-0.8700351871047269,-2.4402727635347787,0.03543024917417106,-0.22900000000000018,0.19414323076021134,0.005046569701565727,0.14501301589180005,0.14518206275051357,5.711577393464461,3.2136349134109246,0.3172193868832528,0.0023884427676063415,0.01783869998818588,0.2556270605245139
1750761733.118861,-2.014717372250579,-1.8060210359339903,-0.9266098786246788,1.5678772239253598,-0.8697445278283329,-2.439981765426471,0.035584966419473125,-0.23000000000000018,0.19499101779409872,0.005068607123843307,0.14564626050268126,0.14581604555728436,5.710473668713234,3.2126300879065854,0.3172213332216328,0.002387068772505099,0.017838699985159603,0.2554498601457882
1750761733.1207948,-2.014646047600495,-1.80648203593399,-0.9262190488020572,1.56788738317703,-0.869452602062716,-2.4396894993525495,0.03573968366477518,-0.23100000000000018,0.1958388048279861,0.005090644546120886,0.1462795051135625,0.14645002836405516,5.709364687118539,3.211620408077976,0.3172232941041258,0.0023856871900159765,0.01783869998212607,0.25527186760684845
1750761733.122831,-2.01457441351592,-1.8069450359339907,-0.9258265234053669,1.5678975865035443,-0.8691594098078781,-2.439395965313015,0.035894400910077236,-0.23200000000000018,0.19668659186187348,0.0051126819683984664,0.1469127497244437,0.14708401117082598,5.708250442943627,3.2106058679169256,0.31722526960894326,0.002384298000063807,0.017838699979083,0.2550930827908105
1750761733.1248243,-2.01457441351592,-1.8069450359339907,-0.9258265234053669,1.5678975865035443,-0.8691594098078781,-2.439395965313015,0.035894400910077236,-0.23200000000000018,0.19668659186187348,0.0051126819683984664,0.1469127497244437,0.14708401117082598,5.708250442943627,3.2106058679169256,0.31722526960894326,0.002384298000063807,0.017838699979083,0.2550930827908105
1750761733.126618,-2.014502469996854,-1.80741003593399,-0.9254323024346096,1.5679078339049035,-0.8688649510638182,-2.4391011633078663,0.0360491181553793,-0.23300000000000018,0.19753437889576086,0.005134719390676046,0.14754599433532495,0.14771799397759677,5.707130930429142,3.2095864613936236,0.317227259814614,0.0023829011825036777,0.0178386999760336,0.25491350558338804
1750761733.128657,-2.014430217043298,-1.8078770359339904,-0.9250363858897845,1.567918125381107,-0.8685692258305373,-2.4388050933371046,0.03620383540068135,-0.23400000000000018,0.19838216592964827,0.005156756812953626,0.14817923894620616,0.14835197678436757,5.706006143793126,3.208562182456682,0.31722926479998664,0.0023814967171223015,0.0178386999729748,0.2547331358730564
1750761733.130568,-2.0143576546552513,-1.8083460359339902,-0.9246387737708908,1.5679284609321553,-0.8682722341080336,-2.438507755400729,0.03635855264598341,-0.23500000000000018,0.19922995296353566,0.005178794235231205,0.14881248355708737,0.14898595959113836,5.704876077231089,3.207533025033202,0.31723128464422445,0.0023800845836371384,0.017838699969909017,0.2545519735509707
1750761733.1336846,-2.014284782832714,-1.8088170359339903,-0.9242394660779301,1.5679388405580479,-0.8679739758963088,-2.43820914949874,0.03651326989128546,-0.23600000000000018,0.20007773999742304,0.005200831657508785,0.1494457281679686,0.14961994239790918,5.7037407249160115,3.2064989830288213,0.31723331942681293,0.0023786647616973835,0.01783869996683632,0.25437001851107977
1750761733.1347792,-2.0142116015756866,-1.8092900359339907,-0.9238384628109015,1.5679492642587853,-0.867674451195362,-2.4379092756311374,0.036667987136587525,-0.23700000000000018,0.20092552703131042,0.005222869079786364,0.15007897277884982,0.15025392520467998,5.702600080998405,3.2054600503277877,0.31723536922755213,0.0023772372308834776,0.017838699963754433,0.2541872706500943
1750761733.136717,-2.0141381108841685,-1.8097650359339905,-0.9234357639698043,1.5679597320343672,-0.8673736600051933,-2.437608133797921,0.03682270438188958,-0.23800000000000018,0.2017733140651978,0.005244906502063944,0.15071221738973106,0.15088790801145077,5.701454139606309,3.204416220793013,0.3172374341265596,0.0023758019707084965,0.01783869996066655,0.25400372986765724
1750761733.138694,-2.014064310758159,-1.8102420359339906,-0.9230313695546402,1.5679702438847936,-0.8670716023258027,-2.4373057239990916,0.036977421627191635,-0.23900000000000018,0.20262110109908518,0.005266943924341523,0.15134546200061227,0.15152189081822157,5.700302894845353,3.203367488266136,0.31723951420426943,0.002374358960617188,0.017838699957569613,0.2538193960662541
1750761733.140766,-2.013990201197659,-1.81072103593399,-0.9226252795654082,1.5679807998100646,-0.866768278157191,-2.4370020462346482,0.03713213887249369,-0.24000000000000019,0.20346888813297256,0.005288981346619103,0.15197870661149349,0.1521558736249924,5.6991463407987855,3.2023138465675847,0.3172416095414324,0.0023729081799871692,0.017838699954466034,0.253634269151337
1750761733.1429718,-2.0139157822026688,-1.8112020359339898,-0.9222174940021084,1.56799139981018,-0.8664636874993565,-2.4366971005045914,0.03728685611779575,-0.2410000000000002,0.20431667516685997,0.005311018768896682,0.15261195122237473,0.15278985643176318,5.697984471527499,3.2012552894966353,0.3172437202191157,0.0023714496081281623,0.017838699951355893,0.2534483490312892
1750761733.144972,-2.013841053773188,-1.8116850359339907,-0.9218080128647408,1.56800204388514,-0.866157830352301,-2.4363908868089212,0.03744157336309781,-0.2420000000000002,0.20516446220074736,0.005333056191174262,0.15324519583325594,0.15342383923853398,5.69681728107005,3.200191810831471,0.3172458463186986,0.002369983224283666,0.017838699948236905,0.2532616356175923
1750761733.14665,-2.0137660159092166,-1.81217003593399,-0.9213968361533054,1.5680127320349446,-0.8658507067160235,-2.436083405147637,0.03759629060839986,-0.2430000000000002,0.20601224923463474,0.005355093613451841,0.15387844044413718,0.1540578220453048,5.69564476344274,3.1991234043292733,0.31724798792188186,0.002368509007629901,0.01783869994511227,0.2530741288247597
1750761733.148745,-2.0136906686107547,-1.8126570359339897,-0.9209839638678021,1.5680234642595938,-0.8655423165905249,-2.4357746555207402,0.037751007853701925,-0.2440000000000002,0.20686003626852212,0.005377131035729421,0.1545116850550184,0.1546918048520756,5.69446691263959,3.1980500637262326,0.31725014511067656,0.0023670269372765168,0.017838699941978932,0.2528858285703753
1750761733.1508446,-2.0136150118778016,-1.8131460359339897,-0.9205693960082311,1.5680342405590877,-0.8652326599758036,-2.435464637928229,0.03790572509900398,-0.2450000000000002,0.2077078233024095,0.005399168458007001,0.1551449296658996,0.1553257876588464,5.693283722632409,3.1969717827376676,0.3172523179674099,0.002365536992267272,0.01783869993883931,0.25269673477525556
1750761733.1527793,-2.013539045710358,-1.81363703593399,-0.9201531325745931,1.568045060933426,-0.8649217368718611,-2.4351533523701048,0.038060442344306035,-0.2460000000000002,0.20855561033629688,0.005421205880284581,0.15577817427678084,0.15595977046561718,5.692095187370831,3.195888555058045,0.31725450657472337,0.002364039151579733,0.017838699935693477,0.25250684736336076
