mathias31415/primitives_from_planned_trajectory_python/data/saved_trajectories/trajectory_20250618_170911_planned.csv
time_from_start,shoulder_pan_joint_pos,shoulder_lift_joint_pos,elbow_joint_pos,wrist_1_joint_pos,wrist_2_joint_pos,wrist_3_joint_pos,shoulder_pan_joint_vel,shoulder_lift_joint_vel,elbow_joint_vel,wrist_1_joint_vel,wrist_2_joint_vel,wrist_3_joint_vel,shoulder_pan_joint_acc,shoulder_lift_joint_acc,elbow_joint_acc,wrist_1_joint_acc,wrist_2_joint_acc,wrist_3_joint_acc,fk_x,fk_y,fk_z,fk_qx,fk_qy,fk_qz,fk_qw
0.0,0.09781911989171636,-1.5685015165380118,1.854007571613849,-1.8287778328700837,-1.593091785367335,-1.4732698000167925,-0.00021158388985175402,0.00021337635975604075,-0.0005000000000000001,0.0002806016429796368,-4.2777414979304214e-06,-0.0002116225103489453,-0.21158388985175403,0.21337635975604075,-0.5000000000000001,0.2806016429796368,-0.0042777414979304216,-0.2116225103489453,-0.6464769987768371,-0.23581600240785744,0.5126499988125512,-0.00029968359631623817,0.999843138842861,0.012435254890010199,0.012608423153508106
0.1,0.0967612004424576,-1.5674346347392316,1.8515075716138492,-1.8273748246551855,-1.5931131740748248,-1.4743279125685373,-0.021158388985175473,0.02133763597560415,-0.050000000000000176,0.028060164297963777,-0.0004277741497930436,-0.0211622510348946,-0.2115838898518218,0.21337635975611136,-0.5000000000001527,0.2806016429797266,-0.004277741497931804,-0.21162251034901097,-0.6476096149593722,-0.23521520271760524,0.5134378224548002,-0.00029975933948529483,0.9998432266139909,0.012431100924593333,0.012605557039041341
0.2,0.0935874420946813,-1.564233989342891,1.844007571613849,-1.823165800010491,-1.5931773401972935,-1.4775022502237714,-0.0423167779703507,0.04267527195120806,-0.09999999999999978,0.056120328595927235,-0.0008555482995860823,-0.042324502069788966,-0.21158388985182527,0.21337635975612176,-0.5000000000001804,0.28060164297973705,-0.004277741497931967,-0.21162251034902138,-0.6509974078133524,-0.23339937636027686,0.5157990775207598,-0.0002999846367416767,0.9998434878815244,0.012418758814429286,0.012596990896029926
0.30000000000000004,0.08829784484838747,-1.55889958034899,1.8315075716138491,-1.816150758936,-1.5932842837347416,-1.4827928129824948,-0.06347516695552675,0.06401290792681279,-0.15000000000000133,0.08418049289389178,-0.0012833224493791374,-0.06348675310468414,-0.21158388985266488,0.21337635975696137,-0.5000000000021372,0.28060164298084034,-0.0042777414979485555,-0.21162251034985405,-0.6566099237813092,-0.2303284792889856,0.5197270197046402,-0.0003003536913266031,0.9998439165078968,0.012398586951963228,0.01258282366579049
0.4,0.08089240870357615,-1.5514314077575286,1.8140075716138495,-1.8063297014317128,-1.5934340046871696,-1.490199600844708,-0.08463355594070063,0.08535054390241532,-0.19999999999999774,0.11224065719185344,-0.0017110965991721488,-0.08464900413957716,-0.21158388985131873,0.21337635975560135,-0.49999999999897304,0.280601642979064,-0.004277741497921667,-0.21162251034852178,-0.6643954603210062,-0.22593657289609764,0.5252100861984957,-0.00030085684195180803,0.9998445022638484,0.012371179388040533,0.012563228027334358
0.5,0.07137113366024729,-1.5418294715685068,1.7915075716138493,-1.793702627497629,-1.5936265030545762,-1.4997226138104105,-0.10579194492587239,0.10668817987801572,-0.24999999999998912,0.1403008214898123,-0.002138870748965117,-0.10581125517446803,-0.21158388984786317,0.21337635975210414,-0.49999999999078515,0.28060164297447043,-0.004277741497851411,-0.21162251034503846,-0.6742796754169567,-0.22013305650799397,0.5322314126908803,-0.0003014805627640196,0.9998452308284458,0.012337360750905354,0.012538461978425576
0.6000000000000001,0.05973401971840092,-1.5300937717819247,1.76400757161385,-1.7782695371337494,-1.5938617788369625,-1.5113618518796024,-0.12695033391105273,0.12802581585362477,-0.3000000000000008,0.16836098578778252,-0.002566644898758259,-0.1269735062093675,-0.21158388985298407,0.21337635975726668,-0.5000000000028866,0.28060164298127055,-0.004277741497955061,-0.21162251035017324,-0.6861637009989954,-0.21280445208926632,0.5407681582378715,-0.00030220746329841404,0.9998460837891147,0.012298178782804405,0.012508884876206211
0.7000000000000001,0.04652467352707487,-1.5167725203055609,1.7327921841838778,-1.7607513591355572,-1.5941288415533288,-1.5245736091784936,-0.13294207879525072,0.13406832085186837,-0.31415926535899413,0.17630721203401886,-0.002687784252771008,-0.13296634476930155,-6.267772354370285e-12,6.2955058603630735e-12,-1.4809692200149256e-11,8.292318291843872e-12,-1.2653412109209922e-13,-6.267772354370285e-12,-0.6993840171755161,-0.20417865509438785,0.5503958912468377,-0.00030298535147776305,0.9998470019934969,0.012256543369306963,0.012476295489024685
0.8,0.03323046564755011,-1.5033656882203745,1.701376257647979,-1.7431206379321558,-1.594397619978606,-1.5378702436554235,-0.13294207879525072,0.13406832085186837,-0.31415926535899413,0.17630721203401886,-0.002687784252771008,-0.13296634476930155,-6.267772354370285e-12,6.2955058603630735e-12,-1.4809692200149256e-11,8.292318291843872e-12,-1.2653412109209922e-13,-6.267772354370285e-12,-0.7123918883233944,-0.19517603521731297,0.5600154845715163,-0.0003037175437674375,0.9998478724243942,0.012217654751242599,0.012444624399527954
0.9,0.019936257768025354,-1.489958856135188,1.6699603311120805,-1.7254899167287543,-1.5946663984038831,-1.5511668781323533,-0.13294207879525072,0.13406832085186837,-0.31415926535899413,0.17630721203401886,-0.002687784252771008,-0.13296634476930155,-6.267772354370285e-12,6.2955058603630735e-12,-1.4809692200149256e-11,8.292318291843872e-12,-1.2653412109209922e-13,-6.267772354370285e-12,-0.7250930333675426,-0.18585982563385048,0.5695616914608924,-0.00030439888019951857,0.9998486890112338,0.012181752182664388,0.012414158755191829
1.0,0.006642049888500608,-1.4765520240500014,1.6385444045761817,-1.7078591955253528,-1.5949351768291602,-1.564463512609283,-0.13294207879522119,0.13406832085183862,-0.31415926535892436,0.17630721203397973,-0.002687784252770411,-0.13296634476927202,2.3240678021954497e-11,-2.3434812563903996e-11,5.491234186571587e-11,-3.0811925157985016e-11,4.701695937839467e-13,2.3240678021954497e-11,-0.7374793135136781,-0.176239116212945,0.5790313425121787,-0.00030502936056500077,0.9998494517541835,0.012148796268224918,0.012384972070257391
1.1,-0.0066521579910226985,-1.4631451919648164,1.6071284780402868,-1.6902284743219536,-1.5952039552544373,-1.5777601470862117,-0.13294207879522107,0.1340683208518388,-0.31415926535892374,0.17630721203397956,-0.002687784252770087,-0.13296634476927222,2.3490279575889567e-11,-2.3712147623831852e-11,5.552247899755716e-11,-3.1172460735891234e-11,4.749362901264567e-13,2.3490279575889567e-11,-0.7495428723201465,-0.1663232125545189,0.5884212772893772,-0.0003056089846608671,0.9998501606534171,0.012118746189288179,0.012357137018095123
1.2,-0.019946365870545983,-1.4497383598796314,1.5757125515043913,-1.6725977531185539,-1.595472733679714,-1.5910567815631398,-0.13294207879522107,0.1340683208518388,-0.31415926535892374,0.17630721203397956,-0.002687784252770087,-0.13296634476927222,2.3490279575889567e-11,-2.3712147623831852e-11,5.552247899755716e-11,-3.1172460735891234e-11,4.749362901264567e-13,2.3490279575889567e-11,-0.761276141496345,-0.15612162718647674,0.5977283453669321,-0.0003061377522885947,0.9998508157091138,0.012091559719412845,0.012330725406398764
1.3,-0.03324057375006925,-1.436331527794446,1.5442966249684962,-1.6549670319151542,-1.5957415121049912,-1.6043534160400683,-0.13294207879522107,0.1340683208518388,-0.31415926535892374,0.17630721203397956,-0.002687784252770087,-0.13296634476927222,2.3490279575889567e-11,-2.3712147623831852e-11,5.552247899755716e-11,-3.1172460735891234e-11,4.749362901264567e-13,2.3490279575889567e-11,-0.7726718464256949,-0.14564407060496376,0.6069494073729786,-0.00030661566325628935,0.9998514169214584,0.012067193240243364,0.0123058081526463
1.4,-0.046534781629592556,-1.4229246957092612,1.512880698432601,-1.637336310711755,-1.596010290530268,-1.6176500505169966,-0.13294207879522107,0.1340683208518388,-0.31415926535892374,0.17630721203397956,-0.002687784252770087,-0.13296634476927222,2.3490279575889567e-11,-2.3712147623831852e-11,5.552247899755716e-11,-3.1172460735891234e-11,4.749362901264567e-13,2.3490279575889567e-11,-0.783723011408927,-0.1349004421664938,0.6160813360318568,-0.0003070427173766168,0.9998519642906406,0.012045601757803082,0.012282455259827949
1.5,-0.059828989509115846,-1.4095178636240762,1.481464771896706,-1.6197055895083554,-1.5962790689555453,-1.6309466849939251,-0.13294207879522107,0.1340683208518388,-0.31415926535892374,0.17630721203397956,-0.002687784252770087,-0.13296634476927222,2.3490279575889567e-11,-2.3712147623831852e-11,5.552247899755716e-11,-3.1172460735891234e-11,4.749362901264567e-13,2.3490279575889567e-11,-0.7944229646237072,-0.12390082084069065,0.6251210172055398,-0.0003074189144683503,0.9998524578168563,0.012026738919187546,0.012260735792456947
1.6,-0.07312319738863914,-1.396111031538891,1.4500488453608107,-1.6020748683049557,-1.5965478473808223,-1.6442433194708537,-0.13294207879522107,0.1340683208518388,-0.31415926535892374,0.17630721203397956,-0.002687784252770087,-0.13296634476927222,2.3490279575889567e-11,-2.3712147623831852e-11,5.552247899755716e-11,-3.1172460735891234e-11,4.749362901264567e-13,2.3490279575889567e-11,-0.8047653427968925,-0.11265545583248827,0.6340653509336407,-0.00030774425435533946,0.9998528975003064,0.012010557029650005,0.012240717852857665
1.7000000000000002,-0.08641740526816245,-1.3827041994537057,1.4186329188249156,-1.5844441471015562,-1.5968166258060992,-1.657539953947782,-0.1329420787952212,0.13406832085183862,-0.31415926535892436,0.17630721203397973,-0.002687784252770411,-0.13296634476927202,2.3240678021954497e-11,-2.3434812563903996e-11,5.491234186571587e-11,-3.0811925157985016e-11,4.701695937839467e-13,2.3240678021954497e-11,-0.8147440955859954,-0.10117475708273421,0.6429112524716488,-0.0003080187368669216,0.9998532833411975,0.011997007070078572,0.012222468557747076
1.8,-0.09971161314768572,-1.369297367368521,1.3872169922890203,-1.5668134258981568,-1.5970854042313765,-1.6708365884247103,-0.1329420787952212,0.13406832085183862,-0.31415926535892436,0.17630721203397973,-0.002687784252770411,-0.13296634476927202,2.3240678021954497e-11,-2.3434812563903996e-11,5.491234186571587e-11,-3.0811925157985016e-11,4.701695937839467e-13,2.3240678021954497e-11,-0.8243534896667107,-0.08946928565622894,0.6516556533270588,-0.00030824236183821143,0.9998536153397418,0.011986038714857327,0.012206054015110721
1.9,-0.11300582102720902,-1.355890535283336,1.3558010657531252,-1.5491827046947573,-1.5973541826566535,-1.6841332229016386,-0.1329420787952212,0.13406832085183862,-0.31415926535892436,0.17630721203397973,-0.002687784252770411,-0.13296634476927202,2.3240678021954497e-11,-2.3434812563903996e-11,5.491234186571587e-11,-3.0811925157985016e-11,4.701695937839467e-13,2.3240678021954497e-11,-0.8335881125236367,-0.07754974402631573,0.6602955022930428,-0.00030841512910956677,0.9998538934961568,0.011977600350106346,0.012191539301381825
2.0,-0.1263000289067323,-1.342483703198151,1.3243851392172301,-1.5315519834913578,-1.5976229610819306,-1.697429857378567,-0.1329420787952212,0.13406832085183862,-0.31415926535892436,0.17630721203397973,-0.002687784252770411,-0.13296634476927202,2.3240678021954497e-11,-2.3434812563903996e-11,5.491234186571587e-11,-3.0811925157985016e-11,4.701695937839467e-13,2.3240678021954497e-11,-0.8424428759416056,-0.06542696626520601,0.6688277664793347,-0.00030853703852702516,0.9998541178106655,0.011971639092299301,0.012178988438925776
2.1,-0.13959423678625849,-1.3290768711129628,1.292969212681328,-1.5139212622879543,-1.5978917395072076,-1.7107264918554983,-0.13294207879528022,0.13406832085189813,-0.3141592653590638,0.17630721203405797,-0.002687784252771604,-0.13296634476933103,-3.572075571871603e-11,3.602582428463674e-11,-8.442079224205869e-11,4.7368828235688645e-11,-7.219378278748654e-13,-3.572075571871603e-11,-0.8509130191953287,-0.053111908149286936,0.6772494323399723,-0.0003086080899417534,0.9998542882834963,0.011968100807249357,0.012168464373840867
2.2,-0.15288844466578477,-1.3156700390277747,1.2615532861454257,-1.4962905410845508,-1.5981605179324847,-1.7240231263324295,-0.13294207879528022,0.13406832085189813,-0.3141592653590638,0.17630721203405797,-0.002687784252771604,-0.13296634476933103,-3.572075571871603e-11,3.602582428463674e-11,-8.442079224205869e-11,4.7368828235688645e-11,-7.219378278748654e-13,-3.572075571871603e-11,-0.8589941119353356,-0.04061563718872706,0.6855575066975592,-0.00030862828321066046,0.9998544049148833,0.011966930129461104,0.012160028954077487
2.3,-0.16618265254531098,-1.3022632069425868,1.2301373596095233,-1.4786598198811474,-1.598429296357762,-1.737319760809361,-0.13294207879528022,0.13406832085189813,-0.3141592653590638,0.17630721203405797,-0.002687784252771604,-0.13296634476933103,-3.572075571871603e-11,3.602582428463674e-11,-8.442079224205869e-11,4.7368828235688645e-11,-7.219378278748654e-13,-3.572075571871603e-11,-0.8666820567684947,-0.02794932259070245,0.6937490177637187,-0.00030859761819623533,0.9998544677050659,0.011968070481842327,0.012153742907882861
2.4,-0.17947686042483726,-1.2888563748573987,1.1987214330736213,-1.4610290986777439,-1.598698074783039,-1.7506163952862923,-0.1329420787952802,0.13406832085189815,-0.31415926535906374,0.176307212034058,-0.0026877842527716048,-0.13296634476933109,-3.5693022212723235e-11,3.599809077864395e-11,-8.43653252300731e-11,4.7313361223703065e-11,-7.21504491843728e-13,-3.5693022212723235e-11,-0.8739730915316666,-0.015124225165653565,0.7018210161553792,-0.00030851609476616117,0.9998544766542893,0.01197146409576986,0.012149665822578029
2.5,-0.1927710683043634,-1.2754495427722108,1.1673055065377194,-1.4433983774743404,-1.5989668532083159,-1.7639130297632235,-0.1329420787952802,0.13406832085189815,-0.31415926535906374,0.176307212034058,-0.0026877842527716048,-0.13296634476933109,-3.5693022212723235e-11,3.599809077864395e-11,-8.43653252300731e-11,4.7313361223703065e-11,-7.21504491843728e-13,-3.5693022212723235e-11,-0.8808637912573442,-0.0021516871859738047,0.7097705759065689,-0.0003083837127936804,0.9998544317628036,0.011977052031506235,0.012147856123669074
2.6,-0.20606527618388967,-1.2620427106870227,1.135889580001817,-1.4257676562709372,-1.5992356316335932,-1.777209664240155,-0.1329420787952802,0.13406832085189815,-0.31415926535906374,0.176307212034058,-0.0026877842527716048,-0.13296634476933109,-3.5693022212723235e-11,3.599809077864395e-11,-8.43653252300731e-11,4.7313361223703065e-11,-7.21504491843728e-13,-3.5693022212723235e-11,-0.8873510698304284,0.010956877793439396,0.7175947954753712,-0.00030820047215771257,0.9998543330308649,0.011984774198959486,0.012148371054303383
2.7,-0.21935948406341424,-1.2486358786018366,1.104473653465919,-1.4081369350675361,-1.5995044100588705,-1.7905062987170846,-0.13294207879521125,0.13406832085182863,-0.3141592653589008,0.1763072120339666,-0.0026877842527702114,-0.13296634476926214,3.3197006673371964e-11,-3.347434173329988e-11,7.843035494761563e-11,-4.401307401056082e-11,6.708041762006552e-13,3.3197006673371964e-11,-0.8934321813355559,0.024189995143323893,0.7252907987457082,-0.0003079663727423817,0.9998541804587348,0.011994569378780497,0.012151266655072417
2.8,-0.23265369194293706,-1.2352290465166518,1.0730577269300248,-1.3905062138641369,-1.5997731884841473,-1.8038029331940124,-0.13294207879521125,0.13406832085182863,-0.3141592653589008,0.1763072120339666,-0.0026877842527702114,-0.13296634476926214,3.3197006673371964e-11,-3.347434173329988e-11,7.843035494761563e-11,-4.401307401056082e-11,6.708041762006552e-13,3.3197006673371964e-11,-0.8991047210947166,0.03753613938745254,0.732855736023619,-0.0003076814144374342,0.9998539740466799,0.012006375243794843,0.01215659774416722
2.9,-0.2459478998224598,-1.2218222144314672,1.0416418003941308,-1.372875492660738,-1.6000419669094246,-1.8170995676709403,-0.13294207879521125,0.13406832085182863,-0.3141592653589008,0.1763072120339666,-0.0026877842527702114,-0.13296634476926214,3.3197006673371964e-11,-3.347434173329988e-11,7.843035494761563e-11,-4.401307401056082e-11,6.708041762006552e-13,3.3197006673371964e-11,-0.9043666263951544,0.050983744439848044,0.7402867850276941,-0.000307345597138106,0.9998537137949728,0.012020128380761918,0.012164417897892207
3.0,-0.2592421077019825,-1.2084153823462829,1.010225873858237,-1.3552447714573395,-1.6003107453347014,-1.8303962021478681,-0.13294207879521125,0.13406832085182863,-0.3141592653589008,0.1763072120339666,-0.0026877842527702114,-0.13296634476926214,3.3197006673371964e-11,-3.347434173329988e-11,7.843035494761563e-11,-4.401307401056082e-11,6.708041762006552e-13,3.3197006673371964e-11,-0.9092161769078535,0.0645212138423966,0.7475811518733301,-0.00030695892074510204,0.9998533997038912,0.01203576431245309,0.012174779431543915
3.1,-0.2725363155815054,-1.1950085502610983,0.9788099473223428,-1.3376140502539404,-1.6005795237599785,-1.843692836624796,-0.13294207879521122,0.13406832085182877,-0.31415926535890065,0.17630721203396632,-0.0026877842527698852,-0.13296634476926225,3.3252473685357544e-11,-3.3529808745285465e-11,7.859675598357238e-11,-4.412400803453199e-11,6.721041842940674e-13,3.3252473685357544e-11,-0.9136519947971975,0.07813693099347889,0.7547360720504814,-0.00030652138516445787,0.9998530317737186,0.012053217520048811,0.012187733380657245
3.2,-0.2858305234610282,-1.1816017181759138,0.9473940207864489,-1.3199833290505416,-1.6008483021852555,-1.8569894711017239,-0.13294207879521122,0.13406832085182877,-0.31415926535890065,0.17630721203396632,-0.0026877842527698852,-0.13296634476926225,3.3252473685357544e-11,-3.3529808745285465e-11,7.859675598357238e-11,-4.412400803453199e-11,6.721041842940674e-13,3.3252473685357544e-11,-0.9176730445226667,0.0918192693582524,0.7617488113945737,-0.0003060329903079282,0.9998526100047439,0.012072421465842764,0.012203329482624713
3.3,-0.299124731340551,-1.168194886090729,0.9159780942505547,-1.3023526078471428,-1.6011170806105326,-1.8702861055786517,-0.13294207879521122,0.13406832085182877,-0.31415926535890065,0.17630721203396632,-0.0026877842527698852,-0.13296634476926225,3.3252473685357544e-11,-3.3529808745285465e-11,7.859675598357238e-11,-4.412400803453199e-11,6.721041842940674e-13,3.3252473685357544e-11,-0.9212786323337292,0.10555660265127667,0.7686166670502502,-0.0003054937360926122,0.9998521343972612,0.012093308616251148,0.012221616158695789
3.4,-0.3124189392200738,-1.1547880540055444,0.8845621677146608,-1.284721886643744,-1.6013858590358097,-1.8835827400555798,-0.13294207879521122,0.13406832085182877,-0.31415926535890065,0.17630721203396632,-0.0026877842527698852,-0.13296634476926225,3.3252473685357544e-11,-3.3529808745285465e-11,7.859675598357238e-11,-4.412400803453199e-11,6.721041842940674e-13,3.3252473685357544e-11,-0.9244684054593648,0.1193373149822169,0.7753369684276282,-0.0003049036224412175,0.9998516049515703,0.01211581046511914,0.012242640496358571
3.5,-0.32571314709959653,-1.14138122192036,0.8531462411787668,-1.2670911654403452,-1.6016546374610865,-1.8968793745325074,-0.13294207879521122,0.13406832085182877,-0.31415926535890065,0.17630721203396632,-0.0026877842527698852,-0.13296634476926225,3.3252473685357544e-11,-3.3529808745285465e-11,7.859675598357238e-11,-4.412400803453199e-11,6.721041842940674e-13,3.3252473685357544e-11,-0.9272423509939342,0.1331498109554264,0.781907078150737,-0.00030426264928153286,0.9998510216679769,0.012139857557318988,0.012266448232109282
3.6,-0.3390073549791194,-1.1279743898351755,0.8217303146428727,-1.2494604442369464,-1.6019234158863638,-1.9101760090094355,-0.13294207879521122,0.13406832085182877,-0.31415926535890065,0.17630721203396632,-0.0026877842527698852,-0.13296634476926225,3.3252473685357544e-11,-3.3529808745285465e-11,7.859675598357238e-11,-4.412400803453199e-11,6.721041842940674e-13,3.3252473685357544e-11,-0.9296007944813935,0.14698252571427484,0.7883243929978179,-0.0003035708165473857,0.9998503845467914,0.012165379512633573,0.01229308373461622
3.7,-0.3523015628586421,-1.1145675577499907,0.7903143881069788,-1.2318297230335475,-1.6021921943116406,-1.9234726434863634,-0.13294207879521122,0.13406832085182877,-0.31415926535890065,0.17630721203396632,-0.0026877842527698852,-0.13296634476926225,3.3252473685357544e-11,-3.3529808745285465e-11,7.859675598357238e-11,-4.412400803453199e-11,6.721041842940674e-13,3.3252473685357544e-11,-0.9315443982001252,0.16082393492116698,0.7945863448331641,-0.00030282812417769937,0.9998496935883301,0.01219230504991778,0.012322589988278464
3.8,-0.3655957707381649,-1.1011607256648064,0.7588984615710848,-1.2141990018301487,-1.6024609727369177,-1.9367692779632912,-0.1329420787952113,0.1340683208518286,-0.31415926535890076,0.17630721203396654,-0.0026877842527702105,-0.13296634476926208,3.322474017936475e-11,-3.350207523929267e-11,7.848582195960121e-11,-4.4068541022546404e-11,6.7167084826293e-13,3.322474017936475e-11,-0.9330741591509237,0.17466256466428465,0.8006904015301876,-0.0003020345721169776,0.999848948792915,0.01222056201153533,0.012355008577187427
3.9,-0.37888997861768775,-1.0877538935796216,0.7274825350351907,-1.1965682806267497,-1.6027297511621947,-1.950065912440219,-0.1329420787952113,0.1340683208518286,-0.31415926535890076,0.17630721203396654,-0.0026877842527702105,-0.13296634476926208,3.322474017936475e-11,-3.350207523929267e-11,7.848582195960121e-11,-4.4068541022546404e-11,6.7167084826293e-13,3.322474017936475e-11,-0.9341914067509589,0.1884870012821752,0.8066340678853852,-0.0003011901603151397,0.999848150160873,0.012250077388058047,0.012390379669495908
4.0,-0.39218418649721054,-1.0743470614944375,0.6960666084992968,-1.178937559423351,-1.6029985295874718,-1.9633625469171472,-0.13294207879532932,0.1340683208519476,-0.3141592653591796,0.17630721203412303,-0.002687784252772596,-0.1329663447693801,-8.469812730202419e-11,8.53914649518443e-11,-2.001249792440755e-10,1.1229296576486442e-10,-1.7121106590245252e-12,-8.469812730202419e-11,-0.9348978002367869,0.20228590109741224,0.8124148865229082,-0.0003002948887278944,0.999847297692537,0.0122807773432284,0.012428742002193514
4.1,-0.40547839437673927,-1.0609402294092467,0.6646506819633886,-1.161306838219944,-1.6032673080127489,-1.9766591813940808,-0.13294207879532932,0.1340683208519476,-0.3141592653591796,0.17630721203412303,-0.002687784252772596,-0.1329663447693801,-8.469812730202419e-11,8.53914649518443e-11,-2.001249792440755e-10,1.1229296576486442e-10,-1.7121106590245252e-12,-8.469812730202419e-11,-0.9351953257797618,0.21604800005067665,0.8180304387894113,-0.0002993487573158105,0.9998463913882452,0.012312587239172475,0.0124701328663014
4.2,-0.41834889031165723,-1.0479606988184635,0.6342360413592867,-1.1442380419716516,-1.6035275199532626,-1.9895320265860832,-0.11954489776617569,0.1205576432620971,-0.28249999999984543,0.1585399282834081,-0.0024169239463293665,-0.11956671834708871,0.21158388991623794,-0.21337635982107508,0.5000000001523781,-0.2806016430651377,0.004277741499234295,0.211622510413441,-0.9350960149977667,0.22932588032833667,0.8233073206003608,-0.0002983843267417003,0.9998454626804196,0.012344369655258643,0.012513123590278372
4.3,-0.4292461446110298,-1.036971126524632,0.6084844250452855,-1.129786150277472,-1.603747837468753,-2.0004312699659064,-0.09838650878114127,0.09922000728663521,-0.23250000000017862,0.1304797639856314,-0.001989149796539175,-0.0984044673123352,0.21158388977560796,-0.2133763596792532,0.4999999998200606,-0.2806016428786474,0.004277741496390979,0.21162251027279716,-0.9347157864741453,0.24052544695489403,0.8276507602515263,-0.00029753049085670837,0.9998446369102443,0.012371986146153702,0.012551791753702059
4.4,-0.43802756001188525,-1.0281153178283602,0.5877328087312832,-1.1181402750130878,-1.603925377569264,-2.0092142882422412,-0.07722811979589489,0.07788237131095957,-0.18250000000001093,0.10241959968757361,-0.001561375646744698,-0.07724221627736969,0.21158388984657145,-0.21337635975081184,0.4999999999877598,-0.28060164297275325,0.004277741497825483,0.21162251034376062,-0.9342129483478921,0.2495176597271991,0.8310669361745153,-0.00029681757337662586,0.9998439451546863,0.012394681502327531,0.012584478824986672
4.5,-0.4446931365142233,-1.0213932727296486,0.5719811924172805,-1.1093004161784996,-1.6040601402547958,-2.0158810814150865,-0.05606973081068551,0.05654473533532123,-0.13249999999993067,0.07435943538956487,-0.0011336014969509688,-0.056079965242441174,0.21158388988072468,-0.21337635978525651,0.5000000000684452,-0.28060164301805035,0.00427774149851612,0.2116225103779208,-0.9337148241005377,0.2563215908957511,0.8336095555331171,-0.00029626161483695666,0.9998434043926614,0.012412156389432261,0.01261020599803031
4.6,-0.4492428741180441,-1.0168049912284973,0.5612295761032774,-1.1032665737737077,-1.6041521255253484,-2.0204316494844425,-0.03491134182553834,0.03520709935974563,-0.08249999999999741,0.04629927109163863,-0.0007058273471584976,-0.03491771420757488,0.2115838898528448,-0.21337635975714228,0.5000000000025813,-0.2806016429810863,0.004277741497952556,0.21162251035004093,-0.9333173500491775,0.2609542507047237,0.8353199140685416,-0.00029587479089028,0.9998430275120159,0.012424201478582602,0.012628222809795251
4.7,-0.45167677282334706,-1.0143504733249065,0.5554779597892746,-1.1000387477987124,-1.6042013333809215,-2.022865992450309,-0.013752952840355529,0.013869463384134091,-0.032499999999979934,0.01823910679366514,-0.00027805319736530585,-0.013755463172672957,0.21158388985980797,-0.21337635976416314,0.5000000000190333,-0.28060164299031676,0.0042777414980932175,0.21162251035700053,-0.9330856330697086,0.2634284957487502,0.8362264578787881,-0.00029566541230094157,0.999842823309595,0.012430682805652925,0.01263801342170661
4.765032326,-0.45212418848301533,-1.0138992673052765,0.5544206589239257,-1.099445387078831,-1.6042103791004965,-2.023313489776947,-5.68231511321706e-17,5.730453838874535e-17,-1.3428042931809136e-16,7.535861817333487e-17,-1.1488339297078249e-18,-5.683352308605723e-17,0.21158388983978746,-0.21337635974397276,0.49999999997172107,-0.28060164296376666,0.004277741497688484,0.21162251033697646,-0.9330415920710998,0.2638830164636304,0.8363924648572569,-0.00029562673742659457,0.999842785575391,0.012431877057825861,0.012639824780983336
