mathias31415/primitives_from_planned_trajectory_python/data/saved_trajectories/trajectory_20250624_152044_executed.csv
timestamp,shoulder_lift_joint_pos,elbow_joint_pos,wrist_1_joint_pos,wrist_2_joint_pos,wrist_3_joint_pos,shoulder_pan_joint_pos,shoulder_lift_joint_vel,elbow_joint_vel,wrist_1_joint_vel,wrist_2_joint_vel,wrist_3_joint_vel,shoulder_pan_joint_vel,shoulder_lift_joint_eff,elbow_joint_eff,wrist_1_joint_eff,wrist_2_joint_eff,wrist_3_joint_eff,shoulder_pan_joint_eff
1750771255.698281,-1.7245999999999997,-2.4908779999999995,-0.5302379999999998,1.582503,-0.45276400000000017,-2.0224840000000004,0.0,0.0,0.0,0.0,0.0,0.0,2.861099755904575,2.216476240083084,0.29985643250318944,0.0009658880912727304,0.0,8.360904779957192e-17
1750771255.700294,-1.7245999999999997,-2.4908779999999995,-0.5302379999999998,1.582503,-0.45276400000000017,-2.0224840000000004,0.0,0.0,0.0,0.0,0.0,0.0,2.861099755904575,2.216476240083084,0.29985643250318944,0.0009658880912727304,0.0,8.360904779957192e-17
1750771255.7008379,-1.7245999999999997,-2.4908779999999995,-0.5302379999999998,1.582503,-0.45276400000000017,-2.0224840000000004,0.0,0.0,0.0,0.0,0.0,0.0,2.861099755904575,2.216476240083084,0.29985643250318944,0.0009658880912727304,0.0,8.360904779957192e-17
1750771255.7012725,-1.7245999999999997,-2.4908779999999995,-0.5302379999999998,1.582503,-0.45276400000000017,-2.0224840000000004,0.0,0.0,0.0,0.0,0.0,0.0,2.861099755904575,2.216476240083084,0.29985643250318944,0.0009658880912727304,0.0,8.360904779957192e-17
1750771255.7016616,-1.7245999999999997,-2.4908779999999995,-0.5302379999999998,1.582503,-0.45276400000000017,-2.0224840000000004,0.0,0.0,0.0,0.0,0.0,0.0,2.861099755904575,2.216476240083084,0.29985643250318944,0.0009658880912727304,0.0,8.360904779957192e-17
1750771255.7020426,-1.7245999999999997,-2.4908779999999995,-0.5302379999999998,1.582503,-0.45276400000000017,-2.0224840000000004,0.0,0.0,0.0,0.0,0.0,0.0,2.861099755904575,2.216476240083084,0.29985643250318944,0.0009658880912727304,0.0,8.360904779957192e-17
1750771255.702502,-1.7245999999999997,-2.4908779999999995,-0.5302379999999998,1.582503,-0.45276400000000017,-2.0224840000000004,0.0,0.0,0.0,0.0,0.0,0.0,2.861099755904575,2.216476240083084,0.29985643250318944,0.0009658880912727304,0.0,8.360904779957192e-17
1750771255.7031121,-1.7245999999999997,-2.4908779999999995,-0.5302379999999998,1.582503,-0.45276400000000017,-2.0224840000000004,0.0,0.0,0.0,0.0,0.0,0.0,2.861099755904575,2.216476240083084,0.29985643250318944,0.0009658880912727304,0.0,8.360904779957192e-17
1750771255.703656,-1.7245999999999997,-2.4908779999999995,-0.5302379999999998,1.582503,-0.45276400000000017,-2.0224840000000004,0.0,0.0,0.0,0.0,0.0,0.0,2.861099755904575,2.216476240083084,0.29985643250318944,0.0009658880912727304,0.0,8.360904779957192e-17
1750771255.7042568,-1.7245999999999997,-2.4908779999999995,-0.5302379999999998,1.582503,-0.45276400000000017,-2.0224840000000004,0.0,0.0,0.0,0.0,0.0,0.0,2.861099755904575,2.216476240083084,0.29985643250318944,0.0009658880912727304,0.0,8.360904779957192e-17
1750771255.7063107,-1.7245999999999997,-2.4908779999999995,-0.5302379999999998,1.582503,-0.45276400000000017,-2.0224840000000004,0.0,0.0,0.0,0.0,0.0,0.0,2.861099755904575,2.216476240083084,0.29985643250318944,0.0009658880912727304,0.0,8.360904779957192e-17
1750771255.70787,-1.7245999999999997,-2.4908779999999995,-0.5302379999999998,1.582503,-0.45276400000000017,-2.0224840000000004,0.0,0.0,0.0,0.0,0.0,0.0,2.861099755904575,2.216476240083084,0.29985643250318944,0.0009658880912727304,0.0,8.360904779957192e-17
1750771255.7085311,-1.7245999999999997,-2.4908779999999995,-0.5302379999999998,1.582503,-0.45276400000000017,-2.0224840000000004,0.0,0.0,0.0,0.0,0.0,0.0,2.861099755904575,2.216476240083084,0.29985643250318944,0.0009658880912727304,0.0,8.360904779957192e-17
1750771255.7092478,-1.7246003183496992,-2.4908769999999993,-0.530238682569566,1.5825029936453046,-0.45276418303136,-2.022484183108645,-0.0003183496993064465,0.001,-0.0006825695665865335,-6.354695504573811e-06,-0.00018303135968786232,-0.00018310864522768974,2.7633424601361294,2.4229511196293645,0.28537922957473016,0.000425255139956882,-0.005156053029998164,-0.030490168460518295
1750771255.7110643,-1.7246012733987968,-2.4908739999999994,-0.5302407302782663,1.582502974581218,-0.45276473212543866,-2.022484732434581,-0.000636699398612893,0.002,-0.001365139133173067,-1.2709391009147621e-05,-0.00036606271937572463,-0.0003662172904553795,2.76335494307983,2.422958132962013,0.28537924675054377,0.000425247595727796,-0.005156053029997857,-0.03049044691147368
1750771255.713657,-1.7246028651472933,-2.4908689999999996,-0.5302441431260991,1.5825029428077404,-0.452765647282237,-2.022485647977808,-0.0009550490979193395,0.003,-0.0020477086997596006,-1.906408651372143e-05,-0.0005490940790635869,-0.0005493259356830693,2.763375747972395,2.4229698218304097,0.2853792753766816,0.0004252350220305254,-0.005156053029997346,-0.03049091099995173
1750771255.7148602,-1.7246050935951889,-2.4908619999999995,-0.5302489211130652,1.582502898324872,-0.45276692850175504,-2.0224869297383243,-0.001273398797225786,0.004,-0.002730278266346134,-2.5418782018295243e-05,-0.0007321254387514493,-0.000732434580910759,2.7634048747934155,2.422986186205531,0.28537931545281575,0.00042521741889190367,-0.005156053029996631,-0.030491560731281606
1750771255.717128,-1.7246079587424825,-2.4908529999999995,-0.5302550642391646,1.5825028411326123,-0.45276857578399277,-2.022488577716131,-0.0015917484965322327,0.005,-0.0034128478329326674,-3.1773477522869054e-05,-0.0009151567984393115,-0.0009155432261384487,2.763442323514316,2.4230072260467472,0.2853793669784874,0.00042519478634945733,-0.005156053029995707,-0.030492396112923727
1750771255.719264,-1.7246114605891751,-2.4908419999999993,-0.5302625725043972,1.5825027712309618,-0.4527705891289493,-2.022490591911229,-0.001910098195838679,0.006,-0.004095417399519201,-3.812817302744286e-05,-0.0010981881581271738,-0.0010986518713661385,2.7634880940983657,2.42303294130181,0.2853794299531067,0.00042516712445147615,-0.005156053029994585,-0.030493417154470074
1750771255.7212832,-1.7246155991352659,-2.4908289999999993,-0.5302714459087623,1.5825026886199203,-0.45277296853662463,-2.022492972323617,-0.0022284478951451257,0.007,-0.004777986966105734,-4.448286853201667e-05,-0.0012812195178150362,-0.0012817605165938283,2.7635421865006586,2.4230633319068686,0.2853795043759526,0.00042513443325694483,-0.005156053029993255,-0.0304946238676434
1750771255.7233531,-1.7246203743807555,-2.4908139999999994,-0.5302816844522615,1.5825025932994876,-0.45277571400702055,-2.0224957189532944,-0.002546797594451572,0.008,-0.005460556532692268,-5.0837564036590486e-05,-0.0014642508775028985,-0.001464869161821518,2.7636046006681263,2.423098397786451,0.2853795902461728,0.00042509671283559434,-0.005156053029991721,-0.030496016266297752
1750771255.725264,-1.7246257863256433,-2.4907969999999993,-0.5302932881348932,1.582502485269664,-0.45277882554013527,-2.022498831800264,-0.002865147293758019,0.009000000000000001,-0.006143126099278802,-5.71922595411643e-05,-0.0016472822371907609,-0.001647977807049208,2.763675336539537,2.4231381388534867,0.28537968756278453,0.0004250539632679047,-0.005156053029989983,-0.030497594366418763
1750771255.7272134,-1.72463183496993,-2.4907779999999993,-0.5303062569566581,1.5825023645304495,-0.4527823031359688,-2.022502310864523,-0.003183496993064466,0.010000000000000002,-0.006825695665865336,-6.354695504573811e-05,-0.0018303135968786234,-0.0018310864522768978,2.763754394045488,2.423182555009275,0.285379796324673,0.000425006184645058,-0.005156053029988047,-0.030499358186121525
1750771255.7291238,-1.7246385203136159,-2.4907569999999994,-0.5303205909175563,1.582502231081844,-0.452786146794522,-2.022506156146073,-0.0035018466923709126,0.011000000000000003,-0.0075082652324518695,-6.990165055031194e-05,-0.002013344956566486,-0.0020141950975045876,2.7638417731084077,2.4232316461435106,0.28537991653059286,0.0004249533770690011,-0.0051560530299859,-0.03050130774565275
1750771255.7309535,-1.7246458423566997,-2.4907339999999993,-0.5303362900175879,1.5825020849238474,-0.4527903565157949,-2.022510367644913,-0.0038201963916773595,0.012000000000000004,-0.008190834799038404,-7.625634605488575e-05,-0.002196376316254348,-0.0021973037427322774,2.763937473642555,2.423285412134278,0.28538004817916746,0.00042489554065238755,-0.005156053029983537,-0.030503443067388995
1750771255.7333152,-1.7246538010991825,-2.4907089999999994,-0.5303533542567527,1.5825019260564597,-0.4527949322997875,-2.022514945361044,-0.004138546090983806,0.013000000000000005,-0.008873404365624938,-8.261104155945957e-05,-0.0023794076759422107,-0.0023804123879599677,2.764041495554013,2.423343852848034,0.28538019126888936,0.0004248326755186238,-0.005156053029980992,-0.03050576417583623
1750771255.7371652,-1.7246538010991825,-2.4907089999999994,-0.5303533542567527,1.5825019260564597,-0.4527949322997875,-2.022514945361044,-0.004138546090983806,0.013000000000000005,-0.008873404365624938,-8.261104155945957e-05,-0.0023794076759422107,-0.0023804123879599677,2.764041495554013,2.423343852848034,0.28538019126888936,0.0004248326755186238,-0.005156053029980992,-0.03050576417583623
1750771255.7410893,-1.7246716286823434,-2.4906529999999996,-0.5303915781524822,1.5825015701935115,-0.45280518205593,-2.0225251994451767,-0.0047752454895967,0.015000000000000006,-0.010238543498798006,-9.53204325686072e-05,-0.002745470395317936,-0.0027466296784153473,2.764274503092327,2.4234747578522686,0.285380511765087,0.00042469185964703394,-0.00515605302997527,-0.030510963861536122
1750771255.7418144,-1.7246814975230222,-2.4906219999999997,-0.530412737809046,1.582501373197951,-0.4528108560280799,-2.022530875813178,-0.005093595188903147,0.016000000000000007,-0.01092111306538454,-0.00010167512807318101,-0.002928501755005798,-0.002929738323643037,2.764403488490477,2.4235472218175707,0.2853806891678915,0.0004246139092097443,-0.005156053029972092,-0.030513842498447304
1750771255.742969,-1.7246920030630992,-2.4905889999999995,-0.530435262604743,1.582501163492999,-0.4528168960629504,-2.0225369183984707,-0.005411944888209594,0.017000000000000008,-0.011603682631971075,-0.00010802982357775483,-0.0031115331146936605,-0.003112846968870727,2.764540794808516,2.4236243598555127,0.2853808780045002,0.0004245309306563682,-0.005156053029968733,-0.030516907041386907
1750771255.7449162,-1.7247031453025752,-2.4905539999999995,-0.5304591525395734,1.5825009410786566,-0.4528233021605388,-2.0225433272010545,-0.0057302945875160405,0.01800000000000001,-0.012286252198557609,-0.00011438451908232864,-0.003294564474381523,-0.0032959556140984172,2.7646864219116396,2.4237061717744464,0.28538107827274933,0.0004244429241641082,-0.005156053029965159,-0.030520157525504462
1750771255.746957,-1.7247149242414492,-2.4905169999999996,-0.5304844076135371,1.5825007059549228,-0.45283007432084776,-2.0225501022209276,-0.006048644286822487,0.01900000000000001,-0.012968821765144143,-0.00012073921458690246,-0.0034775958340693856,-0.003479064259326107,2.764840369656851,2.4237926573710986,0.2853812899703439,0.0004243498899208155,-0.0051560530299613805,-0.03052359398807771
1750771255.7487493,-1.7247273398797223,-2.4904779999999995,-0.5305110278266341,1.582500458121798,-0.45283721254387554,-2.022557243458092,-0.006366993986128934,0.02000000000000001,-0.013651391331730676,-0.00012709391009147627,-0.003660627193757248,-0.003662172904553797,2.7650026378929766,2.4238838164305703,0.285381513094858,0.0004242518281251906,-0.005156053029957399,-0.030527216468511437
1750771255.7508843,-1.7247403922173934,-2.4904369999999996,-0.5305390131788643,1.5825001975792825,-0.45284471682962213,-2.0225647509125455,-0.006685343685435381,0.02100000000000001,-0.01433396089831721,-0.0001334486055960501,-0.0038436585534451103,-0.0038452815497814867,2.765173226460639,2.423979648726324,0.2853817476437333,0.0004241487389866644,-0.005156053029953204,-0.030531025008336606
1750771255.7533474,-1.7247540812544635,-2.4903939999999993,-0.5305683636702279,1.5824999243273759,-0.4528525871780893,-2.0225726245842903,-0.007003693384741828,0.022000000000000013,-0.015016530464903744,-0.0001398033011006239,-0.004026689913132973,-0.004028390195009177,2.7653521351922845,2.4240801540201957,0.28538199361428185,0.00042404062272542113,-0.005156053029948828,-0.030535019651210433
1750771255.7552285,-1.7247684069909326,-2.4903489999999997,-0.5305990793007238,1.582499638366078,-0.45286082358927526,-2.0225808644733263,-0.007322043084048274,0.023000000000000013,-0.01569910003149028,-0.00014615799660519773,-0.004209721272820835,-0.004211498840236866,2.765539363912145,2.4241853320623776,0.2853822510036833,0.000423927479572435,-0.005156053029944227,-0.030539200442914565
1750771255.7584805,-1.7247833694268007,-2.4903019999999993,-0.5306311600703539,1.5824993396953893,-0.45286942606318004,-2.0225894705796517,-0.007640392783354721,0.024000000000000014,-0.016381669598076812,-0.00015251269210977153,-0.004392752632508698,-0.004394607485464557,2.7657349124362605,2.424295182591429,0.28538251980898577,0.0004238093097694555,-0.005156053029939458,-0.03054356743135666
1750771255.760622,-1.7247833694268007,-2.4903019999999993,-0.5306311600703539,1.5824993396953893,-0.45286942606318004,-2.0225894705796517,-0.007640392783354721,0.024000000000000014,-0.016381669598076812,-0.00015251269210977153,-0.004392752632508698,-0.004394607485464557,2.7657349124362605,2.424295182591429,0.28538251980898577,0.0004238093097694555,-0.005156053029939458,-0.03054356743135666
1750771255.761157,-1.724798968562066,-2.4902529999999996,-0.5306646059791165,1.5824990283153095,-0.4528783945998054,-2.022598442903268,-0.007958742482661168,0.025000000000000015,-0.017064239164663347,-0.00015886738761434536,-0.00457578399219656,-0.004577716130692246,2.76593878057246,2.4244097053342717,0.285382800027107,0.0004236861135690419,-0.0051560530299344385,-0.03054812066656704
1750771255.7631419,-1.724815204396731,-2.4902019999999996,-0.5306994170270123,1.582498704225839,-0.45288772919914955,-2.022607781444174,-0.008277092181967614,0.026000000000000016,-0.01774680873124988,-0.00016522208311891916,-0.004758815351884423,-0.004760824775919936,2.766150968120383,2.424528900006168,0.2853830916548323,0.00042355789123451313,-0.005156053029929265,-0.03055286020070114
1750771255.767646,-1.7248320769307943,-2.4901489999999993,-0.5307355932140414,1.5824983674269772,-0.4528974298612125,-2.022617486202371,-0.008595441881274061,0.027000000000000017,-0.018429378297836415,-0.000171576778623493,-0.004941846711572285,-0.0049439334211476265,2.766371474871439,2.424652766310748,0.28538339468881607,0.0004234246430399722,-0.00515605302992384,-0.030557786088034836
1750771255.768151,-1.7248320769307943,-2.4901489999999993,-0.5307355932140414,1.5824983674269772,-0.4528974298612125,-2.022617486202371,-0.008595441881274061,0.027000000000000017,-0.018429378297836415,-0.000171576778623493,-0.004941846711572285,-0.0049439334211476265,2.766371474871439,2.424652766310748,0.28538339468881607,0.0004234246430399722,-0.00515605302992384,-0.030557786088034836
1750771255.7692244,-1.7248677320971169,-2.4900369999999996,-0.5308120410054986,1.5824976557010806,-0.4529179293734975,-2.022637994370637,-0.009232141279886955,0.02900000000000002,-0.019794517431009483,-0.00018428616963264062,-0.00530790943094801,-0.005310150711603006,2.766837445107538,2.424914512574189,0.2853840349615197,0.00042314307022132486,-0.005156053029912459,-0.030568197150019415
1750771255.771098,-1.7248865147293753,-2.4899779999999994,-0.5308523126099276,1.5824972807740458,-0.45292872822371955,-2.0226487977807057,-0.009550490979193402,0.03000000000000002,-0.020477086997596018,-0.00019064086513721442,-0.0054909407906358725,-0.0054932593568306955,2.7670829081343244,2.4250523918820366,0.2853843721928907,0.00042299474619949244,-0.00515605302990643,-0.03057368244383096
1750771255.774056,-1.7249059340610327,-2.4899169999999993,-0.530893949353489,1.58249689313762,-0.4529398931366604,-2.022659967408064,-0.009868840678499849,0.03100000000000002,-0.02115965656418255,-0.00019699556064178825,-0.0056739721503237354,-0.005676368002058386,2.7673366894477245,2.42519494152052,0.2853847208158231,0.0004228413975221616,-0.005156053029900246,-0.03057935432916278
1750771255.7755947,-1.724925990092089,-2.4898539999999993,-0.5309369512361846,1.5824964927918033,-0.4529514241123209,-2.022671503252713,-0.010187190377806295,0.03200000000000002,-0.021842226130769086,-0.00020335025614636208,-0.005857003510011598,-0.005859476647286076,2.767598788798035,2.4253421611349744,0.28538508082631314,0.00042268302451753013,-0.005156053029893815,-0.030585212870893257
1750771255.7771046,-1.7249466828225444,-2.4897889999999996,-0.5309813182580125,1.5824960797365955,-0.45296332115070026,-2.0226834053146536,-0.010505540077112742,0.03300000000000002,-0.022524795697355618,-0.00020970495165093588,-0.00604003486969946,-0.0060425852925137654,2.7678692059273233,2.425494050359073,0.2853854522202268,0.0004225196275245816,-0.0051560530298872045,-0.03059125813601852
1750771255.7789927,-1.7249680122523978,-2.4897219999999995,-0.5310270504189738,1.5824956539719968,-0.4529755842517993,-2.0226956735938835,-0.010823889776419189,0.03400000000000002,-0.023207365263942153,-0.0002160596471555097,-0.006223066229387323,-0.006225693937741456,2.7681479405694063,2.4256506088148133,0.28538583499329706,0.000422351206893164,-0.005156053029880419,-0.030597490193653838
1750771255.7811127,-1.7249899783816502,-2.4896529999999997,-0.5310741477190684,1.582495215498007,-0.452988213415618,-2.0227083080904045,-0.011142239475725636,0.035000000000000024,-0.023889934830528686,-0.0002224143426600835,-0.006406097589075185,-0.006408802582969145,2.768434992449863,2.425811836112513,0.2853862291411261,0.0004221777629839504,-0.005156053029873385,-0.03060390911502698
1750771255.7832184,-1.7250125812103008,-2.4895819999999995,-0.5311226101582962,1.582494764314626,-0.45300120864215554,-2.022721308804215,-0.011460589175032083,0.036000000000000025,-0.02457250439711522,-0.00022876903816465734,-0.006589128948763047,-0.006591911228196835,2.7687303612860155,2.425977731850819,0.2853866346591841,0.00042199929616846263,-0.0051560530298661745,-0.030610514973484156
1750771255.7854738,-1.7250358207383503,-2.4895089999999995,-0.5311724377366565,1.5824943004218541,-0.45301456993141276,-2.0227346757353173,-0.01177893887433853,0.037000000000000026,-0.025255073963701757,-0.00023512373366923114,-0.00677216030845091,-0.006775019873424526,2.7690340467869308,2.426148295616683,0.2853870515428096,0.00042181580682909857,-0.005156053029858788,-0.030617307844483323
1750771255.7871475,-1.7250596969657988,-2.4894339999999993,-0.5312236304541509,1.5824938238196913,-0.45302829728338967,-2.022748408883709,-0.012097288573644976,0.03800000000000003,-0.02593764353028829,-0.00024147842917380497,-0.006955191668138772,-0.006958128518652215,2.7693460486534183,2.4263235269853753,0.28538747978720946,0.0004216272953591292,-0.0051560530298511535,-0.030624287805596354
1750771255.7891943,-1.7250842098926444,-2.4893569999999996,-0.5312761883107777,1.5824933345081376,-0.4530423906980854,-2.022762508249391,-0.012415638272951423,0.03900000000000003,-0.026620213096874824,-0.00024783312467837877,-0.007138223027826635,-0.007141237163879905,2.769666366578004,2.426503425520475,0.2853879193874582,0.00042143376216268033,-0.005156053029843368,-0.030631454936507763
1750771255.7910557,-1.72510935951889,-2.4892779999999997,-0.5313301113065378,1.5824928324871927,-0.4530568501755008,-2.0227769738323644,-0.01273398797225787,0.04000000000000003,-0.027302782663461356,-0.0002541878201829526,-0.007321254387514497,-0.007324345809107595,2.7699950002449634,2.426687990773854,0.28538837033849923,0.00042123520765474724,-0.0051560530298353354,-0.030638809319011442
1750771255.7931085,-1.7251351458445336,-2.4891969999999994,-0.5313853994414313,1.5824923177568568,-0.4530716757156359,-2.022791805632628,-0.013052337671564317,0.04100000000000003,-0.027985352230047892,-0.0002605425156875264,-0.007504285747202359,-0.007507454454335285,2.7703319493302736,2.426877222285693,0.2853888326351433,0.0004210316322612253,-0.005156053029827127,-0.030646351037013266
1750771255.7952745,-1.7251615688695763,-2.4891139999999994,-0.5314420527154589,1.5824917903171298,-0.4530868673184898,-2.0228070036501826,-0.013370687370870764,0.04200000000000003,-0.028667921796634424,-0.0002668972111921002,-0.007687317106890222,-0.007690563099562975,2.770677213501634,2.427071119584459,0.28538930627207004,0.00042082303641891787,-0.0051560530298187445,-0.03065408017652469
1750771255.7970147,-1.725188628594017,-2.4890289999999995,-0.531500071128618,1.582491250168012,-0.4531024249840634,-2.022822567885026,-0.01368903707017721,0.04300000000000003,-0.02935049136322096,-0.00027325190669667403,-0.007870348466578084,-0.007873671744790665,2.771030792418449,2.4272696821869113,0.2853897912438265,0.00042060942057554185,-0.005156053029810116,-0.03066199682566808
1750771255.799154,-1.7252163250178567,-2.4889419999999993,-0.5315594546809113,1.5824906973095032,-0.4531183487123558,-2.022838498337161,-0.014007386769483657,0.04400000000000003,-0.030033060929807495,-0.00027960660220124786,-0.008053379826265947,-0.008056780390018354,2.771392685731829,2.427472909598086,0.2853902875448278,0.00042039078518972523,-0.0051560530298013375,-0.03067010107466934
1750771255.8011892,-1.7252446581410954,-2.4888529999999993,-0.5316202033723378,1.5824901317416031,-0.4531346385033679,-2.0228547950065865,-0.014325736468790104,0.04500000000000003,-0.030715630496394027,-0.0002859612977058217,-0.008236411185953809,-0.008239889035246044,2.771762893084579,2.427680801311303,0.28539079516935734,0.0004201671307309639,-0.005156053029792287,-0.030678393015861824
1750771255.8032227,-1.7252736279637322,-2.4887619999999995,-0.5316823172028968,1.5824895534643124,-0.45315129435709967,-2.0228714578933022,-0.014644086168096551,0.046000000000000034,-0.03139820006298056,-0.0002923159932103955,-0.008419442545641672,-0.008422997680473734,2.7721414141111844,2.4278933568081524,0.2853913141115659,0.00041993845767980396,-0.0051560530297831385,-0.03068687274368119
1750771255.8049166,-1.725303234485768,-2.4886689999999994,-0.5317457961725891,1.5824889624776304,-0.45316831627355025,-2.0228884869973083,-0.014962435867402998,0.047000000000000035,-0.032080769629567095,-0.0002986706887149693,-0.008602473905329535,-0.008606106325701425,2.7725282484378275,2.4281105755584917,0.28539184436547216,0.00041970476652760985,-0.005156053029773744,-0.03069554035466566
1750771255.8068862,-1.7253334777072018,-2.4885739999999994,-0.5318106402814156,1.5824883587815575,-0.4531857042527214,-2.0229058823186055,-0.015280785566709445,0.048000000000000036,-0.03276333919615363,-0.0003050253842195431,-0.008785505265017398,-0.008789214970929115,2.772923395682349,2.4283324570204403,0.28539238592496335,0.0004194660577767904,-0.005156053029764152,-0.030704395947455467
1750771255.8089674,-1.7253643576280346,-2.4884769999999996,-0.5318768495293744,1.5824877423760935,-0.4532034582946105,-2.022923643857192,-0.015599135266015892,0.04900000000000004,-0.033445908762740166,-0.00031138007972411695,-0.008968536624705259,-0.008972323616156803,2.7733268554542714,2.428559000640371,0.2853929387837935,0.00041922233194067554,-0.005156053029754314,-0.030713439622790134
1750771255.8174694,-1.7253643576280346,-2.4884769999999996,-0.5318768495293744,1.5824877423760935,-0.4532034582946105,-2.022923643857192,-0.015599135266015892,0.04900000000000004,-0.033445908762740166,-0.00031138007972411695,-0.008968536624705259,-0.008972323616156803,2.7733268554542714,2.428559000640371,0.2853929387837935,0.00041922233194067554,-0.005156053029754314,-0.030713439622790134
1750771255.8199685,-1.7253958742482656,-2.4883779999999995,-0.5319444239164657,1.5824871132612386,-0.45322157839922017,-2.0229417716130698,-0.01591748496532234,0.05000000000000004,-0.034128478329326695,-0.0003177347752286908,-0.009151567984393122,-0.009155432261384494,2.7737386273547684,2.428790205852913,0.28539350293558524,0.000418973589543584,-0.0051560530297443796,-0.030722671483509326
1750771255.8206062,-1.7254280275678955,-2.4882769999999996,-0.5320133634426911,1.5824864714369926,-0.45324006456654864,-2.0229602655862378,-0.016235834664628784,0.05100000000000004,-0.03481104789591323,-0.00032408947073326455,-0.009334599344080985,-0.009338540906612184,2.774158710976676,2.4290260720809314,0.28539407837382735,0.00041871983112080734,-0.0051560530297342,-0.030732091634547376
1750771255.8212986,-1.7254608175869244,-2.4881739999999994,-0.5320836681080499,1.5824858169033555,-0.4532589167965959,-2.022979125776696,-0.016554184363935232,0.05200000000000004,-0.035493617462499766,-0.0003304441662378384,-0.009517630703768846,-0.009521649551839874,2.774587105904465,2.4292665987355315,0.2853946650918776,0.0004184610572186286,-0.0051560530297237745,-0.030741700182935462
1750771255.8223026,-1.7254942443053514,-2.4880689999999994,-0.532155337912541,1.5824851496603276,-0.45327813508936377,-2.0229983521844446,-0.016872534063241677,0.05300000000000004,-0.0361761870290863,-0.0003367988617424122,-0.00970066206345671,-0.009704758197067564,2.775023811714248,2.4295117852160564,0.28539526308296126,0.00041819726839436845,-0.005156053029713254,-0.030751497237799942
1750771255.8228564,-1.7255283077231773,-2.4879619999999996,-0.5322283728561663,1.5824844697079086,-0.45329771944484953,-2.0230179448094843,-0.017190883762548126,0.05400000000000004,-0.03685875659567284,-0.00034315355724698604,-0.009883693423144572,-0.009887866842295253,2.7754688279737736,2.429761630910068,0.28539587234017,0.0004179284652163246,-0.0051560530297024895,-0.030761482910358295
1750771255.8233714,-1.7255630078404014,-2.4878529999999994,-0.532302772938924,1.5824837770460987,-0.4533176698630559,-2.0230379036518142,-0.01750923346185457,0.05500000000000004,-0.037541326162259366,-0.0003495082527515598,-0.010066724782832433,-0.010070975487522943,2.7759221542424037,2.430016135193355,0.2853964928564643,0.0004176546482638468,-0.00515605302969148,-0.030771657313921598
1750771255.8248112,-1.7255983446570244,-2.4877419999999995,-0.532378538160815,1.5824830716748977,-0.45333798634398104,-2.0230582287114345,-0.01782758316116102,0.05600000000000004,-0.0382238957288459,-0.00035586294825613364,-0.010249756142520296,-0.010254084132750634,2.7763837900711184,2.4302752974299087,0.2853971246246703,0.0004173758181273033,-0.005156053029680377,-0.030782020563887902
1750771255.8268523,-1.7256343181730465,-2.4876289999999996,-0.5324556685218393,1.5824823535943056,-0.4533586688876259,-2.023078919988345,-0.018145932860467465,0.057000000000000044,-0.03890646529543244,-0.00036221764376070747,-0.01043278750220816,-0.010437192777978324,2.776853735002505,2.4305391169719317,0.2853977676374832,0.000417091975408127,-0.005156053029669031,-0.030792572777745553
1750771255.828785,-1.7256709283884666,-2.4875139999999996,-0.5325341640219969,1.5824816228043226,-0.4533797174939904,-2.0230999774825467,-0.018464282559773913,0.058000000000000045,-0.03958903486201897,-0.0003685723392652813,-0.010615818861896022,-0.010620301423206014,2.77733198857074,2.4308075931598325,0.2853984218874646,0.0004168031207188279,-0.005156053029657491,-0.030803314075068002
1750771255.8307552,-1.7257081753032857,-2.4873969999999996,-0.5326140246612878,1.5824808793049485,-0.45340113216307376,-2.0231214011940377,-0.01878263225908036,0.059000000000000045,-0.04027160442860551,-0.0003749270347698551,-0.010798850221583884,-0.010803410068433703,2.777818550301598,2.4310807253222007,0.2853990873670431,0.0004165092546829601,-0.005156053029645709,-0.030814244577514388
1750771255.8327782,-1.7257460589175029,-2.4872779999999994,-0.5326952504397111,1.5824801230961836,-0.4534229128948768,-2.02314319112282,-0.019100981958386807,0.060000000000000046,-0.040954173995192036,-0.0003812817302744289,-0.010981881581271747,-0.010986518713661393,2.7783134197124237,2.4313585127758213,0.2853997640685153,0.00041621037793518914,-0.005156053029633835,-0.030825364408828427
1750771255.8348536,-1.725784579231119,-2.4871569999999994,-0.5327778413572686,1.5824793541780275,-0.45344505968939863,-2.0231653472688924,-0.019419331657693252,0.06100000000000005,-0.04163674356177857,-0.0003876364257790027,-0.01116491294095961,-0.011169627358889083,2.778816596312143,2.431640954825649,0.28540045198404324,0.00041590649112125777,-0.005156053029621719,-0.030836673694832412
1750771255.8368676,-1.7258237362441342,-2.4870339999999995,-0.5328617974139584,1.5824785725504804,-0.45346757254664016,-2.023187869632256,-0.0197376813569997,0.06200000000000005,-0.04231931312836511,-0.00039399112128357655,-0.011347944300647471,-0.011352736004116773,2.7793280796012305,2.4319280507648138,0.28540115110565784,0.0004155975948980342,-0.005156053029609361,-0.030848172563430563
1750771255.8394554,-1.7258237362441342,-2.4870339999999995,-0.5328617974139584,1.5824785725504804,-0.45346757254664016,-2.023187869632256,-0.0197376813569997,0.06200000000000005,-0.04231931312836511,-0.00039399112128357655,-0.011347944300647471,-0.011352736004116773,2.7793280796012305,2.4319280507648138,0.28540115110565784,0.0004155975948980342,-0.005156053029609361,-0.030848172563430563
1750771255.8411245,-1.7259039603683588,-2.4867819999999994,-0.5330338049447381,1.5824769711672133,-0.4535136964492814,-2.0232340130108533,-0.02037438075561259,0.06400000000000004,-0.04368445226153817,-0.00040670051229272416,-0.011714007020023195,-0.011718953294572152,2.780375964207195,2.4325162014245,0.2854025829346018,0.000414964776906857,-0.005156053029584223,-0.030871739570413965
1750771255.8428466,-1.7259450274795691,-2.4866529999999996,-0.5331218564188278,1.5824761514114931,-0.45353730749468113,-2.0232576340260877,-0.02069273045491904,0.06500000000000004,-0.04436702182812471,-0.00041305520779729793,-0.011897038379711058,-0.01190206193979984,2.7809123644827545,2.432817254672064,0.2854033156253254,0.00041464085650830317,-0.005156053029571344,-0.030883807974989557
1750771255.8450403,-1.7259867312901784,-2.4865219999999995,-0.5332112730320508,1.582475318946382,-0.45356128460280054,-2.0232816212586116,-0.021011080154225485,0.06600000000000004,-0.045049591394711236,-0.00041940990330187176,-0.01208006973939892,-0.012085170585027531,2.781457069365041,2.433122958863051,0.2854040594889249,0.00041431192943932227,-0.005156053029558226,-0.030896066494538837
1750771255.8469102,-1.7260290718001858,-2.4863889999999995,-0.5333020547844072,1.5824744737718799,-0.45358562777363876,-2.0233059747084274,-0.021329429853531933,0.06700000000000005,-0.04573216096129777,-0.0004257645988064456,-0.012263101099086782,-0.012268279230255221,2.7820100783121906,2.4334333132313337,0.2854048145167635,0.0004139779964125376,-0.005156053029545018,-0.030908515267336404
1750771255.8488104,-1.726072049009593,-2.4862539999999993,-0.5333942016758959,1.5824736158879869,-0.45361033700719666,-2.0233306943755327,-0.021647779552838378,0.06800000000000005,-0.04641473052788431,-0.0004321192943110194,-0.012446132458774645,-0.012451387875482911,2.782571390773867,2.433748316998907,0.2854055807000729,0.00041363905815178427,-0.005156053029531572,-0.03092115443372791
1750771255.8512928,-1.7261156629183976,-2.4861169999999997,-0.5334877137065179,1.5824727452947027,-0.45363541230347426,-2.02335578025993,-0.021966129252144827,0.06900000000000005,-0.04709730009447084,-0.0004384739898155932,-0.012629163818462507,-0.012634496520710602,2.7831410061911934,2.4340679693758926,0.28540635802995007,0.00041329511539207507,-0.005156053029517887,-0.030933984136125695
1750771255.8528554,-1.726159913526601,-2.4859779999999994,-0.5335825908762741,1.5824718619920275,-0.45366085366247066,-2.0233812323616167,-0.022284478951451272,0.07000000000000005,-0.04777986966105737,-0.000444828685320167,-0.01281219517815037,-0.01281760516593829,2.783718923996815,2.434392269560514,0.28540714649735915,0.00041294616887965784,-0.005156053029504115,-0.030947004519006303
1750771255.8550243,-1.7262048008342035,-2.4858369999999996,-0.5336788331851627,1.5824709659799614,-0.45368666108418676,-2.023407050680593,-0.022602828650757717,0.07100000000000005,-0.04846243922764391,-0.00045118338082474085,-0.012995226537838233,-0.01300071381116598,2.784305143614821,2.4347212167390895,0.28540794609312925,0.00041259221937203343,-0.0051560530294901055,-0.03096021572891176
1750771255.8569994,-1.726250324841204,-2.4856939999999996,-0.5337764406331846,1.5824700572585042,-0.45371283456862166,-2.023433235216861,-0.022921178350064166,0.07200000000000005,-0.04914500879423044,-0.0004575380763293147,-0.013178257897526094,-0.01318382245639367,2.7848996644607737,2.435054810086045,0.2854087568079578,0.0004122332676379306,-0.00515605302947586,-0.030973617914441576
1750771255.8590064,-1.7262964855476035,-2.4855489999999993,-0.5338754132203398,1.5824691358276561,-0.45373937411577714,-2.0234597859704184,-0.02323952804937061,0.07300000000000005,-0.04982757836081698,-0.00046389277183388845,-0.013361289257213957,-0.013366931101621361,2.7855024859416884,2.4353930487638764,0.2854095786324073,0.0004118693144573706,-0.005156053029461528,-0.030987211226256688
1750771255.8609655,-1.7262964855476035,-2.4855489999999993,-0.5338754132203398,1.5824691358276561,-0.45373937411577714,-2.0234597859704184,-0.02323952804937061,0.07300000000000005,-0.04982757836081698,-0.00046389277183388845,-0.013361289257213957,-0.013366931101621361,2.7855024859416884,2.4353930487638764,0.2854095786324073,0.0004118693144573706,-0.005156053029461528,-0.030987211226256688
1750771255.8633301,-1.726343282953402,-2.4854019999999997,-0.5339757509466274,1.582468201687417,-0.45376627972565053,-2.023486702941267,-0.02355787774867706,0.07400000000000005,-0.05051014792740351,-0.0004702474673384623,-0.01354432061690182,-0.013550039746849051,2.7861136074560138,2.4357359319231593,0.2854104115569065,0.00041150036062161804,-0.0051560530294469595,-0.03100099581707376
1750771255.8650625,-1.7263907170585986,-2.4852529999999993,-0.5340774538120492,1.5824672548377867,-0.4537935513982445,-2.023513986129406,-0.023876227447983504,0.07500000000000005,-0.05119271749399004,-0.0004766021628430361,-0.013727351976589683,-0.01373314839207674,2.786733028393634,2.436083458702541,0.2854112555717507,0.0004111264069332638,-0.0051560530294322065,-0.03101497184166478
1750771255.867254,-1.7264387878631933,-2.4851019999999995,-0.5341805218166034,1.5824662952787656,-0.4538211891335573,-2.0235416355348352,-0.024194577147289953,0.07600000000000005,-0.05187528706057658,-0.00048295685834760994,-0.013910383336277544,-0.01391625703730443,2.7873607481358396,2.4364356282287156,0.2854121106671004,0.0004107474542062121,-0.005156053029417219,-0.0310291394568559
1750771255.8690581,-1.7264874953671878,-2.4849489999999994,-0.5342849549602917,1.5824653230103534,-0.45384919293158976,-2.0235696511575547,-0.024512926846596398,0.07700000000000005,-0.05255785662716311,-0.0004893115538521837,-0.014093414695965407,-0.01409936568253212,2.787996766055354,2.43679243961643,0.28541297683298295,0.0004103635032656824,-0.005156053029402147,-0.031043498821520916
1750771255.8774657,-1.7265368395705796,-2.4847939999999995,-0.5343907532431125,1.5824643380325503,-0.45387756279234104,-2.0235980329975654,-0.024831276545902847,0.07800000000000006,-0.05324042619374965,-0.0004956662493567575,-0.01427644605565327,-0.01428247432775981,2.788641081516259,2.437153891968477,0.28541385405929126,0.00040997455494825517,-0.005156053029386843,-0.0310580500965827
1750771255.8779435,-1.7265868204733712,-2.4846369999999993,-0.5344979166650665,1.5824633403453559,-0.453906298715812,-2.0236267810548663,-0.02514962624520929,0.07900000000000006,-0.053922995760336184,-0.0005020209448613314,-0.014459477415341131,-0.0144655829729875,2.789293693874054,2.437519984375664,0.28541474233578346,0.00040958061010183097,-0.005156053029371304,-0.031072793445012053
1750771255.8783038,-1.7266886923771496,-2.4843169999999994,-0.5347163389263745,1.5824613068427944,-0.45396486875091213,-2.023685375821339,-0.025786325643822185,0.08100000000000006,-0.05528813489350925,-0.000514730335870479,-0.014825540134716857,-0.01483180026344288,2.7906238066590743,2.4382660856588303,0.2854165519976835,0.00040877773427073095,-0.005156053029339832,-0.03110285702406571
1750771255.8787167,-1.7266886923771496,-2.4843169999999994,-0.5347163389263745,1.5824613068427944,-0.45396486875091213,-2.023685375821339,-0.025786325643822185,0.08100000000000006,-0.05528813489350925,-0.000514730335870479,-0.014825540134716857,-0.01483180026344288,2.7906238066590743,2.4382660856588303,0.2854165519976835,0.00040877773427073095,-0.005156053029339832,-0.03110285702406571
1750771255.8790655,-1.7267405833781364,-2.4841539999999993,-0.5348275977657275,1.5824602710274271,-0.4539947028625413,-2.0237152225305115,-0.026104675343128634,0.08200000000000006,-0.055970704460095784,-0.0005210850313750529,-0.015008571494404719,-0.01501490890867057,2.7913013057540756,2.438646092656506,0.2854174733619368,0.000408368805038858,-0.005156053029323748,-0.031118177590839242
1750771255.880803,-1.7267931110785213,-2.4839889999999993,-0.5349402217442147,1.582459222502669,-0.45402490303689014,-2.0237454354569735,-0.02642302504243508,0.08300000000000006,-0.05665327402668232,-0.0005274397268796267,-0.015191602854092582,-0.01519801755389826,2.791987099081491,2.439030735952701,0.28541840573406474,0.00040795488278369996,-0.005156053029307583,-0.03113369090327286
1750771255.8828168,-1.726846275478306,-2.4838219999999995,-0.5350542108618344,1.5824581612685198,-0.4540554692739578,-2.0237760146007275,-0.026741374741741528,0.08400000000000006,-0.05733584359326885,-0.0005337944223842004,-0.015374634213780445,-0.01538112619912595,2.7926811859535428,2.439420014578228,0.2854193491031538,0.00040753596841023183,-0.005156053029291189,-0.031149397134531714
1750771255.8847728,-1.726846275478306,-2.4838219999999995,-0.5350542108618344,1.5824581612685198,-0.4540554692739578,-2.0237760146007275,-0.026741374741741528,0.08400000000000006,-0.05733584359326885,-0.0005337944223842004,-0.015374634213780445,-0.01538112619912595,2.7926811859535428,2.439420014578228,0.2854193491031538,0.00040753596841023183,-0.005156053029291189,-0.031149397134531714
1750771255.8867357,-1.726900076577489,-2.4836529999999994,-0.5351695651185873,1.5824570873249795,-0.45408640157374514,-2.023806959961771,-0.027059724441047973,0.08500000000000006,-0.058018413159855384,-0.0005401491178887742,-0.015557665573468308,-0.015564234844353639,2.7933835656737585,2.439813927551891,0.2854203034581552,0.00040711206283490346,-0.005156053029274615,-0.031165296459813047
1750771255.888697,-1.7269545143760698,-2.4834819999999995,-0.5352862845144735,1.582456000672048,-0.4541176999362513,-2.0238382715401038,-0.02737807414035442,0.08600000000000006,-0.05870098272644192,-0.0005465038133933481,-0.01574069693315617,-0.01574734348958133,2.7940942375369624,2.44021247388044,0.2854212687878862,0.00040668316698564663,-0.005156053029257812,-0.03118138905634588
1750771255.8907402,-1.7270095888740506,-2.4833089999999993,-0.535404369049493,1.5824549013097258,-0.454149364361478,-2.0238699493357286,-0.027696423839660866,0.08700000000000006,-0.059383552293028455,-0.0005528585088979219,-0.015923728292844032,-0.01593045213480902,2.794813200829274,2.4406156525585785,0.2854222450810285,0.00040624928180193776,-0.005156053029240931,-0.031197675103380472
1750771255.892641,-1.7270653000714287,-2.4831339999999993,-0.5355238187236457,1.5824537892380126,-0.45418139484942266,-2.0239019933486437,-0.028014773538967315,0.08800000000000006,-0.06006612185961499,-0.0005592132044024957,-0.016106759652531895,-0.016113560780036708,2.7955404548280622,2.4410234625689613,0.2854232323261289,0.0004058104082347106,-0.005156053029223822,-0.0312141547821989
1750771255.894612,-1.7271216479682057,-2.4829569999999994,-0.5356446335369318,1.5824526644569084,-0.4542137914000879,-2.023934403578849,-0.02833312323827376,0.08900000000000007,-0.06074869142620152,-0.0005655678999070695,-0.016289791012219758,-0.0162966694252644,2.7962759988019803,2.4414359028821573,0.28542423051159954,0.00040536654724643723,-0.005156053029206536,-0.03123082827610288
1750771255.898,-1.7271786325643816,-2.4827779999999993,-0.5357668134893512,1.582451526966413,-0.4542465540134719,-2.023967180026345,-0.02865147293758021,0.09000000000000007,-0.061431260992788055,-0.0005719225954116434,-0.016472822371907617,-0.01647977807049209,2.7970198320109034,2.4418529724566653,0.28542523962571587,0.00040491769981118326,-0.005156053029188976,-0.031247695770409003
1750771255.8990915,-1.7272362538599566,-2.4825969999999993,-0.535890358580903,1.5824503767665266,-0.45427968268957564,-2.0240003226911307,-0.028969822636886654,0.09100000000000007,-0.06211383055937459,-0.0005782772909162172,-0.01665585373159548,-0.01666288671571978,2.7977719537059555,2.4422746702388904,0.28542625965662044,0.0004044638669145411,-0.005156053029171436,-0.03126475745245957
1750771255.9008737,-1.7272945118549297,-2.4824139999999995,-0.536015268811588,1.5824492138572492,-0.45431317742839816,-2.024033831573208,-0.029288172336193102,0.09200000000000007,-0.06279640012596112,-0.000584631986420791,-0.016838885091283343,-0.01684599536094747,2.798532363129462,2.442700995163141,0.2854272905923193,0.00040400504955376987,-0.005156053029153623,-0.031282013511601967
1750771255.9027665,-1.7273534065493017,-2.4822289999999994,-0.5361415441814064,1.5824480382385808,-0.4543470382299404,-2.024067706672575,-0.029606522035499547,0.09300000000000007,-0.06347896969254765,-0.0005909866819253648,-0.017021916450971206,-0.017029104006175157,2.7993010595149643,2.443131946151605,0.28542833242068205,0.00040354124873765736,-0.005156053029135635,-0.03129946413920304
1750771255.9048195,-1.7274129379430718,-2.4820419999999994,-0.536269184690358,1.5824468499105215,-0.4543812650942023,-2.024101947989232,-0.029924871734805996,0.09400000000000007,-0.06416153925913419,-0.0005973413774299386,-0.01720494781065907,-0.01721221265140285,2.8000780420871854,2.443567522114354,0.28542938512944466,0.0004030724654866697,-0.005156053029117473,-0.031317109528635326
1750771255.9067984,-1.72747310603624,-2.4818529999999996,-0.5363981903384429,1.5824456488730712,-0.454415858021183,-2.02413655552318,-0.03024322143411244,0.09500000000000007,-0.06484410882572073,-0.0006036960729345124,-0.017387979170346932,-0.017395321296630538,2.8008633100620273,2.444007721949321,0.2854304487062061,0.00040259870083292663,-0.005156053029099138,-0.031334949875274645
1750771255.9087307,-1.7275339108288081,-2.4816619999999996,-0.5365285611256612,1.58244443512623,-0.4544508170108834,-2.024171529274419,-0.03056157113341889,0.09600000000000007,-0.06552667839230726,-0.0006100507684390862,-0.017571010530034795,-0.01757842994185823,2.8016568626465586,2.4444525445422864,0.28543152313842995,0.00040211995582019376,-0.005156053029080631,-0.03135298537650772
1750771255.9107416,-1.7275953523207743,-2.4814689999999993,-0.5366602970520127,1.5824432086699975,-0.4544861420633035,-2.0242068692429473,-0.030879920832725335,0.09700000000000007,-0.0662092479588938,-0.0006164054639436601,-0.017754041889722655,-0.01776153858708592,2.8024586990389824,2.4449019887668877,0.2854326084134443,0.0004016362315039522,-0.005156053029061854,-0.03137121623171323
1750771255.912726,-1.7276574305121386,-2.4812739999999995,-0.5367933981174966,1.582441969504374,-0.4545218331784424,-2.024242575428767,-0.031198270532031783,0.09800000000000007,-0.06689181752548033,-0.0006227601594482339,-0.017937073249410518,-0.017944647232313607,2.8032688184286365,2.4453560534845797,0.28543370451844075,0.00040114752895136337,-0.005156053029043102,-0.03138964264227601
1750771255.9147341,-1.7277201454029019,-2.4810769999999995,-0.5369278643221147,1.5824407176293596,-0.454557890356301,-2.024278647831877,-0.03151662023133823,0.09900000000000007,-0.06757438709206687,-0.0006291148549528077,-0.01812010460909838,-0.0181277558775413,2.8040872199959908,2.4458147375446457,0.28543481144047556,0.00040065384924134267,-0.005156053029024081,-0.03140826481157206
1750771255.9166288,-1.727783496993064,-2.4808779999999993,-0.5370636956658652,1.5824394530449541,-0.4545943135968784,-2.024315086452278,-0.03183496993064468,0.10000000000000007,-0.06825695665865339,-0.0006354695504573816,-0.018303135968786244,-0.018310864522768987,2.8049139029125985,2.4462780397841684,0.2854359291664683,0.0004001551934645964,-0.00515605302900489,-0.031427082944967
1750771255.9187293,-1.7278474852826244,-2.4806769999999996,-0.537200892148749,1.5824381757511579,-0.4546311029001764,-2.0243518912899674,-0.032153319629951126,0.10100000000000008,-0.06893952622523992,-0.0006418242459619553,-0.018486167328474107,-0.01849397316799668,2.8057488663411045,2.4467459590280307,0.28543705768320154,0.0003996515627235426,-0.005156053028985531,-0.03144609724982244
1750771255.9207032,-1.7279121102715838,-2.4804739999999996,-0.5373394537707661,1.5824368857479705,-0.4546682582661923,-2.02438906234495,-0.03247166932925757,0.10200000000000008,-0.06962209579182646,-0.0006481789414665291,-0.01866919868816197,-0.018677081813224368,2.806592109435242,2.4472184940889012,0.28543819697732364,0.00039914295813241933,-0.005156053028966003,-0.031465307935479137
1750771255.9227188,-1.727977371959942,-2.4802689999999994,-0.5374793805319165,1.582435583035392,-0.45470577969492876,-2.024426599617221,-0.032790019028564016,0.10300000000000008,-0.070304665358413,-0.0006545336369711029,-0.01885223004784983,-0.018860190458452056,2.807443631339778,2.447695643767216,0.2854393470353447,0.00039862938081726786,-0.005156053028946209,-0.03148471521326731
1750771255.9301884,-1.7280432703476984,-2.4800619999999993,-0.5376206724321992,1.5824342676134224,-0.45474366718638404,-2.024464503106783,-0.033108368727870464,0.10400000000000008,-0.07098723492499953,-0.0006608883324756768,-0.019035261407537692,-0.01904329910367975,2.808303431190534,2.4481774068511726,0.2854405078436392,0.00039811083191597835,-0.005156053028926445,-0.031504319296495845
1750771255.9305336,-1.7280432703476984,-2.4800619999999993,-0.5376206724321992,1.5824342676134224,-0.45474366718638404,-2.024464503106783,-0.033108368727870464,0.10400000000000008,-0.07098723492499953,-0.0006608883324756768,-0.019035261407537692,-0.01904329910367975,2.808303431190534,2.4481774068511726,0.2854405078436392,0.00039811083191597835,-0.005156053028926445,-0.031504319296495845
1750771255.9307456,-1.7281769772214073,-2.4796419999999997,-0.5379073516501665,1.5824315986413107,-0.4548205403574528,-2.024541408737779,-0.033745068126483355,0.10600000000000008,-0.0723523740581726,-0.0006735977234848244,-0.01940132412691342,-0.01940951639413513,2.8100478612290942,2.4491547683275146,0.28544286165586086,0.00039705882396596576,-0.005156053028886223,-0.031544118742384934
1750771255.9309578,-1.7282447857073588,-2.4794289999999997,-0.5380527389678491,1.582430245091168,-0.45485952603706625,-2.024580410879212,-0.0340634178257898,0.10700000000000008,-0.07303494362475914,-0.0006799524189893982,-0.01958435548660128,-0.019592625039362817,2.8109324896435934,2.449650364234982,0.28544405463185274,0.0003965253672523783,-0.005156053028865864,-0.03156431454153628
1750771255.9327028,-1.7283132308927103,-2.4792139999999994,-0.538199491424665,1.5824288788316347,-0.4548988777793994,-2.024619779237936,-0.03438176752509625,0.10800000000000008,-0.07371751319134567,-0.0006863071144939721,-0.019767386846289144,-0.019775733684590506,2.8118253924576937,2.4501505685782146,0.2854452583022465,0.00039598694362308015,-0.005156053028845343,-0.03158470801910468
1750771255.9347947,-1.7283823127774598,-2.4789969999999997,-0.5383476090206143,1.5824274998627101,-0.4549385955844514,-2.024659513813951,-0.0347001172244027,0.10900000000000008,-0.07440008275793221,-0.0006926618099985459,-0.019950418205977007,-0.019958842329818198,2.812726568762169,2.4506553800840223,0.28544647265273226,0.0003954435542754299,-0.005156053028824656,-0.031605299398254114
1750771255.9367664,-1.7284520313616074,-2.4787779999999993,-0.5384970917556968,1.5824261081843947,-0.45497867945222303,-2.024699614607256,-0.03501846692370914,0.11000000000000008,-0.07508265232451873,-0.0006990165055031196,-0.020133449565664867,-0.020141950975045887,2.813636017638762,2.4511647974668995,0.28544769766886335,0.00039489520041887706,-0.005156053028803711,-0.03162608890410744
1750771255.9387493,-1.728522386645155,-2.4785569999999995,-0.5386479396299126,1.582424703796688,-0.4550191293827144,-2.0247400816178507,-0.03533681662301559,0.11100000000000008,-0.07576522189110527,-0.0007053712010076934,-0.02031648092535273,-0.02032505962027358,2.8145537381601216,2.4516788194289894,0.28544893333605265,0.0003943418832747453,-0.005156053028782799,-0.031647076763754195
1750771255.9407117,-1.7285933786280996,-2.4783339999999994,-0.5388001526432618,1.5824232866995906,-0.45505994537592453,-2.0247809148457367,-0.03565516632232204,0.11200000000000009,-0.0764477914576918,-0.0007117258965122673,-0.020499512285040593,-0.020508168265501267,2.8154797293898275,2.452197444660124,0.2854501796395803,0.00039378360407649275,-0.005156053028761629,-0.0316682632062302
1750771255.942769,-1.7286650073104433,-2.4781089999999995,-0.5389537307957433,1.582421856893102,-0.4551011274318544,-2.024822114290913,-0.03597351602162849,0.11300000000000009,-0.07713036102427834,-0.0007180805920168411,-0.020682543644728456,-0.020691276910728956,2.816413990382345,2.452720671837751,0.28545143656458555,0.0003932203640695179,-0.005156053028740299,-0.03168964846253057
1750771255.9446924,-1.728737272692186,-2.4778819999999993,-0.5391086740873581,1.5824204143772225,-0.4551426755505039,-2.024863679953379,-0.03629186572093493,0.11400000000000009,-0.07781293059086487,-0.0007244352875214149,-0.02086557500441632,-0.020874385555956648,2.817356520183027,2.453248499626965,0.2854527040960713,0.0003926521645113293,-0.005156053028718809,-0.03171123276559707
1750771255.948386,-1.7288101747733275,-2.4776529999999997,-0.5392649825181071,1.582418959151952,-0.45518458973187226,-2.0249056118331366,-0.03661021542024138,0.11500000000000009,-0.07849550015745141,-0.0007307899830259888,-0.021048606364104182,-0.021057494201184336,2.818307317828069,2.453780926680469,0.28545398221890234,0.000392079006671565,-0.005156053028697162,-0.03173301635031243
1750771255.9487603,-1.7288837135538673,-2.4774219999999993,-0.5394226560879885,1.5824174912172904,-0.4552268699759603,-2.0249479099301837,-0.036928565119547827,0.11600000000000009,-0.07917806972403794,-0.0007371446785305626,-0.021231637723792045,-0.021240602846412028,2.819266382344526,2.4543179516385782,0.28545527091780565,0.000391500891831887,-0.005156053028675356,-0.0317549994535098
1750771255.9507806,-1.7288837135538673,-2.4774219999999993,-0.5394226560879885,1.5824174912172904,-0.4552268699759603,-2.0249479099301837,-0.036928565119547827,0.11600000000000009,-0.07917806972403794,-0.0007371446785305626,-0.021231637723792045,-0.021240602846412028,2.819266382344526,2.4543179516385782,0.28545527091780565,0.000391500891831887,-0.005156053028675356,-0.0317549994535098
1750771255.952783,-1.728957889033806,-2.4771889999999996,-0.5395816947970031,1.5824160105732379,-0.45526951628276713,-2.024990574244523,-0.03724691481885427,0.11700000000000009,-0.07986063929062448,-0.0007434993740351364,-0.021414669083479904,-0.021423711491639717,2.820233712750274,2.454859573129184,0.2854565701773701,0.0003909178212861926,-0.005156053028653297,-0.03177718231395238
1750771255.9547212,-1.7290327012131428,-2.4769539999999997,-0.5397420986451511,1.5824145172197943,-0.45531252865229366,-2.0250336047761506,-0.03756526451816072,0.11800000000000009,-0.08054320885721102,-0.0007498540695397102,-0.021597700443167767,-0.021606820136867405,2.8212093080539886,2.4554057897677706,0.2854578799820464,0.00039032979634045275,-0.005156053028631277,-0.03179956517234482
1750771255.9568603,-1.7291081500918786,-2.4767169999999994,-0.5399038676324315,1.5824130111569596,-0.4553559070845399,-2.0250770015250694,-0.037883614217467165,0.11900000000000009,-0.08122577842379754,-0.000756208765044284,-0.02178073180285563,-0.021789928782095097,2.8221931672551555,2.455956600157369,0.2854592003161479,0.0003897368183128687,-0.005156053028609003,-0.03182214827132189
1750771255.9585967,-1.7291842356700124,-2.4764779999999993,-0.540067001758846,1.582411492384734,-0.4553996515795058,-2.0251207644912785,-0.038201963916773614,0.12000000000000009,-0.08190834799038407,-0.0007625634605488578,-0.021963763162543493,-0.021973037427322786,2.823185289344011,2.4565120028885628,0.2854605311638474,0.0003891388885338808,-0.0051560530285865765,-0.03184493185544254
1750771255.9605951,-1.7292609579475453,-2.4762369999999994,-0.540231501024393,1.5824099609031175,-0.4554437621371905,-2.025164893674779,-0.038520313616080055,0.1210000000000001,-0.08259091755697061,-0.0007689181560534316,-0.022146794522231356,-0.022156146072550478,2.824185673301565,2.4570719965394696,0.2854618725091818,0.00038853600834609935,-0.005156053028563996,-0.03186791617119797
1750771255.9626372,-1.7293383169244771,-2.4759939999999996,-0.5403973654290741,1.58240841671211,-0.45548823875759403,-2.0252093890755694,-0.038838663315386504,0.1220000000000001,-0.08327348712355714,-0.0007752728515580055,-0.02232982588191922,-0.022339254717778166,2.825194318099545,2.4576365796757234,0.28546322433604765,0.00038792817910447794,-0.005156053028541262,-0.031891101466991735
1750771255.9646006,-1.729416312600807,-2.4757489999999995,-0.5405645949728877,1.5824068598117114,-0.45553308144071814,-2.02525425069365,-0.03915701301469295,0.1230000000000001,-0.08395605669014368,-0.0007816275470625793,-0.02251285724160708,-0.022522363363005855,2.826211222700413,2.45820575085047,0.2854645866282035,0.0003873154021761731,-0.00515605302851828,-0.03191448799315325
1750771255.966611,-1.729494944976535,-2.4755019999999996,-0.5407331896558345,1.5824052902019217,-0.45557829018656104,-2.0252994785290213,-0.0394753627139994,0.1240000000000001,-0.08463862625673022,-0.0007879822425671531,-0.022695888601294942,-0.022705472008233547,2.8272363860573178,2.4587795086043376,0.28546595936926883,0.0003866976789406975,-0.005156053028495341,-0.03193807600192172
1750771255.9686043,-1.729574214051663,-2.4752529999999995,-0.5409031494779146,1.582403707882741,-0.45562386499512275,-2.0253450725816826,-0.03979371241330584,0.12500000000000008,-0.08532119582331674,-0.0007943369380717268,-0.0228789199609828,-0.02288858065346123,2.8282698071141055,2.4593578514654255,0.2854673425427245,0.00038607501078995134,-0.005156053028472058,-0.03196186574744279
1750771255.9706764,-1.729654119826189,-2.4750019999999995,-0.541074474439128,1.5824021128541694,-0.45566980586640504,-2.025391032851635,-0.04011206211261229,0.12600000000000008,-0.08600376538990327,-0.0008006916335763007,-0.023061951320670664,-0.023071689298688924,2.829311484805257,2.459940777949312,0.2854687361319109,0.00038544739912807393,-0.005156053028448821,-0.03198585748577936
1750771255.9726472,-1.729734662300113,-2.4747489999999996,-0.5412471645394739,1.5824005051162067,-0.45571611280040614,-2.025437359338878,-0.04043041181191873,0.12700000000000009,-0.08668633495648981,-0.0008070463290808745,-0.023244982680358527,-0.023254797943916612,2.830361418055921,2.460528286559001,0.2854701401200314,0.0003848148453717333,-0.005156053028425338,-0.032010051474883956
1750771255.9798572,-1.729815841473437,-2.4744939999999995,-0.5414212197789539,1.582398884668853,-0.45576278579712604,-2.025484052043411,-0.04074876151122518,0.12800000000000009,-0.08736890452307634,-0.0008134010245854483,-0.02342801404004639,-0.023437906589144304,2.8314196057818575,2.4611203757849323,0.28547155449014777,0.0003841773509499357,-0.005156053028401708,-0.03203444797461884
1750771255.980259,-1.7299801099182783,-2.4739779999999993,-0.541773425675312,1.5823956056459727,-0.4558572299787249,-2.025578536104348,-0.04138546090983808,0.1300000000000001,-0.08873404365624941,-0.0008261104155945959,-0.023794076759422116,-0.02380412387959968,2.8335607402755967,2.462318289984372,0.28547441430792375,0.0003828875458883636,-0.005156053028354011,-0.03208384955487631
1750771255.9806838,-1.7300631991897975,-2.4737169999999993,-0.5419515763321909,1.582393947070446,-0.4559050011636039,-2.0256263274607527,-0.04170381060914452,0.1310000000000001,-0.08941661322283594,-0.0008324651110991697,-0.023977108119109976,-0.023987232524827373,2.8346436848278747,2.4629241118757763,0.28547585972101097,0.0003822352381689577,-0.005156053028329846,-0.03210885516457853
1750771255.9828722,-1.7301469251607156,-2.4734539999999994,-0.5421310921282032,1.5823922757855282,-0.45595313841120166,-2.0256744850344477,-0.04202216030845097,0.1320000000000001,-0.09009918278942247,-0.0008388198066037435,-0.02416013947879784,-0.024170341170055062,2.8357348794243165,2.4635345082191926,0.28547731544694843,0.00038157799562493956,-0.005156053028305734,-0.03213406434325255
1750771255.9846568,-1.7302312878310318,-2.4731889999999996,-0.5423119730633488,1.5823905917912195,-0.45600164172151914,-2.025723008825433,-0.04234051000775742,0.1330000000000001,-0.09078175235600901,-0.0008451745021083173,-0.024343170838485702,-0.024353449815282754,2.836834322933518,2.4641494774419934,0.2854787814681017,0.0003809158197478266,-0.005156053028281381,-0.032159477360198675
1750771255.9866867,-1.730316287200746,-2.4729219999999996,-0.5424942191376276,1.5823888950875198,-0.4560505110945554,-2.0257718988337086,-0.042658859707063866,0.1340000000000001,-0.09146432192259554,-0.0008515291976128912,-0.024526202198173565,-0.024536558460510442,2.837942014214569,2.4647690179588815,0.285480257766694,0.00038024871204173744,-0.005156053028256887,-0.032185094486583875
1750771255.988801,-1.7304019232698593,-2.4726529999999993,-0.5426778303510389,1.5823871856744292,-0.4560997465303114,-2.0258211550592744,-0.04297720940637031,0.1350000000000001,-0.09214689148918208,-0.000857883893117465,-0.024709233557861428,-0.02471966710573813,2.839057952117052,2.4653931281718795,0.28548174432480894,0.00037957667402338757,-0.005156053028232253,-0.03221091599545401
1750771255.990674,-1.7304881960383716,-2.4723819999999996,-0.5428628067035843,1.5823854635519474,-0.45614934802878704,-2.0258707775021314,-0.043295559105676756,0.1360000000000001,-0.09282946105576861,-0.0008642385886220388,-0.02489226491754929,-0.024902775750965823,2.840182135481004,2.466021806470317,0.28548324112438933,0.00037889970722211657,-0.005156053028207478,-0.03223694216171904
1750771255.9928691,-1.7305751055062828,-2.4721089999999997,-0.5430491481952622,1.5823837287200746,-0.4561993155899815,-2.0259207661622796,-0.043613908804983205,0.1370000000000001,-0.09351203062235515,-0.0008705932841266126,-0.025075296277237154,-0.02508588439619351,2.8413145631369203,2.4666550512308203,0.28548474814723795,0.000378217813179973,-0.005156053028182565,-0.03226317326215089
1750771255.994769,-1.7305751055062828,-2.4721089999999997,-0.5430491481952622,1.5823837287200746,-0.4561993155899815,-2.0259207661622796,-0.043613908804983205,0.1370000000000001,-0.09351203062235515,-0.0008705932841266126,-0.025075296277237154,-0.02508588439619351,2.8413145631369203,2.4666550512308203,0.28548474814723795,0.000378217813179973,-0.005156053028182565,-0.03226317326215089
1750771255.9978445,-1.7306626516735921,-2.4718339999999994,-0.5432368548260733,1.582381981178811,-0.45624964921389566,-2.025971121039717,-0.043932258504289654,0.1380000000000001,-0.09419460018894169,-0.0008769479796311864,-0.025258327636925013,-0.025268993041421203,2.8424552339057056,2.467292860817285,0.2854862653750166,0.00037753099345165747,-0.0051560530281574155,-0.03228960957538753
1750771255.9990213,-1.7307508345402995,-2.4715569999999993,-0.5434259265960186,1.5823802209281561,-0.4563003489005295,-2.026021842134444,-0.044250608203596095,0.1390000000000001,-0.09487716975552822,-0.0008833026751357602,-0.025441358996612876,-0.025452101686648892,2.843604146598679,2.467935233580867,0.2854877927892465,0.000376839249604634,-0.0051560530281323244,-0.03231625138191368
1750771256.0008285,-1.730839654106406,-2.4712779999999994,-0.5436163635050955,1.5823784479681104,-0.45635141464988216,-2.026072929446463,-0.044568957902902544,0.1400000000000001,-0.09555973932211474,-0.000889657370640334,-0.02562439035630074,-0.02563521033187658,2.8447613000175274,2.4685821678599558,0.28548933037130764,0.00037614258321909383,-0.005156053028107001,-0.032343098964073155
1750771256.0027413,-1.7309291103719113,-2.4709969999999997,-0.5438081655533065,1.5823766622986735,-0.4564028464619545,-2.0261243829757722,-0.04488730760220899,0.1410000000000001,-0.09624230888870128,-0.0008960120661449079,-0.025807421715988602,-0.025818318977104272,2.8459266929543197,2.469233661980173,0.2854908781024378,0.0003754409958879796,-0.005156053028081542,-0.03237015260605334
1750771256.005129,-1.7310192033368148,-2.4707139999999996,-0.5440013327406508,1.5823748639198458,-0.45645464433674654,-2.0261762027223718,-0.045205657301515434,0.1420000000000001,-0.09692487845528781,-0.0009023667616494817,-0.025990453075676465,-0.02600142762233196,2.847100324191447,2.46988971425435,0.2854924359637359,0.00037473448921716097,-0.005156053028055949,-0.03239741259388218
1750771256.006899,-1.7311099330011173,-2.4704289999999993,-0.5441958650671275,1.5823730528316269,-0.4565068082742574,-2.0262283886862615,-0.04552400700082188,0.1430000000000001,-0.09760744802187435,-0.0009087214571540555,-0.026173484435364328,-0.026184536267559653,2.8482821925016215,2.4705503229825045,0.28549400393615787,0.00037402306482518837,-0.005156053028030223,-0.032424879215431766
1750771256.0088441,-1.7312012993648178,-2.4701419999999996,-0.5443917625327384,1.582371229034017,-0.4565593382744879,-2.0262809408674416,-0.04584235670012833,0.1440000000000001,-0.09829001758846088,-0.0009150761526586294,-0.026356515795052188,-0.02636764491278734,2.8494722966478543,2.4712154864518316,0.28549558200051806,0.0003733067243436306,-0.005156053028004267,-0.03245255276040168
1750771256.0108209,-1.7312933024279182,-2.4698529999999996,-0.5445890251374816,1.5823693925270164,-0.45661223433743725,-2.026333859265913,-0.04616070639943478,0.1450000000000001,-0.09897258715504742,-0.0009214308481632032,-0.02653954715474005,-0.02655075355801503,2.8506706353834397,2.471885202936679,0.2854971701374896,0.00037258546941687406,-0.005156053027978376,-0.032480433520328304
1750771256.0128329,-1.7313859421904159,-2.4695619999999994,-0.5447876528813582,1.5823675433106246,-0.4566654964631063,-2.0263871438816743,-0.04647905609874122,0.1460000000000001,-0.09965515672163396,-0.0009277855436677769,-0.026722578514427914,-0.026733862203242722,2.8518772074519076,2.4725594706985485,0.2854987683276037,0.000371859301702241,-0.005156053027952258,-0.032508521788570666
1750771256.0148027,-1.7314792186523125,-2.4692689999999993,-0.5449876457643681,1.5823656813848417,-0.456719124651495,-2.026440794714725,-0.04679740579804767,0.1470000000000001,-0.10033772628822049,-0.0009341402391723507,-0.026905609874115777,-0.02691697084847041,2.853092011587023,2.473238287986048,0.285500376551249,0.00037112822287004314,-0.005156053027926011,-0.03253681786030459
1750771256.016731,-1.731573131813608,-2.4689739999999993,-0.5451890037865113,1.5823638067496677,-0.4567731189026034,-2.026494811765067,-0.04711575549735412,0.1480000000000001,-0.10102029585480703,-0.0009404949346769246,-0.02708864123380364,-0.027100079493698102,2.854315046512777,2.473921653034901,0.2855019947886731,0.0003703922346035557,-0.0051560530278996364,-0.03256532203253238
1750771256.0187545,-1.7316676816743026,-2.4686769999999996,-0.5453917269477877,1.5823619194051028,-0.45682747921643063,-2.0265491950327004,-0.04743410519666057,0.1490000000000001,-0.10170286542139355,-0.0009468496301814984,-0.027271672593491503,-0.02728318813892579,2.8555463109433274,2.4746095640679173,0.28550362301998067,0.0003696513385991381,-0.005156053027873135,-0.03259403460405734
1750771256.020762,-1.7317628682343944,-2.4683779999999995,-0.5455958152481966,1.5823600193511471,-0.45688220559297754,-2.026603944517623,-0.04775245489596701,0.1500000000000001,-0.10238543498798008,-0.0009532043256860722,-0.027454703953179366,-0.02746629678415348,2.8567858035830054,2.47530201929499,0.2855052612251333,0.0003689055365661402,-0.005156053027846507,-0.03262295587550065
1750771256.022691,-1.731858691493886,-2.4680769999999996,-0.5458012686877396,1.5823581065878003,-0.45693729803224326,-2.0266590602198367,-0.04807080459527346,0.1510000000000001,-0.10306800455456662,-0.000959559021190646,-0.027637735312867225,-0.02764940542938117,2.858033523126276,2.4759990169130393,0.2855069093839513,0.00036815483022700014,-0.005156053027819658,-0.03265208614928149
1750771256.0304112,-1.7319551514527758,-2.4677739999999995,-0.546008087266415,1.5823561811150624,-0.45699275653422866,-2.0267145421393415,-0.048389154294579906,0.1520000000000001,-0.10375057412115316,-0.0009659137166952199,-0.027820766672555088,-0.02783251407460886,2.8592894682577312,2.476700555106048,0.2855085674761116,0.00036739922131731384,-0.005156053027792881,-0.03268142572961536
1750771256.0308769,-1.7320522481110645,-2.4674689999999995,-0.5462162709842238,1.5823542429329334,-0.45704858109893287,-2.026770390276136,-0.048707503993886354,0.1530000000000001,-0.10443314368773969,-0.0009722684121997937,-0.02800379803224295,-0.028015622719836552,2.8605536376520546,2.4774066320449983,0.28551023548114823,0.0003666387115857746,-0.005156053027765883,-0.03271097492251997
1750771256.0311189,-1.7320522481110645,-2.4674689999999995,-0.5462162709842238,1.5823542429329334,-0.45704858109893287,-2.026770390276136,-0.048707503993886354,0.1530000000000001,-0.10443314368773969,-0.0009722684121997937,-0.02800379803224295,-0.028015622719836552,2.8605536376520546,2.4774066320449983,0.28551023548114823,0.0003666387115857746,-0.005156053027765883,-0.03271097492251997
1750771256.0313585,-1.7321499814687513,-2.4671619999999996,-0.5464258198411658,1.5823522920414135,-0.45710477172635766,-2.0268266046302204,-0.049025853693192796,0.1540000000000001,-0.10511571325432623,-0.0009786231077043674,-0.028186829391930814,-0.02819873136506424,2.861826029974003,2.478117245887888,0.2855119133784523,0.0003658733027943382,-0.005156053027738763,-0.032740734035792536
1750771256.0328844,-1.7322483515258371,-2.4668529999999995,-0.5466367338372411,1.5823503284405025,-0.45716132841650126,-2.026883185201596,-0.049344203392499245,0.1550000000000001,-0.10579828282091276,-0.0009849778032089414,-0.028369860751618677,-0.02838184001029193,2.8631066438783797,2.4788323947796838,0.28551360114727165,0.00036510299671806823,-0.005156053027711524,-0.03277070337902312
1750771256.0348167,-1.732347358282322,-2.4665419999999996,-0.5468490129724497,1.5823483521302006,-0.45721825116936365,-2.026940131990262,-0.04966255309180569,0.1560000000000001,-0.1064808523874993,-0.000991332498713515,-0.02855289211130654,-0.02856494865551962,2.8643954780100187,2.4795520768523187,0.2855152987667106,0.0003643277951453644,-0.005156053027684166,-0.0328008832635791
1750771256.036787,-1.7324470017382048,-2.4662289999999993,-0.5470626572467916,1.5823463631105077,-0.45727553998494663,-2.0269974449962174,-0.04998090279111214,0.1570000000000001,-0.10716342195408583,-0.000997687194218089,-0.0287359234709944,-0.02874805730074731,2.865692531003754,2.4802762902246807,0.2855170062157305,0.00036354769987784614,-0.005156053027656591,-0.03283127400259948
1750771256.0389514,-1.7324470017382048,-2.4662289999999993,-0.5470626572467916,1.5823463631105077,-0.45727553998494663,-2.0269974449962174,-0.04998090279111214,0.1570000000000001,-0.10716342195408583,-0.000997687194218089,-0.0287359234709944,-0.02874805730074731,2.865692531003754,2.4802762902246807,0.2855170062157305,0.00036354769987784614,-0.005156053027656591,-0.03283127400259948
1750771256.0407112,-1.7325472818934857,-2.4659139999999993,-0.5472776666602659,1.5823443613814239,-0.4573331948632475,-2.027055124219464,-0.05029925249041858,0.1580000000000001,-0.10784599152067237,-0.0010040418897226627,-0.028918954830682263,-0.028931165945975,2.866997801484397,2.4810050330025764,0.2855187234731487,0.00036276271273047564,-0.005156053027629095,-0.03286187591100151
1750771256.0426583,-1.7326481987481657,-2.4655969999999994,-0.5474940412128735,1.582342346942949,-0.457391215804269,-2.0271131696600015,-0.05061760218972503,0.1590000000000001,-0.10852856108725889,-0.0010103965852272365,-0.029101986190370126,-0.02911427459120269,2.8683112880667085,2.481738303278717,0.28552045051763886,0.0003619728355315371,-0.005156053027601386,-0.032892689305458495
1750771256.044687,-1.7327497523022446,-2.4652779999999996,-0.5477117809046153,1.582340319795083,-0.4574496028080093,-2.0271715813178286,-0.05093595188903148,0.16000000000000011,-0.10921113065384543,-0.0010167512807318104,-0.02928501755005799,-0.02929738323643038,2.8696329893553973,2.4824760991327115,0.2855221873277297,0.0003611780701226768,-0.005156053027573562,-0.03292371450441407
1750771256.0466957,-1.7328519425557225,-2.4649569999999996,-0.5479308857354894,1.5823382799378258,-0.45750835587446925,-2.027230359192947,-0.05125430158833793,0.16100000000000012,-0.10989370022043196,-0.0010231059762363841,-0.02946804890974585,-0.02948049188165807,2.870962903945065,2.4832184186310395,0.28552393388180763,0.0003603784183589898,-0.0051560530275456245,-0.03295495182806305
1750771256.0503287,-1.7329547695085985,-2.4646339999999993,-0.5481513557054969,1.5823362273711779,-0.457567475003648,-2.027289503285356,-0.05157265128764437,0.16200000000000012,-0.1105762697870185,-0.001029460671740958,-0.029651080269433715,-0.02966360052688576,2.8723010304201995,2.4839652598270336,0.2855256901581142,0.00035957388210901145,-0.005156053027517575,-0.03298640159834885
1750771256.050985,-1.7330582331608726,-2.4643089999999996,-0.5483731908146376,1.582334162095139,-0.4576269601955474,-2.027349013595055,-0.05189100098695082,0.16300000000000012,-0.11125883935360503,-0.0010358153672455318,-0.029834111629121578,-0.02984670917211345,2.8736473673551353,2.484716620760855,0.28552745613474506,0.00035876446325473283,-0.005156053027489413,-0.03301806413896825
1750771256.0529602,-1.7331623335125457,-2.4639819999999992,-0.5485963910629117,1.582332084109709,-0.45768681145016465,-2.027408890122045,-0.05220935068625727,0.16400000000000012,-0.11194140892019157,-0.0010421700627501057,-0.030017142988809437,-0.03002981781734114,2.875001913314065,2.4854724994594832,0.28552923178965317,0.0003579501636916464,-0.005156053027461044,-0.03304993977535048
1750771256.0549855,-1.7332670705636177,-2.4636529999999994,-0.5488209564503181,1.582329993414888,-0.4577470287675025,-2.027469132866324,-0.052527700385563716,0.16500000000000012,-0.1126239784867781,-0.0010485247582546794,-0.0302001743484973,-0.030212926462568828,2.876364666850969,2.4862328939366862,0.28553101710064555,0.0003571309853288051,-0.005156053027432762,-0.03308202883466865
1750771256.056669,-1.7333724443140879,-2.4633219999999993,-0.5490468869768588,1.5823278900106759,-0.45780761214755916,-2.0275297418278946,-0.05284605008487016,0.16600000000000012,-0.11330654805336464,-0.0010548794537592534,-0.030383205708185163,-0.03039603510779652,2.8777356265096183,2.48699780219302,0.2855328120453849,0.0003563069300888126,-0.005156053027404273,-0.03311433164582371
1750771256.0586708,-1.733478454763957,-2.4629889999999994,-0.5492741826425318,1.5823257738970729,-0.4578685615903346,-2.0275907170067553,-0.05316439978417661,0.16700000000000012,-0.11398911761995117,-0.001061234149263827,-0.030566237067873026,-0.03057914375302421,2.8791147908235404,2.4877672222157856,0.2855346166013883,0.00035547799990797476,-0.005156053027375679,-0.03314684853943848
1750771256.0606177,-1.7335851019132251,-2.4626539999999992,-0.5495028434473381,1.582323645074079,-0.45792987709583066,-2.027652058402907,-0.053482749483483055,0.16800000000000012,-0.1146716871865377,-0.0010675888447684008,-0.03074926842756089,-0.0307622523982519,2.8805021583160078,2.4885411519790295,0.28553643074602864,0.0003546441967361331,-0.005156053027346979,-0.033179579847865855
1750771256.062657,-1.7336923857618913,-2.4623169999999996,-0.5497328693912777,1.5823215035416938,-0.4579915586640455,-2.0277137660163485,-0.053801099182789504,0.16900000000000012,-0.11535425675312423,-0.0010739435402729747,-0.030932299787248752,-0.03094536104347959,2.881897727499978,2.489319589443507,0.28553825445653086,0.00035380552253685006,-0.0051560530273181745,-0.033212525905163985
1750771256.0646098,-1.7338003063099556,-2.4619779999999993,-0.5499642604743507,1.582319349299918,-0.45805360629497915,-2.027775839847081,-0.054119448882095945,0.17000000000000012,-0.11603682631971077,-0.0010802982357775485,-0.031115331146936615,-0.031128469688707278,2.883301496878115,2.4901025325566843,0.28554008770997796,0.000352961979287466,-0.005156053027289267,-0.033245687047110443
1750771256.0666625,-1.7339088635574198,-2.4616369999999996,-0.5501970166965569,1.5823171823487507,-0.4581160199886334,-2.0278382798951036,-0.054437798581402394,0.17100000000000012,-0.1167193958862973,-0.0010866529312821224,-0.031298362506624475,-0.03131157833393497,2.8847134649427226,2.4908899792526844,0.285541930483304,0.0003521135689789418,-0.00515605302726016,-0.033279063611183
1750771256.068637,-1.7340180575042812,-2.4612939999999996,-0.5504311380578955,1.5823150026881927,-0.4581787997450055,-2.0279010861604165,-0.05475614828070884,0.17200000000000013,-0.11740196545288384,-0.0010930076267866961,-0.03148139386631234,-0.03149468697916266,2.886133630175747,2.4916819274523156,0.28554378275329956,0.00035126029361618144,-0.005156053027231148,-0.03331265593655902
1750771256.0708206,-1.7340180575042812,-2.4612939999999996,-0.5504311380578955,1.5823150026881927,-0.4581787997450055,-2.0279010861604165,-0.05475614828070884,0.17200000000000013,-0.11740196545288384,-0.0010930076267866961,-0.03148139386631234,-0.03149468697916266,2.886133630175747,2.4916819274523156,0.28554378275329956,0.00035126029361618144,-0.005156053027231148,-0.03331265593655902
1750771256.0726693,-1.7341278881505424,-2.4609489999999994,-0.5506666245583682,1.5823128103182436,-0.45824194556409825,-2.0279642586430198,-0.05507449798001529,0.17300000000000013,-0.11808453501947037,-0.00109936232229127,-0.0316644252260002,-0.03167779562439035,2.8875619910487393,2.492478375062997,0.2855456444966068,0.00035040215521780127,-0.0051560530272019385,-0.03334646436411092
1750771256.074702,-1.7342383554962018,-2.4606019999999993,-0.5509034761979734,1.5823106052389035,-0.4583054574459098,-2.0280277973429133,-0.05539284767932173,0.17400000000000013,-0.11876710458605691,-0.0011057170177958438,-0.031847456585688064,-0.03186090426961804,2.888998546022823,2.4932793199787846,0.28554751568972375,0.0003495391558163119,-0.005156053027172631,-0.03338048923640837
1750771256.0796802,-1.73434945954126,-2.4602529999999994,-0.5511416929767119,1.5823083874501724,-0.458369335390441,-2.028091702260099,-0.05571119737862818,0.17500000000000013,-0.11944967415264345,-0.0011120717133004177,-0.03203048794537593,-0.03204401291484573,2.8904432935486697,2.49408476008032,0.28554939630900017,0.0003486712974581204,-0.005156053027143228,-0.033414730897689794
1750771256.0800989,-1.7344612002857165,-2.4599019999999996,-0.5513812748945845,1.5823061569520502,-0.458433579397691,-2.0281559733945738,-0.05602954707793463,0.17600000000000013,-0.12013224371922998,-0.0011184264088049914,-0.03221351930506379,-0.032227121560073416,2.8918962320664945,2.494894693234833,0.28555128633064075,0.00034779858220359005,-0.005156053027113727,-0.03344918969388193
1750771256.0819814,-1.7345735777295719,-2.4595489999999995,-0.5516222219515896,1.5823039137445372,-0.45849818946766163,-2.028220610746338,-0.05634789677724108,0.17700000000000013,-0.1208148132858165,-0.0011247811043095652,-0.03239655066475165,-0.03241023020530111,2.8933573600060036,2.4957091172960992,0.2855531857307028,0.0003469210121269829,-0.0051560530270841325,-0.03348386597258915
1750771256.083786,-1.7346865918728254,-2.459193999999999,-0.5518645341477271,1.582301657827633,-0.45856316560035015,-2.0282856143153944,-0.05666624647654752,0.17800000000000013,-0.12149738285240304,-0.001131135799814139,-0.032579582024439516,-0.0325933388505288,2.8948266757863754,2.496528030104439,0.28555509448509575,0.00034603858931663424,-0.005156053027054445,-0.033518760083070406
1750771256.0847287,-1.7348002427154778,-2.4588369999999995,-0.5521082114829987,1.582299389201338,-0.45862850779575925,-2.02835098410174,-0.05698459617585397,0.17900000000000013,-0.12217995241898957,-0.0011374904953187128,-0.03276261338412738,-0.032776447495756485,2.8963041778162286,2.4973514294866783,0.2855570125695837,0.0003451513158749327,-0.005156053027024665,-0.033553872376252764
1750771256.086736,-1.7349145302575284,-2.4584779999999995,-0.5523532539574036,1.5822971078656518,-0.45869421605388716,-2.028416720105378,-0.05730294587516042,0.18000000000000013,-0.12286252198557611,-0.0011438451908232867,-0.032945644743815235,-0.03295955614098418,2.89778986449362,2.4981793132561503,0.2855589399597824,0.0003442591939182224,-0.005156053026994599,-0.033589203204727774
1750771256.0887694,-1.735029454498978,-2.458116999999999,-0.552599661570941,1.5822948138205746,-0.45876029037473387,-2.028482822326305,-0.057621295574466866,0.18100000000000013,-0.12354509155216264,-0.0011501998863278605,-0.0331286761035031,-0.03314266478621187,2.899283734205983,2.49901167921265,0.28556087663116003,0.00034336222557711634,-0.0051560530269648365,-0.03362475292272378
1750771256.0907404,-1.7351450154398265,-2.4577539999999996,-0.5528474343236125,1.5822925070661065,-0.45882673075830116,-2.0285492907645226,-0.05793964527377331,0.18200000000000013,-0.12422766111874918,-0.0011565545818324344,-0.03331170746319096,-0.03332577343143956,2.9007857853301235,2.499848525142428,0.2855628225590374,0.0003424604129962926,-0.0051560530269347885,-0.03366052188612266
1750771256.0927162,-1.735261213080073,-2.4573889999999996,-0.5530965722154164,1.5822901876022473,-0.45889353720458725,-2.0286161254200303,-0.058257994973079756,0.18300000000000013,-0.12491023068533572,-0.0011629092773370081,-0.033494738822878824,-0.033508882076667246,2.902296016232174,2.500689848818173,0.28556477771858757,0.00034155375833466007,-0.005156053026904655,-0.03369651045244194
1750771256.0947506,-1.7353780474197187,-2.4570219999999994,-0.5533470752463536,1.5822878554289972,-0.45896070971359215,-2.028683326292829,-0.058576344672386205,0.18400000000000014,-0.12559280025192224,-0.001169263972841582,-0.03367777018256669,-0.03369199072189494,2.903814425267595,2.501535647998978,0.28556674208483585,0.00034064226376528603,-0.005156053026874434,-0.03373271898084264
1750771256.096713,-1.7354955184587624,-2.4566529999999993,-0.5535989434164241,1.582285510546356,-0.45902824828531763,-2.0287508933829184,-0.05889469437169265,0.18500000000000014,-0.1262753698185088,-0.0011756186683461558,-0.03386080154225455,-0.03387509936712263,2.9053410107811124,2.5023859204303256,0.28556871563265745,0.00033972593147560344,-0.00515605302684413,-0.0337691478320988
1750771256.09885,-1.735613626197205,-2.4562819999999994,-0.553852176725627,1.5822831529543238,-0.459096152919761,-2.028818826690298,-0.059213044070999095,0.18600000000000014,-0.1269579393850953,-0.0011819733638507295,-0.03404383290194241,-0.034058208012350315,2.9068757711067224,2.5032406638440663,0.2855706983367837,0.0003388047636672809,-0.005156053026813743,-0.03380579736861504
1750771256.1007364,-1.7357323706350467,-2.4559089999999992,-0.5541067751739641,1.5822807826529006,-0.459164423616925,-2.0288871262149675,-0.05953139377030554,0.18700000000000014,-0.12764050895168186,-0.0011883280593553034,-0.034226864261630276,-0.03424131665757801,2.9084187045676284,2.504099875958393,0.28557269017179077,0.0003378787625563225,-0.005156053026783274,-0.033842667954418
1750771256.103093,-1.7357323706350467,-2.4559089999999992,-0.5541067751739641,1.5822807826529006,-0.459164423616925,-2.0288871262149675,-0.05953139377030554,0.18700000000000014,-0.12764050895168186,-0.0011883280593553034,-0.034226864261630276,-0.03424131665757801,2.9084187045676284,2.504099875958393,0.28557269017179077,0.0003378787625563225,-0.005156053026783274,-0.033842667954418
1750771256.105368,-1.7359717696089252,-2.4551569999999994,-0.5546200674880373,1.582276003921881,-0.45930206319941025,-2.0290248239161786,-0.060168093168918434,0.18900000000000014,-0.12900564808485493,-0.001201037450364451,-0.034592926981006,-0.034607533948033384,2.91152908413417,2.5058316970932046,0.28557670113203065,0.00033601226936267003,-0.0051560530267220975,-0.03391707373799392
1750771256.106717,-1.736092424144962,-2.4547779999999992,-0.5548787613537733,1.5822735954922849,-0.4593714320847324,-2.02909422209272,-0.06048644286822488,0.19000000000000014,-0.12968821765144145,-0.0012073921458690248,-0.034775958340693865,-0.034790642593261076,2.9130965268321036,2.5067043014816175,0.28557872020567904,0.00033507178178407063,-0.005156053026691392,-0.03395460967184336
1750771256.1088333,-1.7362137153803978,-2.4543969999999993,-0.5551388203586427,1.5822711743532976,-0.4594411670327734,-2.0291639864865516,-0.06080479256753133,0.19100000000000014,-0.13037078721802797,-0.0012137468413735988,-0.03495898970038173,-0.03497375123848877,2.9146721358498984,2.507581365306431,0.2855807483070399,0.0003341264699111742,-0.005156053026660611,-0.0339923681271017
1750771256.110886,-1.7363356433152326,-2.4540139999999995,-0.5554002445026462,1.5822687405049194,-0.45951126804353315,-2.0292341170976744,-0.06112314226683778,0.19200000000000014,-0.13105335678461452,-0.0012201015368781725,-0.03514202106006959,-0.03515685988371646,2.9162559094564675,2.5084628862172402,0.2855827854099473,0.0003331763360323325,-0.005156053026629755,-0.034030349475785544
1750771256.1127717,-1.7364582079494655,-2.4536289999999994,-0.5556630337857813,1.5822662939471501,-0.4595817351170135,-2.0293046139260866,-0.06144149196614422,0.19300000000000014,-0.13173592635120104,-0.0012264562323827462,-0.03532505241975745,-0.035339968528944145,2.9178478459097907,2.5093488618498703,0.28558483148808916,0.00033222138245042593,-0.0051560530265986285,-0.034068554091487284
1750771256.1148443,-1.7365814092830973,-2.4532419999999995,-0.5559271882080505,1.5822638346799898,-0.45965256825321266,-2.02937547697179,-0.06175984166545067,0.19400000000000014,-0.1324184959177876,-0.0012328109278873201,-0.03550808377944531,-0.03552307717417184,2.919447943456864,2.510239289826318,0.2855868865149966,0.00033126161148292713,-0.0051560530265678224,-0.03410698234938297
1750771256.1169431,-1.7367052473161273,-2.4528529999999993,-0.5561927077694531,1.5822613627034385,-0.4597237674521315,-2.0294467062347827,-0.06207819136475712,0.19500000000000015,-0.13310106548437411,-0.0012391656233918938,-0.03569111513913317,-0.03570618581939953,2.92105620033369,2.5111341677547663,0.2855889504640583,0.00033029702546209165,-0.00515605302653675,-0.0341456346262046
1750771256.1187744,-1.7368297220485562,-2.4524619999999993,-0.556459592469988,1.5822588780174962,-0.45979533271376916,-2.0295183017150675,-0.06239654106406357,0.19600000000000015,-0.13378363505096066,-0.0012455203188964678,-0.035874146498821036,-0.035889294464627214,2.9226726147652333,2.5120334932295325,0.2855910233085056,0.00032932762673474616,-0.005156053026505608,-0.03418451130025273
1750771256.1207032,-1.7369548334803833,-2.4520689999999994,-0.5567278423096562,1.582256380622163,-0.4598672640381265,-2.0295902634126417,-0.06271489076337002,0.19700000000000015,-0.13446620461754719,-0.0012518750144010415,-0.0360571778585089,-0.036072403109854906,2.9242971849653965,2.512937263831069,0.2855931050214262,0.0003283534176624975,-0.005156053026474398,-0.03422361275139041
1750771256.1227646,-1.7370805816116093,-2.4516739999999992,-0.5569974572884586,1.5822538705174387,-0.45993956142520354,-2.029662591327506,-0.06303324046267646,0.19800000000000015,-0.13514877418413374,-0.0012582297099056154,-0.03624020921819676,-0.0362555117550826,2.925929909136997,2.5138454771259267,0.2855951955757508,0.00032737440062173,-0.005156053026443121,-0.03426293936101778
1750771256.1247716,-1.7372069664422343,-2.4512769999999993,-0.5572684374063934,1.5822513477033233,-0.4600122248749994,-2.0297352854596618,-0.0633515901619829,0.19900000000000015,-0.13583134375072026,-0.0012645844054101892,-0.036423240577884625,-0.03643862040031028,2.92757078547172,2.514758130666731,0.28559729494426533,0.00032639057800366996,-0.005156053026411779,-0.03430249151208529
1750771256.126774,-1.7373339879722574,-2.4508779999999994,-0.5575407826634615,1.582248812179817,-0.4600852543875149,-2.0298083458091085,-0.06366993986128935,0.20000000000000015,-0.13651391331730678,-0.001270939100914763,-0.03660627193757249,-0.036621729045537975,2.9292198121500923,2.5156752219921694,0.28559940309959986,0.00032540195221432677,-0.005156053026380373,-0.03434226958908695
1750771256.1288004,-1.7374616462016794,-2.4504769999999994,-0.557814493059662,1.5822462639469197,-0.46015864996274924,-2.0298817723758447,-0.0639882895605958,0.20100000000000015,-0.13719648288389333,-0.0012772937964193368,-0.03678930329726035,-0.03680483769076567,2.930876987341499,2.516596748626965,0.28560152001423533,0.0003244085256747109,-0.0051560530263489055,-0.034382273978036205
1750771256.1333601,-1.7374616462016794,-2.4504769999999994,-0.557814493059662,1.5822462639469197,-0.46015864996274924,-2.0298817723758447,-0.0639882895605958,0.20100000000000015,-0.13719648288389333,-0.0012772937964193368,-0.03678930329726035,-0.03680483769076567,2.930876987341499,2.516596748626965,0.28560152001423533,0.0003244085256747109,-0.0051560530263489055,-0.034382273978036205
1750771256.136049,-1.7375899411304996,-2.4500739999999994,-0.5580895685949967,1.5822437030046315,-0.4602324116007033,-2.029955565159871,-0.06430663925990225,0.20200000000000015,-0.13787905245047985,-0.0012836484919239105,-0.036972334656948214,-0.03698794633599336,2.932542309204053,2.5175227080818443,0.2856036456605035,0.0003234103008207078,-0.005156053026317377,-0.03442250506647682
1750771256.1367784,-1.7378484410863368,-2.4492619999999996,-0.558643815083065,1.5822385429918817,-0.4603810330647704,-2.0301042493797965,-0.06494333865851513,0.20400000000000015,-0.13924419158365292,-0.0012963578829330582,-0.03733839737632394,-0.037354163626448736,2.9358973855190076,2.5193879154246837,0.2856079230364931,0.00032139946598805776,-0.005156053026254142,-0.03450364889959454
1750771256.1387532,-1.737978646113353,-2.4488529999999993,-0.5589229860357987,1.5822359439214202,-0.4604558928908826,-2.0301791408156937,-0.06526168835782159,0.20500000000000015,-0.13992676115023947,-0.0013027125784376321,-0.0375214287360118,-0.03753727227167643,2.937587136231343,2.520327158263947,0.2856100747101152,0.0003203868609562812,-0.005156053026222439,-0.034544562426922665
1750771256.140743,-1.7381094878397683,-2.4484419999999996,-0.5592035221276657,1.5822333321415678,-0.46053111877971453,-2.030254398468882,-0.06558003805712803,0.20600000000000016,-0.140609330716826,-0.0013090672739422059,-0.03770446009569966,-0.03772038091690411,2.9392850261347014,2.5212708238258497,0.2856122350031718,0.00031936946750399224,-0.0051560530261904845,-0.034585704219032454
1750771256.1426933,-1.7382409662655816,-2.4480289999999996,-0.5594854233586659,1.5822307076523245,-0.46060671073126525,-2.0303300223393617,-0.06589838775643447,0.20700000000000016,-0.14129190028341254,-0.0013154219694467798,-0.03788749145538752,-0.037903489562131805,2.9409910533306887,2.5222189095508236,0.2856144038872293,0.00031834728814234876,-0.005156053026158869,-0.03462707467099904
1750771256.1446707,-1.7383730813907938,-2.4476139999999993,-0.5597686897287995,1.5822280704536902,-0.46068266874553565,-2.0304060124271306,-0.06621673745574093,0.20800000000000016,-0.14197446984999906,-0.0013217766649513535,-0.038070522815075385,-0.0380865982073595,2.9427052159095397,2.523171412865169,0.28561658133370893,0.00031732032539782235,-0.005156053026127005,-0.03466867417937094
1750771256.146697,-1.7385058332154042,-2.4471969999999996,-0.5600533212380663,1.5822254205456647,-0.46075899282252575,-2.0304823687321907,-0.06653508715504737,0.20900000000000016,-0.14265703941658558,-0.0013281313604559274,-0.03825355417476325,-0.03826970685258718,2.9444275119500616,2.5241283311810303,0.2856187673138726,0.0003162885818120439,-0.00515605302609509,-0.034710503142182374
1750771256.1486576,-1.7386392217394135,-2.4467779999999992,-0.5603393178864664,1.5822227579282482,-0.46083568296223465,-2.030559091254542,-0.06685343685435383,0.21000000000000016,-0.14333960898317213,-0.0013344860559605012,-0.03843658553445111,-0.038452815497814874,2.946157939519585,2.5250896618963776,0.28562096179883256,0.000315252059941926,-0.005156053026063126,-0.03475256195894539
1750771256.1506615,-1.7387732469628219,-2.4463569999999994,-0.5606266796739989,1.5822200826014408,-0.46091273916466324,-2.0306361799941826,-0.06717178655366027,0.21100000000000016,-0.14402217854975866,-0.0013408407514650749,-0.038619616894138974,-0.038635924143042566,2.9478964966739785,2.5260554023949733,0.28562316475955046,0.00031421076235976764,-0.005156053026031114,-0.03479485103062509
1750771256.1526442,-1.7389079088856292,-2.4459339999999994,-0.5609154066006647,1.5822173945652425,-0.46099016142981153,-2.0307136349511143,-0.06749013625296671,0.21200000000000016,-0.1447047481163452,-0.0013471954469696488,-0.03880264825382684,-0.03881903278827026,2.949643181457553,2.527025550046357,0.28562537616682804,0.000313164691653167,-0.005156053025999056,-0.03483737075965291
1750771256.1550605,-1.7390432075078337,-2.4455089999999995,-0.5612054986664639,1.582214693819653,-0.4610679497576786,-2.0307914561253355,-0.06780848595227316,0.21300000000000016,-0.14538731768293173,-0.0013535501424742225,-0.0389856796135147,-0.03900214143349794,2.951397991903073,2.5280001022058207,0.28562759599132104,0.0003121138504251628,-0.005156053025966953,-0.03488012154990843
1750771256.1571102,-1.7391791428294372,-2.4450819999999993,-0.5614969558713963,1.5822119803646726,-0.4611461041482654,-2.030869643516848,-0.0681268356515796,0.21400000000000016,-0.14606988724951828,-0.0013599048379787965,-0.03916871097320256,-0.039185250078725635,2.9531609260317495,2.5289790562143764,0.28562982420352456,0.0003110582412941587,-0.005156053025934807,-0.034923103806726065
1750771256.1589973,-1.7393157148504397,-2.4446529999999993,-0.5617897782154619,1.582209254200301,-0.4612246246015719,-2.0309481971256504,-0.06844518535088605,0.21500000000000016,-0.1467524568161048,-0.0013662595334833702,-0.039351742332890426,-0.03936835872395333,2.954931981853134,2.529962409398736,0.2856320607737862,0.0003099978668941894,-0.005156053025902619,-0.03496631793686242
1750771256.160739,-1.7394529235708411,-2.4442219999999995,-0.5620839656986609,1.5822065153265386,-0.46130351111759715,-2.0310271169517433,-0.0687635350501925,0.21600000000000016,-0.14743502638269135,-0.0013726142289879441,-0.03953477369257829,-0.03955146736918101,2.9567111573651395,2.530950159071287,0.2856343056722932,0.00030893272987475145,-0.005156053025870392,-0.03500976434851356
1750771256.1626492,-1.7395907689906407,-2.4437889999999993,-0.5623795183209932,1.582203763743385,-0.4613827636963421,-2.0311064029951265,-0.06908188474949895,0.21700000000000016,-0.14811759594927787,-0.0013789689244925179,-0.03971780505226615,-0.039734576014408704,2.9584984505540137,2.5319423025300796,0.28563655886908523,0.00030786283290089306,-0.005156053025838124,-0.035053443451307016
1750771256.1647816,-1.7397292511098392,-2.4433539999999994,-0.5626764360824579,1.5822009994508406,-0.4614623823378059,-2.0311860552558016,-0.0694002344488054,0.21800000000000017,-0.14880016551586442,-0.0013853236199970918,-0.039900836411954015,-0.039917684659636396,2.9602938593942505,2.532938837058774,0.28563882033404,0.00030678817865336066,-0.00515605302580582,-0.03509735565627161
1750771256.1666787,-1.7398683699284359,-2.4429169999999996,-0.5629747189830567,1.582198222448905,-0.46154236704198937,-2.031266073733766,-0.06971858414811184,0.21900000000000017,-0.14948273508245094,-0.0013916783155016655,-0.04008386777164187,-0.04010079330486408,2.962097381848633,2.533939759926646,0.2856410900368883,0.0003057087698285438,-0.005156053025773284,-0.035141501375856046
1750771256.1686602,-1.7400081254464315,-2.4424779999999995,-0.563274367022788,1.5821954327375787,-0.4616227178088925,-2.03134645842902,-0.07003693384741828,0.22000000000000017,-0.15016530464903746,-0.0013980330110062392,-0.040266899131329734,-0.04028390195009177,2.9639090158681394,2.5349450683885415,0.28564336794719947,0.00030462460913849087,-0.005156053025741107,-0.0351858810239162
1750771256.1706657,-1.740148517663826,-2.4420369999999996,-0.5635753802016525,1.5821926303168612,-0.4617034346385154,-2.031427209341566,-0.07035528354672474,0.22100000000000017,-0.150847874215624,-0.0014043877065108132,-0.0404499304910176,-0.040467010595319465,2.9657287593919315,2.5359547596848557,0.2856456540343902,0.0003035356993110824,-0.005156053025708701,-0.035230495015690665
1750771256.1727445,-1.7402895465806187,-2.4415939999999994,-0.5638777585196504,1.5821898151867526,-0.46178451753085703,-2.0315083264714016,-0.07067363324603118,0.22200000000000017,-0.15153044378221053,-0.001410742402015387,-0.04063296185070546,-0.04065011924054716,2.967556610347346,2.5369688310415235,0.2856479482677249,0.0003024420430899828,-0.005156053025676265,-0.03527534376781792
1750771256.1747203,-1.7402895465806187,-2.4415939999999994,-0.5638777585196504,1.5821898151867526,-0.46178451753085703,-2.0315083264714016,-0.07067363324603118,0.22200000000000017,-0.15153044378221053,-0.001410742402015387,-0.04063296185070546,-0.04065011924054716,2.967556610347346,2.5369688310415235,0.2856479482677249,0.0003024420430899828,-0.005156053025676265,-0.03527534376781792
1750771256.1766913,-1.7404312121968104,-2.4411489999999993,-0.5641815019767815,1.582186987347253,-0.4618659664859175,-2.031589809818528,-0.07099198294533762,0.22300000000000017,-0.15221301334879708,-0.0014170970975199608,-0.04081599321039332,-0.04083322788577484,2.969392566649805,2.537987279669963,0.28565025061630595,0.00030134364323468777,-0.005156053025643799,-0.035320427698309995
1750771256.1787431,-1.7405735145124002,-2.4407019999999995,-0.5644866105730459,1.5821841467983624,-0.46194778150369853,-2.031671659382945,-0.07131033264464408,0.22400000000000017,-0.1528955829153836,-0.0014234517930245346,-0.040999024570081186,-0.041016336531002534,2.971236626202831,2.5390101027670844,0.28565256104908704,0.0003002405025206005,-0.005156053025611304,-0.035365747226564485
1750771256.183283,-1.740716453527389,-2.4402529999999993,-0.5647930843084428,1.582181293540081,-0.4620299625841984,-2.031753875164652,-0.07162868234395052,0.22500000000000017,-0.15357815248197015,-0.0014298064885291085,-0.04118205592976905,-0.041199445176230226,2.973088786898018,2.5400372975152425,0.2856548795348596,0.00029913262373908466,-0.005156053025578784,-0.03541130277333224
1750771256.1836934,-1.7408600292417757,-2.4398019999999994,-0.5651009231829738,1.5821784275724085,-0.462112509727417,-2.0318364571636494,-0.07194703204325698,0.22600000000000017,-0.15426072204855668,-0.0014361611840336822,-0.04136508728945691,-0.04138255382145791,2.9749490466149298,2.541068861082216,0.2856572060422644,0.00029802000969747315,-0.0051560530255462395,-0.03545709476072856
1750771256.186834,-1.7411490907687464,-2.4388939999999995,-0.5657206963494339,1.5821726575088901,-0.4622787022020143,-2.0320027198135167,-0.07258373144186986,0.22800000000000017,-0.15562586118172975,-0.0014488705750428299,-0.04173115000883264,-0.041748771111913295,2.9786938545722386,2.5431450832707045,0.2856618829957366,0.00029578058714335113,-0.005156053025481082,-0.035549389752643566
1750771256.1871595,-1.7411490907687464,-2.4388939999999995,-0.5657206963494339,1.5821726575088901,-0.4622787022020143,-2.0320027198135167,-0.07258373144186986,0.22800000000000017,-0.15562586118172975,-0.0014488705750428299,-0.04173115000883264,-0.041748771111913295,2.9786938545722386,2.5431450832707045,0.2856618829957366,0.00029578058714335113,-0.005156053025481082,-0.035549389752643566
1750771256.188691,-1.7412945765813292,-2.4384369999999995,-0.5660326306413639,1.5821697534130446,-0.4623623475333911,-2.0320864004643857,-0.07290208114117631,0.22900000000000018,-0.15630843074831627,-0.0014552252705474036,-0.0419141813685205,-0.04193187975714098,2.980578398511574,2.544189736154677,0.2856642333782982,0.00029465378432590877,-0.005156053025448474,-0.03559589360811863
1750771256.1906548,-1.7414406990933102,-2.4379779999999993,-0.5663459300724272,1.582166836607808,-0.46244635892748853,-2.032170447332545,-0.07322043084048276,0.23000000000000018,-0.15699100031490282,-0.0014615799660519775,-0.042097212728208364,-0.04211498840236867,2.9824710328705155,2.545238746382331,0.28566659165547736,0.00029352225763842286,-0.005156053025415846,-0.03564263560614399
1750771256.1926446,-1.741587458304691,-2.4375169999999993,-0.5666605946426237,1.5821639070931803,-0.46253073638430386,-2.0322548604179946,-0.0735387805397892,0.23100000000000018,-0.15767356988148934,-0.0014679346615565512,-0.04228024408789623,-0.042298097047596364,2.984371755468214,2.54629211104818,0.28566895779513024,0.00029238600996886796,-0.005156053025383203,-0.03568961617551449
1750771256.1946926,-1.74173485421547,-2.4370539999999994,-0.5669766243519536,1.582160964869162,-0.4626154799038398,-2.0323396397207354,-0.07385713023909565,0.23200000000000018,-0.1583561394480759,-0.0014742893570611252,-0.04246327544758409,-0.042481205692824056,2.9862805641116386,2.5473498272320207,0.28567133176495085,0.0002912450442214736,-0.005156053025350544,-0.035736835746350275
1750771256.196663,-1.741882886825647,-2.4365889999999992,-0.5672940192004159,1.5821580099357522,-0.4627005894860945,-2.0324247852407664,-0.0741754799384021,0.23300000000000018,-0.1590387090146624,-0.001480644052565699,-0.042646306807271946,-0.04266431433805174,2.988197456595557,2.5484118919988927,0.2856737135324819,0.0002900993633167484,-0.0051560530253176775,-0.035784294750074205
1750771256.198721,-1.742031556135224,-2.4361219999999992,-0.5676127791880123,1.5821550422929516,-0.4627860651310689,-2.0325102969780877,-0.07449382963770854,0.23400000000000018,-0.15972127858124896,-0.0014869987480702728,-0.04282933816695981,-0.04284742298327943,2.9901224307024554,2.5494783023990393,0.2856761030651008,0.0002889489701915414,-0.0051560530252851905,-0.035831993619415956
1750771256.2006297,-1.742180862144198,-2.4356529999999994,-0.5679329043147412,1.5821520619407599,-0.4628719068387621,-2.0325961749326993,-0.07481217933701499,0.23500000000000018,-0.16040384814783548,-0.0014933534435748466,-0.04301236952664767,-0.043030531628507125,2.992055484202522,2.5505490554679158,0.28567850033003456,0.0002877938677991901,-0.005156053025252498,-0.03587993278838495
1750771256.2028348,-1.7423308048525712,-2.4351819999999993,-0.5682543945806033,1.5821490688791773,-0.462958114609175,-2.032682419104602,-0.07513052903632143,0.23600000000000018,-0.16108641771442203,-0.0014997081390794205,-0.043195400886335535,-0.04321364027373481,2.9939966148536503,2.5516241482261273,0.2856809052943451,0.0002866340591094279,-0.005156053025219797,-0.03592811269228073
1750771256.2074063,-1.7424813842603433,-2.4347089999999993,-0.5685772499855988,1.5821460631082036,-0.4630446884423076,-2.032769029493794,-0.07544887873562789,0.23700000000000018,-0.16176898728100855,-0.0015060628345839942,-0.0433784322460234,-0.0433967489189625,2.995945820401326,2.5527035776794205,0.28568331792494195,0.00028546954710845576,-0.005156053025187089,-0.03597653376768454
1750771256.2083812,-1.7424813842603433,-2.4347089999999993,-0.5685772499855988,1.5821460631082036,-0.4630446884423076,-2.032769029493794,-0.07544887873562789,0.23700000000000018,-0.16176898728100855,-0.0015060628345839942,-0.0433784322460234,-0.0433967489189625,2.995945820401326,2.5527035776794205,0.28568331792494195,0.00028546954710845576,-0.005156053025187089,-0.03597653376768454
