mathias31415/primitives_from_planned_trajectory_python/data/saved_trajectories/trajectory_20250624_154739_executed.csv
timestamp,shoulder_lift_joint_pos,elbow_joint_pos,wrist_1_joint_pos,wrist_2_joint_pos,wrist_3_joint_pos,shoulder_pan_joint_pos,shoulder_lift_joint_vel,elbow_joint_vel,wrist_1_joint_vel,wrist_2_joint_vel,wrist_3_joint_vel,shoulder_pan_joint_vel,shoulder_lift_joint_eff,elbow_joint_eff,wrist_1_joint_eff,wrist_2_joint_eff,wrist_3_joint_eff,shoulder_pan_joint_eff
1750772876.5606532,-2.088109,-2.0650709999999997,-0.5925950000000002,1.5823799999999997,-0.45719699999999985,-2.0270089999999996,0.0,0.0,0.0,0.0,0.0,0.0,5.35386004121645,2.4296070081180816,0.2998509650806185,0.0009557382462637266,0.0,4.3227379739758636e-16
1750772876.5624475,-2.088109,-2.0650709999999997,-0.5925950000000002,1.5823799999999997,-0.45719699999999985,-2.0270089999999996,0.0,0.0,0.0,0.0,0.0,0.0,5.35386004121645,2.4296070081180816,0.2998509650806185,0.0009557382462637266,0.0,4.3227379739758636e-16
1750772876.5628746,-2.088109,-2.0650709999999997,-0.5925950000000002,1.5823799999999997,-0.45719699999999985,-2.0270089999999996,0.0,0.0,0.0,0.0,0.0,0.0,5.35386004121645,2.4296070081180816,0.2998509650806185,0.0009557382462637266,0.0,4.3227379739758636e-16
1750772876.5637412,-2.088109,-2.0650709999999997,-0.5925950000000002,1.5823799999999997,-0.45719699999999985,-2.0270089999999996,0.0,0.0,0.0,0.0,0.0,0.0,5.35386004121645,2.4296070081180816,0.2998509650806185,0.0009557382462637266,0.0,4.3227379739758636e-16
1750772876.5650947,-2.088109,-2.0650709999999997,-0.5925950000000002,1.5823799999999997,-0.45719699999999985,-2.0270089999999996,0.0,0.0,0.0,0.0,0.0,0.0,5.35386004121645,2.4296070081180816,0.2998509650806185,0.0009557382462637266,0.0,4.3227379739758636e-16
1750772876.5683846,-2.088109,-2.0650709999999997,-0.5925950000000002,1.5823799999999997,-0.45719699999999985,-2.0270089999999996,0.0,0.0,0.0,0.0,0.0,0.0,5.35386004121645,2.4296070081180816,0.2998509650806185,0.0009557382462637266,0.0,4.3227379739758636e-16
1750772876.569608,-2.088109,-2.0650709999999997,-0.5925950000000002,1.5823799999999997,-0.45719699999999985,-2.0270089999999996,0.0,0.0,0.0,0.0,0.0,0.0,5.35386004121645,2.4296070081180816,0.2998509650806185,0.0009557382462637266,0.0,4.3227379739758636e-16
1750772876.571546,-2.088109,-2.0650709999999997,-0.5925950000000002,1.5823799999999997,-0.45719699999999985,-2.0270089999999996,0.0,0.0,0.0,0.0,0.0,0.0,5.35386004121645,2.4296070081180816,0.2998509650806185,0.0009557382462637266,0.0,4.3227379739758636e-16
1750772876.5734217,-2.0881089894312677,-2.0650700127382713,-0.5925960000000003,1.5823799880962564,-0.4571973422244149,-2.027009342447112,1.0568733099931264e-05,0.0009872617288089114,-0.001,-1.190374330297185e-05,-0.00034222441533234064,-0.0003424471123811359,5.4171318823752195,2.6375215713569107,0.2783171414236344,-0.0004015038022473293,-0.009640571970745967,-0.12364375849353085
1750772876.5749555,-2.0881089577250673,-2.0650670509530844,-0.5925989999999999,1.5823799523850264,-0.45719836889766086,-2.0270103697884494,2.113746619986253e-05,0.0019745234576178227,-0.002,-2.38074866059437e-05,-0.0006844488306646813,-0.0006848942247622717,5.417140845418929,2.6375316191919507,0.27831719191207693,-0.0004015163903433795,-0.009640571970746446,-0.12364442499588059
1750772876.5772047,-2.0881089577250673,-2.0650670509530844,-0.5925989999999999,1.5823799523850264,-0.45719836889766086,-2.0270103697884494,2.113746619986253e-05,0.0019745234576178227,-0.002,-2.38074866059437e-05,-0.0006844488306646813,-0.0006848942247622717,5.417140845418929,2.6375316191919507,0.27831719191207693,-0.0004015163903433795,-0.009640571970746446,-0.12364442499588059
1750772876.5800722,-2.088108904881402,-2.065062114644441,-0.5926040000000006,1.58237989286631,-0.4572000800197378,-2.0270120820240116,3.1706199299793795e-05,0.002961785186426734,-0.003,-3.571122990891555e-05,-0.001026673245997022,-0.0010273413371434076,5.417155783795566,2.637548365541121,0.2783172760587714,-0.00040153737042957687,-0.009640571970747247,-0.12364553583572525
1750772876.581102,-2.0881088309002704,-2.0650552038123386,-0.5926109999999998,1.582379809540107,-0.45720247559064475,-2.027014479153798,4.227493239972506e-05,0.003949046915235645,-0.004,-4.76149732118874e-05,-0.0013688976613293626,-0.0013697884495245435,5.417176697460806,2.6375718103405976,0.27831739386265225,-0.0004015667423951431,-0.009640571970748354,-0.12364709101695485
1750772876.583293,-2.088108735781672,-2.0650463184567798,-0.5926200000000001,1.582379702406417,-0.45720555561038356,-2.027017561177809,5.284366549965633e-05,0.004936308644044557,-0.005,-5.951871651485925e-05,-0.0017111220766617033,-0.0017122355619056792,5.41720358635258,2.6376019535010107,0.27831754532222835,-0.0004016045060849702,-0.009640571970749795,-0.12364909054501605
1750772876.5850878,-2.0881086195256087,-2.0650354585777624,-0.5926309999999999,1.5823795714652407,-0.45720932007895154,-2.027021328096046,6.341239859958759e-05,0.005923570372853468,-0.006,-7.14224598178311e-05,-0.002053346491994044,-0.002054682674286815,5.417236450391115,2.6376387949074593,0.27831773043558244,-0.00040165066129957335,-0.009640571970751556,-0.12365153442691221
1750772876.5870476,-2.0881084821320783,-2.0650226241752883,-0.592644,1.582379416716578,-0.45721376899635136,-2.027025779908506,7.398113169951885e-05,0.0069108321016623795,-0.007,-8.332620312080295e-05,-0.0023955709073263847,-0.002397129786667951,5.417275289478871,2.6376823344195017,0.27831794920037095,-0.00040170520779516424,-0.009640571970753619,-0.12365442267119947
1750772876.5890253,-2.088108323601082,-2.0650078152493556,-0.5926590000000003,1.5823792381604282,-0.4572189023625812,-2.0270309166151925,8.454986479945012e-05,0.00789809383047129,-0.008,-9.52299464237748e-05,-0.002737795322658725,-0.002739576899049087,5.417320103500594,2.6377325718711644,0.2783182016138244,-0.0004017681452836625,-0.009640571970756014,-0.12365775528798971
1750772876.5908868,-2.088108143932619,-2.0649910317999662,-0.592676,1.5823790357967922,-0.45722472017764204,-2.0270367382161023,9.511859789938139e-05,0.008885355559280203,-0.009000000000000001,-0.00010713368972674667,-0.0030800197379910665,-0.003082024011430223,5.4173708923232775,2.637789507070922,0.2783184876727471,-0.0004018394734325591,-0.009640571970758753,-0.12366153228894744
1750772876.5931468,-2.0881079431266905,-2.0649722738271183,-0.592695,1.5823788096256695,-0.4572312224415329,-2.027043244711238,0.00010568733099931267,0.009872617288089115,-0.010000000000000002,-0.00011903743302971852,-0.0034222441533234074,-0.0034244711238113593,5.4174276557961845,2.6378531398017104,0.27831880737351683,-0.0004019191918650521,-0.009640571970761777,-0.12366575368729014
1750772876.5948646,-2.0881077211832952,-2.0649515413308137,-0.5927160000000002,1.58237855964706,-0.45723840915425473,-2.0270504361005983,0.00011625606409924394,0.010859879016898027,-0.011000000000000003,-0.0001309411763326904,-0.0037644685686557483,-0.0037669182361924954,5.417490393750815,2.6379234698209113,0.2783191607120853,-0.000402007300159958,-0.009640571970765134,-0.12367041949778437
1750772876.5973263,-2.088107478102434,-2.0649288343110506,-0.5927389999999999,1.582378285860964,-0.4572462803158075,-2.0270583123841828,0.0001268247971991752,0.01184714074570694,-0.012000000000000004,-0.00014284491963566224,-0.004106692983988089,-0.004109365348573631,5.417559106000942,2.6380004968603683,0.27831954768397854,-0.00040210379785171396,-0.009640571970768813,-0.12367552973674832
1750772876.5994422,-2.088107213884106,-2.0649041527678307,-0.5927639999999998,1.5823779882673814,-0.4572548359261912,-2.027066873561992,0.0001373935302991065,0.012834402474515852,-0.013000000000000005,-0.0001547486629386341,-0.00444891739932043,-0.004451812460954768,5.417633792342561,2.6380842206263537,0.278319968284295,-0.00040220868443038626,-0.009640571970772813,-0.12368108442204832
1750772876.6011355,-2.0881069285283127,-2.064877496701153,-0.5927910000000001,1.5823776668663123,-0.45726407598540497,-2.0270761196340263,0.00014796226339903776,0.013821664203324764,-0.014000000000000005,-0.00016665240624160596,-0.004791141814652771,-0.004794259573335903,5.417714452553927,2.6381746407995825,0.27832042250770755,-0.0004023219593416042,-0.009640571970777138,-0.12368708357309732
1750772876.603084,-2.0881066220350526,-2.064848866111017,-0.5928200000000006,1.5823773216577566,-0.4572740004934497,-2.0270860506002855,0.00015853099649896905,0.014808925932133676,-0.015000000000000006,-0.00017855614954457783,-0.005133366229985112,-0.00513670668571704,5.417801086395529,2.638271757035218,0.2783209103484625,-0.00040244362198664697,-0.009640571970781785,-0.12369352721085336
1750772876.6052437,-2.0881062944043265,-2.0648182609974244,-0.5928510000000005,1.5823769526417142,-0.45728460945032534,-2.0270966664607695,0.0001690997295989003,0.01579618766094259,-0.016000000000000007,-0.0001904598928475497,-0.005475590645317453,-0.005479153798098176,5.417893693610078,2.638375568962837,0.27832143180037966,-0.00040257367172232466,-0.009640571970786757,-0.12370041535781755
1750772876.607078,-2.0881059456361344,-2.064785681360374,-0.5928839999999997,1.5823765598181851,-0.45729590285603106,-2.0271079672154784,0.0001796684626988316,0.0167834493897515,-0.017000000000000008,-0.00020236363615052156,-0.005817815060649794,-0.005821600910479312,5.417992273922522,2.6384860761864455,0.2783219868568519,-0.0004027121078610304,-0.009640571970792053,-0.12370774803803371
1750772876.6091182,-2.0881059456361344,-2.064785681360374,-0.5928839999999997,1.5823765598181851,-0.45729590285603106,-2.0271079672154784,0.0001796684626988316,0.0167834493897515,-0.017000000000000008,-0.00020236363615052156,-0.005817815060649794,-0.005821600910479312,5.417992273922522,2.6384860761864455,0.2783219868568519,-0.0004027121078610304,-0.009640571970792053,-0.12370774803803371
1750772876.611167,-2.0881055757304754,-2.064751127199866,-0.5929190000000002,1.5823761431871695,-0.4573078807105677,-2.0271199528644113,0.00019023719579876287,0.017770711118560413,-0.01800000000000001,-0.00021426737945349342,-0.006160039475982135,-0.006164048022860448,5.4180968270400225,2.6386032782844757,0.27832257551084566,-0.0004028589296706764,-0.009640571970797675,-0.1237155252770821
1750772876.6129272,-2.0881051846873513,-2.0647145985158994,-0.592956,1.5823757027486673,-0.45732054301393443,-2.027132623407569,0.00020080592889869413,0.018757972847369325,-0.01900000000000001,-0.00022617112275646528,-0.006502263891314476,-0.006506495135241585,5.418207352651962,2.6387271748097616,0.27832319775490066,-0.0004030141363747017,-0.009640571970803626,-0.1237237471020841
1750772876.6146295,-2.0881047725067603,-2.064676095308476,-0.5929950000000002,1.5823752385026786,-0.457333889766133,-2.0271459788449526,0.00021137466199862542,0.019745234576178237,-0.02000000000000001,-0.00023807486605943715,-0.006844488306646817,-0.00684894224762272,5.418323850429917,2.638857765289546,0.2783238535811297,-0.00040317772715206367,-0.009640571970809902,-0.1237324135416927
1750772876.6224034,-2.0881038847331794,-2.064593165323256,-0.5930790000000004,1.582374238588241,-0.45736263661702026,-2.0271747444023926,0.00023251212819848797,0.021719758033796062,-0.022000000000000013,-0.00026188235266538085,-0.007528937137311498,-0.007533836472384993,5.418574761081208,2.639139026093575,0.2783252659464263,-0.0004035300574200236,-0.009640571970823438,-0.12375108038700598
1750772876.62308,-2.0881038847331794,-2.064593165323256,-0.5930790000000004,1.582374238588241,-0.45736263661702026,-2.0271747444023926,0.00023251212819848797,0.021719758033796062,-0.022000000000000013,-0.00026188235266538085,-0.007528937137311498,-0.007533836472384993,5.418574761081208,2.639139026093575,0.2783252659464263,-0.0004035300574200236,-0.009640571970823438,-0.12375108038700598
1750772876.6234922,-2.0881029124097346,-2.064502337244205,-0.5931709999999999,1.5823731434438573,-0.4573941212632313,-2.0272062495367313,0.0002536495943983505,0.023694281491413886,-0.024000000000000014,-0.0002856898392713246,-0.00821338596797618,-0.008218730697147266,5.4188495560104215,2.6394470564023242,0.27832681253509733,-0.0004039159130154439,-0.009640571970838273,-0.1237715260728522
1750772876.6265757,-2.0881029124097346,-2.064502337244205,-0.5931709999999999,1.5823731434438573,-0.4573941212632313,-2.0272062495367313,0.0002536495943983505,0.023694281491413886,-0.024000000000000014,-0.0002856898392713246,-0.00821338596797618,-0.008218730697147266,5.4188495560104215,2.6394470564023242,0.27832681253509733,-0.0004039159130154439,-0.009640571970838273,-0.1237715260728522
1750772876.6275613,-2.0881023945418127,-2.0644539614194937,-0.5932200000000005,1.5823725601604353,-0.4574108902595828,-2.0272230294452385,0.0002642183274982818,0.0246815432202228,-0.025000000000000015,-0.00029759358257429644,-0.008555610383308522,-0.0085611778095284,5.418995909068925,2.6396111086669167,0.278327636138942,-0.00040412141028496173,-0.00964057197084625,-0.12378241606884088
1750772876.628913,-2.088101855536425,-2.0644036110713246,-0.5932710000000005,1.5823719530695268,-0.4574283437047644,-2.0272404942479696,0.00027478706059821305,0.02566880494903171,-0.026000000000000016,-0.0003094973258772683,-0.008897834798640862,-0.008903624921909537,5.419148231948857,2.639781851511554,0.2783284932686683,-0.0004043352857659067,-0.009640571970854463,-0.12379375088344337
1750772876.6311302,-2.088101295393571,-2.064351286199698,-0.593324,1.5823713221711317,-0.4574464815987769,-2.0272586439449256,0.0002853557936981443,0.026656066677840623,-0.027000000000000017,-0.00032140106918024017,-0.009240059213973204,-0.009246072034290674,5.419306524197023,2.6399592842840938,0.27832938391339845,-0.00040455753832513896,-0.00964057197086311,-0.12380553055597796
1750772876.6331496,-2.0881007141132493,-2.0642969868046137,-0.5933790000000005,1.5823706674652502,-0.4574653039416203,-2.0272774785361065,0.00029592452679807563,0.027643328406649535,-0.028000000000000018,-0.00033330481248321204,-0.009582283629305544,-0.00958851914667181,5.419470785342356,2.6401434063067395,0.27833030806182674,-0.0004047881667848143,-0.009640571970871993,-0.12381775512727675
1750772876.6347585,-2.0881001116954634,-2.064240712886072,-0.5934360000000005,1.5823699889518819,-0.4574848107332947,-2.0272969980215123,0.0003064932598980069,0.028630590135458447,-0.02900000000000002,-0.0003452085557861839,-0.009924508044637886,-0.009930966259052945,5.419641014895936,2.6403342168760027,0.27833126570221933,-0.0004050271699224179,-0.00964057197088131,-0.1238304246396775
1750772876.636807,-2.0880994881402106,-2.0641824644440714,-0.5934949999999999,1.582369286631027,-0.4575050019737992,-2.027317202401143,0.00031706199299793815,0.02961785186426736,-0.03000000000000002,-0.00035711229908915576,-0.010266732459970226,-0.010273413371434082,5.419817212350946,2.6405317152627386,0.2783322568224154,-0.0004052745464706349,-0.00964057197089087,-0.12384353913702598
1750772876.6391175,-2.088098843447491,-2.0641222414786142,-0.5935560000000004,1.5823685605026856,-0.4575258776631346,-2.0273380916749977,0.0003276307260978694,0.030605113593076272,-0.03100000000000002,-0.00036901604239212763,-0.010608956875302568,-0.010615860483815218,5.419999377182675,2.6407359007120883,0.278333281409825,-0.0004055302951173977,-0.009640571970900867,-0.12385709866466178
1750772876.6408167,-2.088098177617306,-2.0640600439896994,-0.5936190000000003,1.5823678105668575,-0.4575474378013,-2.0273596658430773,0.0003381994591978007,0.031592375321885184,-0.03200000000000002,-0.0003809197856950995,-0.01095118129063491,-0.010958307596196355,5.420187508848511,2.640946772443491,0.27833433945143055,-0.0004057944145058316,-0.009640571970911158,-0.12387110326942433
1750772876.642812,-2.0880974906496546,-2.063995871977326,-0.5936840000000005,1.5823670368235427,-0.45756968238829643,-2.0273819249053826,0.000348768192297732,0.032579637050694096,-0.03300000000000002,-0.0003928235289980713,-0.01129340570596725,-0.01130075470857749,5.420381606787919,2.641164329650683,0.27833543093378565,-0.0004060669032342085,-0.009640571970921741,-0.1238855529996435
1750772876.6447325,-2.088096782544537,-2.063929725441497,-0.5937510000000001,1.5823662392727413,-0.4575926114241238,-2.027404868861913,0.00035933692539766326,0.03356689877950301,-0.03400000000000002,-0.00040472727230104317,-0.011635630121299591,-0.011643201820958626,5.4205816704224326,2.641388571501647,0.27833655584301586,-0.0004063477598559484,-0.009640571970932769,-0.12390044790514013
1750772876.6485794,-2.0880960533019532,-2.0638616043822093,-0.59382,1.5823654179144535,-0.45761622490878207,-2.027428497712666,0.0003699056584975945,0.03455416050831192,-0.035000000000000024,-0.00041663101560401503,-0.011977854536631931,-0.011985648933339763,5.4207876991556505,2.6416194971386466,0.2783377141648174,-0.0004066369828795033,-0.009640571970944043,-0.12391578803721306
1750772876.6489532,-2.0880953029219027,-2.063791508799463,-0.5938910000000002,1.582364572748679,-0.4576405228422704,-2.027452811457646,0.0003804743915975258,0.03554142223712083,-0.036000000000000025,-0.0004285347589069869,-0.012320078951964273,-0.0123280960457209,5.420999692373207,2.6418571056781857,0.27833890588445853,-0.00040693457076843763,-0.009640571970955764,-0.12393157344864471
1750772876.6507165,-2.088094531404387,-2.0637194386932602,-0.5939639999999997,1.582363703775418,-0.4576655052245897,-2.0274778100968494,0.0003910431246974571,0.036528683965929745,-0.037000000000000026,-0.00044043850220995876,-0.012662303367296613,-0.012670543158102034,5.4212176494427675,2.642101396210986,0.27834013098677735,-0.0004072405219412996,-0.009640571970967737,-0.12394780419368688
1750772876.6532445,-2.0880937387494036,-2.0636453940635997,-0.5940390000000004,1.5823628109946701,-0.45769117205573995,-2.0275034936302774,0.00040161185779738837,0.03751594569473866,-0.03800000000000003,-0.0004523422455129306,-0.013004527782628955,-0.013012990270483171,5.421441569714013,2.64235236780201,0.27834138945618353,-0.0004075548347716342,-0.009640571970980158,-0.12396448032806685
1750772876.654969,-2.088092924956955,-2.0635693749104806,-0.5941160000000005,1.582361894406436,-0.45771752333572024,-2.027529862057931,0.00041218059089731963,0.03850320742354757,-0.03900000000000003,-0.0004642459888159025,-0.013346752197961295,-0.013355437382864307,5.421671452518632,2.6426100194904083,0.2783426812766572,-0.0004078775075878724,-0.009640571970992834,-0.1239816019089708
1750772876.6567485,-2.0880920900270397,-2.0634913812339057,-0.594195,1.5823609540107149,-0.4577445590645315,-2.02755691537981,0.0004227493239972509,0.03949046915235648,-0.04000000000000003,-0.00047614973211887435,-0.013688976613293637,-0.013697884495245444,5.4219072971702875,2.642874350289526,0.2783440064317489,-0.00040820853867341324,-0.009640571971005964,-0.12399916899504693
1750772876.6587656,-2.088091233959659,-2.0634114130338723,-0.5942760000000007,1.5823599898075074,-0.4577722792421737,-2.0275846535959126,0.00043331805709718215,0.040477730881165394,-0.04100000000000003,-0.0004880534754218462,-0.014031201028625977,-0.014040331607626579,5.422149102964639,2.643145359186888,0.27834536490457895,-0.0004085479262664295,-0.00964057197101935,-0.124017181646396
1750772876.660677,-2.0880903567548117,-2.0633294703103804,-0.5943589999999999,1.5823590017968132,-0.4578006838686459,-2.02761307670624,0.00044388679019711347,0.041464992609974306,-0.04200000000000003,-0.0004999572187248181,-0.014373425443958318,-0.014382778720007715,5.4223968691792725,2.6434230451441825,0.2783467566778388,-0.0004088956685599755,-0.009640571971033195,-0.12403563992457252
1750772876.6626387,-2.0880894584124983,-2.0632455530634317,-0.5944440000000002,1.5823579899786324,-0.4578297729439491,-2.0276421847107926,0.00045445552329704473,0.04245225433878322,-0.04300000000000003,-0.0005118609620277899,-0.014715649859290659,-0.014725225832388852,5.422650595073733,2.64370740709723,0.27834818173378856,-0.0004092517637018223,-0.009640571971047302,-0.12405454389256618
1750772876.6646276,-2.088088538932719,-2.0631596612930254,-0.5945309999999999,1.5823569543529652,-0.45785954646808324,-2.02767197760957,0.000465024256396976,0.04343951606759213,-0.04400000000000003,-0.0005237647053307618,-0.015057874274623,-0.015067672944769989,5.422910279889489,2.6439984439559905,0.278349640054259,-0.0004096162097944642,-0.009640571971061869,-0.12407389361481223
1750772876.6665788,-2.0880875983154734,-2.0630717949991615,-0.5946199999999999,1.582355894919811,-0.45789000444104744,-2.0277024554025713,0.00047559298949690726,0.04442677779640104,-0.04500000000000003,-0.0005356684486337337,-0.01540009868995534,-0.015410120057151123,5.423175922849912,2.644296154604534,0.27835113162064945,-0.00040998900489511636,-0.009640571971076702,-0.12409368915717216
1750772876.66877,-2.08808663656076,-2.06298195418184,-0.5947110000000002,1.5823548116791706,-0.45792114686284346,-2.0277336180897976,0.0004861617225968385,0.045414039525209955,-0.046000000000000034,-0.0005475721919367055,-0.01574232310528768,-0.015752567169532262,5.423447523160261,2.6446005379010327,0.2783526564139294,-0.00041037014701557074,-0.009640571971091952,-0.124113930586941
1750772876.6707716,-2.088085653668582,-2.0628901388410608,-0.5948039999999999,1.5823537046310434,-0.45795297373346866,-2.0277654656712496,0.0004967304556967698,0.04640130125401887,-0.047000000000000035,-0.0005594759352396774,-0.016084547520620024,-0.016095014281913397,5.423725080007681,2.6449115926777234,0.2783542144146365,-0.000410759634122198,-0.009640571971107669,-0.12413461797282337
1750772876.6726482,-2.0880846496389385,-2.062796348976824,-0.5948989999999998,1.5823525737754296,-0.4579854850529257,-2.0277979981469256,0.000507299188796701,0.04738856298282778,-0.048000000000000036,-0.0005713796785426493,-0.016426771935952364,-0.01643746139429453,5.424008592561166,2.645229317740913,0.2783558056028777,-0.00041115746413594625,-0.00964057197112356,-0.12415575138494797
1750772876.6746542,-2.0880836244718273,-2.0627005845891295,-0.5949960000000001,1.5823514191123293,-0.4580186808212128,-2.0278312155168265,0.0005178679218966324,0.04837582471163669,-0.04900000000000004,-0.0005832834218456211,-0.016768996351284704,-0.01677990850667567,5.4242980599715365,2.64555371187096,0.27835742995832835,-0.0004115636349321935,-0.009640571971139923,-0.12417733089484854
1750772876.6766086,-2.088082578167251,-2.0626028456779775,-0.5950950000000006,1.5823502406417422,-0.4580525610383308,-2.0278651177809524,0.0005284366549965637,0.049363086440445604,-0.05000000000000004,-0.000595187165148593,-0.017111220766617044,-0.017122355619056805,5.424593481371454,2.6458847738222366,0.27835908746023225,-0.0004119781443407673,-0.00964057197115666,-0.12419935657545425
1750772876.678583,-2.088081510725207,-2.062503132243368,-0.5951960000000005,1.5823490383636687,-0.4580871257042789,-2.027899704939303,0.0005390053880964949,0.050350348169254516,-0.05100000000000004,-0.0006070909084515649,-0.017453445181949388,-0.01746480273143794,5.424894855875353,2.6462225023231314,0.27836077808740145,-0.00041240099014586053,-0.009640571971173875,-0.12422182850109816
1750772876.6808205,-2.0880804221456977,-2.0624014442853005,-0.5952990000000007,1.5823478122781085,-0.4581223748190588,-2.0279349769918777,0.0005495741211964262,0.05133760989806343,-0.05200000000000004,-0.0006189946517545367,-0.017795669597281728,-0.017807249843819078,5.425202182579478,2.6465668960760094,0.2783625018182155,-0.0004128321700860092,-0.009640571971191274,-0.12424474674749773
1750772876.6847415,-2.0880793124287225,-2.0622977818037755,-0.5954040000000003,1.5823465623850617,-0.4581583083826688,-2.027970933938678,0.0005601428542963574,0.05232487162687234,-0.05300000000000004,-0.0006308983950575086,-0.018137894012614068,-0.018149696956200213,5.425515460561811,2.646917953757215,0.2783642586306218,-0.00041327168185396575,-0.009640571971209152,-0.12426811139174612
1750772876.685189,-2.0880793124287225,-2.0622977818037755,-0.5954040000000003,1.5823465623850617,-0.4581583083826688,-2.027970933938678,0.0005601428542963574,0.05232487162687234,-0.05300000000000004,-0.0006308983950575086,-0.018137894012614068,-0.018149696956200213,5.425515460561811,2.646917953757215,0.2783642586306218,-0.00041327168185396575,-0.009640571971209152,-0.12426811139174612
1750772876.6884341,-2.0880793124287225,-2.0622977818037755,-0.5954040000000003,1.5823465623850617,-0.4581583083826688,-2.027970933938678,0.0005601428542963574,0.05232487162687234,-0.05300000000000004,-0.0006308983950575086,-0.018137894012614068,-0.018149696956200213,5.425515460561811,2.646917953757215,0.2783642586306218,-0.00041327168185396575,-0.009640571971209152,-0.12426811139174612
1750772876.689036,-2.0880770295823723,-2.062084533270353,-0.5956200000000003,1.5823439911765083,-0.4582322288563798,-2.028044902514953,0.00058128032049622,0.054299395084490165,-0.05500000000000004,-0.0006547058816634523,-0.01882234284327875,-0.018834591180962486,5.426159866581746,2.6476400554797057,0.2783678714098378,-0.0004141756914154956,-0.009640571971246069,-0.12431618018906253
1750772876.6907446,-2.088075856452999,-2.061974947218455,-0.5957310000000007,1.5823426698610015,-0.45827021576648175,-2.028082914144427,0.0005918490535961513,0.05528665681329908,-0.05600000000000004,-0.0006666096249664242,-0.01916456725861109,-0.01917703829334362,5.426490992683957,2.648011096743335,0.2783697273303783,-0.0004146401843654651,-0.00964057197126511,-0.12434088450317024
1750772876.692848,-2.088075856452999,-2.061974947218455,-0.5957310000000007,1.5823426698610015,-0.45827021576648175,-2.028082914144427,0.0005918490535961513,0.05528665681329908,-0.05600000000000004,-0.0006666096249664242,-0.01916456725861109,-0.01917703829334362,5.426490992683957,2.648011096743335,0.2783697273303783,-0.0004146401843654651,-0.00964057197126511,-0.12434088450317024
1750772876.6947777,-2.088074662186159,-2.0618633866430995,-0.5958440000000005,1.5823413247380083,-0.4583088871254146,-2.0281216106681264,0.0006024177866960826,0.05627391854210799,-0.057000000000000044,-0.000678513368269396,-0.01950679167394343,-0.01951948540572476,5.426828066193536,2.6483887963799457,0.27837161623997153,-0.0004151129994559144,-0.009640571971284545,-0.1243660355371972
1750772876.6967354,-2.088073446781852,-2.0617498515442865,-0.5959590000000006,1.5823399558075284,-0.45834824293317755,-2.0281609920860504,0.0006129865197960139,0.0572611802709169,-0.058000000000000045,-0.0006904171115723678,-0.019849016089275775,-0.019861932518105894,5.427171086096961,2.648773152935427,0.2783735381143999,-0.0004155941341500799,-0.009640571971304473,-0.12439163337503784
1750772876.698743,-2.08807221024008,-2.061634341922016,-0.596076,1.582338563069562,-0.45838828318977143,-2.0282010583981984,0.0006235552528959451,0.058248441999725814,-0.059000000000000045,-0.0007023208548753397,-0.020191240504608115,-0.02020437963048703,5.427520051362361,2.6491641649294992,0.2783754929290111,-0.0004160835858651508,-0.009640571971324605,-0.12441767810193331
1750772876.700783,-2.088070952560841,-2.0615168577762875,-0.5961949999999998,1.582337146524109,-0.45842900789519625,-2.0282418096045713,0.0006341239859958764,0.059235703728534726,-0.060000000000000046,-0.0007142245981783115,-0.020533464919940455,-0.020546826742868167,5.427874960939463,2.6495618308557165,0.27837748065871876,-0.00041658135197217364,-0.009640571971345234,-0.1244441698044491
1750772876.7028155,-2.088069673744135,-2.0613973991071015,-0.5963159999999998,1.5823357061711694,-0.45847041704945113,-2.02828324570517,0.0006446927190958076,0.06022296545734364,-0.06100000000000005,-0.0007261283414812834,-0.020875689335272795,-0.020889273855249302,5.428235813759574,2.649966149181432,0.27837950127800154,-0.0004170874297958898,-0.00964057197136627,-0.12447110857046799
1750772876.7046394,-2.088068373789964,-2.061275965914458,-0.5964390000000002,1.5823342420107431,-0.45851251065253784,-2.0283253666999927,0.0006552614521957389,0.06121022718615255,-0.06200000000000005,-0.0007380320847842553,-0.02121791375060514,-0.02123172096763044,5.428602608735594,2.650377118347773,0.27838155476090415,-0.00041760181661489065,-0.009640571971387806,-0.12449849448919645
1750772876.7090604,-2.0880670526983263,-2.0611525581983567,-0.5965639999999999,1.5823327540428302,-0.4585552887044537,-2.0283681725890403,0.0006658301852956702,0.062197488914961456,-0.06300000000000004,-0.0007499358280872271,-0.021560138165937475,-0.02157416808001157,5.428975344761935,2.650794736769624,0.2783836410810361,-0.0004181245096613127,-0.009640571971409462,-0.12452632765113641
1750772876.7096033,-2.0880657104692233,-2.061027175958799,-0.5966909999999999,1.5823312422674307,-0.45859875120520144,-2.028411663372313,0.0006763989183956014,0.06318475064377037,-0.06400000000000004,-0.000761839571390199,-0.02190236258126982,-0.02191661519239271,5.429354020714546,2.6512190028355973,0.2783857602115703,-0.0004186555061210103,-0.00964057197143192,-0.12455460814810025
1750772876.7110786,-2.0880643471026534,-2.0608998191957824,-0.5968200000000001,1.5823297066845445,-0.4586428981547792,-2.02845583904981,0.0006869676514955327,0.06417201237257929,-0.06500000000000004,-0.0007737433146931707,-0.02224458699660216,-0.022259062304773845,5.429738635450866,2.65164991490803,0.27838791212524633,-0.0004191948031332109,-0.009640571971454499,-0.12458333607317189
1750772876.71329,-2.0880629625986167,-2.0607704879093074,-0.5969510000000007,1.582328147294172,-0.45868772955318793,-2.0285006996215316,0.000697536384595464,0.06515927410138819,-0.06600000000000004,-0.0007856470579961426,-0.0225868114119345,-0.02260150941715498,5.430129187809791,2.65208747132292,0.2783900967943656,-0.0004197423977907097,-0.009640571971477597,-0.1246125115207317
1750772876.7151856,-2.088061556957115,-2.0606391820993766,-0.5970840000000006,1.5823265640963127,-0.4587332454004267,-2.0285462450874787,0.0007081051176953952,0.06614653583019711,-0.06700000000000005,-0.0007975508012991145,-0.02292903582726684,-0.022943956529536118,5.430525676611673,2.652531670389932,0.27839231419079463,-0.00042029828713965737,-0.009640571971501116,-0.1246421345864232
1750772876.7171788,-2.088060130178146,-2.0605059017659872,-0.5972189999999999,1.5823249570909668,-0.4587794456964964,-2.02859247544765,0.0007186738507953265,0.06713379755900602,-0.06800000000000005,-0.0008094545446020863,-0.023271260242599182,-0.023286403641917253,5.43092810065828,2.652982510392369,0.27839456428596243,-0.00042086246817948854,-0.009640571971525156,-0.12467220536715168
1750772876.7189555,-2.0880586822617113,-2.0603706469091403,-0.5973560000000004,1.5823233262781342,-0.4588263304413971,-2.028639390702047,0.0007292425838952578,0.06812105928781494,-0.06900000000000005,-0.0008213582879050582,-0.023613484657931522,-0.02362885075429839,5.4313364587327655,2.653439989587141,0.27839684705086165,-0.0004214349378629446,-0.00964057197154943,-0.12470272396108252
1750772876.7211351,-2.0880572132078106,-2.0602334175288366,-0.5974950000000003,1.582321671657815,-0.4588738996351287,-2.0286869908506677,0.000739811316995189,0.06910832101662384,-0.07000000000000005,-0.0008332620312080301,-0.023955709073263862,-0.023971297866679526,5.431750749599649,2.6539041062047275,0.27839916245604734,-0.0004220156930958559,-0.009640571971574233,-0.1247336904676178
1750772876.7227962,-2.088055723016444,-2.0600942136250744,-0.5976360000000005,1.5823199932300094,-0.45892215327769037,-2.0287352758935135,0.0007503800500951204,0.07009558274543276,-0.07100000000000005,-0.0008451657745110019,-0.024297933488596202,-0.02431374497906066,5.432170972004807,2.6543748584491915,0.27840151047163786,-0.000422604730737202,-0.00964057197159947,-0.12476510498740179
1750772876.724907,-2.08805421168761,-2.0599530351978537,-0.5977790000000001,1.582318290994717,-0.458971091369083,-2.0287842458305834,0.0007609487831950516,0.07108284447424167,-0.07200000000000005,-0.0008570695178139738,-0.024640157903928546,-0.0246561920914418,5.432597124675397,2.6548522444981058,0.27840389106731256,-0.0004232020475989889,-0.009640571971625243,-0.12479696762230112
1750772876.726848,-2.0880526792213105,-2.059809882247177,-0.5979239999999999,1.5823165649519382,-0.45902071390930566,-2.028833900661878,0.0007715175162949829,0.07207010620305059,-0.07300000000000005,-0.0008689732611169457,-0.024982382319260886,-0.024998639203822934,5.43302920631988,2.6553362625025474,0.2784063042123131,-0.0004238076404461128,-0.009640571971651262,-0.12482927847539589
1750772876.728931,-2.088051125617545,-2.059664754773042,-0.598071,1.5823148151016726,-0.45907102089836016,-2.0288842403873986,0.0007820862493949142,0.07305736793185949,-0.07400000000000005,-0.0008808770044199175,-0.025324606734593226,-0.02534108631620407,5.433467215627969,2.6558269105870718,0.27840874987544234,-0.000424421505996405,-0.009640571971677822,-0.12486203765098028
1750772876.7308388,-2.0880495508763133,-2.0595176527754493,-0.5982200000000004,1.5823130414439204,-0.4591220123362447,-2.028935265007144,0.0007926549824948454,0.07404462966066841,-0.07500000000000005,-0.0008927807477228894,-0.025666831149925566,-0.025683533428585207,5.43391115127061,2.6563241868496923,0.2784112280250648,-0.00042504364092044785,-0.009640571971704832,-0.12489524525453975
1750772876.7327716,-2.0880479549976148,-2.0593685762544,-0.5983710000000002,1.5823112439786817,-0.45917368822295934,-2.0289869745211124,0.0008032237155947767,0.07503189138947731,-0.07600000000000005,-0.0009046844910258612,-0.02600905556525791,-0.026025980540966342,5.434361011899935,2.6568280893618232,0.27841373862910496,-0.0004256740418414871,-0.00964057197173239,-0.12492890139274392
1750772876.7347984,-2.088046337981451,-2.059217525209892,-0.5985240000000003,1.5823094227059564,-0.4592260485585049,-2.0290393689293076,0.0008137924486947079,0.07601915311828623,-0.07700000000000005,-0.0009165882343288331,-0.02635127998059025,-0.02636842765334748,5.434816796149261,2.657338616168293,0.27841628165504817,-0.0004263127053355039,-0.009640571971760208,-0.12496300617344787
1750772876.7368066,-2.0880446998278206,-2.0590644996419263,-0.5986790000000006,1.5823075776257445,-0.4592790933428814,-2.029092448231726,0.0008243611817946393,0.07700641484709514,-0.07800000000000006,-0.000928491977631805,-0.02669350439592259,-0.026710874765728615,5.435278502633034,2.6578557652872763,0.27841885706993946,-0.00042695962793092614,-0.009640571971788582,-0.12499755970566269
1750772876.7387981,-2.088043040536723,-2.058909499550503,-0.5988360000000004,1.5823057087380459,-0.4593328225760889,-2.029146212428371,0.0008349299148945706,0.07799367657590406,-0.07900000000000006,-0.0009403957209347768,-0.02703572881125493,-0.02705332187810975,5.435746129946818,2.658379534710298,0.2784214648403844,-0.0004276148061087157,-0.00964057197181742,-0.1250325620995641
1750772876.7408073,-2.0880413601081607,-2.058752524935622,-0.5989950000000004,1.5823038160428606,-0.4593872362581273,-2.029200661519239,0.0008454986479945018,0.07898093830471296,-0.08000000000000006,-0.0009522994642377487,-0.027377953226587273,-0.027395768990490888,5.436219676667255,2.658909922402161,0.27842410493254605,-0.0004282782363021885,-0.00964057197184682,-0.1250680134664704
1750772876.7454374,-2.0880396585421312,-2.0585935757972837,-0.5991560000000007,1.582301899540189,-0.45944233438899573,-2.0292557955043318,0.0008560673810944331,0.07996820003352188,-0.08100000000000006,-0.0009642032075407206,-0.027720177641919613,-0.027738216102872023,5.436699141352038,2.6594469263009777,0.27842677731214843,-0.00042894991489690084,-0.009640571971876498,-0.1251039139188289
1750772876.745956,-2.0880396585421312,-2.0585935757972837,-0.5991560000000007,1.582301899540189,-0.45944233438899573,-2.0292557955043318,0.0008560673810944331,0.07996820003352188,-0.08100000000000006,-0.0009642032075407206,-0.027720177641919613,-0.027738216102872023,5.436699141352038,2.6594469263009777,0.27842677731214843,-0.00042894991489690084,-0.009640571971876498,-0.1251039139188289
1750772876.749474,-2.0880361919976753,-2.058269753950235,-0.5994840000000003,1.5822979951123854,-0.4595545839972246,-2.029368118157193,0.0008772048472942956,0.08194272349113971,-0.08300000000000006,-0.0009880106941466643,-0.028404626472584297,-0.028423110327634296,5.43767581875047,2.6605407743380067,0.27843221879435803,-0.0004303180025936129,-0.009640571971937567,-0.12517706253533276
1750772876.7499778,-2.088034427019247,-2.0581048812415244,-0.5996510000000006,1.5822960071872538,-0.459611735474585,-2.029425306824961,0.0008877735803942269,0.08292998521994861,-0.08400000000000006,-0.0009999144374496362,-0.028746850887916637,-0.02876555744001543,5.438173028484471,2.661097614218518,0.2784349878262031,-0.0004310144042274805,-0.009640571971968676,-0.12521431092995505
1750772876.7508137,-2.088034427019247,-2.0581048812415244,-0.5996510000000006,1.5822960071872538,-0.459611735474585,-2.029425306824961,0.0008877735803942269,0.08292998521994861,-0.08400000000000006,-0.0009999144374496362,-0.028746850887916637,-0.02876555744001543,5.438173028484471,2.661097614218518,0.2784349878262031,-0.0004310144042274805,-0.009640571971968676,-0.12521431092995505
1750772876.7528186,-2.0880326409033536,-2.0579380340093554,-0.5998200000000002,1.5822939954546358,-0.45966957140077636,-2.0294831803869533,0.0008983423134941581,0.08391724694875753,-0.08500000000000006,-0.001011818180752608,-0.029089075303248977,-0.02910800455239657,5.43867615022346,2.661661061790497,0.2784377890039618,-0.00043171903932629114,-0.009640571972000366,-0.12525200887097307
1750772876.7549524,-2.0880308336499933,-2.0577692122537288,-0.5999910000000002,1.5822919599145309,-0.45972809177579776,-2.0295417388431707,0.0009089110465940895,0.08490450867756644,-0.08600000000000006,-0.0010237219240555799,-0.029431299718581317,-0.029450451664777704,5.439185182429914,2.6622311148579496,0.27844062229114663,-0.00043243190403581934,-0.009640571972032549,-0.1252901564763427
1750772876.75666,-2.088029005259167,-2.0575984159746454,-0.6001640000000004,1.5822899005669395,-0.4597872965996501,-2.029600982193612,0.0009194797796940207,0.08589177040637536,-0.08700000000000006,-0.0010356256673585518,-0.02977352413391366,-0.02979289877715884,5.439700123547151,2.6628077711979725,0.27844348765082555,-0.0004331529944536022,-0.00964057197206532,-0.12532875386509676
1750772876.7586677,-2.088027155730874,-2.0574256451721036,-0.600339,1.5822878174118615,-0.4598471858723334,-2.0296609104382792,0.000930048512793952,0.08687903213518426,-0.08800000000000006,-0.0010475294106615236,-0.030115748549246,-0.030135345889539977,5.440220971999331,2.6633910285607203,0.2784463850456233,-0.0004338823066288784,-0.009640571972098395,-0.12536780115732046
1750772876.7606905,-2.0880252850651155,-2.057250899846104,-0.6005160000000007,1.582285710449297,-0.45990775959384766,-2.0297215235771704,0.0009406172458938833,0.08786629386399318,-0.08900000000000007,-0.0010594331539644955,-0.03045797296457834,-0.030477793001921112,5.440747726191394,2.663980884669368,0.27844931443772,-0.0004346198365624131,-0.00964057197213207,-0.1254072984741372
1750772876.7627127,-2.0880233932618903,-2.057074179996647,-0.600695,1.5822835796792456,-0.45996901776419197,-2.0297828216102864,0.0009511859789938145,0.08885355559280209,-0.09000000000000007,-0.0010713368972674673,-0.03080019737991068,-0.030820240114302247,5.441280384509041,2.6645773372200754,0.2784522757888513,-0.00043536558020652226,-0.009640571972166249,-0.12544724593771572
1750772876.7646542,-2.088021480321199,-2.056895485623733,-0.6008760000000004,1.5822814251017077,-0.4600309603833672,-2.0298448045376283,0.0009617547120937458,0.089840817321611,-0.09100000000000007,-0.0010832406405704392,-0.031142421795243024,-0.031162687226683385,5.441818945318705,2.66518038388197,0.278455269060308,-0.00043611953346487726,-0.009640571972201036,-0.12548764367123533
1750772876.767742,-2.088019546243043,-2.056714816727361,-0.6010590000000002,1.5822792467166833,-0.4600935874513725,-2.029907472359193,0.000972323445193677,0.09082807905041991,-0.09200000000000007,-0.001095144383873411,-0.03148464621057536,-0.031505134339064524,5.442363406967497,2.6657900222970863,0.2784582942129348,-0.0004368816921924098,-0.009640571972236044,-0.1255284917988851
1750772876.7687008,-2.088017591027419,-2.056532173307531,-0.6012440000000003,1.5822770445241723,-0.46015689896820966,-2.029970825074984,0.0009828921782936084,0.09181534077922883,-0.09300000000000007,-0.001107048127176383,-0.03182687062590771,-0.03184758145144566,5.442913767783176,2.666406250080372,0.2784613512071313,-0.00043765205219530316,-0.009640571972272062,-0.12556979044584898
1750772876.7707167,-2.0880156146743296,-2.056347555364244,-0.6014309999999998,1.5822748185241746,-0.46022089493387597,-2.0300348626849996,0.0009934609113935397,0.09280260250803773,-0.09400000000000007,-0.0011189518704793548,-0.03216909504124005,-0.03219002856382679,5.443470026074133,2.6670290648195887,0.2784644400028496,-0.00043843060923084173,-0.009640571972308111,-0.1256115397383009
1750772876.7728057,-2.0880136171837735,-2.056160962897499,-0.6016200000000005,1.5822725687166903,-0.4602855753483741,-2.030099585189239,0.001004029644493471,0.09378986423684665,-0.09500000000000007,-0.0011308556137823267,-0.03251131945657239,-0.03253247567620793,5.4440321801293265,2.66765846407536,0.27846756055959626,-0.0004392173590072785,-0.009640571972344884,-0.12565373980337846
1750772876.7747636,-2.0880115985557515,-2.055972395907297,-0.6018110000000005,1.5822702951017196,-0.4603509402117023,-2.0301649925877037,0.001014598377593402,0.09477712596565556,-0.09600000000000007,-0.0011427593570852985,-0.03285354387190473,-0.03287492278858906,5.444600228218265,2.668294445381053,0.2784707128364295,-0.000440012297183757,-0.00964057197238219,-0.1256963907691788
1750772876.7767935,-2.0880095587902634,-2.0557818543936364,-0.602004,1.582267997679262,-0.46041698952386145,-2.030231084880394,0.0010251671106933334,0.09576438769446448,-0.09700000000000007,-0.0011546631003882704,-0.03319576828723707,-0.033217369900970205,5.44517416859098,2.668937006242816,0.2784738967919609,-0.0004408154193702948,-0.00964057197242003,-0.12573949276474794
1750772876.7786849,-2.0880074978873084,-2.055589338356519,-0.6021990000000006,1.582265676449318,-0.46048372328485154,-2.0302978620673082,0.0010357358437932647,0.09675164942327338,-0.09800000000000007,-0.0011665668436912423,-0.03353799270256941,-0.03355981701335134,5.445753999477941,2.6695861441394797,0.2784771123843527,-0.000441626721127445,-0.009640571972458413,-0.12578304592005202
1750772876.7807648,-2.0880054158468884,-2.0553948477959434,-0.6023960000000006,1.5822633314118872,-0.4605511414946726,-2.0303653241484465,0.001046304576893196,0.0977389111520823,-0.09900000000000007,-0.0011784705869942141,-0.03388021711790175,-0.033902264125732474,5.446339719090091,2.670241856522569,0.27848035957131984,-0.0004424461979665353,-0.009640571972497342,-0.12582705036599232
1750772876.782684,-2.0880033126690005,-2.055198382711911,-0.602595,1.58226096256697,-0.46061924415332367,-2.0304334711238106,0.0010568733099931274,0.09872617288089121,-0.10000000000000007,-0.001190374330297186,-0.03422244153323409,-0.03424471123811361,5.446931325618729,2.670904140816235,0.2784836383101272,-0.0004432738453492751,-0.00964057197253682,-0.12587150623436483
1750772876.784763,-2.0880011883536476,-2.05499994310442,-0.6027960000000006,1.5822585699145661,-0.4606880312608048,-2.0305023029933995,0.0010674420430930585,0.09971343460970013,-0.10100000000000008,-0.0012022780736001579,-0.034564665948566435,-0.034587158350494744,5.447528817235545,2.6715729944172373,0.27848694855759054,-0.0004441096586877592,-0.009640571972577049,-0.1259164136578598
1750772876.7867088,-2.0879990429008286,-2.054799528973472,-0.6029990000000005,1.5822561534546755,-0.4607575028171178,-2.0305718197572133,0.0010780107761929898,0.10070069633850903,-0.10200000000000008,-0.0012141818169031297,-0.034906890363898775,-0.03492960546287588,5.448132192092526,2.6722484146948817,0.2784902902700752,-0.00044495363334441163,-0.009640571972617445,-0.12596177277004686
1750772876.7887592,-2.0879968763105428,-2.054597140319066,-0.6032039999999999,1.5822537131872985,-0.46082765882226084,-2.030642021415251,0.001088579509292921,0.10168795806731795,-0.10300000000000008,-0.0012260855602061016,-0.035249114779231115,-0.03527205257525702,5.448741448321956,2.672930398991032,0.2784936634034978,-0.0004458057646317688,-0.009640571972658604,-0.12600758370536083
1750772876.790744,-2.087994688582791,-2.054392777141203,-0.6034110000000004,1.5822512491124348,-0.46089849927623483,-2.030712907967514,0.0010991482423928524,0.10267521979612686,-0.10400000000000008,-0.0012379893035090734,-0.035591339194563455,-0.035614499687638156,5.449356584036337,2.673618944619994,0.2784970679133208,-0.0004466660478123984,-0.00964057197270033,-0.12605384659907848
1750772876.7983856,-2.087994688582791,-2.054392777141203,-0.6034110000000004,1.5822512491124348,-0.46089849927623483,-2.030712907967514,0.0010991482423928524,0.10267521979612686,-0.10400000000000008,-0.0012379893035090734,-0.035591339194563455,-0.035614499687638156,5.449356584036337,2.673618944619994,0.2784970679133208,-0.0004466660478123984,-0.00964057197270033,-0.12605384659907848
1750772876.798805,-2.087994688582791,-2.054392777141203,-0.6034110000000004,1.5822512491124348,-0.46089849927623483,-2.030712907967514,0.0010991482423928524,0.10267521979612686,-0.10400000000000008,-0.0012379893035090734,-0.035591339194563455,-0.035614499687638156,5.449356584036337,2.673618944619994,0.2784970679133208,-0.0004466660478123984,-0.00964057197270033,-0.12605384659907848
1750772876.799034,-2.0879879985747394,-2.0537678404668664,-0.604044,1.582243714042924,-0.4611151273311398,-2.0309296769896514,0.0011308544416926461,0.1056370049825536,-0.10700000000000008,-0.001273700533417989,-0.036618012440560475,-0.03664184102478156,5.451237248917165,2.6757239222336096,0.27850746924906944,-0.0004492957605888786,-0.009640571972828976,-0.1261953483959917
1750772876.799238,-2.0879857262971226,-2.053555579195173,-0.6042589999999999,1.5822411547381139,-0.4611887055804367,-2.0310033031188137,0.0011414231747925775,0.1066242667113625,-0.10800000000000008,-0.001285604276720961,-0.03696023685589282,-0.0369842881371627,5.451875883299942,2.676438685785525,0.27851099881010655,-0.00045018860296618893,-0.009640571972873225,-0.12624342049270554
1750772876.8007681,-2.08798343288204,-2.053341343400021,-0.604476,1.5822385716258172,-0.4612629682785636,-2.0310776141422,0.0011519919078925088,0.10761152844017143,-0.10900000000000008,-0.0012975080200239328,-0.03730246127122516,-0.03732673524954384,5.45252038743246,2.6771599968278488,0.27851455951808635,-0.00045108957279681476,-0.009640571972917678,-0.1262919452365034
1750772876.8027656,-2.087981118329491,-2.053125133081412,-0.6046950000000004,1.5822359647060338,-0.4613379154255215,-2.031152610059811,0.00116256064099244,0.10859879016898033,-0.11000000000000008,-0.0013094117633269046,-0.0376446856865575,-0.03766918236192497,5.45317075930782,2.6778878525089853,0.27851815132575686,-0.0004519986650414353,-0.009640571972962923,-0.12634092276748246
1750772876.8046644,-2.0879787826394764,-2.052906948239345,-0.6049160000000002,1.5822333339787638,-0.46141354702130943,-2.0312282908716472,0.0011731293740923712,0.10958605189778925,-0.11100000000000008,-0.0013213155066298765,-0.03798691010188984,-0.038011629474306106,5.453826996899097,2.6786222499495853,0.27852177418541285,-0.0004529158746099139,-0.009640571973008775,-0.126390353226476
1750772876.8067372,-2.0879787826394764,-2.052906948239345,-0.6049160000000002,1.5822333339787638,-0.46141354702130943,-2.0312282908716472,0.0011731293740923712,0.10958605189778925,-0.11100000000000008,-0.0013213155066298765,-0.03798691010188984,-0.038011629474306106,5.453826996899097,2.6786222499495853,0.27852177418541285,-0.0004529158746099139,-0.009640571973008775,-0.126390353226476
1750772876.8086298,-2.087976425811995,-2.052686788873821,-0.6051390000000003,1.5822306794440073,-0.4614898630659283,-2.031304656577708,0.0011836981071923025,0.11057331362659815,-0.11200000000000009,-0.0013332192499328484,-0.03832913451722218,-0.03835407658668724,5.454489098159255,2.6793631862424307,0.2785254280488928,-0.00045384119636126684,-0.009640571973055236,-0.1264402367550555
1750772876.8109715,-2.087974047847047,-2.0524646549848384,-0.6053639999999998,1.582228001101764,-0.46156686355937815,-2.031381707177994,0.0011942668402922338,0.11156057535540707,-0.11300000000000009,-0.0013451229932358202,-0.03867135893255452,-0.03869652369906838,5.455157061021146,2.6801106584524583,0.27852911286758153,-0.00045477462510362004,-0.009640571973102313,-0.12649057349551282
1750772876.8127031,-2.0879716487446336,-2.052240546572399,-0.6055910000000004,1.5822252989520342,-0.4616445485016589,-2.031459442672505,0.0012048355733921651,0.11254783708421598,-0.11400000000000009,-0.001357026736538792,-0.03901358334788686,-0.03903897081144952,5.455830883397431,2.680864663616661,0.2785328285924062,-0.0004557161555938542,-0.009640571973150007,-0.1265413635908335
1750772876.8147864,-2.087969228504754,-2.0520144636365014,-0.6058200000000005,1.5822225729948178,-0.46172291789276976,-2.0315378630612404,0.0012154043064920965,0.1135350988130249,-0.11500000000000009,-0.0013689304798417637,-0.0393558077632192,-0.03938141792383065,5.4565105631805775,2.6816251987441,0.2785365751738391,-0.0004566657825378211,-0.00964057197319833,-0.1265926071847091
1750772876.816951,-2.0879667871274075,-2.051786406177147,-0.6060509999999999,1.5822198232301148,-0.46180197173271154,-2.0316169683442,0.0012259730395920278,0.1145223605418338,-0.11600000000000009,-0.0013808342231447356,-0.03969803217855155,-0.03972386503621179,5.45719609824276,2.6823922608158095,0.27854035256189413,-0.0004576235005899654,-0.00964057197324748,-0.12664430442149058
1750772876.8190653,-2.087964324612596,-2.051556374194334,-0.6062840000000005,1.5822170496579253,-0.46188171002148426,-2.0316967585213845,0.0012365417726919589,0.11550962227064272,-0.11700000000000009,-0.0013927379664477075,-0.04004025659388389,-0.04006631214859292,5.457887486435875,2.6831658467848003,0.2785441607061287,-0.00045858930435324955,-0.009640571973296872,-0.12669645544618927
1750772876.8207579,-2.0879618409603165,-2.051324367688064,-0.6065190000000005,1.5822142522782492,-0.46196213275908704,-2.031777233592795,0.0012471105057918902,0.11649688399945163,-0.11800000000000009,-0.0014046417097506793,-0.04038248100921623,-0.04040875926097406,5.458584725591446,2.6839459535759778,0.2785479995556415,-0.00045956318837912373,-0.009640571973347103,-0.12674906040445835
1750772876.8226154,-2.087959336170572,-2.0510903866583368,-0.6067559999999999,1.5822114310910862,-0.46204323994552077,-2.0318583935584282,0.0012576792388918215,0.11748414572826055,-0.11900000000000009,-0.0014165454530536512,-0.04072470542454857,-0.0407512063733552,5.459287813520625,2.6847325780861335,0.2785518690590739,-0.00046054514716735673,-0.009640571973397983,-0.126802119442577
1750772876.8248465,-2.0879568102433606,-2.050854431105151,-0.6069950000000004,1.5822085860964368,-0.46212503158078544,-2.0319402384182883,0.0012682479719917528,0.11847140745706945,-0.12000000000000009,-0.001428449196356623,-0.04106692983988091,-0.041093653485736334,5.459996748014092,2.6855257171838676,0.27855576916460606,-0.00046153517516575945,-0.009640571973449514,-0.12685563270742295
1750772876.8266234,-2.087954263178684,-2.0506165010285082,-0.6072360000000003,1.582205717294301,-0.46220750766488106,-2.0320227681723715,0.0012788167050916842,0.11945866918587837,-0.1210000000000001,-0.001440352939659595,-0.04140915425521325,-0.04143610059811747,5.460711526842068,2.6863253677095655,0.2785596998199603,-0.00046253326677035206,-0.009640571973501705,-0.12690960034648285
1750772876.8287585,-2.0879516949765407,-2.050376596428408,-0.6074790000000005,1.5822028246846782,-0.46229066819780673,-2.0321059828206804,0.0012893854381916153,0.12044593091468728,-0.1220000000000001,-0.0014522566829625668,-0.04175137867054559,-0.041778547710498604,5.461432147754223,2.687131526475345,0.27856366097239765,-0.0004635394163250395,-0.009640571973554562,-0.126964022507809
1750772876.8308036,-2.0879491056369313,-2.05013471730485,-0.6077240000000002,1.582199908267569,-0.46237451317956246,-2.0321898823632143,0.0012999541712915466,0.1214331926434962,-0.1230000000000001,-0.0014641604262655386,-0.04209360308587794,-0.04212099482287974,5.462158608479664,2.6879441902650285,0.2785676525687196,-0.00046455361812146524,-0.009640571973608283,-0.12701889934001367
1750772876.8326077,-2.087946495159856,-2.0498908636578337,-0.607971,1.5821969680429733,-0.46245904261015003,-2.032274466799972,0.0013105229043914779,0.1224204543723051,-0.1240000000000001,-0.0014760641695685105,-0.04243582750121028,-0.04246344193526088,5.462890906726847,2.68876335583406,0.27857167455526455,-0.00046557586639902303,-0.009640571973662289,-0.12707423099225604
1750772876.8348265,-2.0879438635453136,-2.0496450354873605,-0.6082200000000002,1.5821940040108908,-0.46254425648956765,-2.032359736130955,0.001321091637491409,0.123407716101114,-0.12500000000000008,-0.0014879679128714824,-0.04277805191654261,-0.04280588904764201,5.463629040183575,2.6895890199094987,0.2785757268779111,-0.0004666061553445133,-0.009640571973716977,-0.12713001761420667
1750772876.836787,-2.0879412107933053,-2.04939723279343,-0.6084709999999998,1.5821910161713217,-0.4626301548178162,-2.0324456903561625,0.0013316603705913403,0.12439497782992291,-0.12600000000000008,-0.0014998716561744542,-0.04312027633187495,-0.04314833616002314,5.464373006516921,2.690421179189947,0.27857980948207245,-0.000467644479092361,-0.009640571973772744,-0.1271862593560714
1750772876.8385818,-2.087938536903831,-2.0491474555760405,-0.6087240000000005,1.582188004524266,-0.46271673759489484,-2.032532329475595,0.0013422291036912716,0.12538223955873182,-0.12700000000000009,-0.001511775399477426,-0.04346250074720729,-0.04349078327240428,5.465122803373191,2.691259830345519,0.27858392231270185,-0.0004686908317240512,-0.009640571973829008,-0.12724295636852173
1750772876.840806,-2.0879358418768907,-2.0488957038351945,-0.6089790000000006,1.5821849690697238,-0.4628040048208053,-2.0326196534892524,0.0013527978367912027,0.12636950128754074,-0.12800000000000009,-0.001523679142780398,-0.04380472516253964,-0.04383323038478542,5.465878428377869,2.692104970017784,0.2785880653142874,-0.00046974520726831854,-0.009640571973886168,-0.12730010880271658
1750772876.8489149,-2.0879331257124845,-2.04864197757089,-0.6092360000000001,1.582181909807695,-0.46289195649554493,-2.0327076623971347,0.001363366569891134,0.12735676301634966,-0.1290000000000001,-0.0015355828860833698,-0.04414694957787198,-0.044175677497166554,5.466639879135578,2.6929565948197216,0.27859223843085323,-0.000470807599700838,-0.009640571973943642,-0.12735771681026023
1750772876.849316,-2.0879303884106113,-2.0483862767831287,-0.6094949999999999,1.5821788267381796,-0.4629805926191164,-2.032796356199241,0.0013739353029910654,0.12834402474515857,-0.1300000000000001,-0.0015474866293863415,-0.04448917399320432,-0.04451812460954769,5.467407153230012,2.6938147013356795,0.2785964416059588,-0.00047187800294425536,-0.009640571974002024,-0.12741578054321084
1750772876.8495815,-2.0879303884106113,-2.0483862767831287,-0.6094949999999999,1.5821788267381796,-0.4629805926191164,-2.032796356199241,0.0013739353029910654,0.12834402474515857,-0.1300000000000001,-0.0015474866293863415,-0.04448917399320432,-0.04451812460954769,5.467407153230012,2.6938147013356795,0.2785964416059588,-0.00047187800294425536,-0.009640571974002024,-0.12741578054321084
1750772876.8506632,-2.087927629971272,-2.04812860147191,-0.609756,1.5821757198611774,-0.4630699131915179,-2.0328857348955722,0.0013845040360909967,0.12933128647396747,-0.1310000000000001,-0.0015593903726893133,-0.04483139840853666,-0.044860571721928824,5.46818024822391,2.6946792861213087,0.2786006747826975,-0.00047295641086789853,-0.009640571974061124,-0.1274743001540381
1750772876.8528688,-2.087924850394467,-2.0478689516372333,-0.6100190000000003,1.5821725891766887,-0.4631599182127504,-2.032975798486129,0.001395072769190928,0.13031854820277639,-0.1320000000000001,-0.0015712941159922852,-0.045173622823869,-0.04520301883430996,5.468959161659004,2.695550345703561,0.2786049379036984,-0.00047404281728767144,-0.009640571974120946,-0.12753327579561383
1750772876.854777,-2.087922049680195,-2.047607327279099,-0.610284,1.5821694346847135,-0.4632506076828138,-2.0330665469709093,0.001405641502290859,0.1313058099315853,-0.1330000000000001,-0.001583197859295257,-0.04551584723920134,-0.0455454659466911,5.469743891055936,2.6964278765805627,0.2786092309111221,-0.0004751372159659725,-0.0096405719741815,-0.12759270762120264
1750772876.856811,-2.0879192278284577,-2.0473437283975073,-0.6105510000000001,1.5821662563852514,-0.46334198160170725,-2.033157980349915,0.0014162102353907904,0.13229307166039422,-0.1340000000000001,-0.001595101602598229,-0.04585807165453368,-0.045887913059072236,5.470534433914254,2.697311875221636,0.27861355374666325,-0.00047623960061148274,-0.009640571974242791,-0.12765259578442065
1750772876.8586557,-2.0879163848392537,-2.047078154992457,-0.6108200000000004,1.582163054278303,-0.46343403996943167,-2.033250098623146,0.0014267789684907217,0.13328033338920312,-0.1350000000000001,-0.0016070053459012008,-0.04620029606986602,-0.04623036017145337,5.4713307877123265,2.6982023380672207,0.27861790635154843,-0.00047734996487911895,-0.009640571974304823,-0.12771294043925163
1750772876.8608205,-2.0879135207125845,-2.04681060706395,-0.611091,1.5821598283638678,-0.463526782785987,-2.0333429017906006,0.001437347701590653,0.13426759511801203,-0.1360000000000001,-0.0016189090892041727,-0.046542520485198365,-0.046572807283834505,5.472132949907312,2.69909926152883,0.27862228866653616,-0.00047846830236980765,-0.0096405719743678,-0.127773741739996
1750772876.8627956,-2.0879106354484476,-2.0465410846119854,-0.611364,1.5821565786419463,-0.46362021005137244,-2.033436389852281,0.0014479164346905844,0.13525485684682095,-0.1370000000000001,-0.0016308128325071445,-0.046884744900530705,-0.04691525439621564,5.472940917935077,2.7000026419889878,0.2786267006319153,-0.0004795946066303601,-0.009640571974431142,-0.12783499984126928
1750772876.8661008,-2.0879077290468455,-2.046269587636562,-0.6116390000000003,1.5821533051125378,-0.4637143217655888,-2.0335305628081866,0.0014584851677905157,0.13624211857562987,-0.1380000000000001,-0.0016427165758101164,-0.047226969315863045,-0.04725770150859678,5.473754689210194,2.7009124758011915,0.2786311421875057,-0.00048072887115342103,-0.009640571974495441,-0.12789671489798235
1750772876.8668694,-2.0879048015077766,-2.045996116137683,-0.6119159999999999,1.582150007775643,-0.4638091179286361,-2.033625420658316,0.0014690539008904468,0.13722938030443876,-0.1390000000000001,-0.0016546203191130883,-0.047569193731195385,-0.04760014862097792,5.474574261125833,2.701828759289852,0.27863561327265635,-0.00048187108937708254,-0.00964057197456051,-0.1279588870653082
1750772876.8689864,-2.0879018528312416,-2.0457206701153448,-0.6121949999999998,1.5821466866312615,-0.46390459854051347,-2.0337209634026703,0.001479622633990378,0.13821664203324768,-0.1400000000000001,-0.0016665240624160601,-0.047911418146527725,-0.04794259573335905,5.4753996310537625,2.702751488750282,0.2786401138262468,-0.00048302125468509065,-0.00964057197462635,-0.1280215164986883
1750772876.8708694,-2.0878988830172407,-2.0454432495695496,-0.612476,1.5821433416793933,-0.4640007636012218,-2.0338171910412495,0.0014901913670903094,0.1392039037620566,-0.1410000000000001,-0.001678427805719032,-0.048253642561860065,-0.048285042845740186,5.47623079634425,2.703680660448558,0.2786446437866835,-0.0004841793604064071,-0.009640571974692974,-0.1280846033537931
1750772876.8727672,-2.0878958920657738,-2.045163854500297,-0.6127590000000005,1.5821399729200385,-0.46409761311076103,-2.0339141035740527,0.0015007601001902407,0.14019116549086552,-0.1420000000000001,-0.0016903315490220039,-0.048595866977192405,-0.04862748995812132,5.4770677543260335,2.704616270621558,0.2786492030919017,-0.00048534539981518653,-0.009640571974760386,-0.1281481477865065
1750772876.8748024,-2.08789287997684,-2.0448824849075864,-0.6130440000000004,1.5821365803531973,-0.46419514706913123,-2.0340117010010816,0.001511328833290172,0.1411784272196744,-0.1430000000000001,-0.0017022352923249757,-0.048938091392524745,-0.048969937070502456,5.477910502306259,2.705558315476859,0.27865379167936377,-0.00048651936613059344,-0.009640571974828593,-0.1282121499529114
1750772876.8767626,-2.08788984675044,-2.0445991407914175,-0.6133310000000005,1.5821331639788692,-0.4642933654763315,-2.0341099833223346,0.0015218975663901031,0.14216568894848333,-0.1440000000000001,-0.0017141390356279476,-0.04928031580785709,-0.0493123841828836,5.478759037570436,2.70650679119272,0.27865840948605897,-0.00048770125251674325,-0.009640571974897798,-0.128276610009268
1750772876.8786087,-2.0878867923865743,-2.0443138221517927,-0.61362,1.5821297237970546,-0.4643922683323627,-2.0342089505378134,0.0015324662994900345,0.14315295067729225,-0.1450000000000001,-0.0017260427789309194,-0.04962254022318943,-0.04965483129526473,5.479613357382369,2.707461693917965,0.278663056448502,-0.0004888910520823188,-0.009640571974967418,-0.1283415281119831
1750772876.8807168,-2.0878837168852424,-2.0440265289887094,-0.6139109999999999,1.5821262598077535,-0.46449185563722395,-2.034308602647516,0.0015430350325899658,0.14414021240610117,-0.1460000000000001,-0.0017379465222338913,-0.04996476463852177,-0.04999727840764587,5.480473458984115,2.7084230197720123,0.27866773250273336,-0.0004900887578807644,-0.00964057197503805,-0.1284069044176162
1750772876.8827138,-2.0878806202464437,-2.0437372613021676,-0.614204,1.5821227720109658,-0.46459212739091615,-2.0344089396514438,0.001553603765689897,0.14512747413491006,-0.1470000000000001,-0.0017498502655368632,-0.05030698905385411,-0.050339725520027,5.481339339595914,2.7093907648447577,0.27867243758431764,-0.0004912943629098253,-0.009640571975109504,-0.12847273908283297
1750772876.8848424,-2.08787750247018,-2.043446019092169,-0.6144990000000004,1.5821192604066914,-0.4646930835934393,-2.0345099615495954,0.0015641724987898284,0.14611473586371898,-0.1480000000000001,-0.001761754008839835,-0.05064921346918645,-0.05068217263240814,5.482210996416159,2.7103649251965627,0.278677171628345,-0.0004925078601115912,-0.009640571975181788,-0.12853903226439525
1750772876.8867698,-2.0878743635564483,-2.043152802358713,-0.6147960000000001,1.5821157249949305,-0.4647947242447934,-2.0346116683419737,0.0015747412318897595,0.1471019975925279,-0.1490000000000001,-0.001773657752142807,-0.05099143788451879,-0.05102461974478928,5.48308842662129,2.7113454968581614,0.27868193456942714,-0.0004937292423722216,-0.009640571975254907,-0.12860578411914642
1750772876.8886805,-2.0878712035052516,-2.042857611101799,-0.6150950000000002,1.5821121657756827,-0.46489704934497755,-2.034714060028575,0.0015853099649896908,0.14808925932133682,-0.1500000000000001,-0.0017855614954457788,-0.05133366229985113,-0.051367066857170414,5.483971627365805,2.712332475830634,0.2786867263416993,-0.0004949585025218247,-0.009640571975328867,-0.12867299480397162
1750772876.8970912,-2.0878712035052516,-2.042857611101799,-0.6150950000000002,1.5821121657756827,-0.46489704934497755,-2.034714060028575,0.0015853099649896908,0.14808925932133682,-0.1500000000000001,-0.0017855614954457788,-0.05133366229985113,-0.051367066857170414,5.483971627365805,2.712332475830634,0.2786867263416993,-0.0004949585025218247,-0.009640571975328867,-0.12867299480397162
1750772876.8977041,-2.0878712035052516,-2.042857611101799,-0.6150950000000002,1.5821121657756827,-0.46489704934497755,-2.034714060028575,0.0015853099649896908,0.14808925932133682,-0.1500000000000001,-0.0017855614954457788,-0.05133366229985113,-0.051367066857170414,5.483971627365805,2.712332475830634,0.2786867263416993,-0.0004949585025218247,-0.009640571975328867,-0.12867299480397162
1750772876.8987017,-2.0878615965268637,-2.041960190190312,-0.6160040000000002,1.5821013452730204,-0.4652081313385148,-2.0350253444537296,0.0016170161642894848,0.15105104450776355,-0.1530000000000001,-0.0018212727253546944,-0.05236033554584816,-0.05239440819431382,5.486655824049591,2.7153318161780393,0.27870127397983674,-0.0004986934777621222,-0.009640571975555881,-0.12887738140826596
1750772876.900757,-2.087858351925802,-2.0416571008395676,-0.6163110000000005,1.5820976908238265,-0.46531319423402184,-2.0351304757172306,0.0016275848973894159,0.15203830623657247,-0.1540000000000001,-0.0018331764686576662,-0.0527025599611805,-0.05273685530669496,5.487562078054902,2.716344383809661,0.2787061804086537,-0.0004999541766428569,-0.009640571975633285,-0.12894642898272993
1750772876.9028027,-2.0878550861872744,-2.0413520369653657,-0.6166200000000002,1.5820940125671459,-0.46541894157835895,-2.0352362918749565,0.0016381536304893472,0.1530255679653814,-0.1550000000000001,-0.001845080211960638,-0.05304478437651284,-0.053079302419076095,5.488474088040341,2.7173633383107005,0.2787111153321547,-0.0005012227167171808,-0.009640571975711568,-0.12901593617183305
1750772876.9047391,-2.087851799311281,-2.041044998567706,-0.6169310000000001,1.5820903105029787,-0.4655253733715279,-2.0353427929269063,0.0016487223635892785,0.15401282969419028,-0.1560000000000001,-0.00185698395526361,-0.05338700879184518,-0.05342174953145723,5.4893918510273165,2.718388675503096,0.278716078681597,-0.0005024990904757671,-0.009640571975790737,-0.12908590313236795
1750772876.9067683,-2.0878484912978195,-2.040735985646589,-0.6172440000000003,1.5820865846313248,-0.4656324896135269,-2.035449978873082,0.0016592910966892098,0.1550000914229992,-0.1570000000000001,-0.0018688876985665818,-0.05372923320717752,-0.053764196643838365,5.490315364014858,2.7194203911787618,0.27872107038775734,-0.0005037832903520543,-0.0096405719758708,-0.1291563300210202
1750772876.9087198,-2.087845162146893,-2.040424998202014,-0.617559,1.5820828349521843,-0.4657402903043568,-2.0355578497134825,0.0016698598297891411,0.15598735315180812,-0.1580000000000001,-0.0018807914418695537,-0.05407145762250986,-0.0541066437562195,5.491244623979551,2.7204584810994534,0.27872609038092727,-0.0005050753087221963,-0.009640571975951763,-0.12922721699436618
1750772876.9107404,-2.0878418118585014,-2.0401120362339817,-0.6178759999999999,1.5820790614655573,-0.4658487754440168,-2.035666405448107,0.0016804285628890722,0.15697461488061704,-0.1590000000000001,-0.0018926951851725255,-0.054413682037842206,-0.054449090868600634,5.492179627875481,2.7215029409967877,0.27873113859091714,-0.0005063751379048521,-0.009640571976033829,-0.12929856420884464
1750772876.9139931,-2.0878418118585014,-2.0401120362339817,-0.6178759999999999,1.5820790614655573,-0.4658487754440168,-2.035666405448107,0.0016804285628890722,0.15697461488061704,-0.1590000000000001,-0.0018926951851725255,-0.054413682037842206,-0.054449090868600634,5.492179627875481,2.7215029409967877,0.27873113859091714,-0.0005063751379048521,-0.009640571976033829,-0.12929856420884464
1750772876.9148839,-2.087838440432642,-2.0397970997424917,-0.618195,1.5820752641714435,-0.46595794503250776,-2.0357756460769565,0.0016909972959890036,0.15796187660942593,-0.16000000000000011,-0.0019045989284754974,-0.054755906453174547,-0.054791537980981776,5.493120372634158,2.722553766572152,0.27873621494705186,-0.0005076827701611234,-0.00964057197611642,-0.12937037182073644
1750772876.9167042,-2.0878350478693175,-2.039480188727544,-0.6185160000000005,1.5820714430698433,-0.46606779906982965,-2.0358855716000317,0.0017015660290889349,0.15894913833823485,-0.16100000000000012,-0.0019165026717784693,-0.05509813086850689,-0.05513398509336291,5.49406685516449,2.7236109534966553,0.2787413193781728,-0.0005089981976941462,-0.009640571976200128,-0.12944263998612995
1750772876.919035,-2.0878316341685252,-2.0391613031891387,-0.6188390000000004,1.5820675981607564,-0.4661783375559816,-2.03599618201733,0.0017121347621888662,0.15993640006704377,-0.16200000000000012,-0.0019284064150814411,-0.05544035528383923,-0.055476432205744046,5.495019072352678,2.72467449741105,0.278746451812635,-0.0005103214126492759,-0.009640571976284769,-0.12951536886092832
1750772876.9208422,-2.087828199330268,-2.0388404431272757,-0.6191640000000005,1.582063729444183,-0.4662895604909645,-2.036107477328854,0.0017227034952887975,0.16092366179585268,-0.16300000000000012,-0.001940310158384413,-0.05578257969917157,-0.05581887931812518,5.495977021062194,2.7257443939256882,0.2787516121783073,-0.0005116524071136074,-0.009640571976370346,-0.12958855860079616
1750772876.9226794,-2.0878247433545445,-2.038517608541955,-0.619491,1.5820598369201229,-0.4664014678747783,-2.036219457534603,0.0017332722283887286,0.16191092352466158,-0.16400000000000012,-0.0019522139016873849,-0.05612480411450391,-0.056161326430506316,5.496940698133696,2.726820638620457,0.2787568004025715,-0.0005129911731160115,-0.009640571976456873,-0.12966220936115205
1750772876.9248302,-2.0878212662413542,-2.038192799433177,-0.6198200000000007,1.5820559205885762,-0.4665140597074231,-2.036332122634576,0.00174384096148866,0.1628981852534705,-0.16500000000000012,-0.0019641176449903567,-0.05646702852983625,-0.05650377354288746,5.497910100384981,2.7279032270447567,0.2787620164123234,-0.0005143377026268289,-0.00964057197654435,-0.1297363212971436
1750772876.9268,-2.087817767990698,-2.037866015800941,-0.6201509999999999,1.582051980449543,-0.46662733598889794,-2.036445472628774,0.0017544096945885912,0.16388544698227941,-0.16600000000000012,-0.0019760213882933286,-0.056809252945168594,-0.05684622065526859,5.498885224610895,2.7289921547173557,0.2787672601339682,-0.0005156919875577337,-0.009640571976632985,-0.12981089456361644
1750772876.9287949,-2.0878142486025766,-2.0375372576452477,-0.6204840000000003,1.582048016503023,-0.4667412967192037,-2.0365595075171967,0.0017649784276885226,0.16487270871108833,-0.16700000000000012,-0.0019879251315963005,-0.057151477360500934,-0.05718866776764973,5.499866067583322,2.730087417126409,0.2787725314934232,-0.000517054019761693,-0.009640571976722198,-0.12988592931511297
1750772876.9307785,-2.0878107080769883,-2.0372065249660967,-0.620819,1.5820440287490165,-0.46685594189833957,-2.0366742272998444,0.0017755471607884539,0.16585997043989723,-0.16800000000000012,-0.0019998288748992723,-0.057493701775833274,-0.05753111488003086,5.500852626051051,2.731189009729366,0.27877783041611626,-0.0005184237910326055,-0.009640571976812585,-0.12996142570582178
1750772876.9328055,-2.087807146413933,-2.036873817763489,-0.621156,1.5820400171875235,-0.46697127152630724,-2.036789631976717,0.001786115893888385,0.16684723216870614,-0.16900000000000012,-0.002011732618202244,-0.057835926191165614,-0.057873561992412,5.501844896739775,2.7322969279529286,0.27878315682698446,-0.0005198012931052123,-0.009640571976903956,-0.1300373838895703
1750772876.9348228,-2.087803563613412,-2.0365391360374225,-0.6214950000000004,1.5820359818185439,-0.467087285603105,-2.0369057215478144,0.0017966846269883163,0.16783449389751506,-0.17000000000000012,-0.002023636361505216,-0.058178150606497954,-0.05821600910479314,5.502842876352004,2.733411167192945,0.27878851065047316,-0.0005211865176549849,-0.00964057197699632,-0.13011380401980208
1750772876.9367514,-2.0877999596754258,-2.0362024797878977,-0.621836,1.5820319226420774,-0.46720398412873276,-2.0370224960131367,0.0018072533600882476,0.16882175562632398,-0.17100000000000012,-0.002035540104808188,-0.058520375021830294,-0.05855845621717427,5.503846561566994,2.7345317228143955,0.2787938918105364,-0.0005225794562978051,-0.009640571977089684,-0.13019068624953622
1750772876.938772,-2.0877963345999717,-2.035863849014916,-0.622179,1.5820278396581247,-0.4673213671031915,-2.037139955372683,0.001817822093188179,0.16980901735513287,-0.17200000000000013,-0.0020474438481111598,-0.058862599437162634,-0.05890090332955541,5.504855949040674,2.735658590151308,0.2787993002306352,-0.0005239801005899224,-0.009640571977184058,-0.13026803073137266
1750772876.9460683,-2.0877963345999717,-2.035863849014916,-0.622179,1.5820278396581247,-0.4673213671031915,-2.037139955372683,0.001817822093188179,0.16980901735513287,-0.17200000000000013,-0.0020474438481111598,-0.058862599437162634,-0.05890090332955541,5.504855949040674,2.735658590151308,0.2787993002306352,-0.0005239801005899224,-0.009640571977184058,-0.13026803073137266
1750772876.9467273,-2.0877890210366665,-2.035180663898581,-0.622871,1.5820196022677588,-0.4675581863986018,-2.037376928774451,0.0018389595593880413,0.1717835408127507,-0.17400000000000013,-0.0020712513347171035,-0.05954704826782732,-0.05958579755431768,5.506891817270947,2.7379312411525456,0.2788101985423165,-0.0005268044720476458,-0.009640571977376063,-0.13042410705938326
1750772876.948802,-2.0877853325488154,-2.0348361095552265,-0.6232199999999999,1.5820154478613462,-0.4676776227195525,-2.0374964428166713,0.0018495282924879727,0.17277080254155963,-0.17500000000000013,-0.0020831550780200754,-0.05988927268315966,-0.05992824466669882,5.507918291222276,2.739077015329622,0.27881568827835085,-0.0005282281820257294,-0.009640571977473316,-0.13050283920834785
1750772876.9507062,-2.0877816229234973,-2.0344895806884153,-0.6235710000000001,1.5820112696474469,-0.4677977434893341,-2.037616641753118,0.001860097025587904,0.17375806427036852,-0.17600000000000013,-0.0020950588213230472,-0.060231497098492,-0.060270691779079955,5.508950453821633,2.740229082247554,0.2788212049633234,-0.0005296595632777091,-0.009640571977571807,-0.13058203421492925
1750772876.952751,-2.0877778921607124,-2.0341410772981448,-0.6239240000000006,1.582007067626061,-0.4679185487079467,-2.037737525583788,0.0018706657586878353,0.17474532599917744,-0.17700000000000013,-0.002106962564626019,-0.06057372151382434,-0.06061313889146109,5.509988301607433,2.7413874370847195,0.2788267485182217,-0.0005310986070588255,-0.00964057197767135,-0.1306616922291831
1750772876.9546707,-2.0877741402604624,-2.0337905993844174,-0.6242790000000005,1.5820028417971883,-0.4680400383753902,-2.0378590943086836,0.0018812344917877666,0.17573258772798636,-0.17800000000000013,-0.002118866307928991,-0.06091594592915668,-0.060955586003842224,5.511031831094357,2.742552074988111,0.27883231886353377,-0.0005325453045634811,-0.009640571977771949,-0.13074181340057386
1750772876.9566,-2.0877703672227454,-2.0334381469472333,-0.6246360000000006,1.581998592160829,-0.4681622124916638,-2.037981347927804,0.0018918032248876977,0.17671984945679528,-0.17900000000000013,-0.002130770051231963,-0.06125817034448902,-0.06129803311622336,5.512081038773316,2.743722991073381,0.2788379159192517,-0.0005339996469251632,-0.009640571977873616,-0.13082239787795713
1750772876.9586136,-2.0877665730475625,-2.0330837199865908,-0.6249950000000002,1.5819943187169834,-0.4682850710567674,-2.0381042864411487,0.001902371957987629,0.17770711118560417,-0.18000000000000013,-0.0021426737945349347,-0.06160039475982136,-0.061640480228604494,5.5131359211114015,2.7449001804247075,0.2788435396048679,-0.0005354616252162273,-0.009640571977976357,-0.13090344580956026
1750772876.9606194,-2.0877627577349127,-2.0327273185024914,-0.625356,1.581990021465651,-0.4684086140707029,-2.038227909848718,0.0019129406910875604,0.1786943729144131,-0.18100000000000013,-0.0021545775378379066,-0.0619426191751537,-0.061982927340985636,5.514196474551764,2.7460836380947677,0.2788491898393763,-0.0005369312304477816,-0.009640571978080183,-0.1309849573429505
1750772876.9626377,-2.0877589212847987,-2.0323689424949336,-0.6257190000000001,1.581985700406832,-0.4685328415334684,-2.0383522181505125,0.0019235094241874917,0.179681634643222,-0.18200000000000013,-0.0021664812811408784,-0.06228484359048605,-0.06232537445336677,5.515262695513611,2.7472733591046232,0.27885486654126923,-0.00053840845356935,-0.009640571978185295,-0.131066932625005
1750772876.9663455,-2.087755063697216,-2.032008591963918,-0.6260840000000005,1.5819813555405264,-0.4686577534450649,-2.0384772113465317,0.001934078157287423,0.18066889637203093,-0.18300000000000013,-0.0021783850244438503,-0.06262706800581838,-0.0626678215657479,5.516334580392073,2.7484693384437193,0.27886056962853917,-0.0005398932854689122,-0.009640571978290921,-0.1311493718019071
1750772876.9667993,-2.087751184972169,-2.031646266909445,-0.6264510000000003,1.5819769868667342,-0.4687833498054914,-2.038602889436776,0.001944646890387354,0.18165615810083982,-0.18400000000000014,-0.002190288767746822,-0.06296929242115072,-0.06301026867812905,5.517412125558183,2.7496715710697464,0.2788662990186759,-0.0005413857169725276,-0.009640571978398245,-0.13123227501909818
1750772876.9688208,-2.0877472851096552,-2.0312819673315143,-0.6268200000000004,1.5819725943854555,-0.4689096306147489,-2.038729252421244,0.0019552156234872854,0.18264341982964874,-0.18500000000000014,-0.002202192511049794,-0.06331151683648308,-0.06335271579051018,5.518495327358794,2.7508800519086667,0.27887205462866793,-0.0005428857388441047,-0.009640571978506882,-0.13131564242124275
1750772876.970753,-2.0877433641096754,-2.030915693230126,-0.6271909999999998,1.58196817809669,-0.4690365958728373,-2.038856300299937,0.0019657843565872167,0.18363068155845766,-0.18600000000000014,-0.002214096254352766,-0.06365374125181542,-0.06369516290289132,5.519584182116494,2.7520947758545433,0.27887783637499913,-0.0005443933417855962,-0.009640571978615863,-0.1313994741522577
1750772876.9727128,-2.0877394219722287,-2.030547444605281,-0.6275640000000005,1.581963738000438,-0.46916424557975667,-2.0389840330728557,0.001976353089687148,0.18461794328726658,-0.18700000000000014,-0.0022259999976557377,-0.06399596566714776,-0.06403761001527244,5.520678686129551,2.753315737769549,0.2788836441736496,-0.0005459085164361934,-0.00964057197872637,-0.13148377035519818
1750772876.9747396,-2.087735458697316,-2.0301772214569773,-0.6279390000000005,1.5819592740966995,-0.4692925797355061,-2.0391124507399985,0.0019869218227870794,0.18560520501607547,-0.18800000000000014,-0.0022379037409587096,-0.0643381900824801,-0.06438005712765359,5.521778835671855,2.754542932483872,0.27888947794009494,-0.0005474312533728193,-0.00964057197883802,-0.13156853117232908
1750772876.976831,-2.087731474284938,-2.029805023785217,-0.6283159999999999,1.5819547863854742,-0.46942159834008645,-2.039241553301366,0.0019974905558870107,0.1865924667448844,-0.18900000000000014,-0.0022498074842616815,-0.06468041449781244,-0.06472250424003473,5.522884626992825,2.7557763547956564,0.2788953375893052,-0.0005489615431092941,-0.009640571978950824,-0.1316537567450071
1750772876.9788325,-2.0877274687350926,-2.029430851589998,-0.6286950000000004,1.5819502748667624,-0.46955130139349777,-2.0393713407569587,0.002008059288986942,0.1875797284736933,-0.19000000000000014,-0.0022617112275646533,-0.06502263891314478,-0.06506495135241586,5.52399605631733,2.757015999470921,0.27890122303574305,-0.0005504993760965596,-0.00964057197906479,-0.13173944721371642
1750772876.9807422,-2.0877274687350926,-2.029430851589998,-0.6286950000000004,1.5819502748667624,-0.46955130139349777,-2.0393713407569587,0.002008059288986942,0.1875797284736933,-0.19000000000000014,-0.0022617112275646533,-0.06502263891314478,-0.06506495135241586,5.52399605631733,2.757015999470921,0.27890122303574305,-0.0005504993760965596,-0.00964057197906479,-0.13173944721371642
1750772876.982689,-2.087723442047782,-2.0290547048713217,-0.6290760000000004,1.581945739540564,-0.46968168889573914,-2.039501813106776,0.0020186280220868733,0.18856699020250223,-0.19100000000000014,-0.002273614970867625,-0.06536486332847712,-0.065407398464797,5.525113119845662,2.7582618612434966,0.2789071341933647,-0.0005520447427225334,-0.009640571979179929,-0.13182560271803784
1750772876.9847407,-2.0877193942230043,-2.0286765836291885,-0.6294590000000007,1.5819411804068788,-0.46981276084681145,-2.0396329703508176,0.002029196755186804,0.18955425193131112,-0.19200000000000014,-0.002285518714170597,-0.06570708774380946,-0.06574984557717813,5.526235813753409,2.759513934814963,0.27891307097561757,-0.0005535976333114572,-0.009640571979296245,-0.1319122233965668
1750772876.9867024,-2.0877153252607608,-2.028296487863596,-0.6298440000000003,1.5819365974657074,-0.4699445172467138,-2.039764812489084,0.0020397654882867355,0.19054151366012004,-0.19300000000000014,-0.002297422457473569,-0.0660493121591418,-0.06609229268955927,5.527364134191449,2.7607722148546063,0.2789190332954415,-0.0005551580381242672,-0.00964057197941375,-0.1319993093869697
1750772876.988639,-2.087711235161051,-2.0279144175745474,-0.6302310000000002,1.581931990717049,-0.470076958095448,-2.039897339521576,0.002050334221386667,0.19152877538892896,-0.19400000000000014,-0.002309326200776541,-0.06639153657447414,-0.06643473980194041,5.52849807728579,2.762036695999268,0.278925021065265,-0.0005567259473579446,-0.009640571979532454,-0.13208686082587315
1750772876.9906828,-2.0877071239238756,-2.0275303727620404,-0.6306200000000004,1.581927360160904,-0.4702100833930123,-2.040030551448292,0.002060902954486598,0.19251603711773788,-0.19500000000000015,-0.0023212299440795127,-0.06673376098980648,-0.06677718691432154,5.52963763913759,2.763307372853375,0.27893103419700727,-0.0005583013511455615,-0.009640571979652365,-0.13217487784889412
1750772876.9976692,-2.087702991549233,-2.0271443534260767,-0.631011,1.5819227057972727,-0.4703438931394075,-2.040164448269233,0.0020714716875865295,0.19350329884654677,-0.19600000000000015,-0.0023331336873824845,-0.06707598540513882,-0.06711963402670268,5.530782815823014,2.764584239988798,0.2789370726020755,-0.0005598842395561562,-0.009640571979773494,-0.13226336059061033
1750772876.9980223,-2.087702991549233,-2.0271443534260767,-0.631011,1.5819227057972727,-0.4703438931394075,-2.040164448269233,0.0020714716875865295,0.19350329884654677,-0.19600000000000015,-0.0023331336873824845,-0.06707598540513882,-0.06711963402670268,5.530782815823014,2.764584239988798,0.2789370726020755,-0.0005598842395561562,-0.009640571979773494,-0.13226336059061033
1750772876.9987502,-2.08769466338755,-2.0263663911837746,-0.631799,1.58191332564755,-0.470613565978689,-2.04043429659379,0.002092609153786392,0.1954778223041646,-0.19800000000000015,-0.0023569411739884282,-0.0677604342358035,-0.06780452825146495,5.533089997874194,2.7671565232280955,0.2789492248752598,-0.0005630724301997244,-0.009640571980019432,-0.13244172376287724
1750772877.00091,-2.0876904676005097,-2.025974448277438,-0.6321960000000004,1.5819085998614586,-0.47074942907157613,-2.0405702480974046,0.0021031778868863234,0.19646508403297352,-0.19900000000000015,-0.0023688449172914,-0.06810265865113584,-0.06814697536384609,5.534251995266804,2.7684519283124414,0.2789553385636266,-0.0005646777122480153,-0.009640571980144265,-0.13253160445702727
1750772877.0027635,-2.0876862506760023,-2.025580530847643,-0.6325950000000002,1.5819038502678808,-0.47088597661329334,-2.040706884495245,0.0021137466199862547,0.19745234576178242,-0.20000000000000015,-0.002380748660594372,-0.06844488306646818,-0.06848942247622722,5.53541959154662,2.769753501638941,0.27896147716582026,-0.0005662904385493084,-0.00964057198027035,-0.13262195139698482
1750772877.0047562,-2.08768201261403,-2.025184638894391,-0.6329960000000003,1.5818990768668164,-0.4710232086038415,-2.0408442057873097,0.002124315353086186,0.19843960749059134,-0.20100000000000015,-0.002392652403897344,-0.06878710748180053,-0.06883186958860836,5.536592782663886,2.7710612376157817,0.2789676405906802,-0.0005679105988488951,-0.00964057198039809,-0.13271276471162882
1750772877.0067441,-2.08768201261403,-2.025184638894391,-0.6329960000000003,1.5818990768668164,-0.4710232086038415,-2.0408442057873097,0.002124315353086186,0.19843960749059134,-0.20100000000000015,-0.002392652403897344,-0.06878710748180053,-0.06883186958860836,5.536592782663886,2.7710612376157817,0.2789676405906802,-0.0005679105988488951,-0.00964057198039809,-0.13271276471162882
1750772877.0087068,-2.0876777534145905,-2.0247867724176807,-0.6333990000000007,1.5818942796582651,-0.4711611250432206,-2.040982211973599,0.002134884086186117,0.19942686921940025,-0.20200000000000015,-0.0024045561472003157,-0.06912933189713287,-0.06917431670098949,5.537771564543431,2.7723751306181885,0.27897382874652843,-0.0005695381828264126,-0.009640571980526319,-0.1328040445285764
1750772877.0106912,-2.087673473077685,-2.0243869314175136,-0.6338040000000005,1.5818894586422274,-0.47129972593143066,-2.0411209030541144,0.0021454528192860482,0.20041413094820917,-0.20300000000000015,-0.0024164598905032876,-0.06947155631246521,-0.06951676381337063,5.5389559330846065,2.77369517498836,0.2789800415411707,-0.000571173180096222,-0.00964057198065622,-0.13289579097423757
1750772877.012679,-2.087669171603313,-2.023985115893888,-0.6342110000000005,1.5818846138187033,-0.47143901126847076,-2.0412602790288528,0.0021560215523859796,0.20140139267701807,-0.20400000000000015,-0.0024283636338062594,-0.06981378072779755,-0.06985921092575176,5.540145884161191,2.7750213650354065,0.27898627888189453,-0.0005728155802066151,-0.009640571980787414,-0.13298800417369294
1750772877.0154715,-2.0876648489914755,-2.0235813258468056,-0.63462,1.5818797451876923,-0.4715789810543418,-2.041400339897817,0.002166590285485911,0.20238865440582698,-0.20500000000000015,-0.0024402673771092313,-0.07015600514312989,-0.0702016580381329,5.541341413621345,2.7763536950352714,0.27899254067546964,-0.0005744653726402909,-0.009640571980919908,-0.13308068425075822
1750772877.0172002,-2.0876605052421713,-2.0231755612762647,-0.6350310000000006,1.5818748527491948,-0.4717196352890429,-2.041541085661006,0.002177159018585842,0.2033759161346359,-0.20600000000000016,-0.002452171120412203,-0.07049822955846223,-0.07054410515051404,5.542542517287501,2.777692159230646,0.27899882682814486,-0.0005761225468134049,-0.009640571981053715,-0.13317383132787067
1750772877.0189204,-2.087656140355401,-2.022767822182267,-0.6354440000000006,1.5818699365032107,-0.471860973972575,-2.041682516318419,0.0021877277516857735,0.20436317786344482,-0.20700000000000016,-0.002464074863715175,-0.07084045397379457,-0.07088655226289517,5.543749190956299,2.7790367518309087,0.27900513724564935,-0.0005777870920759121,-0.009640571981188839,-0.13326744552611483
1750772877.0209267,-2.087651754331165,-2.022358108564811,-0.635859,1.58186499644974,-0.472002997104938,-2.041824631870057,0.002198296484785705,0.20535043959225371,-0.20800000000000016,-0.002475978607018147,-0.07118267838912691,-0.07122899937527631,5.54496143039853,2.7803874670120576,0.2790114718331914,-0.0005794589977112946,-0.009640571981325294,-0.1333615269651934
1750772877.0228057,-2.0876473471694617,-2.021946420423898,-0.6362760000000005,1.5818600325887826,-0.47214570468613193,-2.0419674323159196,0.002208865217885636,0.20633770132106263,-0.20900000000000016,-0.0024878823503211188,-0.07152490280445925,-0.07157144648765744,5.546179231359022,2.7817442989166374,0.27901783049545675,-0.0005811382529359328,-0.00964057198146309,-0.1334560757633387
1750772877.024832,-2.0876429188702934,-2.021532757759527,-0.6366950000000005,1.5818550449203386,-0.47228909671615593,-2.0421109176560073,0.0022194339509855675,0.20732496304987155,-0.21000000000000016,-0.0024997860936240906,-0.07186712721979159,-0.07191389360003858,5.547402589556601,2.7831072416536333,0.27902421313660836,-0.0005828248468995542,-0.009640571981602236,-0.13355109203737525
1750772877.0268524,-2.0876384694336583,-2.0211171205716987,-0.6371160000000007,1.581850033444408,-0.4724331731950109,-2.04225508789032,0.0022300026840854988,0.20831222477868047,-0.21100000000000016,-0.0025116898369270625,-0.07220935163512393,-0.07225634071241972,5.5486315006839675,2.7844762892984374,0.27903061966028503,-0.0005845187686843489,-0.009640571981742741,-0.13364657590259582
1750772877.02882,-2.087633998859557,-2.020699508860412,-0.6375390000000003,1.581844998160991,-0.4725779341226968,-2.0423999430188573,0.0022405714171854297,0.20929948650748936,-0.21200000000000016,-0.0025235935802300343,-0.07255157605045627,-0.07259878782480085,5.54986596040767,2.785851435892757,0.279037049969602,-0.0005862200073052549,-0.009640571981884616,-0.13374252747279425
1750772877.0308423,-2.087629507147989,-2.0202799226256687,-0.6379640000000002,1.5818399390700872,-0.4727233794992127,-2.0425454830416196,0.002251140150285361,0.21028674823629828,-0.21300000000000016,-0.002535497323533006,-0.07289380046578861,-0.07294123493718199,5.551105964367993,2.7872326754445576,0.27904350396714844,-0.0005879285517096804,-0.00964057198202787,-0.13383894686023012
1750772877.0327709,-2.087624994298956,-2.019858361867467,-0.6383910000000004,1.5818348561716968,-0.4728695093245596,-2.042691707958606,0.0022617088833852923,0.2112740099651072,-0.21400000000000016,-0.002547401066835978,-0.07323602488112095,-0.07328368204956312,5.55235150817888,2.7886200019279372,0.27904998155498695,-0.0005896443907768945,-0.009640571982172512,-0.1339358341755485
1750772877.0349586,-2.087620460312456,-2.019434826585808,-0.6388199999999999,1.5818297494658198,-0.47301632359873746,-2.0428386177698172,0.0022722776164852236,0.21226127169391612,-0.21500000000000016,-0.00255930481013895,-0.07357824929645329,-0.07362612916194426,5.55360258742786,2.79001340928311,0.27905648263465327,-0.0005913675133184463,-0.009640571982318555,-0.13403318952782864
1750772877.036802,-2.08761590518849,-2.019009316780691,-0.6392509999999998,1.5818246189524563,-0.47316382232174536,-2.0429862124752542,0.002282846349585155,0.213248533422725,-0.21600000000000016,-0.002571208553441922,-0.07392047371178564,-0.0739685762743254,5.554859197675972,2.7914128914162992,0.2790630071071551,-0.0005930979080772978,-0.0096405719824664,-0.1341310130244703
1750772877.038901,-2.087611328927057,-2.018581832452117,-0.6396839999999999,1.581819464631606,-0.4733120054935842,-2.0431344920749144,0.0022934150826850862,0.21423579515153393,-0.21700000000000016,-0.0025831122967448937,-0.07426269812711798,-0.07431102338670653,5.556121334457683,2.7928184421996884,0.27906955487297175,-0.0005948355637281048,-0.00964057198261488,-0.13422930477121678
1750772877.0408413,-2.087606731528159,-2.018152373600085,-0.6401190000000003,1.5818142865032692,-0.473460873114254,-2.043283456568801,0.0023039838157850176,0.21522305688034285,-0.21800000000000017,-0.0025950160400478655,-0.07460492254245032,-0.07465347049908767,5.557388993280806,2.7942300554712878,0.2790761258320518,-0.0005965804688768858,-0.009640571982765184,-0.1343280648721326
1750772877.0451899,-2.087606731528159,-2.018152373600085,-0.6401190000000003,1.5818142865032692,-0.473460873114254,-2.043283456568801,0.0023039838157850176,0.21522305688034285,-0.21800000000000017,-0.0025950160400478655,-0.07460492254245032,-0.07465347049908767,5.557388993280806,2.7942300554712878,0.2790761258320518,-0.0005965804688768858,-0.009640571982765184,-0.1343280648721326
1750772877.0455697,-2.087602112991794,-2.0177209402245957,-0.6405560000000001,1.5818090845674457,-0.47361042518375385,-2.043433105956911,0.002314552548884949,0.21621031860915177,-0.21900000000000017,-0.0026069197833508374,-0.07494714695778266,-0.0749959176114688,5.558662169626406,2.7956477250349265,0.279082719883814,-0.0005983326120604885,-0.009640571982916929,-0.13442729342950352
1750772877.0488114,-2.087597473317963,-2.017287532325648,-0.6409950000000002,1.5818038588241359,-0.47376066170208553,-2.0435834402392468,0.00232512128198488,0.21719758033796066,-0.22000000000000017,-0.0026188235266538093,-0.075289371373115,-0.07533836472384994,5.559940858948748,2.797071444660128,0.27908933692714505,-0.0006000919817469423,-0.00964057198307012,-0.13452699054389974
1750772877.050775,-2.0875881305579034,-2.016414792957381,-0.6418790000000003,1.581793335915056,-0.47406318808523906,-2.043886163486592,0.0023462587481847424,0.2191721037955785,-0.22200000000000017,-0.002642631013259753,-0.07597382020377969,-0.07602325894861221,5.562514758206134,2.7999370090014772,0.27910263958140064,-0.0006036323541526033,-0.009640571983380903,-0.1347277908368869
1750772877.052649,-2.0875834274716736,-2.015975461488061,-0.6423240000000003,1.5817880387492862,-0.4742154779500618,-2.0440385524516014,0.0023568274812846737,0.22015936552438742,-0.22300000000000017,-0.002654534756562725,-0.07631604461911203,-0.07636570606099335,5.563809958914881,2.80137884108454,0.27910932498743346,-0.0006054133334600427,-0.009640571983538512,-0.13482889420748403
1750772877.0547247,-2.087578703247978,-2.015534155495283,-0.6427710000000006,1.5817827177760297,-0.4743684522637155,-2.0441916263108357,0.002367396214384605,0.2211466272531963,-0.22400000000000017,-0.0026664384998656967,-0.07665826903444437,-0.07670815317337448,5.565110654147615,2.8028266979628667,0.2791160329752513,-0.0006072014924459825,-0.009640571983697612,-0.13493046651899188
1750772877.0567417,-2.087578703247978,-2.015534155495283,-0.6427710000000006,1.5817827177760297,-0.4743684522637155,-2.0441916263108357,0.002367396214384605,0.2211466272531963,-0.22400000000000017,-0.0026664384998656967,-0.07665826903444437,-0.07670815317337448,5.565110654147615,2.8028266979628667,0.2791160329752513,-0.0006072014924459825,-0.009640571983697612,-0.13493046651899188
1750772877.0586722,-2.087573957886816,-2.015090874979048,-0.6432200000000003,1.5817773729952866,-0.47452211102619923,-2.044345385064295,0.0023779649474845363,0.22213388898200523,-0.22500000000000017,-0.0026783422431686686,-0.0770004934497767,-0.07705060028575562,5.5664168392233,2.804280573233398,0.27912276344107095,-0.0006089968192295242,-0.009640571983858216,-0.1350325078626827
1750772877.060625,-2.087569191388188,-2.0146456199393556,-0.6436710000000003,1.5817720044070571,-0.4746764542375148,-2.044499828711979,0.0023885336805844677,0.22312115071081415,-0.22600000000000017,-0.0026902459864716404,-0.07734271786510905,-0.07739304739813677,5.5677285094335724,2.8057404604582956,0.27912951628057187,-0.0006107993018590058,-0.009640571984020333,-0.1351350183278329
1750772877.0626137,-2.0875644037520935,-2.0141983903762046,-0.6441240000000006,1.581766612011341,-0.47483148189766045,-2.0446549572538872,0.002399102413684399,0.22410841243962307,-0.22700000000000017,-0.0027021497297746123,-0.07768494228044139,-0.0777354945105179,5.569045660042693,2.8072063531649127,0.27913629138889645,-0.0006126089283122606,-0.009640571984183974,-0.1352379980017466
1750772877.066191,-2.087559594978533,-2.0137491862895978,-0.6445790000000002,1.581761195808138,-0.47498719400663614,-2.0448107706900203,0.0024096711467843303,0.22509567416843196,-0.22800000000000017,-0.002714053473077584,-0.07802716669577373,-0.07807794162289904,5.570368286287437,2.808678244845659,0.2791430886606481,-0.0006144256864963559,-0.00964057198434915,-0.13534144696972733
1750772877.0667205,-2.087554765067507,-2.0132980076795315,-0.6450360000000002,1.5817557557974484,-0.4751435905644428,-2.044967269020379,0.0024202398798842616,0.22608293589724088,-0.22900000000000018,-0.0027259572163805556,-0.07836939111110607,-0.07842038873528016,5.57169638337704,2.8101561289580066,0.27914990798989187,-0.0006162495642468731,-0.009640571984515872,-0.13544536531497986
1750772877.0687392,-2.0875499140190144,-2.0128448545460085,-0.6454950000000004,1.5817502919792725,-0.47530067157108036,-2.045124452244962,0.002430808612984193,0.2270701976260498,-0.23000000000000018,-0.0027378609596835275,-0.0787116155264384,-0.0787628358476613,5.573029946493063,2.811639998924295,0.2791567492701513,-0.0006180805493284856,-0.00964057198468415,-0.1355497531186748
1750772877.0707316,-2.087545041833055,-2.012389726889028,-0.645956,1.5817448043536098,-0.4754584370265489,-2.0452823203637696,0.0024413773460841242,0.22805745935485872,-0.23100000000000018,-0.0027497647029864993,-0.07905383994177076,-0.07910528296004245,5.574368970789359,2.8131298481317586,0.2791636123944095,-0.0006199186294339603,-0.009640571984854386,-0.13565461045981744
1750772877.0728078,-2.08754014850963,-2.0119326247085887,-0.6464189999999999,1.5817392929204606,-0.47561688693084747,-2.0454408733768012,0.0024519460791840556,0.2290447210836676,-0.23200000000000018,-0.002761668446289471,-0.0793960643571031,-0.07944773007242358,5.575713451391977,2.814625669932371,0.27917049725510695,-0.0006217637921843775,-0.00964057198502542,-0.13575993741528167
1750772877.0747051,-2.0875352340487385,-2.011473548004693,-0.646884,1.5817337576798247,-0.475776021283977,-2.0456001112840596,0.0024625148122839864,0.23003198281247653,-0.23300000000000018,-0.002773572189592443,-0.07973828877243544,-0.07979017718480472,5.577063383399048,2.816127457642829,0.27917740374414235,-0.0006236160251289709,-0.00964057198519843,-0.13586573405976957
1750772877.0767562,-2.08753029845038,-2.0110124967773384,-0.6473510000000005,1.5817281986317022,-0.4759358400859375,-2.045760034085541,0.0024730835453839178,0.23101924454128545,-0.23400000000000018,-0.002785475932895415,-0.08008051318776778,-0.08013262429718584,5.5784187618807355,2.817635204544406,0.2791843317528694,-0.0006254753157444104,-0.009640571985373044,-0.13597200046572555
1750772877.078776,-2.0875253417145565,-2.0105494710265273,-0.6478200000000003,1.581722615776093,-0.476096343336728,-2.0459206417812474,0.002483652278483849,0.23200650627009436,-0.23500000000000018,-0.002797379676198387,-0.08042273760310012,-0.08047507140956699,5.579779581879127,2.8191489038829087,0.2791912811720971,-0.0006273416514352356,-0.009640571985549266,-0.13607873670338624
1750772877.0808504,-2.0875253417145565,-2.0105494710265273,-0.6478200000000003,1.581722615776093,-0.476096343336728,-2.0459206417812474,0.002483652278483849,0.23200650627009436,-0.23500000000000018,-0.002797379676198387,-0.08042273760310012,-0.08047507140956699,5.579779581879127,2.8191489038829087,0.2791912811720971,-0.0006273416514352356,-0.009640571985549266,-0.13607873670338624
1750772877.0827105,-2.087520363841266,-2.0100844707522585,-0.6482910000000004,1.5817170091129973,-0.4762575310363495,-2.0460819343711796,0.0024942210115837804,0.23299376799890326,-0.23600000000000018,-0.0028092834195013587,-0.08076496201843246,-0.08081751852194811,5.581145838408152,2.820668548868601,0.27919825189208936,-0.0006292150195329386,-0.009640571985727113,-0.1361859428406542
1750772877.0847147,-2.0875153648305105,-2.009617495954531,-0.6487639999999999,1.581711378642415,-0.4764194031848019,-2.0462439118553357,0.0025047897446837117,0.23398102972771218,-0.23700000000000018,-0.0028211871628043305,-0.0811071864337648,-0.08115996563432926,5.582517526453518,2.8221941326761226,0.2792052438025641,-0.0006310954072964077,-0.009640571985906591,-0.13629361894315736
1750772877.0867112,-2.087510344682288,-2.009148546633348,-0.6492390000000006,1.5817057243643462,-0.4765819597820853,-2.0464065742337167,0.002515358477783643,0.2349682914565211,-0.23800000000000018,-0.0028330909061073024,-0.08144941084909714,-0.0815024127467104,5.58389464097257,2.8237256484443614,0.27921225679269,-0.0006329828019111015,-0.009640571986087714,-0.13640176507412846
1750772877.0887716,-2.0875053033965987,-2.0086776227887055,-0.6497160000000006,1.5817000462787907,-0.4767452008281987,-2.0465699215063227,0.0025259272108835744,0.23595555318533,-0.23900000000000018,-0.0028449946494102742,-0.08179163526442948,-0.08184485985909153,5.585277176894271,2.8252630892764428,0.2792192907510889,-0.0006348771904892006,-0.009640571986270491,-0.1365103812944278
1750772877.0973434,-2.087500240973444,-2.0082047244206063,-0.6501950000000001,1.5816943443857485,-0.4769091263231431,-2.0467339536731526,0.0025364959439835057,0.2369428149141389,-0.24000000000000019,-0.002856898392713246,-0.08213385967976182,-0.08218730697147267,5.5866651291190665,2.8268064482395805,0.279226345565833,-0.0006367785600693893,-0.009640571986454936,-0.13661946766250874
1750772877.0987332,-2.087484926879182,-2.006774182175562,-0.6516440000000001,1.5816770958617026,-0.4774050095009592,-2.0472301595389935,0.002568202143283299,0.23990460010056566,-0.2430000000000002,-0.0028926096226221617,-0.08316053292575884,-0.08321464830861608,5.590861432187125,2.831471964047786,0.279247634020601,-0.0006425244240980783,-0.009640571987018386,-0.13694954820061694
