mathias31415/primitives_from_planned_trajectory_python/data/saved_trajectories/trajectory_20250624_102029_planned.csv
time_from_start,shoulder_pan_joint_pos,shoulder_lift_joint_pos,elbow_joint_pos,wrist_1_joint_pos,wrist_2_joint_pos,wrist_3_joint_pos,shoulder_pan_joint_vel,shoulder_lift_joint_vel,elbow_joint_vel,wrist_1_joint_vel,wrist_2_joint_vel,wrist_3_joint_vel,shoulder_pan_joint_acc,shoulder_lift_joint_acc,elbow_joint_acc,wrist_1_joint_acc,wrist_2_joint_acc,wrist_3_joint_acc,fk_x,fk_y,fk_z,fk_qx,fk_qy,fk_qz,fk_qw
0.0,-1.6006999999999998,-1.7271,-2.2029999999999994,-0.8079999999999998,1.5951,-0.030999999999999694,0.0,0.0,0.0,0.0,0.0,0.0,0.0,0.0,0.0,0.0,0.0,0.0,-0.18963153692348156,-0.6096838816511918,0.2609711486943511,-0.0003918678270918309,0.9998434779226772,0.01247829832752396,0.012536274005463676
0.1,-1.6024248006647723,-1.7270301036912967,-2.203110018226551,-0.8080017914721983,1.5950556585016626,-0.0327247399505407,-0.01724800664772541,0.0006989630870335439,-0.0011001822655165583,-1.791472198475752e-05,-0.0004434149833731915,-0.01724739950541003,-0.1724800664772541,0.006989630870335439,-0.011001822655165583,-0.0001791472198475752,-0.004434149833731915,-0.1724739950541003,-0.19068599066440517,-0.6092921828801465,0.2609566280040687,-0.0003918682914623344,0.9998434774570609,0.012478316866140399,0.01253629267376325
0.2,-1.6076032808439502,-1.726830632407718,-2.2034274568054113,-0.8080094336321135,1.594922312188105,-0.03790302668092278,-0.0517848017917788,0.0019947128357866717,-0.0031743857886024074,-7.642159915222102e-05,-0.0013334631355754745,-0.051782867303820854,-0.3453679514405339,0.012957497487531278,-0.02074203523085849,-0.000585068771674635,-0.00890048152202283,-0.34535467798410824,-0.19384739796387582,-0.6081125195580536,0.26091306242321904,-0.00039187247655213405,0.9998434732599019,0.012478483588348965,0.012536461337760652
0.30000000000000004,-1.6162692065358588,-1.7265892736030322,-2.2038442693632154,-0.8080416617320328,1.5946968159146886,-0.04656850711302001,-0.08665925691908605,0.002413588046858983,-0.0041681255780412485,-0.00032228099919318076,-0.0022549627341650336,-0.08665480432097229,-0.34874455127307247,0.004188752110723115,-0.009937397894388411,-0.0024585940004095974,-0.009214995985895591,-0.3487193701715144,-0.19912515342910544,-0.6061668088260144,0.26084047048396464,-0.0003918678266746873,0.9998434779226474,0.012478298337678325,0.012536273997759789
0.4,-1.628439166364004,-1.726355967213005,-2.2042990567436824,-0.8081090649358429,1.5943776223962423,-0.05873770971634053,-0.12169959828145283,0.002333063900270549,-0.004547873804670033,-0.0006740320381004583,-0.003191935184463368,-0.12169202603320516,-0.3504034136236678,-0.0008052414658843432,-0.003797482266287844,-0.0035175103890727755,-0.009369724502983345,-0.35037221712232863,-0.2065090780022747,-0.6034313074301042,0.2607388310658435,-0.0003918678262850622,0.9998434779225697,0.012478298355590672,0.012536273986134985
0.5,-1.6436176235342372,-1.7262662877386776,-2.2046177366351722,-0.8082348802866076,1.5939746357261986,-0.07391496436491983,-0.1517845717023314,0.0008967947432747536,-0.003186798914898148,-0.0012581535076472417,-0.004029866700436813,-0.15177254648579303,-0.3008497342087857,-0.014362691569957953,0.01361074889771885,-0.0058412146954678335,-0.008379315159734446,-0.30080520452587867,-0.2156771257907184,-0.6000348469177222,0.2606126325706192,-0.00039186782508303483,0.9998434779224553,0.012478298389079831,0.012536273961964904
0.6000000000000001,-1.659212138661965,-1.7264039313811586,-2.2046616800466303,-0.8084114166340052,1.5935550452690779,-0.08950794673647482,-0.15594515127727693,-0.0013764364248092242,-0.0004394341145808056,-0.0017653634739756008,-0.004195904571206999,-0.15592982371554986,-0.04160579574945533,-0.02273231168083978,0.027473648003173423,-0.005072099663283591,-0.0016603787077018595,-0.041572772297568394,-0.22505353678980672,-0.5965611948325087,0.2604835677146135,-0.00039186782479461087,0.9998434779224775,0.01247829838811183,0.012536273961167878
0.7000000000000001,-1.6748710176777866,-1.7267734578243377,-2.2044204774213503,-0.8086360623448785,1.5931281574283935,-0.10516498500893104,-0.15658879015821636,-0.0036952644317911343,0.002412026252800459,-0.0022464571087332796,-0.004268878406843424,-0.15657038272456222,-0.0064363888093943444,-0.0231882800698191,0.028514603673812644,-0.0048109363475767886,-0.0007297383563642512,-0.006405590090123592,-0.2344299475274817,-0.5930875428770833,0.26035450320694564,-0.0003918678247130989,0.999843477922518,0.012478298381114356,0.012536273964905188
0.7999999990000001,-1.6905865341444257,-1.7273745195757817,-2.2038942528433143,-0.8089087029598664,1.5926942235048804,-0.12087835197349601,-0.15715516466639157,-0.0060106175144403196,0.00526224578035972,-0.002726406149878846,-0.004339339235130968,-0.15713366964564976,-0.005663745081752047,-0.023153530826491853,0.028502195275592612,-0.004799490411455665,-0.0007046082828754408,-0.0056328692108753575,-0.24380635825782293,-0.5896138909236194,0.2602254387105328,-0.00039186782465217934,0.9998434779225545,0.012478298374029483,0.01253627396904226
0.8999999980000001,-1.706350842666388,-1.728206478841244,-2.2030832538435368,-0.809229401164916,1.5922535123960324,-0.13664020240440272,-0.1576430852196231,-0.00831959265462201,0.008109989997775457,-0.0032069820504965207,-0.004407111088480242,-0.15761850430906707,-0.004879205532315467,-0.023089751401816905,0.028477442174157375,-0.004805759006176746,-0.0006777185334927438,-0.004848346634173106,-0.2531827689820963,-0.5861402389717785,0.26009637422523435,-0.000391867824613046,0.9998434779225868,0.012478298366902084,0.01253627397356112
0.9999999980000001,-1.7221560030040113,-1.7292684115589523,-2.201987850618519,-0.8095983949177359,1.591806309699878,-0.1524425971821491,-0.15805160337623247,-0.010619327177083804,0.01095403225017666,-0.0036899375281984614,-0.004472026961543918,-0.15802394777746365,-0.00408518156609361,-0.022997345224617938,0.02844042252401202,-0.004829554777019407,-0.0006491587306367563,-0.0040544346839657686,-0.26255917970160964,-0.5826665870212078,0.2599673097508085,-0.0003918678245961987,0.9998434779226146,0.012478298359778017,0.012536273978439436
1.099999999,-1.7379940042822268,-1.730559112744548,-2.2006085344419017,-0.8100160949821892,1.59135291672902,-0.16827752750468064,-0.15838001278215552,-0.012907011855958217,0.013793161766173512,-0.004177000644532969,-0.00453392970858113,-0.15834930322531554,-0.003284094059230469,-0.022876846788744132,0.02839129515996852,-0.004870631163345074,-0.0006190274703721244,-0.0032535544785189385,-0.2719355904176989,-0.5791929350715467,0.25983824528691835,-0.00039186782460215116,0.9998434779226376,0.012478298352701882,0.012536273983650939
1.2,-1.7538567895307078,-1.7320771035178097,-2.1989459155758357,-0.8104830812020648,1.5908936494228063,-0.18413693942270057,-0.15862785248480948,-0.01517990773261646,0.016626188660660013,-0.004669862198756203,-0.004592673062135955,-0.15859411918019928,-0.002478397026539625,-0.02272895876658243,0.02833026894486501,-0.00492861554223234,-0.000587433535548243,-0.0024481595488373697,-0.2813120011317133,-0.5757192831224325,0.2597091808331372,-0.00039186782463092415,0.9998434779226556,0.012478298345717651,0.012536273989165203
1.3,-1.7697362803673218,-1.7338206397306237,-2.1970007206949536,-0.8110000975710058,1.5904288371671353,-0.20001275851104722,-0.15879490836613996,-0.017435362128139786,0.01945194880882184,-0.005170163689409701,-0.004648122556709655,-0.1587581908834665,-0.001670558813304801,-0.022554543955233264,0.028257601481618266,-0.005003014906534986,-0.0005544949457370052,-0.001640717032672101,-0.2906884118450012,-0.5722456311735031,0.259580116388955,-0.00039186782468211525,0.9998434779226686,0.01247829833886789,0.012536273994948858
1.4,-1.785624401636635,-1.7357877220982094,-2.1947737898385036,-0.8115680461712915,1.5899588215325,-0.21589691448800713,-0.1588812126931316,-0.01967082367585693,0.022269308564499823,-0.005679486002857503,-0.004700156346353346,-0.15884155976959913,-0.0008630432699163748,-0.022354615477171436,0.02817359755677984,-0.00509322313447802,-0.0005203378964369065,-0.0008336888613263982,-0.30006482255889644,-0.5687719792244027,0.2594510519537866,-0.0003918678247551695,0.9998434779226764,0.012478298332193244,0.012536274000965238
1.5,-1.8015131058176999,-1.73797610772003,-2.19226607290872,-0.8121879800685318,1.5894839549418354,-0.2317813655970167,-0.15888704181064917,-0.021883856218205544,0.025077169297835766,-0.006199338972402435,-0.004748665906646465,-0.15884451109009573,-5.8291175175639864e-05,-0.02213032542348614,0.02807860733335943,-0.0051985296954493165,-0.0004850956029311959,-2.9513204966025164e-05,-0.3094412332747044,-0.5652983272747886,0.25932198752698116,-0.0003918678248491912,0.9998434779226791,0.012478298325731685,0.012536274007175278
1.6,-1.8173943970204174,-1.7403833228633927,-2.1894786257358194,-0.8128610952618471,1.5890045992804718,-0.24765812257036268,-0.1588129120271753,-0.024072151433627287,0.027874471729005812,-0.006731151933153656,-0.0047935566136358965,-0.1587675697334598,0.0007412978347387522,-0.021882952154217428,0.027973024311700456,-0.005318129607512212,-0.00044890706989431095,0.0007694135663594004,-0.31881764399368984,-0.5618246753243327,0.259192923107833,-0.0003918678249631396,0.9998434779226769,0.012478298319518593,0.012536274013537997
1.7000000000000002,-1.8332603543972452,-1.743006676871675,-2.186412605732109,-0.8135887217995834,1.5885211244610502,-0.263519272002057,-0.15865957376827833,-0.02623354008282286,0.03066020003710257,-0.007276265377362812,-0.004834748194215699,-0.1586114943169431,0.0015333825889696229,-0.021613886491955725,0.027857283080967576,-0.005451134442091554,-0.00041191580579802434,0.0015607541651668777,-0.3281940547170657,-0.558351023372729,0.259063858695591,-0.0003918678250953004,0.9998434779226697,0.012478298313585602,0.012536274020011097
1.8,-1.8491031548067531,-1.7458432770505266,-2.1830692671595666,-0.8143723141788827,1.5880339069565879,-0.27935699896687655,-0.15842800409507918,-0.02836600178851567,0.033433385725425424,-0.007835923792992583,-0.00487217504462345,-0.15837726964819554,0.002315696731991501,-0.02132461705692812,0.027731856883228545,-0.0055965841562977126,-0.0003742685040775129,0.0023422466874756243,-0.3375704654459826,-0.5548773714196952,0.25893479428946986,-0.0003918678252441677,0.9998434779226577,0.01247829830796145,0.012536274026551391
1.9,-1.8649150945772468,-1.74889004437938,-2.179449956036847,-0.8152134411534265,1.5875433283150089,-0.29516360873434067,-0.15811939770493666,-0.030467673288534503,0.03619311122719626,-0.008411269745438599,-0.004905786415789759,-0.1580660976746412,0.0030860639014251845,-0.021016715000188313,0.027597255017708378,-0.005753459524460158,-0.00033611371166308857,0.0031117197355434723,-0.3469468761815197,-0.5514037194649776,0.25880572988866285,-0.00039186782540786045,0.9998434779226415,0.012478298302670143,0.012536274033115436
2.0,-1.88068861023214,-1.7521437298921652,-2.175556104713043,-0.8161137750773325,1.5870497736683622,-0.31093154743992407,-0.15773515654893266,-0.03253685512785154,0.03893851323804043,-0.009003339239059827,-0.004935546466466878,-0.15767938705583406,0.003842411560039949,-0.020691818393170358,0.027454020108441668,-0.0059206949362122785,-0.00029760050677118954,0.00386710618807129,-0.3563232869246772,-0.5479300675083519,0.2586766654923498,-0.00039186782558431056,0.999843477922621,0.012478298297732266,0.012536274039660143
2.1,-1.896416298053633,-1.7556009315701773,-2.171389226136569,-0.8170750809146001,1.5865536302496661,-0.32665342159072036,-0.1572768782149292,-0.03457201678012112,0.04166878576473909,-0.00961305837267612,-0.0049614341869608225,-0.1572187415079629,0.004582783340034702,-0.020351616522695792,0.027302725266986627,-0.006097191336162933,-0.000258877204939445,0.004606455478711746,-0.36569969767637034,-0.5444564155496265,0.25854760109970965,-0.0003918678257713804,0.9998434779225965,0.012478298293164476,0.012536274046143653
2.2,-1.9120909323772548,-1.7592581115915522,-2.166950907848342,-0.8180992050426882,1.5860552859298362,-0.34232201629880965,-0.15674634323621817,-0.036571800213749395,0.04438318288226828,-0.010241241280880553,-0.004983443198298687,-0.1566859470808929,0.005305349787110281,-0.01999783433628277,0.02714397117529188,-0.006281829082044332,-0.00022009011337864592,0.005327944270699936,-0.3750761084374247,-0.5409827635886436,0.2584185367099303,-0.0003918678259667656,0.9998434779225688,0.012478298288978848,0.01253627405252517
2.3,-1.9277054825266065,-1.7631116137855227,-2.162242805728924,-0.8191880639759711,1.5855551277865105,-0.357930312152376,-0.15614550149351647,-0.03853502193970515,0.04708102119418189,-0.010888589332829213,-0.0050015814332571296,-0.15608295853566323,0.0060084174270169655,-0.01963221725955755,0.02697838311913614,-0.006473480519486596,-0.00018138234958442467,0.006029885452296657,-0.38445251920857304,-0.5375091116252795,0.25828947232221694,-0.0003918678261682732,0.9998434779225378,0.01247829828518388,0.012536274058765808
2.4,-1.943253128314884,-1.767157681145426,-2.157266637529484,-0.8203436331300965,1.585053540715783,-0.3734715006518765,-0.15547645788277498,-0.04046067359903205,0.04976168199439801,-0.01155569154125402,-0.005015870707274495,-0.15541188499500536,0.006690436107414932,-0.01925651659326899,0.02680660800216117,-0.006671022084248079,-0.00014289274017365017,0.006710735406578738,-0.3938289299904532,-0.534035459659444,0.2581604079358007,-0.0003918678263737098,0.999843477922504,0.012478298281784156,0.01253627406482939
2.5,-1.9587272740571449,-1.7713924732620285,-2.1520241762163788,-0.8215679357418708,1.5845509060969252,-0.38893899815593524,-0.15474145742260914,-0.04234792116602604,0.05242461313105462,-0.012243026117743083,-0.005026346188579112,-0.15467497504058736,0.007350004601658355,-0.01887247566993988,0.0266293113665661,-0.006873345764890626,-0.00010475481304617063,0.007369099544179969,-0.4032053407836074,-0.5305618076910817,0.2580313435499473,-0.0003918678265809377,0.9998434779224682,0.012478298278779523,0.012536274070681816
2.6,-1.9741215610545093,-1.7758120835478999,-2.1465172431587582,-0.8228630320515149,1.5840476005191466,-0.40432645829885094,-0.15394286997364448,-0.04419610285871345,0.05506933057620511,-0.012950963096440837,-0.005033055777785567,-0.153874601429157,0.007985874489646605,-0.018481816926874117,0.026447174451504907,-0.007079369786977541,-6.709589206455036e-05,0.008003736114303717,-0.41258175158848415,-0.5270881557201674,0.2579022791639617,-0.00039186782678763906,0.9998434779224303,0.012478298276167395,0.012536274076292327
2.7,-1.9894298785282665,-1.7804125561340116,-2.140747701187986,-0.8242310088451348,1.5835439945783323,-0.41962778285835595,-0.1530831747375716,-0.04600472586111737,0.05769541970772174,-0.01367976793619885,-0.005036059408143334,-0.15301324559505003,0.008596952360728771,-0.018086230024039196,0.02626089131516629,-0.007288048397580127,-3.003630357767406e-05,0.008613558341069583,-0.42195816240543765,-0.5236145037467064,0.25777321477719384,-0.00039186782699182865,0.9998434779223911,0.012478298273941694,0.012536274081633554
2.8,-2.0046463729979793,-1.785189902331181,-2.1347174475567487,-0.8256739694453955,1.5830404517505199,-0.4348371310683476,-0.1521649446971285,-0.047773461971694076,0.060302536312373256,-0.014429606002607231,-0.005035428278123977,-0.15209348209991647,0.009182300404431132,-0.017687361105767074,0.02607116604651516,-0.007498380664083815,6.311300193573288e-06,0.009197634951335631,-0.43133457323473284,-0.5201408517707325,0.2576441503890432,-0.0003918678271917576,0.9998434779223507,0.012478298272092982,0.0125362740866814
2.9,-2.0197654561128644,-1.7901401165611475,-2.128428406824601,-0.8271940242278608,1.5825373273476935,-0.4499489273864507,-0.1511908311488508,-0.04950214229966443,0.06289040732147644,-0.015200547824653077,-0.005031244028264048,-0.1511179631810311,0.009741135482776997,-0.017286803279703555,0.02587871009103182,-0.007709418220458453,4.1842498599287126e-05,0.009755189188853652,-0.44071098407654774,-0.5166671997923034,0.25751508599896306,-0.00039186782738548224,0.9998434779223099,0.012478298270608704,0.012536274091414999
3.0,-2.034781810959838,-1.7952591916747085,-2.1218825236952985,-0.8287932817295562,1.5820349675602619,-0.4649578677403371,-0.15016354846973723,-0.051190751135610224,0.06545883129302599,-0.01599257501695428,-0.005023597874316277,-0.1500894035388639,0.010272826791135614,-0.01688608835945793,0.025684239715495494,-0.007920271923012034,7.646153947771239e-05,0.010285596421671928,-0.4500873949309773,-0.5131935478114997,0.25738602160645874,-0.0003918678275716565,0.9998434779222687,0.012478298269475219,0.012536274095817548
3.1,-2.0496903968845164,-1.800543133587124,-2.1150817558297015,-0.830473840405282,1.581533708589406,-0.4798589242895554,-0.14908585924678253,-0.05283941912415546,0.06800767865597024,-0.016805586757258073,-0.005012589708559556,-0.14901056549218306,0.01077689222954703,-0.016486679885452382,0.02548847362944251,-0.008130117403037929,0.000110081657567207,0.010788380466808523,-0.4594638057980394,-0.5097198958284208,0.2572569572110932,-0.00039186782774876694,0.9998434779222277,0.012478298268675744,0.012536274099875419
3.2,-2.0644864528729703,-1.8059879751738124,-2.1080280666562623,-0.8322377810762263,1.5810338758713285,-0.49464734875109245,-0.14796055988453904,-0.054448415866883426,0.07053689173439182,-0.017639406709442085,-0.004998327180774087,-0.14788424461537053,0.011252993622434815,-0.01608996742727964,0.02529213078421577,-0.008338199521840117,0.00014262527785469103,0.011263208768125255,-0.46884021667767783,-0.5062462438431806,0.2571278928124842,-0.00039186782791598073,0.9998434779221872,0.012478298268192245,0.012536274103578889
3.3,-2.0791654995521855,-1.8115897893818702,-2.1007234181991508,-0.8340871601047554,1.5805357833943423,-0.509318674346953,-0.14679046679215269,-0.056018142080578315,0.0730464845711154,-0.01849379028529108,-0.004980924769861783,-0.1467132559586054,0.011700930923863595,-0.015697262136948886,0.025095928367235842,-0.008543835758489937,0.00017402410912303878,0.011709886567651262,-0.4782166275697714,-0.5027725918559072,0.2569988284103052,-0.0003918678280718406,0.9998434779221476,0.01247829826800527,0.012536274106921173
3.4,-2.093723339875816,-1.8173447015250301,-2.093169763942028,-0.8360240033190262,1.580039733108709,-0.5238687164406445,-0.1455784032363061,-0.05754912143159929,0.07553654257122844,-0.019368432142707892,-0.004960502856332649,-0.14550042093691484,0.012120635558465764,-0.01530979351020978,0.02490058000113038,-0.008746418574168136,0.00020421913529133917,0.012128350216905615,-0.487593038474136,-0.49929893986673685,0.25686976400428196,-0.0003918678282156937,0.9998434779221091,0.012478298268094675,0.012536274109899326
3.5,-2.1081560585690475,-1.8232489007411854,-2.085369041743236,-0.8380503007014521,1.5795460144281834,-0.5382935719365911,-0.14432718693231372,-0.05904199216155259,0.0780072219879191,-0.0202629738242599,-0.004937186805256122,-0.1442485549594663,0.012512163039923863,-0.014928707299532995,0.024706794166906576,-0.00894541681552008,0.00023316051076527344,0.012518659774485297,-0.4969694493905316,-0.4958252878758125,0.2567406995941937,-0.0003918678283475261,0.999843477922072,0.012478298268439056,0.01253627411251295
3.6,-2.1224600204121282,-1.8292986506023865,-2.077323166815905,-0.8401680018461376,1.5790549038213668,-0.5525896175221999,-0.14303961843080693,-0.060497498612011036,0.08045874927331109,-0.021177011446854577,-0.004911106068166138,-0.1429604558560882,0.012875685015067972,-0.014555064504584436,0.024515272853919967,-0.009140376225946767,0.0002608073708998404,0.012880991033781264,-0.5063458603186697,-0.4923516358832807,0.2566116351798679,-0.0003918678284660888,0.9998434779220364,0.012478298269016702,0.01253627411476475
3.7,-2.136631867446489,-1.835490298877168,-2.0690340247840933,-0.8423790121823207,1.5785666644902017,-0.5667535068366053,-0.14171847034360585,-0.061916482747814694,0.08289142031811636,-0.022110103361830946,-0.004882393311651523,-0.14163889314405376,0.013211480872010739,-0.014189841358036581,0.02432671044805268,-0.009330919149763695,0.00028712756514615023,0.013215627120344298,-0.5157222712582158,-0.48887798388928816,0.2564825707611782,-0.0003918678285718672,0.9998434779220029,0.012478298269806253,0.01253627411666004
3.8,-2.1506685151904112,-1.841820286454168,-2.0605034648236313,-0.8446851899536479,1.5780815461322786,-0.5807821666530858,-0.14036647743922437,-0.06329987576999985,0.08530559960461925,-0.023061777713272447,-0.004851183579230867,-0.14028659816480493,0.013519929043814827,-0.013833930221851531,0.024141792865028933,-0.009516743514415005,0.00031209732420656167,0.013522949792488248,-0.5250986822087983,-0.48540433189397997,0.2563535063380408,-0.0003918678286643619,0.9998434779219713,0.012478298270786135,0.01253627411820649
3.9,-2.164567147952963,-1.848285155444129,-2.051733292893902,-0.8470883439368128,1.5775997847830585,-0.5946727921638773,-0.13898632762551877,-0.06464868989961126,0.08770171929729287,-0.024031539831648185,-0.0048176134922006675,-0.13890625510791454,0.013801498137056,-0.013488141296114087,0.02396119692673615,-0.009697621183757388,0.00033570087030199147,0.013803430568903874,-0.5344750931700117,-0.4819306798974988,0.25622444191041244,-0.00039186782874389177,0.9998434779219416,0.01247829827193488,0.012536274119414019
4.0,-2.1783252133355706,-1.854881556484599,-2.042725265064282,-0.8495902318777255,1.5771216027336459,-0.6084228414566951,-0.13758065382607487,-0.0659640104046999,0.09008027829620069,-0.025018879409127726,-0.004781820494126343,-0.13750049292817867,0.014056737994438961,-0.013153205050886463,0.023785589989078204,-0.009873395774795402,0.00035792998074324345,0.0140576217973587,-0.5438515041414214,-0.47845702789998057,0.2560953774782845,-0.0003918678288108733,0.9998434779219144,0.012478298273231972,0.012536274120294002
4.1,-2.1919404160101705,-1.8616062552779087,-2.033481080936464,-0.8521925596189661,1.5766472085193863,-0.6220300292718142,-0.13615202674599924,-0.06724698793309614,0.09244184127818134,-0.026023277412405843,-0.0047439421425954365,-0.13607187815119048,0.014286270800756284,-0.012829775283962341,0.023615629819806472,-0.010043980032781175,0.00037878351530906684,0.014286147769881907,-0.5532279151225712,-0.4749833759015544,0.2559663130416807,-0.0003918678288650148,0.9998434779218895,0.012478298274657339,0.012536274120859819
4.2,-2.20541071086153,-1.8684561383983251,-2.0240023771614295,-0.8548969808887414,1.576176796974276,-0.6354923201271754,-0.13470294851359643,-0.06849883120416456,0.09478703775034347,-0.027044212697753256,-0.004704115451104052,-0.13462290855361214,0.014490782324028118,-0.012518432710684202,0.023451964721621366,-0.01020935285347413,0.00039826691491384736,0.014489695975783423,-0.562604326112984,-0.4715097239023406,0.2558372486006535,-0.000391867828907427,0.999843477921867,0.012478298276191914,0.012536274121126128
4.3,-2.2187342955791793,-1.87542821840877,-2.014290721047318,-0.8577050977189364,1.5757105493459884,-0.6488079208967895,-0.13323584717649162,-0.06972080010444914,0.09711656114111289,-0.028081168301949955,-0.004662476282875083,-0.13315600769614133,0.014671013371048147,-0.012219689002845868,0.02329523390769417,-0.010369556041966987,0.00041639168228968515,0.014669008574708098,-0.5719807371121692,-0.4680360719024516,0.25570818415527974,-0.0003918678289384148,0.999843477921847,0.012478298277817348,0.01253627412110824
4.4,-2.2319096027815237,-1.882519638331075,-2.0043476042520187,-0.8606184614580384,1.5752486334662166,-0.6619752729248382,-0.13175307202344388,-0.07091419922304887,0.09943116795299467,-0.02913363739102004,-0.004619158797718459,-0.1316735202804864,0.014827751530477329,-0.01193399118599725,0.02314606811881781,-0.01052469089070085,0.0004331748515662426,0.014824874156549317,-0.5813571481196257,-0.4645624199019893,0.2555791197056573,-0.00039186782895863097,0.9998434779218294,0.012478298279516402,0.012536274120822805
4.5,-2.244935291751266,-1.8897276755166195,-1.994174436551856,-0.8636385743436698,1.574791203970983,-0.6749930437543833,-0.13025688969742433,-0.07208037185544525,0.10173167700162855,-0.030201128856313098,-0.0045742949523353005,-0.1301777082954514,0.014961823260195573,-0.011661726323963784,0.02300509048633881,-0.010674914652930578,0.0004486384538315846,0.014958119850350116,-0.590733559134843,-0.46108876790104414,0.2554500552519025,-0.00039186782896840846,0.999843477921814,0.012478298281273234,0.012536274120286833
4.6,-2.257810239857343,-1.897049744966323,-1.9837725396753272,-0.8667668915991592,1.5743384025656182,-0.6878601185456825,-0.1287494810607681,-0.07322069449703594,0.10401896876528705,-0.031283172554894545,-0.004528014053648555,-0.12867074791299227,0.015074086366562156,-0.011403226415906964,0.022872917636584944,-0.010820436985814474,0.00046280898686745786,0.015069603824591216,-0.6001099701573078,-0.4576151158996976,0.2553209907941455,-0.0003918678289692602,0.9998434779218013,0.012478298283072791,0.012536274119517592
4.699999998,-2.2705335337343002,-1.9044834021504617,-1.9731431411884623,-0.8700048240189089,1.5738903583291803,-0.7005755912547903,-0.12723293876957253,-0.07433657184138687,0.10629398486864838,-0.032379324197496784,-0.004480442364378501,-0.12715472709107778,0.015165422911955773,-0.01115877344350924,0.02275016103361338,-0.010961516426022389,0.0004757168927005395,0.015160208219144877,-0.6094863811865044,-0.45414146389801946,0.2551919263325287,-0.00039186782896117223,0.9998434779217908,0.012478298284901082,0.012536274118532703
4.7999999980000005,-2.2831044602854482,-1.9120263453797395,-1.9622873684159752,-0.8733537410082262,1.5734471880532388,-0.7131387556385674,-0.12570926551147998,-0.07542943229277732,0.10855772772487171,-0.03348916989317274,-0.004431702759415401,-0.12563164383777137,0.015236732580925505,-0.010928604513904538,0.022637428562233275,-0.011098456956759595,0.0004873960496309948,0.01523083253306412,-0.618862792221918,-0.45066781189606864,0.2550628618672034,-0.00039186782894510245,0.9998434779217826,0.012478298286745595,0.012536274117349859
4.899999998,-2.295522497571419,-1.9196764177795116,-1.9512062423799788,-0.876814974044747,1.5730089966101202,-0.7255490961474623,-0.12418037285970573,-0.07650072399772112,0.11081126035996425,-0.034612330365207944,-0.004381914431186296,-0.1241034050889489,0.015288926517742496,-0.010712917049437998,0.022535326350925367,-0.011231604720352006,0.0004978832822910562,0.015282387488224636,-0.6282392032630367,-0.4471941598938945,0.25493379739832706,-0.0003918678289219252,0.9998434779217767,0.012478298288594866,0.012536274115986243
4.999999998,-2.307787305640873,-1.9274316089191097,-1.9399006717356506,-0.8803898205304707,1.5725758773459344,-0.7378062787625849,-0.1226480806945407,-0.07755191139598105,0.11305570644328133,-0.03574846485723704,-0.004331192641857662,-0.12257182615122542,0.01532292165165039,-0.01051187398259934,0.022444460833170865,-0.01136134492029095,0.000507217893286338,0.015315789377234879,-0.6376156143093524,-0.4437205078915352,0.2548047329260608,-0.0003918678288922375,0.9998434779217729,0.012478298290438616,0.012536274114459404
5.099999998,-2.319898717355232,-1.9352900561479853,-1.9283714466807562,-0.8840795480057365,1.5721479124939366,-0.7499101418287089,-0.12111411714359033,-0.07858447228875631,0.11529225054894399,-0.03689727475265858,-0.004279648519978085,-0.12103863066123988,0.01533963550950368,-0.010325608927752583,0.022365441056626523,-0.011488098954215431,0.0005154412187957647,0.015331954899855393,-0.6469920253603627,-0.44024685588902046,0.25467566845056877,-0.00039186782885705255,0.999843477921771,0.01247829829226749,0.012536274112785593
5.199999998,-2.3318567292544743,-1.9432500456898738,-1.916619232813462,-0.8878853986991303,1.5717251736040527,-0.7618606869300083,-0.11958011899242393,-0.07959989541888479,0.11752213867294303,-0.03805850693393786,-0.004227388898838669,-0.11950545101299448,0.015339981511663936,-0.010154231301284788,0.022298881239990465,-0.011612321812792814,0.0005225962113941662,0.015331796482453974,-0.6563684364155733,-0.43677320388636925,0.2545466039720144,-0.0003918678288167729,0.9998434779217711,0.012478298294073377,0.012536274110981538
5.299999998,-2.3436614925062393,-1.951310013545493,-1.9046445649102741,-0.8918085943902626,1.571307721984665,-0.7736580698505566,-0.11804763251765049,-0.08059967855619243,0.11974667903187797,-0.039231956911323085,-0.004174516193877764,-0.11797382920548327,0.015324864747734424,-0.009997831373076416,0.022245403589349344,-0.011734499773852214,0.0005287270496090457,0.015316218075112076,-0.6657448474744955,-0.4332995518835924,0.2544175394905602,-0.00039186782877217584,0.999843477921773,0.012478298295849339,0.012536274109062637
5.399999998,-2.3553133039758913,-1.959468546253525,-1.8924478405932312,-0.8958503415655947,1.5708956091530553,-0.7853025916570209,-0.11651811469651996,-0.08158532708032018,0.12196724317042884,-0.04041747175332122,-0.0041211283160969,-0.11644521806464248,0.015295178211305327,-0.009856485241277468,0.022205641385508734,-0.011855148419981365,0.0005338787778086385,0.015286111408407965,-0.67512125853665,-0.42982589988069303,0.25428847500636564,-0.0003918678287237472,0.9998434779217766,0.012478298297588758,0.012536274107043872
5.499999998,-2.3668125974506933,-1.9677243815587753,-1.880029313852655,-0.9000118368509251,1.5704888772911818,-0.7967946899365067,-0.11499293474801942,-0.08255835305250203,0.12418526740576308,-0.041614952853303855,-0.00406731861873455,-0.1149209827948583,0.015251799485005435,-0.009730259721818513,0.022180242353342372,-0.011974810999826335,0.0005380969736235031,0.015242352697841799,-0.6844976696015644,-0.4263522478776656,0.25415941051958585,-0.000391867828672653,0.9998434779217819,0.012478298299286743,0.012536274104939613
5.599999998,-2.378159935047011,-1.9760764090356255,-1.8673890883886908,-0.9042942727078156,1.570087559703772,-0.8081349302182752,-0.11347337596317786,-0.08352027476850266,0.1264022546396415,-0.04282435856890476,-0.004013175874097996,-0.11340240281768499,0.01519558784841557,-0.009619217160006244,0.022169872338784202,-0.012094057156009086,0.0005414274463655389,0.015185799771733066,-0.6938740806687752,-0.4228785958744971,0.25403034603037133,-0.0003918678286187684,0.9998434779217885,0.012478298300938646,0.012536274102763421
5.699999998,-2.389355998825395,-1.9845236707141514,-1.8545271107316441,-0.9086988433850671,1.5696916812759916,-0.8193239976040169,-0.11196063778383891,-0.0844726167852583,0.12861977657046664,-0.04404570677251529,-0.003958784277804384,-0.11189067385741658,0.01512738179338946,-0.009523420167556473,0.022175219308251393,-0.012213482036105283,0.0005439159629361257,0.015117289602684103,-0.7032504917378254,-0.4194049438711676,0.25390128153886615,-0.0003918678285631482,0.9998434779217966,0.012478298302540986,0.012536274100527987
5.7999999980000005,-2.4004015826346077,-1.9930653617557104,-1.8414431630975272,-0.9132267511203793,1.5693012589282425,-0.8303626886275742,-0.11045583809212722,-0.08541691041558996,0.1308394763411691,-0.04527907735312198,-0.0039042234774910867,-0.11038691023557368,0.01504799691711689,-0.009442936303316607,0.022196997707024657,-0.012333705806066853,0.0005456080031329691,0.015037636218429018,-0.7126269028082652,-0.41593129186765193,0.2537722170452079,-0.0003918678285062784,0.999843477921806,0.01247829830409063,0.012536274098245035
5.899999998,-2.4112975842021065,-2.001700831224408,-1.8281368559313664,-0.9178792125915134,1.5689163020659076,-0.8412519033614771,-0.10896001567498814,-0.08635469468697643,0.1330630716616077,-0.04652461471134073,-0.0038495686233486204,-0.10889214733902919,0.01495822417139081,-0.00937784271386466,0.022235953204385872,-0.012455373582187512,0.0005465485414246629,0.014947628965444881,-0.7220033138796502,-0.41245763986391554,0.2536431525495268,-0.00039186782844810337,0.9998434779218164,0.012478298305585552,0.012536274095926137
5.999999998,-2.422044997485179,-2.01042958300074,-1.8146076200864807,-0.9226574656206556,1.568536813022127,-0.8519926377843585,-0.10747413283072493,-0.08728751776331922,0.13529235844885745,-0.04778253029142254,-0.0037948904378048987,-0.1074073442288137,0.014858828442632088,-0.009328230763427925,0.022292867872497624,-0.012579155800818143,0.0005467818554372172,0.014848031102154824,-0.731379724951541,-0.4089839878599207,0.2535140880519452,-0.0003918678283897337,0.9998434779218278,0.012478298307023772,0.012536274093581172
6.099999998,-2.4326449052939245,-2.0192512768838577,-1.8008546985831912,-0.9275627761402558,1.5681627874919386,-0.8625859764203064,-0.10599907808745535,-0.0882169388311782,0.1375292150328944,-0.04905310519600192,-0.0037402553018850426,-0.10593338635947913,0.014750547432695882,-0.00929421067858982,0.022368565840369392,-0.012705749045793802,0.0005463513591985603,0.014739578693345745,-0.7407561360234993,-0.40551033585562146,0.2533850235525763,-0.00039186782833104433,0.9998434779218403,0.012478298308404526,0.01253627409122017
6.199999998,-2.4430984721944617,-2.028165729929484,-1.786877137885004,-0.9325964454334204,1.5677942149563493,-0.8730330852584369,-0.10453566900537226,-0.08914453045626214,0.1397756069818734,-0.05033669293164511,-0.003685725355893066,-0.10447108838130492,0.014634090820830892,-0.009275916250839344,0.022463919489790207,-0.01283587735643188,0.000545299459919768,0.014622979781742096,-0.7501325470950899,-0.40203668385096636,0.25325595905152626,-0.0003918678282724241,0.9998434779218535,0.01247829830972666,0.0125362740888512
6.299999998,-2.453406937698238,-2.0371729180714504,-1.7726737786243187,-0.9377598176670094,1.5674310790951258,-0.883335204958455,-0.10308465503776176,-0.09007188141966438,0.14203359260685167,-0.05163372233589092,-0.0036313586122349584,-0.10302119700018042,0.014510139676104927,-0.009273509634022403,0.022579856249782537,-0.012970294042458086,0.0005436674365810745,0.014498913811245018,-0.759508958165873,-0.39856303184589814,0.25312689454889037,-0.00039186782821442814,0.9998434779218673,0.012478298310990494,0.012536274086483036
6.399999998,-2.4635716097410296,-2.0462729780763196,-1.7582432457028276,-0.9430542877409773,1.567073358187295,-0.8934936443457098,-0.101646720427917,-0.09100060004869182,0.14430532921491102,-0.05294470073967883,-0.003577209078307053,-0.10158439387254803,0.014379346098447598,-0.009287186290274363,0.022717366080593493,-0.013109784037879102,0.0005414953392790522,0.014368031276323912,-0.7688853692354078,-0.39508937984035203,0.2529978300447554,-0.0003918678281572231,0.999843477921882,0.012478298312195824,0.012536274084122685
6.499999998,-2.47359385845317,-2.055466209882566,-1.7435839376840419,-0.9484813094832678,1.566721025498536,-0.9035097741972077,-0.10022248712140414,-0.09193231806246427,0.14659308018785788,-0.05427021742290483,-0.0035233268875911605,-0.10016129851497912,0.014242333065128676,-0.009317180137724534,0.02287750972946867,-0.013255166832260024,0.0005388219071589262,0.014230953575689043,-0.7782617803032447,-0.3916157278342568,0.25286876553919946,-0.0003918678281008923,0.9998434779218971,0.012478298313343154,0.012536274081776313
6.599999998,-2.483475110220734,-2.0647530793784843,-1.7286940153865087,-0.9540424042257906,1.5663740496548169,-0.9133850213182444,-0.09881251767564159,-0.09286869495918282,0.14889922297533165,-0.05561094742522754,-0.003469758437191217,-0.09875247121036712,0.014099694457625489,-0.009363768967185493,0.02306142787473764,-0.013407300023227098,0.000535684503999434,0.014088273046120037,-0.7876381913689221,-0.38814207582753285,0.252739701032289,-0.00039186782804571333,0.9998434779219126,0.012478298314433279,0.012536274079450163
6.699999998,-2.4932168420357996,-2.0741342216763936,-1.7135713895761409,-0.9597391698037923,1.5660323950017891,-0.9231208629077242,-0.09741731815065435,-0.09381142297909317,0.1512262581036783,-0.056967655780016946,-0.0034165465302771203,-0.09735841589479821,0.01395199524987234,-0.00942728019910355,0.02327035128346644,-0.013567083547894043,0.0005321190691409683,0.013940553155689095,-0.7970146024319658,-0.38466842382009264,0.25261063652408067,-0.00039186782799186675,0.9998434779219286,0.01247829831546744,0.012536274077149722
6.7999999980000005,-2.502820576132493,-2.083610444944957,-1.6982137076444852,-0.9655732900283572,1.5656960219495921,-0.9327188212088274,-0.09603734096693461,-0.09476223268563455,0.15357681931655653,-0.05834120224564976,-0.003363730521970254,-0.09597958301103215,0.013799771837197383,-0.009508097065413779,0.023505612128782438,-0.013735464656328134,0.0005281600830686628,0.013788328837660568,-0.8063910134918805,-0.38119477181183925,0.2524815720146219,-0.00039186782793961607,0.999843477921945,0.012478298316446595,0.012536274074879285
6.899999998,-2.512284514046535,-2.0931792949761663,-1.6826239581142113,-0.9715443838556345,1.5653650047698309,-0.9421770995866096,-0.09463937914041765,-0.0956885003120922,0.15589749530273922,-0.059710938272772296,-0.0033101717976125045,-0.09458278377782126,0.013979618265169691,-0.009262676264576442,0.023206759861826853,-0.013697360271225367,0.0005355872435774955,0.013967992332108992,-0.8157640719953866,-0.3777223618145739,0.25235255365095755,-0.0003918678278877676,0.9998434779219625,0.01247829831738694,0.012536274072547338
6.999999998,-2.520456066465416,-2.1016329474718036,-1.668783753915867,-0.9768854140758866,1.5650795807049815,-0.950343792594417,-0.08171552418881234,-0.08453652495637343,0.13840204198344308,-0.05341030220252119,-0.002854240648493267,-0.0816669300780748,0.12923854951605307,0.11151975355718768,-0.1749545331929614,0.06300636070251109,0.004559311491192375,0.1291585369974646,-0.8239667030426084,-0.37468355708518125,0.2522396459270291,-0.00039186782753089175,0.9998434779222669,0.01247829832211073,0.012536274043566399
7.099999998,-2.5264597555558623,-2.107961067003952,-1.6583825510647014,-0.9809242022867477,1.5648700147076602,-0.9563439210043136,-0.0600368909044624,-0.06328119532148513,0.10401202851165525,-0.04038788210861122,-0.0020956599732135928,-0.0600012840989661,0.21678633284349935,0.21255329634888298,-0.3439001347178783,0.1302242009390997,0.007585806752796742,0.21665645979108694,-0.8300596415645368,-0.37242632405572346,0.25215577771951425,-0.0003918660116118629,0.9998434722354981,0.012478524228617444,0.012536502788558047
7.199999998,-2.5303544387549763,-2.1121206694270107,-1.6515271169568522,-0.9835960682694397,1.5647343530067075,-0.9602363143702795,-0.03894683199114013,-0.041596024230585726,0.06855434107849279,-0.02671865982691979,-0.0013566170095269392,-0.03892393365965807,0.21090058913322274,0.21685171090899402,-0.35457687433162466,0.1366922228169143,0.007390429636866536,0.2107735043930803,-0.8340428862695193,-0.37095066298598967,0.25210094908683783,-0.0003918678272093906,0.9998434779226555,0.012478298324542971,0.012536274010168607
7.299999998,-2.532180731239726,-2.1140814219777684,-1.648292041658051,-0.9848593266693201,1.5646707106993345,-0.9620615311564235,-0.018262924847496365,-0.019607525507576717,0.03235075298801071,-0.012632583998803959,-0.0006364230737299081,-0.018252167861440016,0.20683907143643765,0.2198849872300901,-0.36203588090482075,0.1408607582811583,0.007201939357970311,0.20671765798218056,-0.8359157513231098,-0.370253206486868,0.2520744215086946,-0.00039186765099264137,0.9998434774013366,0.01247831909287043,0.01253629492168506
7.33880685,-2.532332508970449,-2.114250013999472,-1.648011945518811,-0.9849699016074893,1.5646654232549622,-0.96221321960638,0.0,0.0,0.0,0.0,0.0,0.0,0.0,0.0,0.0,0.0,0.0,0.0,-0.8360752899147633,-0.37019769830331356,0.25207296798027246,-0.000391867649763247,0.9998434773977359,0.012478319236474343,0.012536295065956401
