mathias31415/primitives_from_planned_trajectory_python/data/saved_trajectories/trajectory_20250624_145556_executed.csv
timestamp,shoulder_lift_joint_pos,elbow_joint_pos,wrist_1_joint_pos,wrist_2_joint_pos,wrist_3_joint_pos,shoulder_pan_joint_pos,shoulder_lift_joint_vel,elbow_joint_vel,wrist_1_joint_vel,wrist_2_joint_vel,wrist_3_joint_vel,shoulder_pan_joint_vel,shoulder_lift_joint_eff,elbow_joint_eff,wrist_1_joint_eff,wrist_2_joint_eff,wrist_3_joint_eff,shoulder_pan_joint_eff
1750769784.322316,-2.0186829999999993,-1.63605,-1.0927480000000003,1.5724200000000002,-0.7447479999999995,-2.3144850000000003,0.0,0.0,0.0,0.0,0.0,0.0,6.045015363008275,3.7790465792024572,0.29969234522835747,0.0001339601068472018,0.0,1.0449913494418007e-16
1750769784.3236582,-2.0186829999999993,-1.63605,-1.0927480000000003,1.5724200000000002,-0.7447479999999995,-2.3144850000000003,0.0,0.0,0.0,0.0,0.0,0.0,6.045015363008275,3.7790465792024572,0.29969234522835747,0.0001339601068472018,0.0,1.0449913494418007e-16
1750769784.323943,-2.0186829999999993,-1.63605,-1.0927480000000003,1.5724200000000002,-0.7447479999999995,-2.3144850000000003,0.0,0.0,0.0,0.0,0.0,0.0,6.045015363008275,3.7790465792024572,0.29969234522835747,0.0001339601068472018,0.0,1.0449913494418007e-16
1750769784.3247933,-2.0186829999999993,-1.63605,-1.0927480000000003,1.5724200000000002,-0.7447479999999995,-2.3144850000000003,0.0,0.0,0.0,0.0,0.0,0.0,6.045015363008275,3.7790465792024572,0.29969234522835747,0.0001339601068472018,0.0,1.0449913494418007e-16
1750769784.3269687,-2.0186829999999993,-1.63605,-1.0927480000000003,1.5724200000000002,-0.7447479999999995,-2.3144850000000003,0.0,0.0,0.0,0.0,0.0,0.0,6.045015363008275,3.7790465792024572,0.29969234522835747,0.0001339601068472018,0.0,1.0449913494418007e-16
1750769784.3289733,-2.0186829999999993,-1.63605,-1.0927480000000003,1.5724200000000002,-0.7447479999999995,-2.3144850000000003,0.0,0.0,0.0,0.0,0.0,0.0,6.045015363008275,3.7790465792024572,0.29969234522835747,0.0001339601068472018,0.0,1.0449913494418007e-16
1750769784.3309684,-2.0186829999999993,-1.63605,-1.0927480000000003,1.5724200000000002,-0.7447479999999995,-2.3144850000000003,0.0,0.0,0.0,0.0,0.0,0.0,6.045015363008275,3.7790465792024572,0.29969234522835747,0.0001339601068472018,0.0,1.0449913494418007e-16
1750769784.3334055,-2.0186829999999993,-1.63605,-1.0927480000000003,1.5724200000000002,-0.7447479999999995,-2.3144850000000003,0.0,0.0,0.0,0.0,0.0,0.0,6.045015363008275,3.7790465792024572,0.29969234522835747,0.0001339601068472018,0.0,1.0449913494418007e-16
1750769784.3348708,-2.0186829999999993,-1.63605,-1.0927480000000003,1.5724200000000002,-0.7447479999999995,-2.3144850000000003,0.0,0.0,0.0,0.0,0.0,0.0,6.045015363008275,3.7790465792024572,0.29969234522835747,0.0001339601068472018,0.0,1.0449913494418007e-16
1750769784.3369646,-2.0186826559740663,-1.6360510000000001,-1.0927473419611902,1.5724200117953555,-0.7447476584295316,-2.3144846584096452,0.00034402593270225086,-0.001,0.0006580388101466032,1.1795355322941976e-05,0.000341570467977183,0.0003415903550187874,6.123226822799562,3.6039031159328325,0.3131509798042561,0.0017247221174097767,0.009622153529093314,0.14164112427913308
1750769784.344867,-2.018681623896269,-1.6360539999999997,-1.0927453678447598,1.5724200471814214,-0.7447466337181279,-2.3144836336385803,0.0006880518654045017,-0.002,0.0013160776202932065,2.3590710645883952e-05,0.000683140935954366,0.0006831807100375748,6.123217717311917,3.603899029290085,0.3131509746012045,0.001724717462848781,0.009622153529087322,0.14164041214737258
1750769784.34541,-2.0186774955850755,-1.6360659999999996,-1.0927374713790377,1.5724201887256852,-0.7447425348725121,-2.31447953455432,0.0013761037308090034,-0.004,0.002632155240586413,4.7181421291767905e-05,0.001366281871908732,0.0013663614200751495,6.123181295216002,3.603882682584792,0.3131509537901869,0.0017246988443205757,0.00962215352906336,0.14163756361932553
1750769784.3503146,-2.0186743993516814,-1.636075,-1.0927315490297467,1.5724202948838832,-0.7447394607383,-2.3144764602411247,0.0017201296635112543,-0.005,0.0032901940507330165,5.897677661470988e-05,0.001707852339885915,0.0017079517750939368,6.1231539784914855,3.60387042241479,0.31315093818317097,0.0017246848801259634,0.009622153529045382,0.1416354272222333
1750769784.3509696,-2.018670615066422,-1.6360859999999997,-1.0927243106028346,1.5724204246327917,-0.7447357034631521,-2.31447270274722,0.002064155596213505,-0.006,0.00394823286087962,7.077213193765185e-05,0.002049422807863098,0.002049542130112724,6.123120591206143,3.6038554375984106,0.31315091910938125,0.0017246678124295616,0.009622153529023422,0.14163281606900233
1750769784.353848,-2.0186661427292965,-1.6360989999999997,-1.0927157560983032,1.572420577972411,-0.7447312630470684,-2.3144682620726043,0.002408181528915756,-0.007,0.004606271671026223,8.256748726059384e-05,0.002390993275840281,0.0023911324851315116,6.1230811332533985,3.6038377280371585,0.3131508965696887,0.0017246476410229406,0.009622153528997457,0.1416297301588959
1750769784.3545432,-2.0186609823403066,-1.636114,-1.0927058855161507,1.572420754902741,-0.7447261394900488,-2.3144631382172793,0.002752207461618007,-0.008,0.005264310481172826,9.436284258353581e-05,0.002732563743817464,0.002732722840150299,6.12303560450733,3.6038172936146298,0.31315087056512314,0.0017246243656597537,0.009622153528967515,0.14162616949104395
1750769784.3569436,-2.0186551338994505,-1.6361309999999998,-1.0926946988563788,1.5724209554237814,-0.7447203327920935,-2.3144573311812437,0.003096233394320258,-0.009000000000000001,0.00592234929131943,0.0001061581979064778,0.0030741342117946474,0.0030743131951690866,6.122984004822618,3.6037941341965256,0.3131508410968725,0.0017245979860557438,0.009622153528933572,0.14162213406444474
1750769784.3573954,-2.018648597406729,-1.6361499999999998,-1.0926821961189859,1.5724211795355325,-0.7447138429532014,-2.3144508409644984,0.003440259327022509,-0.010000000000000002,0.006580388101466034,0.00011795355322941978,0.0034157046797718307,0.0034159035501878745,6.12292633403458,3.6037682496306283,0.31315080816628305,0.0017245685018888006,0.009622153528895635,0.1416176238779634
1750769784.3596814,-2.0186413728621417,-1.636171,-1.0926683773039727,1.5724214272379942,-0.7447066699733744,-2.3144436675670432,0.0037842852597247604,-0.011000000000000003,0.007238426911612638,0.00012974890855236177,0.003757275147749014,0.003757493905206662,6.122862591959158,3.603739639746825,0.31315077177485984,0.0017245359127988755,0.009622153528853705,0.14161263893033318
1750769784.3611648,-2.01863346026569,-1.6361939999999997,-1.0926532424113393,1.5724216985311668,-0.7446988138526107,-2.314435810988878,0.004128311192427012,-0.012000000000000004,0.007896465721759241,0.00014154426387530375,0.004098845615726197,0.00409908426022545,6.122792778392925,3.603708304357097,0.31315073192426557,0.0017245002183880998,0.009622153528807775,0.14160717922015856
1750769784.3630686,-2.018624859617373,-1.6362190000000005,-1.0926367914410857,1.5724219934150496,-0.7446902745909112,-2.3144272712300022,0.004472337125129263,-0.013000000000000005,0.008554504531905845,0.00015333961919824574,0.00444041608370338,0.004440674615244237,6.122716893113078,3.603674243255513,0.31315068861632156,0.0017244614182206118,0.009622153528757874,0.1416012447459096
1750769784.364955,-2.0186155709171896,-1.6362459999999999,-1.092619024393212,1.5724223118896434,-0.7446810521882758,-2.314418048290417,0.004816363057831514,-0.014000000000000005,0.009212543342052449,0.00016513497452118773,0.0047819865516805634,0.004782264970263025,6.122634935877445,3.6036374562182627,0.3131506418530086,0.0017244195118227975,0.009622153528703973,0.14159483550593152
1750769784.366947,-2.018605594165141,-1.6362749999999995,-1.092599941267717,1.5724226539549477,-0.7446711466447047,-2.3144081421701213,0.0051603889905337645,-0.015000000000000006,0.009870582152199053,0.0001769303298441297,0.005123557019657747,0.005123855325281813,6.122546906424485,3.603597943003613,0.3131505916364643,0.0017243744986830468,0.009622153528646081,0.14158795149843736
1750769784.3691244,-2.018594929361228,-1.6363060000000003,-1.0925795420646027,1.5724230196109628,-0.7446605579601977,-2.3143975528691154,0.005504414923236016,-0.016000000000000007,0.010528620962345657,0.0001887256851670717,0.00546512748763493,0.005465445680300601,6.122452804473283,3.6035557033519376,0.31315053796898523,0.0017243263782519395,0.009622153528584204,0.14158059272151446
1750769784.3710654,-2.0185835765054483,-1.6363389999999995,-1.0925578267838674,1.5724234088576885,-0.744649286134754,-2.3143862803874,0.005848440855938267,-0.017000000000000008,0.011186659772492261,0.00020052104049001369,0.005806697955612113,0.005807036035319388,6.12235262972356,3.603510736985729,0.3131504808530273,0.001724275149942161,0.009622153528518335,0.14157275917312265
1750769784.3728104,-2.018571535597804,-1.636374,-1.0925347954255127,1.5724238216951247,-0.7446373311683754,-2.3143743247249744,0.006192466788640518,-0.01800000000000001,0.011844698582638865,0.00021231639581295567,0.006148268423589297,0.006148626390338176,6.12224638185567,3.603463043609552,0.313150420291203,0.0017242208131285188,0.009622153528448479,0.141564450851095
1750769784.374882,-2.0185588066382945,-1.6364109999999998,-1.0925104479895378,1.5724242581232717,-0.74462469306106,-2.3143616858818388,0.00653649272134277,-0.01900000000000001,0.012502737392785469,0.00022411175113589766,0.00648983889156648,0.006490216745356964,6.122134060530601,3.6034126229101036,0.3131503562862847,0.0017241633671479704,0.009622153528374639,0.14155566775314085
1750769784.376996,-2.0185453896269188,-1.63645,-1.0924847844759418,1.5724247181421294,-0.7446113718128089,-2.314348363857993,0.006880518654045021,-0.02000000000000001,0.013160776202932073,0.00023590710645883964,0.006831409359543663,0.006831807100375751,6.1220156653899584,3.603359474556174,0.3131502888412024,0.001724102811299604,0.00962215352829681,0.1415464098768453
1750769784.379001,-2.0185453896269188,-1.63645,-1.0924847844759418,1.5724247181421294,-0.7446113718128089,-2.314348363857993,0.006880518654045021,-0.02000000000000001,0.013160776202932073,0.00023590710645883964,0.006831409359543663,0.006831807100375751,6.1220156653899584,3.603359474556174,0.3131502888412024,0.001724102811299604,0.00962215352829681,0.1415464098768453
1750769784.3832512,-2.018531284563678,-1.6364909999999995,-1.0924578048847255,1.5724252017516975,-0.7445973674236219,-2.314334358653437,0.007224544586747272,-0.02100000000000001,0.013818815013078677,0.00024770246178178163,0.0071729798275208465,0.007173397455394539,6.121891196056006,3.603303598198667,0.31315021795904496,0.0017240391448446436,0.009622153528214997,0.14153667721967356
1750769784.3836572,-2.0185164914485716,-1.6365340000000002,-1.092429509215889,1.5724257089519764,-0.7445826798934982,-2.3143196702681714,0.007568570519449523,-0.022000000000000013,0.01447685382322528,0.0002594978171047236,0.00751455029549803,0.007514987810413327,6.121760652131638,3.603244993470596,0.31315014364305915,0.001723972367006472,0.0096221535281292,0.14152646977896574
1750769784.385194,-2.0185010102816,-1.6365790000000002,-1.0923998974694324,1.572426239742966,-0.7445673092224396,-2.3143042987021953,0.007912596452151774,-0.023000000000000013,0.015134892633371883,0.0002712931724276656,0.007856120763475213,0.007856578165432114,6.12162403320038,3.6031836599870832,0.3131500658966503,0.001723902476970623,0.009622153528039423,0.14151578755194402
1750769784.3870764,-2.0184848410627634,-1.6366259999999997,-1.0923689696453556,1.5724267941246661,-0.7445512554104443,-2.3142882439555095,0.008256622384854025,-0.024000000000000014,0.01579293144351849,0.00028308852775060756,0.008197691231452397,0.008198168520450902,6.1214813388264036,3.6031195973453713,0.31314998472338207,0.0017238294738847711,0.009622153527945685,0.1415046305357143
1750769784.389401,-2.0184679837920605,-1.6366750000000003,-1.0923367257436585,1.572427372097077,-0.7445345184575141,-2.314271506028114,0.008600648317556277,-0.025000000000000015,0.01645097025366509,0.0002948838830735496,0.00853926169942958,0.00853975887546969,6.121332568554508,3.603052805124812,0.3131499001269765,0.0017237533568587803,0.009622153527847895,0.1414929987272621
1750769784.3914285,-2.0184504384694932,-1.6367259999999995,-1.0923031657643412,1.5724279736601985,-0.7445170983636471,-2.3142540849200075,0.008944674250258527,-0.026000000000000016,0.017109009063811697,0.00030667923839649154,0.008880832167406764,0.008881349230488477,6.121177721910159,3.6029832828868824,0.3131498121113145,0.001723674124964665,0.009622153527746221,0.14148089212346002
1750769784.392943,-2.01843220509506,-1.6367789999999998,-1.0922682897074036,1.5724285988140305,-0.7444989951288443,-2.314235980631192,0.009288700182960779,-0.027000000000000017,0.0177670478739583,0.00031847459371943355,0.009222402635383946,0.009222939585507265,6.121016798399435,3.602911030175175,0.3131497206804344,0.0017235917772366058,0.00962215352764047,0.1414683107210665
1750769784.3957548,-2.0184132836687603,-1.6368340000000003,-1.092232097572845,1.5724292475585733,-0.7444802087531057,-2.3142171931616655,0.00963272611566303,-0.028000000000000018,0.0184250866841049,0.0003302699490423755,0.00956397310336113,0.009564529940526053,6.1208497975090825,3.6028360465154115,0.31314962583853373,0.0017235063126709866,0.009622153527530842,0.1414552545167274
1750769784.3974884,-2.0183936741905963,-1.6368910000000003,-1.092194589360667,1.5724299198938267,-0.7444607392364304,-2.3141977225114294,0.00997675204836528,-0.02900000000000002,0.019083125494251507,0.0003420653043653175,0.009905543571338313,0.00990612029554484,6.120676718706487,3.60275833141543,0.31314952758996795,0.0017234177302263675,0.009622153527417139,0.14144172350697898
1750769784.3989646,-2.018373376660567,-1.6369499999999997,-1.0921557650708689,1.5724306158197907,-0.7444405865788202,-2.3141775686804835,0.010320777981067532,-0.03000000000000002,0.01974116430439811,0.0003538606596882595,0.010247114039315497,0.010247710650563627,6.120497561439683,3.6026778843652063,0.31314942593925055,0.0017233260288234955,0.00962215352729956,0.14142771768825035
1750769784.4010508,-2.018352391078672,-1.6370110000000002,-1.0921156247034496,1.5724313353364654,-0.7444197507802732,-2.3141567316688274,0.010664803913769783,-0.03100000000000002,0.020399203114544715,0.0003656560150112015,0.01058868450729268,0.010589301005582415,6.120312325137347,3.602594704836839,0.31314932089105435,0.0017232312073453282,0.009622153527177907,0.1414132370568607
1750769784.4031394,-2.018330717444912,-1.6370740000000001,-1.09207416825841,1.5724320784438508,-0.7443982318407905,-2.314135211476461,0.011008829846472034,-0.03200000000000002,0.021057241924691317,0.00037745137033414345,0.010930254975269863,0.010930891360601203,6.120121009208821,3.6025087922845684,0.31314921245020977,0.0017231332646370262,0.009622153527052382,0.1413982816090276
1750769784.4051118,-2.0183083557592862,-1.6371389999999995,-1.0920313957357504,1.572432845141947,-0.7443760297603728,-2.314113008103385,0.011352855779174286,-0.03300000000000002,0.021715280734837923,0.00038924672565708547,0.011271825443247046,0.011272481715619991,6.119923613044089,3.6024201461447696,0.3131491006217059,0.00172303219950597,0.009622153526922788,0.14138285134086467
1750769784.4070394,-2.018285306021795,-1.637206,-1.0919873071354704,1.5724336354307535,-0.7443531445390175,-2.3140901215495986,0.011696881711876536,-0.03400000000000002,0.022373319544984525,0.0004010420809800274,0.01161339591122423,0.01161407207063878,6.1197201360137905,3.6023287658359457,0.31314898541068953,0.0017229280107217307,0.009622153526789324,0.1413669462483861
1750769784.4090016,-2.0182615682324396,-1.6372749999999998,-1.0919419024575703,1.5724344493102707,-0.7443295761767272,-2.3140665518151025,0.012040907644578788,-0.035000000000000024,0.02303135835513113,0.00041283743630296944,0.011954966379201412,0.011955662425657567,6.119510577469236,3.6022346507587577,0.31314886682246706,0.0017228206970161428,0.009622153526651793,0.14135056632750637
1750769784.4113557,-2.018237142391217,-1.637346,-1.09189518170205,1.5724352867804987,-0.7443053246735012,-2.314042298899896,0.01238493357728104,-0.036000000000000025,0.023689397165277733,0.0004246327916259114,0.012296536847178597,0.012297252780676353,6.119294936742369,3.602137800296006,0.31314874486250194,0.0017227102570832923,0.009622153526510394,0.14133371157404384
1750769784.4130147,-2.01821202849813,-1.6374189999999995,-1.0918471448689093,1.5724361478414373,-0.7442803900293384,-2.3140173628039795,0.01272895950998329,-0.037000000000000026,0.02434743597542434,0.0004364281469488534,0.012638107315155779,0.012638843135695141,6.119073213145826,3.60203821381264,0.31314861953641676,0.001722596689579481,0.009622153526364934,0.1413163819837265
1750769784.4152913,-2.01821202849813,-1.6374189999999995,-1.0918471448689093,1.5724361478414373,-0.7442803900293384,-2.3140173628039795,0.01272895950998329,-0.037000000000000026,0.02434743597542434,0.0004364281469488534,0.012638107315155779,0.012638843135695141,6.119073213145826,3.60203821381264,0.31314861953641676,0.001722596689579481,0.009622153526364934,0.1413163819837265
1750769784.416926,-2.018186226553177,-1.6374940000000002,-1.0917977919581485,1.5724370324930865,-0.7442547722442407,-2.313991743527353,0.013072985442685542,-0.03800000000000003,0.02500547478557094,0.00044822350227179537,0.012979677783132963,0.012980433490713929,6.118845405972875,3.6019358906557564,0.313148490849992,0.0017224799931232636,0.009622153526215607,0.14129857755218578
1750769784.4189591,-2.0181597365563597,-1.6375710000000003,-1.0917471229697675,1.5724379407354463,-0.7442284713182064,-2.3139654410700166,0.013417011375387793,-0.03900000000000003,0.025663513595717544,0.0004600188575947374,0.013321248251110146,0.013322023845732717,6.118611514497483,3.6018308301546154,0.31314835880916675,0.0017223601662954688,0.009622153526062221,0.1412802982749664
1750769784.4212086,-2.0181325585076753,-1.6376499999999998,-1.0916951379037654,1.5724388725685168,-0.7442014872512361,-2.31393845543197,0.013761037308090043,-0.04000000000000003,0.02632155240586415,0.00047181421291767934,0.01366281871908733,0.013663614200751505,6.1183715379742525,3.6017230316206374,0.31314822342003873,0.0017222372076392063,0.009622153525904975,0.14126154414752673
1750769784.4258761,-2.0181046924071264,-1.6377310000000005,-1.091641836760144,1.572439827992298,-0.7441738200433301,-2.3139107866132136,0.014105063240792295,-0.04100000000000003,0.02697959121601075,0.00048360956824062136,0.014004389187064512,0.014005204555770293,6.118125475638477,3.6016124943473904,0.31314808468886296,0.0017221111156598677,0.009622153525743676,0.141242315165241
1750769784.4278831,-2.018076138254713,-1.6378140000000005,-1.0915872195389014,1.57244080700679,-0.7441454696944874,-2.313882434613747,0.014449089173494547,-0.04200000000000003,0.027637630026157357,0.0004954049235635634,0.014345959655041696,0.01434679491078908,6.117873326706122,3.6014992176106264,0.31314794262205375,0.0017219818888251249,0.009622153525578514,0.14122261132340075
1750769784.4285796,-2.018046896050433,-1.637899,-1.0915312862400395,1.5724418096119923,-0.7441164362047097,-2.3138533994335706,0.014793115106196797,-0.04300000000000003,0.02829566883630396,0.0005072002788865053,0.014687530123018879,0.014688385265807867,6.117615090373811,3.6013832006682622,0.31314779722618324,0.0017218495255649257,0.009622153525409304,0.1412024326172195
1750769784.4288814,-2.0180169657942884,-1.6379859999999997,-1.0914740368635565,1.5724428358079054,-0.7440867195739962,-2.3138236810726838,0.015137141038899049,-0.04400000000000003,0.028953707646450565,0.0005189956342094473,0.015029100590996063,0.015029975620826655,6.117350765818862,3.6012644427603795,0.31314764850798227,0.0017217140242716002,0.00962215352523624,0.14118177904183665
1750769784.430798,-2.0179863474862767,-1.6380749999999997,-1.0914154714094533,1.572443885594529,-0.744056319802346,-2.313793279531087,0.015481166971601299,-0.04500000000000003,0.029611746456597168,0.0005307909895323892,0.015370671058973245,0.015371565975845443,6.11708035219926,3.601142943109255,0.31314749647433976,0.001721575383299718,0.00962215352505913,0.14116065059231525
1750769784.4327135,-2.0179550411264016,-1.638166,-1.0913555898777298,1.5724449589718634,-0.74402523688976,-2.3137621948087808,0.01582519290430355,-0.046000000000000034,0.030269785266743773,0.0005425863448553313,0.01571224152695043,0.01571315633086423,6.116803848653693,3.601018700919325,0.3131473411323026,0.0017214336009662478,0.009622153524878167,0.14113904726364832
1750769784.4349513,-2.0179230467146603,-1.6382589999999997,-1.0912943922683862,1.5724460559399085,-0.7439934708362381,-2.3137304269057637,0.0161692188370058,-0.047000000000000035,0.030927824076890376,0.0005543817001782733,0.016053811994927614,0.01605474668588302,6.116521254301509,3.6008917153772346,0.31314718248907614,0.001721288675550462,0.00962215352469321,0.14111696905076354
1750769784.4367805,-2.0178903642510537,-1.6383539999999996,-1.0912318785814223,1.5724471764986643,-0.7439610216417805,-2.313697975822037,0.016513244769708054,-0.048000000000000036,0.03158586288703698,0.0005661770555012152,0.016395382462904794,0.016396337040901807,6.11623256824276,3.6007619856518063,0.3131470205520247,0.001721140605294009,0.009622153524504212,0.14109441594852215
1750769784.4390495,-2.017856993735581,-1.6384509999999999,-1.0911680488168383,1.5724483206481306,-0.7439278893063861,-2.3136648415576,0.016857270702410304,-0.04900000000000004,0.03224390169718359,0.0005779724108241572,0.01673695293088198,0.016737927395920595,6.115937789558178,3.6006295108940627,0.3131468553286705,0.001720989388400865,0.00962215352431147,0.14107138795172533
1750769784.4408064,-2.017856993735581,-1.6384509999999999,-1.0911680488168383,1.5724483206481306,-0.7439278893063861,-2.3136648415576,0.016857270702410304,-0.04900000000000004,0.03224390169718359,0.0005779724108241572,0.01673695293088198,0.016737927395920595,6.115937789558178,3.6006295108940627,0.3131468553286705,0.001720989388400865,0.00962215352431147,0.14107138795172533
1750769784.4427924,-2.017822935168244,-1.6385500000000004,-1.091102902974634,1.5724494883883076,-0.7438940738300568,-2.3136310241124534,0.017201296635112554,-0.05000000000000004,0.03290194050733019,0.0005897677661470993,0.017078523398859163,0.017079517750939383,6.115636917309201,3.6004942902372177,0.313146686826693,0.001720835023037433,0.00962215352411469,0.14104788505511553
1750769784.4447157,-2.0177881885490407,-1.6386510000000003,-1.0910364410548095,1.572450679719195,-0.7438595752127908,-2.3135965234865963,0.017545322567814808,-0.05100000000000004,0.03355997931747679,0.0006015631214700412,0.017420093866836347,0.01742110810595817,6.115329950537956,3.6003563227967033,0.3131465150539319,0.0017206775073324494,0.009622153523913974,0.14102390725337974
1750769784.4468832,-2.0177527538779723,-1.6387540000000005,-1.0909686630573638,1.5724518946407935,-0.743824393454589,-2.3135613396800294,0.017889348500517058,-0.05200000000000004,0.034218018127623394,0.0006133584767929832,0.017761664334813528,0.01776269846097696,6.115016888267268,3.600215607670146,0.3131463400183836,0.0017205168393771256,0.009622153523709223,0.14099945454115345
1750769784.448702,-2.0177166311550385,-1.638859,-1.090899568982298,1.5724531331531022,-0.7437885285554513,-2.3135254726927528,0.018233374433219308,-0.05300000000000004,0.034876056937769996,0.0006251538321159251,0.01810323480279071,0.018104288815995743,6.114697729500672,3.6000721439373944,0.3131461617282035,0.0017203530172249693,0.009622153523500739,0.14097452691302356
1750769784.4508326,-2.0176798203802395,-1.638966,-1.0908291588296128,1.5724543952561219,-0.7437519805153778,-2.3134889225247655,0.01857740036592156,-0.05400000000000004,0.035534095747916605,0.0006369491874388672,0.018444805270767896,0.01844587917101453,6.1143724732224,3.5999259306605116,0.31314598019170514,0.0017201860388920784,0.009622153523288225,0.14094912436353535
1750769784.4525816,-2.0176423215535753,-1.639075,-1.0907574325993066,1.572455680949852,-0.7437147493343685,-2.3134516891760684,0.01892142629862381,-0.05500000000000004,0.03619213455806321,0.0006487445427618092,0.01878637573874508,0.01878746952603332,6.1140411183973935,3.599776966883778,0.31314579541735943,0.0017200159023568065,0.009622153523071785,0.1409232468871859
1750769784.455981,-2.017604134675045,-1.6391860000000005,-1.090684390291381,1.5724569902342929,-0.7436768350124234,-2.3134137726466615,0.01926545223132606,-0.05600000000000004,0.03685017336820981,0.0006605398980847511,0.01912794620672226,0.019129059881052107,6.1137036639713065,3.5996252516337144,0.3131456074137974,0.0017198426055600848,0.009622153522851323,0.14089689447843867
1750769784.4567413,-2.01756525974465,-1.6392990000000003,-1.0906100319058343,1.5724583231094444,-0.7436382375495416,-2.3133751729365444,0.019609478164028315,-0.057000000000000044,0.03750821217835641,0.0006723352534076931,0.019469516674699445,0.019470650236070895,6.113360108870523,3.5994707839190663,0.3131454161898068,0.0017196661464052635,0.009622153522627132,0.14087006713172223
1750769784.45872,-2.017525696762389,-1.6394140000000004,-1.0905343574426674,1.5724596795753065,-0.743598956945724,-2.313335890045717,0.019953504096730565,-0.058000000000000045,0.03816625098850302,0.0006841306087306352,0.01981108714267663,0.019812240591089682,6.1130104520021185,3.59931356273082,0.3131452217543344,0.0017194865227581544,0.009622153522398926,0.14084276484143463
1750769784.460961,-2.017485445728263,-1.6395309999999998,-1.0904573669018802,1.5724610596318793,-0.7435589932009705,-2.31329592397418,0.020297530029432815,-0.059000000000000045,0.038824289798649624,0.0006959259640535771,0.020152657610653813,0.02015383094610847,6.112654692253911,3.5991535870422044,0.3131450241164843,0.001719303732447088,0.009622153522166802,0.14081498760194497
1750769784.4627001,-2.0174445066422706,-1.6396499999999996,-1.0903790602834729,1.5724624632791628,-0.7435183463152821,-2.3132552747219326,0.02064155596213507,-0.060000000000000046,0.039482328608796226,0.0007077213193765191,0.020494228078630994,0.02049542130112726,6.112292828494435,3.5989908558087,0.3131448232855204,0.0017191177732628967,0.009622153521930667,0.14078673540760162
1750769784.465387,-2.0174028795044148,-1.6397709999999996,-1.0902994375874453,1.5724638905171568,-0.7434770162886561,-2.3132139422889755,0.02098558189483732,-0.06100000000000005,0.04014036741894283,0.000719516674699461,0.020835798546608178,0.020837011656146046,6.111924859572965,3.5988253679680318,0.313144619270863,0.0017189286429589025,0.009622153521690813,0.14075800825273205
1750769784.4669807,-2.017360564314692,-1.639894,-1.0902184988137966,1.5724653413458616,-0.7434350031210952,-2.313171926675308,0.02132960782753957,-0.06200000000000005,0.04079840622908943,0.0007313120300224031,0.021177369014585362,0.021178602011164834,6.111550784319487,3.5986571224402026,0.3131444120820921,0.0017187363392509995,0.009622153521446956,0.1407288061316491
1750769784.468821,-2.0173175610731047,-1.6400190000000006,-1.0901362439625286,1.5724668157652768,-0.7433923068125985,-2.3131292278809306,0.02167363376024182,-0.06300000000000004,0.04145644503923603,0.000743107385345345,0.021518939482562543,0.02152019236618362,6.1111706015447425,3.5984861181274623,0.31314420172894475,0.0017185408598175682,0.009622153521199092,0.14069912903865187
1750769784.4707708,-2.0172738697796504,-1.6401459999999997,-1.0900526730336395,1.572468313775403,-0.743348927363165,-2.313085845905843,0.02201765969294407,-0.06400000000000004,0.042114483849382635,0.0007549027406682869,0.021860509950539727,0.021861782721202407,6.110784310040196,3.5983123539143484,0.31314398822131734,0.0017183422022996864,0.009622153520947524,0.1406689769680391
1750769784.4727106,-2.0172294904343318,-1.640275,-1.089967786027131,1.5724698353762396,-0.7433048647727958,-2.313041780750046,0.02236168562564632,-0.06500000000000004,0.042772522659529244,0.000766698095991229,0.022202080418516908,0.022203373076221194,6.1103919085780785,3.5981358286676604,0.31314377156926365,0.0017181403643008323,0.009622153520691857,0.1406383499140968
1750769784.4746683,-2.0171844230371487,-1.6404060000000005,-1.0898815829430015,1.5724713805677868,-0.7432601190414907,-2.3129970324135387,0.022705711558348572,-0.06600000000000004,0.043430561469675846,0.0007784934513141709,0.022543650886494092,0.022544963431239982,6.109993395911355,3.5979565412364947,0.31314355178299547,0.0017179353433871697,0.00962215352043249,0.14060724787111825
1750769784.476659,-2.0171386675880996,-1.6405390000000004,-1.0897940637812518,1.572472949350045,-0.7432146901692498,-2.312951600896321,0.023049737491050822,-0.06700000000000005,0.04408860027982245,0.0007902888066371129,0.022885221354471276,0.02288655378625877,6.1095887707737315,3.597774490452227,0.3131433288728837,0.0017177271370875037,0.009622153520169131,0.14057567083339864
1750769784.4787848,-2.0170922240871842,-1.6406739999999997,-1.0897052285418827,1.5724745417230135,-0.7431685781560731,-2.3129054861983933,0.023393763423753072,-0.06800000000000005,0.04474663908996905,0.0008020841619600549,0.02322679182244846,0.02322814414127756,6.109178031879686,3.597589675128542,0.31314310284945696,0.0017175157428931877,0.009622153519901882,0.14054361879524663
1750769784.4812677,-2.0170450925344046,-1.6408110000000002,-1.0896150772248925,1.5724761576866926,-0.7431217830019605,-2.3128586883197557,0.023737789356455326,-0.06900000000000005,0.04540467790011565,0.0008138795172829969,0.02356836229042564,0.023569734496296346,6.10876117792445,3.597402094061405,0.3131428737234017,0.001717301158258249,0.009622153519630644,0.1405110917509812
1750769784.4828658,-2.0169972729297587,-1.6409500000000001,-1.089523609830282,1.5724777972410826,-0.7430743047069113,-2.3128112072604083,0.024081815289157576,-0.07000000000000005,0.04606271671026226,0.0008256748726059389,0.023909932758402825,0.023911324851315134,6.108338207584013,3.597211746029113,0.3131426415055633,0.0017170833805994017,0.00962215351935572,0.14047808969494222
1750769784.4849074,-2.0169487652732467,-1.6410910000000003,-1.0894308263580514,1.5724794603861831,-0.7430261432709262,-2.3127630430203507,0.024425841221859826,-0.07100000000000005,0.046720755520408865,0.0008374702279288808,0.02425150322638001,0.02425291520633392,6.107909119515138,3.5970186297922604,0.3131424062069443,0.0017168624072959652,0.009622153519076814,0.14044461262148847
1750769784.4920704,-2.0169487652732467,-1.6410910000000003,-1.0894308263580514,1.5724794603861831,-0.7430261432709262,-2.3127630430203507,0.024425841221859826,-0.07100000000000005,0.046720755520408865,0.0008374702279288808,0.02425150322638001,0.02425291520633392,6.107909119515138,3.5970186297922604,0.3131424062069443,0.0017168624072959652,0.009622153519076814,0.14044461262148847
1750769784.4926798,-2.0168496858046296,-1.6413789999999997,-1.0892413111807286,1.5724828574485161,-0.7429277709761495,-2.3126646649981053,0.02511389308726433,-0.07300000000000005,0.04803683314070207,0.0008610609385747649,0.024934644162334374,0.024936095916371494,6.107032584723008,3.5966240876588884,0.31314192641216854,0.0017164108630863388,0.009622153518507273,0.14037623339993924
1750769784.4949498,-2.0167478541285497,-1.6416750000000002,-1.0890465316929259,1.5724863488736918,-0.7428266661176277,-2.31256355425302,0.025801944952668833,-0.07500000000000005,0.04935291076099528,0.0008846516492206488,0.025617785098288742,0.02561927662640907,6.1061315624176515,3.596218457392638,0.3131414344302618,0.0017159465039183197,0.00962215351792244,0.1403059540418583
1750769784.4969018,-2.0166959062127106,-1.641826,-1.0889471678325933,1.5724881299723454,-0.7427750889769635,-2.312511974109412,0.026145970885371083,-0.07600000000000005,0.05001094957114188,0.0008964470045435907,0.025959355566265926,0.025960866981427858,6.105671864885185,3.596011480923469,0.3131411838983224,0.0017157095117772048,0.009622153517624176,0.14027010179790161
1750769784.4988115,-2.016643270245008,-1.641979,-1.0888464878946413,1.5724899346617098,-0.7427228286953627,-2.312459710785094,0.026489996818073333,-0.07700000000000005,0.050668988381288485,0.0009082423598665328,0.026300926034243107,0.026302457336446646,6.105206041161222,3.595801728442319,0.3131409303549419,0.001715469307484791,0.00962215351732195,0.14023377450344798
1750769784.5012257,-2.016589946225439,-1.6421340000000004,-1.0887444918790683,1.572491762941785,-0.742669885272826,-2.312406764280066,0.026834022750775587,-0.07800000000000006,0.05132702719143509,0.0009200377151894748,0.02664249650222029,0.026644047691465434,6.104734089768007,3.5955891985861856,0.3131406738122306,0.0017152258881596287,0.009622153517016065,0.1401969721531528
1750769784.502958,-2.016535934154005,-1.6422910000000002,-1.088641179785875,1.5724936148125706,-0.7426162587093543,-2.312353134594328,0.027178048683477837,-0.07900000000000006,0.051985066001581696,0.0009318330705124167,0.026984066970197475,0.026985638046484222,6.104256009208595,3.5953738899744265,0.3131404142824565,0.001714979250883085,0.009622153516706224,0.14015969474173348
1750769784.5052319,-2.016481234030705,-1.6424500000000002,-1.0885365516150625,1.5724954902740669,-0.742561949004946,-2.31229882172788,0.027522074616180087,-0.08000000000000006,0.0526431048117283,0.0009436284258353587,0.02732563743817466,0.02732722840150301,6.103771797966852,3.5951558012087803,0.3131401517780454,0.0017147293926993857,0.009622153516392536,0.1401219422639727
1750769784.507037,-2.01642584585554,-1.6426110000000005,-1.0884306073666288,1.572497389326274,-0.7425069561596009,-2.312243825680722,0.02786610054888234,-0.08100000000000006,0.0533011436218749,0.0009554237811583008,0.027667207906151844,0.027668818756521798,6.103281454507467,3.594934930873369,0.31313988631158207,0.0017144763106155946,0.009622153516074997,0.14008371471472594
1750769784.5089288,-2.01642584585554,-1.6426110000000005,-1.0884306073666288,1.572497389326274,-0.7425069561596009,-2.312243825680722,0.02786610054888234,-0.08100000000000006,0.0533011436218749,0.0009554237811583008,0.027667207906151844,0.027668818756521798,6.103281454507467,3.594934930873369,0.31313988631158207,0.0017144763106155946,0.009622153516074997,0.14008371471472594
1750769784.5109854,-2.0163697696285094,-1.6427740000000002,-1.0883233470405749,1.5724993119691917,-0.742451280173321,-2.312188146452854,0.02821012648158459,-0.08200000000000006,0.0539591824320215,0.0009672191364812427,0.028008778374129024,0.028010409111540586,6.102784977275923,3.594711277534708,0.3131396178958084,0.0017142200016016416,0.009622153515753516,0.14004501208892634
1750769784.5128787,-2.0163130053496134,-1.6429390000000001,-1.0882147706369008,1.57250125820282,-0.7423949210461043,-2.312131784044276,0.02855415241428684,-0.08300000000000006,0.05461722124216811,0.0009790144918041847,0.02835034884210621,0.028351999466559374,6.102282364698546,3.5944848397417126,0.3131393465436254,0.0017139604625903456,0.009622153515428394,0.1400058343815895
1750769784.5151315,-2.016255553018852,-1.6431059999999995,-1.0881048781556055,1.572503228027159,-0.7423378787779527,-2.312074738454988,0.028898178346989094,-0.08400000000000006,0.055275260052314715,0.0009908098471271267,0.028691919310083393,0.02869358982157816,6.101773615182477,3.594255616025703,0.3131390722680909,0.0017136976904774655,0.009622153515099336,0.13996618158781843
1750769784.51779,-2.0161974126362256,-1.643275,-1.087993669596691,1.5725052214422084,-0.7422801533688643,-2.3120170096849897,0.029242204279691344,-0.08500000000000006,0.05593329886246132,0.0010026052024500686,0.029033489778060577,0.029035180176596946,6.101258727115684,3.5940236049004057,0.31313879508242115,0.0017134316821216312,0.009622153514766446,0.13992605370280764
1750769784.51911,-2.016138584201734,-1.643446,-1.0878811449601562,1.5725072384479686,-0.7422217448188402,-2.3119585977342814,0.029586230212393594,-0.08600000000000006,0.05659133767260792,0.0010144005577730107,0.029375060246037758,0.029376770531615734,6.100737698866993,3.59378880486199,0.3131385149999915,0.001713162434344548,0.009622153514429629,0.13988545072185893
1750769784.520783,-2.016079067715376,-1.6436190000000002,-1.0877673042460003,1.5725092790444395,-0.7421626531278802,-2.3118995026028633,0.029930256145095844,-0.08700000000000006,0.05724937648275453,0.0010261959130959527,0.029716630714014942,0.029718360886634522,6.100210528786051,3.593551214389046,0.3131382320343342,0.001712889943930759,0.009622153514089186,0.13984437264036645
1750769784.5228472,-2.0160188631771536,-1.6437939999999998,-1.0876521474542251,1.5725113432316211,-0.7421028782959844,-2.311839724290735,0.030274282077798097,-0.08800000000000006,0.05790741529290113,0.0010379912684188946,0.030058201181992126,0.03005995124165331,6.099677215203368,3.593310831942596,0.31313794619913926,0.0017126142076278744,0.00962215351374482,0.13980281945384374
1750769784.5248418,-2.015957970587065,-1.6439710000000005,-1.0875356745848288,1.5725134310095132,-0.7420424203231519,-2.3117792627978964,0.030618308010500347,-0.08900000000000007,0.05856545410304773,0.0010497866237418366,0.03039977164996931,0.030401541596672098,6.099137756430293,3.5930676559661188,0.3131376575082558,0.0017123352221465,0.00962215351339664,0.1397607911579148
1750769784.526751,-2.0158963899451106,-1.6441499999999998,-1.0874178856378123,1.572515542378116,-0.7419812792093845,-2.311718118124348,0.030962333943202597,-0.09000000000000007,0.059223492913194335,0.0010615819790647785,0.03074134211794649,0.030743131951690886,6.098592150759041,3.59282168488555,0.3131373659756904,0.0017120529841602801,0.00962215351304455,0.1397182877483303
1750769784.5289319,-2.0158341212512916,-1.6443310000000002,-1.0872987806131764,1.5725176773374294,-0.7419194549546804,-2.31165629027009,0.03130635987590485,-0.09100000000000007,0.05988153172334094,0.0010733773343877206,0.031082912585923675,0.031084722306709674,6.0980403964626895,3.592572917109273,0.31313707161560694,0.0017117674903059257,0.009622153512688846,0.13967530922096366
1750769784.5307882,-2.0157711645056073,-1.644514,-1.0871783595109195,1.5725198358874535,-0.7418569475590404,-2.3115937792351215,0.0316503858086071,-0.09200000000000007,0.06053957053348755,0.0010851726897106626,0.03142448305390086,0.03142631266172846,6.097482491795193,3.592321351028169,0.3131367744423291,0.001711478737183224,0.009622153512329241,0.13963185557182592
1750769784.532954,-2.015707519708057,-1.6446990000000001,-1.0870566223310423,1.5725220180281883,-0.7417937570224646,-2.311530585019443,0.031994411741309355,-0.09300000000000007,0.06119760934363415,0.0010969680450336045,0.03176605352187804,0.03176790301674725,6.096918434991355,3.592066985015576,0.31313647447033627,0.0017111867213550642,0.009622153511965836,0.13958792679706528
1750769784.5348673,-2.015643186858642,-1.6448859999999996,-1.0869335690735449,1.5725242237596337,-0.741729883344953,-2.311466707623054,0.0323384376740116,-0.09400000000000007,0.06185564815378075,0.0011087634003565465,0.03210762398985523,0.03210949337176604,6.096348224266889,3.5918098174273356,0.31313617171426733,0.0017108914393474785,0.009622153511598635,0.13954352289297672
1750769784.5369527,-2.0155781659573613,-1.6450750000000003,-1.0868091997384273,1.5725264530817897,-0.7416653265265056,-2.3114021470459556,0.032682463606713855,-0.09500000000000007,0.06251368696392735,0.0011205587556794886,0.03244919445783241,0.032451083726784825,6.0957718578183755,3.5915498466017803,0.31313586618891853,0.0017105928876495924,0.00962215351122764,0.1394986438560054
1750769784.5387893,-2.015512457004215,-1.6452660000000003,-1.0866835143256894,1.5725287059946564,-0.7416000865671215,-2.3113369032881472,0.03302648953941611,-0.09600000000000007,0.06317172577407396,0.0011323541110024305,0.03279076492580959,0.03279267408180361,6.095189333823297,3.5912870708597593,0.3131355579092445,0.0017102910627137594,0.009622153510852665,0.13945328968275592
1750769784.5407655,-2.0154460599992037,-1.6454589999999998,-1.0865565128353314,1.5725309824982336,-0.7415341634668025,-2.3112709763496286,0.033370515472118355,-0.09700000000000007,0.06382976458422056,0.0011441494663253725,0.03313233539378677,0.0331342644368224,6.094600650440018,3.591021488504626,0.313135246890357,0.0017099859609555044,0.009622153510474298,0.13940746036999752
1750769784.5427108,-2.015378974942327,-1.6456540000000004,-1.0864281952673522,1.5725332825925218,-0.7414675572255467,-2.3112043662304,0.03371454140482061,-0.09800000000000007,0.06448780339436717,0.0011559448216483144,0.03347390586176396,0.03347585479184119,6.094005805807827,3.5907530978222675,0.31313493314752705,0.0017096775787535858,0.009622153510091956,0.13936115591466844
1750769784.5446632,-2.015311201833585,-1.6458510000000004,-1.0862985616217529,1.5725356062775202,-0.7414002678433551,-2.3111370729304612,0.03405856733752286,-0.09900000000000007,0.06514584220451378,0.0011677401769712565,0.03381547632974114,0.03381744514685998,6.093404798046901,3.5904818970811005,0.31313461669618103,0.001709365912449958,0.00962215350970584,0.1393143763138839
1750769784.5472405,-2.015242740672977,-1.6460499999999998,-1.0861676118985342,1.5725379535532296,-0.7413322953202277,-2.3110690964498124,0.03440259327022511,-0.10000000000000007,0.06580388101466038,0.0011795355322941985,0.034157046797718325,0.034159035501878765,6.0927976252583465,3.5902078845320946,0.3131342975519064,0.0017090509583499098,0.009622153509315955,0.1392671215649445
1750769784.5529304,-2.0151735914605036,-1.6462509999999995,-1.0860353460976953,1.5725403244196494,-0.7412636396561645,-2.311000436788454,0.03474661920292736,-0.10100000000000008,0.06646191982480698,0.0011913308876171404,0.03449861726569551,0.03450062585689755,6.092184285524185,3.5899310584087574,0.3131339757304463,0.0017087327127219413,0.009622153508922305,0.13921939166533814
1750769784.5533412,-2.015103754196165,-1.6464540000000003,-1.0859017642192352,1.57254271887678,-0.7411943008511646,-2.310931093946385,0.035090645135629615,-0.10200000000000008,0.06711995863495358,0.0012031262429400824,0.034840187733672694,0.03484221621191634,6.091564776907364,3.58965141692717,0.3131336512477026,0.0017084111717979463,0.009622153508524895,0.13917118661275207
1750769784.554932,-2.014962015511892,-1.6468660000000002,-1.0856306522294545,1.572547578563173,-0.7410535738183581,-2.310790358720117,0.035778697001034115,-0.10400000000000008,0.06843603625524679,0.0012267169535859664,0.035523328669627055,0.03552539692195392,6.0903072451822196,3.589083680666424,0.3131329943627602,0.0017077581888059344,0.009622153507718618,0.13907335104040408
1750769784.556871,-2.0148901140919566,-1.647075,-1.0854931221181339,1.5725500437924356,-0.7409821855905507,-2.310718966335918,0.03612272293373637,-0.10500000000000008,0.06909407506539339,0.0012385123089089084,0.03586489913760424,0.035866987276972705,6.0896692181044765,3.58879558223232,0.31313266199315376,0.001707426739018438,0.00962215350731015,0.13902372051705705
1750769784.5588841,-2.0148901140919566,-1.647075,-1.0854931221181339,1.5725500437924356,-0.7409821855905507,-2.310718966335918,0.03612272293373637,-0.10500000000000008,0.06909407506539339,0.0012385123089089084,0.03586489913760424,0.035866987276972705,6.0896692181044765,3.58879558223232,0.31313266199315376,0.001707426739018438,0.00962215350731015,0.13902372051705705
1750769784.5607183,-2.014817524620157,-1.6472860000000003,-1.085354275929193,1.5725525326124088,-0.7409101142218075,-2.310646890771009,0.036466748866438616,-0.10600000000000008,0.06975211387553999,0.0012503076642318503,0.03620646960558142,0.036208577631991486,6.089025014205273,3.588504661130095,0.31313232702744875,0.0017070919784959167,0.009622153506897746,0.13897361483357062
1750769784.562881,-2.014744247096491,-1.6474989999999998,-1.0852141136626319,1.5725550450230925,-0.7408373597121285,-2.31057413202539,0.03681077479914087,-0.10700000000000008,0.07041015268568661,0.0012621030195547923,0.03654804007355861,0.036550167987010274,6.088374631452281,3.5882109154887867,0.3131319894823364,0.0017067539032872528,0.009622153506481605,0.1389230339887232
1750769784.5648444,-2.01467028152096,-1.6477140000000006,-1.0850726353184506,1.572557581024487,-0.7407639220615136,-2.3105006900990612,0.03715480073184312,-0.10800000000000008,0.07106819149583321,0.0012738983748777344,0.03688961054153579,0.03689175834202906,6.087718067794138,3.5879143434200476,0.31313164937466376,0.001706412509404634,0.009622153506061732,0.1388719779815131
1750769784.566674,-2.0145956278935637,-1.6479309999999998,-1.084929840896649,1.572560140616592,-0.740689801269963,-2.310426564992022,0.03749882666454537,-0.10900000000000008,0.07172623030597981,0.0012856937302006763,0.037231181009512976,0.03723334869704785,6.087055321160465,3.5876149430181665,0.31313130672143863,0.001706067792823847,0.009622153505638132,0.1388204468111961
1750769784.568716,-2.014520286214302,-1.6481500000000002,-1.0847857303972264,1.5725627237994078,-0.7406149973374756,-2.310351756704273,0.03784285259724762,-0.11000000000000008,0.07238426911612642,0.0012974890855236183,0.03757275147749016,0.03757493905206664,6.0863863894618575,3.5873127123600757,0.31313096153982467,0.0017057197494841662,0.00962215350521081,0.13876844047727557
1750769784.5707953,-2.0144442564831753,-1.648371,-1.0846403038201835,1.5725653305729341,-0.7405395102640524,-2.3102762652358138,0.038186878529949876,-0.11100000000000008,0.07304230792627302,0.0013092844408465604,0.037914321945467344,0.037916529407085425,6.085711270589889,3.587007649505359,0.3131306138471439,0.0017053683752884141,0.009622153504779773,0.13871595897951514
1750769784.5740893,-2.0143675387001823,-1.6485940000000001,-1.0844935611655213,1.5725679609371712,-0.7404633400496934,-2.310200090586645,0.03853090446265212,-0.11200000000000009,0.07370034673641962,0.0013210797961695022,0.03825589241344452,0.03825811976210421,6.085029962417121,3.586699752496256,0.3131302636608754,0.0017050136661029875,0.009622153504344828,0.13866300231794448
1750769784.5746145,-2.014290132865325,-1.6488189999999996,-1.084345502433238,1.5725706148921188,-0.7403864866943985,-2.3101232327567653,0.038874930395354376,-0.11300000000000009,0.07435838554656622,0.0013328751514924443,0.038597462881421706,0.038599710117123,6.084342462797144,3.586389019357691,0.31312991099865717,0.0017046556177578835,0.009622153503906569,0.1386095704928657
1750769784.5767508,-2.0142120389786005,-1.6490460000000002,-1.0841961276233345,1.572573292437777,-0.7403089501981679,-2.310045691746176,0.03921895632805663,-0.11400000000000009,0.07501642435671282,0.0013446705068153862,0.03893903334939889,0.03894130047214179,6.083648769564504,3.586075448097262,0.3131295558782838,0.001704294226046716,0.00962215350346441,0.13855566350486387
1750769784.5787182,-2.0141332570400117,-1.6492750000000003,-1.0840454367358117,1.5725759935741461,-0.7402307305610014,-2.309967467554877,0.039562982260758876,-0.11500000000000009,0.07567446316685943,0.0013564658621383282,0.039280603817376074,0.03928289082716058,6.082948880534801,3.5857590367052614,0.3131291983177077,0.001703929486726792,0.009622153503018557,0.13850128135481174
1750769784.580769,-2.0140537870495585,-1.6495059999999997,-1.0838934297706677,1.5725787183012256,-0.7401518277828982,-2.3098885601828676,0.03990700819346113,-0.11600000000000009,0.07633250197700604,0.0013682612174612703,0.03962217428535326,0.039624481182179365,6.08224279350465,3.5854397831546962,0.3131288383350401,0.0017035613955190384,0.009622153502569012,0.1384464240438763
1750769784.5827446,-2.0139736290072383,-1.6497390000000003,-1.0837401067279036,1.5725814666190159,-0.7400722418638601,-2.309808969630148,0.04025103412616338,-0.11700000000000009,0.07699054078715264,0.0013800565727842122,0.03996374475333044,0.03996607153719815,6.081530506251663,3.5851176854012814,0.3131284759485478,0.0017031899481081477,0.009622153502115783,0.1383910915735316
1750769784.584781,-2.0138927829130537,-1.6499740000000003,-1.0835854676075192,1.5725842385275168,-0.7399919728038853,-2.3097286958967187,0.04059506005886563,-0.11800000000000009,0.07764857959729925,0.0013918519281071542,0.040305315221307626,0.04030766189221694,6.080812016534512,3.5847927413834637,0.3131281111766576,0.001702815140142556,0.00962215350165887,0.13833528394556063
1750769784.586707,-2.013811248767002,-1.6502110000000005,-1.0834295124095146,1.5725870340267283,-0.7399110206029746,-2.309647738982579,0.04093908599156788,-0.11900000000000009,0.07830661840744585,0.0014036472834300963,0.04064688568928481,0.04064925224723573,6.080087322092907,3.5844649490224296,0.3131277440379526,0.001702436967234412,0.009622153501198286,0.13827900116206568
1750769784.588751,-2.013729026569087,-1.6504500000000002,-1.0832722411338889,1.5725898531166504,-0.7398293852611282,-2.30956609888773,0.04128311192427014,-0.12000000000000009,0.07896465721759245,0.0014154426387530381,0.04098845615726199,0.04099084260225452,6.079356420647605,3.5841343062221047,0.31312737455117345,0.0017020554249597216,0.009622153500733834,0.13822224322547738
1750769784.5906942,-2.013646116319306,-1.6506910000000001,-1.0831136537806438,1.5725926957972833,-0.7397470667783459,-2.30948377561217,0.041627137856972384,-0.1210000000000001,0.07962269602773905,0.0014272379940759802,0.04133002662523917,0.041332432957273305,6.078619309900404,3.583800810869188,0.31312700273521854,0.0017016705088583146,0.009622153500266111,0.13816501013855972
1750769784.5927022,-2.0135625180176593,-1.6509340000000003,-1.0829537503497786,1.5725955620686267,-0.7396640651546269,-2.309400769155901,0.04197116378967464,-0.1220000000000001,0.08028073483788566,0.001439033349398922,0.041671597093216356,0.04167402331229209,6.077875987534195,3.5834644608331505,0.3131266286091444,0.001701282214433824,0.009622153499794533,0.13810730190442033
1750769784.594681,-2.0134782316641466,-1.651179,-1.0827925308412922,1.572598451930681,-0.739580380389973,-2.3093170795189213,0.042315189722376884,-0.1230000000000001,0.08093877364803226,0.0014508287047218641,0.04201316756119354,0.04201561366731088,6.077126451212896,3.583125253966238,0.3131262521921645,0.0017008905371538687,0.009622153499319303,0.13804911852651672
1750769784.596759,-2.0133932572587696,-1.6514259999999998,-1.0826299952551857,1.5726013653834456,-0.7394960124843823,-2.3092327067012315,0.04265921565507914,-0.1240000000000001,0.08159681245817886,0.0014626240600448062,0.042354738029170724,0.04235720402232967,6.076370698581552,3.582783188103497,0.31312587350365023,0.0017004954724498568,0.009622153498840423,0.13799046000866586
1750769784.598655,-2.0133075948015264,-1.651675,-1.0824661435914598,1.5726043024269212,-0.7394109614378559,-2.309147650702832,0.043003241587781384,-0.12500000000000008,0.08225485126832546,0.001474419415367748,0.0426963084971479,0.04269879437734845,6.0756087272662525,3.582438261062789,0.31312549256313,0.0017000970157172452,0.009622153498357709,0.13793132635504865
1750769784.6056027,-2.013221244292419,-1.6519259999999996,-1.0823009758501128,1.5726072630611072,-0.7393252272503936,-2.309061911523722,0.04334726752048364,-0.12600000000000008,0.08291289007847207,0.00148621477069069,0.043037878965125086,0.04304038473236724,6.0748405348742125,3.582090470644775,0.3131251093902902,0.0016996951623154946,0.009622153497871749,0.1378717175702334
1750769784.6062,-2.013221244292419,-1.6519259999999996,-1.0823009758501128,1.5726072630611072,-0.7393252272503936,-2.309061911523722,0.04334726752048364,-0.12600000000000008,0.08291289007847207,0.00148621477069069,0.043037878965125086,0.04304038473236724,6.0748405348742125,3.582090470644775,0.3131251093902902,0.0016996951623154946,0.009622153497871749,0.1378717175702334
1750769784.6069217,-2.0130464791186053,-1.6524339999999995,-1.081966692134558,1.5726132551016112,-0.7391517094526616,-2.3088883836233727,0.04403531938588814,-0.12800000000000009,0.08422896769876527,0.0015098054813365738,0.043721019901079454,0.04372356544240481,6.0732854771941875,3.5813862907937315,0.3131243364271849,0.0016988812467621092,0.009622153496888552,0.13775107462714697
1750769784.608958,-2.0130464791186053,-1.6524339999999995,-1.081966692134558,1.5726132551016112,-0.7391517094526616,-2.3088883836233727,0.04403531938588814,-0.12800000000000009,0.08422896769876527,0.0015098054813365738,0.043721019901079454,0.04372356544240481,6.0732854771941875,3.5813862907937315,0.3131243364271849,0.0016988812467621092,0.009622153496888552,0.13775107462714697
1750769784.6108205,-2.012958064453901,-1.652691,-1.0817975761603504,1.5726162865079292,-0.739063925842391,-2.3088005949021326,0.04437934531859039,-0.1290000000000001,0.08488700650891187,0.0015216008366595159,0.04406259036905664,0.0440651557974236,6.072498607026146,3.581029896876247,0.3131239466770789,0.0016984691751495027,0.009622153496391523,0.13769004047994793
1750769784.612812,-2.0128689617373308,-1.6529499999999997,-1.0816271441085226,1.5726193415049579,-0.7389754590911854,-2.308712123000183,0.04472337125129264,-0.1300000000000001,0.08554504531905849,0.001533396191982458,0.044404160837033815,0.04440674615244239,6.071705506021242,3.5806706306125977,0.31312355477497394,0.0016980536879457693,0.009622153495890687,0.1376285312236997
1750769784.6146564,-2.012779170968896,-1.6532109999999998,-1.0814553959790745,1.5726224200926973,-0.7388863091990432,-2.3086229679175228,0.04506739718399489,-0.1310000000000001,0.08620308412920509,0.0015451915473053998,0.044745731305011,0.04474833650746118,6.070906171692272,3.5803084897177335,0.31312316074134217,0.0016976347803306896,0.009622153495386634,0.1375665468649629
1750769784.6166112,-2.012688692148595,-1.653474,-1.0812823317720062,1.5726255222711472,-0.7387964761659651,-2.308533129654153,0.045411423116697144,-0.1320000000000001,0.08686112293935169,0.0015569869026283419,0.045087301772988184,0.045089926862479965,6.070100601533149,3.5799434718895062,0.31312276459681593,0.0016972124474482115,0.009622153494878785,0.137504087410726
1750769784.6186187,-2.01259752527643,-1.6537389999999998,-1.0811079514873168,1.5726286480403078,-0.7387059599919512,-2.308442608210073,0.04575544904939939,-0.1330000000000001,0.0875191617494983,0.001568782257951284,0.04542887224096537,0.04543151721749875,6.069288793018956,3.579575574808661,0.313122366362183,0.0016967866844064899,0.009622153494367342,0.13744115286840983
1750769784.6206532,-2.0125056703523976,-1.6540059999999999,-1.080932255125008,1.5726317974001789,-0.7386147606770015,-2.308351403585283,0.046099474982101644,-0.1340000000000001,0.0881772005596449,0.0015805776132742258,0.04577044270894255,0.04577310757251754,6.068470743605919,3.5792047961388724,0.3131219660583895,0.0016963574862778922,0.009622153493852308,0.13737774324587773
1750769784.6228335,-2.012413127376501,-1.6542750000000002,-1.0807552426850782,1.5726349703507607,-0.7385228782211151,-2.308259515779783,0.0464435009148039,-0.1350000000000001,0.0888352393697915,0.0015923729685971679,0.046112013176919736,0.04611469792753633,6.067646450731433,3.5788311335267333,0.3131215637065382,0.0016959248480991145,0.009622153493333695,0.13731385855144948
1750769784.6246984,-2.012319896348739,-1.6545459999999999,-1.080576914167529,1.5726381668920533,-0.7384303126242937,-2.3081669447935727,0.046787526847506145,-0.1360000000000001,0.0894932781799381,0.0016041683239201097,0.04645358364489692,0.04645628828255512,6.066815911814075,3.578454584601792,0.3131211593278896,0.0016954887648710929,0.009622153492811501,0.13724949879390155
1750769784.6276224,-2.012225977269111,-1.6548189999999998,-1.0803972695723587,1.5726413870240565,-0.7383370638865356,-2.3080736906266526,0.0471315527802084,-0.1370000000000001,0.0901513169900847,0.0016159636792430518,0.046795154112874104,0.046797878637573904,6.065979124253605,3.5780751469765524,0.31312075294386194,0.0016950492315591496,0.009622153492285741,0.13718466398248275
1750769784.6288524,-2.0121313701376176,-1.655094,-1.0802163088995682,1.5726446307467703,-0.7382431320078418,-2.3079797532790227,0.04747557871291065,-0.1380000000000001,0.0908093558002313,0.0016277590345659938,0.04713672458085128,0.04713946899259269,6.065136085430954,3.5776928182464776,0.3131203445760296,0.0016946062430929151,0.00962215349175622,0.13711935412692086
1750769784.630792,-2.012036074954259,-1.6553709999999997,-1.0800340321491575,1.5726478980601948,-0.738148516988212,-2.307885132750682,0.0478196046456129,-0.1390000000000001,0.09146739461037792,0.0016395543898889357,0.047478295048828466,0.04748105934761148,6.064286792708276,3.5773075959900256,0.31311993424612583,0.001694159794366481,0.009622153491223532,0.13705356923743242
1750769784.6327643,-2.011940091719035,-1.6556499999999996,-1.0798504393211266,1.5726511889643298,-0.7380532188276465,-2.3077898290416323,0.04816363057831515,-0.1400000000000001,0.09212543342052452,0.0016513497452118778,0.04781986551680565,0.04782264970263027,6.063431243428926,3.5769194777686435,0.31311952197603904,0.0016937098802383593,0.009622153490687098,0.13698730932472947
1750769784.6348367,-2.011843420431946,-1.6559309999999998,-1.0796655304154754,1.5726545034591755,-0.7379572375261452,-2.307693842151872,0.048507656511017405,-0.1410000000000001,0.09278347223067113,0.0016631451005348198,0.048161435984782834,0.048164240057649056,6.062569434917472,3.576528461126792,0.31311910778781715,0.0016932564955315385,0.009622153490147119,0.1369205744000321
1750769784.6369946,-2.0117460610929907,-1.6562140000000003,-1.079479305432204,1.5726578415447319,-0.737860573083708,-2.3075971720814015,0.04885168244371965,-0.1420000000000001,0.09344151104081773,0.0016749404558577617,0.04850300645276002,0.04850583041266784,6.061701364479699,3.5761345435919525,0.3131186917036636,0.0016927996350334872,0.009622153489603602,0.1368533644750742
1750769784.6389759,-2.011648013702171,-1.6564990000000002,-1.0792917643713125,1.572661203220999,-0.7377632255003341,-2.3074998188302214,0.049195708376421905,-0.1430000000000001,0.09409954985096433,0.0016867358111807037,0.0488445769207372,0.048847420767686625,6.060827029402662,3.5757377226746483,0.31311827374594015,0.0016923392934963433,0.009622153489056552,0.13678567956212534
1750769784.640769,-2.0115492782594853,-1.6567860000000003,-1.0791029072327998,1.5726645884879766,-0.7376651947760244,-2.3074017823983306,0.04953973430912416,-0.1440000000000001,0.09475758866111093,0.0016985311665036456,0.04918614738871439,0.04918901112270541,6.059946426954612,3.575337995868446,0.313117853937165,0.0016918754656366087,0.009622153488505978,0.1367175196739725
1750769784.642744,-2.011449854764935,-1.6570749999999999,-1.0789127340166678,1.572667997345665,-0.7375664809107789,-2.3073030627857305,0.049883760241826405,-0.1450000000000001,0.09541562747125754,0.0017103265218265877,0.04952771785669157,0.0495306014777242,6.059059554385088,3.57493536064998,0.31311743230001354,0.0016914081461355931,0.009622153487951885,0.13664888482395884
1750769784.644738,-2.011349743218519,-1.6573659999999997,-1.0787212447229155,1.572671429794064,-0.7374670839045976,-2.3072036599924197,0.05022778617452866,-0.1460000000000001,0.09607366628140414,0.0017221218771495297,0.04986928832466875,0.04987219183274299,6.058166408924879,3.574529814478967,0.31311700885731897,0.001690937329639168,0.009622153487394083,0.13657977502597862
1750769784.646794,-2.0112489436202363,-1.6576589999999998,-1.0785284393515422,1.5726748858331736,-0.7373670037574804,-2.307103574018399,0.05057181210723091,-0.1470000000000001,0.09673170509155074,0.0017339172324724716,0.05021085879264593,0.05021378218776178,6.057266987786036,3.57412135479821,0.3131165836320708,0.0016904630107578973,0.009622153486833167,0.13651019029448963
1750769784.648748,-2.0111474559700895,-1.6579540000000001,-1.0783343179025486,1.5726783654629939,-0.7372662404694275,-2.307002804863669,0.05091583803993316,-0.1480000000000001,0.09738974390169736,0.0017457125877954136,0.050552429260623116,0.050555372542780565,6.056361288161905,3.573709979033617,0.31311615664741616,0.0016899851840671267,0.009622153486268558,0.1364401306445233
1750769784.6507244,-2.0110452802680765,-1.658251,-1.0781388803759357,1.5726818686835249,-0.7371647940404378,-2.3069013525282283,0.05125986397263541,-0.1490000000000001,0.09804778271184396,0.0017575079431183557,0.0508939997286003,0.05089696289779935,6.055449307227119,3.5732956845942274,0.3131157279266583,0.0016895038441069093,0.009622153485700455,0.13636959609169205
1750769784.6528153,-2.010942416514199,-1.65855,-1.0779421267717018,1.5726853954947664,-0.7370626644705132,-2.3067992170120775,0.051603889905337666,-0.1500000000000001,0.09870582152199056,0.0017693032984412976,0.051235570196577485,0.05123855325281814,6.054531042137604,3.572878468872204,0.3131152974932593,0.0016890189853821,0.009622153485128869,0.1362985866522037
1750769784.6591952,-2.010734624850846,-1.659154,-1.0775446713303731,1.5726925198893813,-0.7368563559078547,-2.306592896437646,0.052291941770742166,-0.1520000000000001,0.10002189914228377,0.0017928940090871815,0.05191871113253185,0.051921733962855716,6.052675648024635,3.5720352630646985,0.3131144315831657,0.0016880386894824898,0.009622153483975266,0.1361551431811059
1750769784.6596003,-2.010629696941372,-1.659459,-1.0773439694932785,1.572696117472755,-0.7367521769151217,-2.3064887113793655,0.05263596770344442,-0.1530000000000001,0.10067993795243037,0.0018046893644101236,0.05226028160050904,0.052263324317874504,6.0517385132196235,3.5716092676793525,0.3131139961541781,0.0016875432411417991,0.009622153483393264,0.13608270918496385
1750769784.6607692,-2.0105240809800327,-1.6597660000000003,-1.0771419515785636,1.572699738646839,-0.736647314781453,-2.3063838431403747,0.052979993636146666,-0.1540000000000001,0.10133797676257697,0.0018164847197330656,0.052601852068486214,0.05260491467289329,6.05079508269677,3.571180340411685,0.3131135591079626,0.0016870442517047737,0.00962215348280761,0.13600980037311927
1750769784.662765,-2.010417776966827,-1.660075,-1.0769386175862277,1.5727033834116337,-0.7365417695068475,-2.306278291720674,0.05332401956884892,-0.1550000000000001,0.10199601557272357,0.0018282800750560075,0.0529434225364634,0.05294650502791208,6.049845353518643,3.5707484785697643,0.31311312046876616,0.001686541715500861,0.009622153482218896,0.13593641676489324
1750769784.664858,-2.0103107849017574,-1.660386,-1.0767339675162724,1.5727070517671393,-0.736435541091307,-2.3061720571202633,0.05366804550155117,-0.1560000000000001,0.10265405438287017,0.0018400754303789495,0.05328499300444058,0.05328809538293087,6.048889322729163,3.5703136794448684,0.31311268026099026,0.0016860356268245946,0.009622153481626544,0.13586255838026087
1750769784.666825,-2.0102031047848214,-1.6606990000000001,-1.0765280013686969,1.5727107437133554,-0.7363286295348299,-2.3060651393391423,0.05401207143425342,-0.1570000000000001,0.10331209319301679,0.0018518707857018916,0.05362656347241777,0.053629685737949656,6.047926987353613,3.5698759403115257,0.3131122385091957,0.0016855259799354702,0.009622153481030755,0.13578822523985976
1750769784.6688318,-2.0102031047848214,-1.6606990000000001,-1.0765280013686969,1.5727107437133554,-0.7363286295348299,-2.3060651393391423,0.05401207143425342,-0.1570000000000001,0.10331209319301679,0.0018518707857018916,0.05362656347241777,0.053629685737949656,6.047926987353613,3.5698759403115257,0.3131122385091957,0.0016855259799354702,0.009622153481030755,0.13578822523985976
1750769784.6707962,-2.0100947366160202,-1.6610139999999998,-1.0763207191435002,1.572714459250282,-0.736221034837417,-2.3059575383773114,0.05435609736695567,-0.1580000000000001,0.10397013200316339,0.0018636661410248335,0.05396813394039495,0.053971276092968444,6.0469583443986705,3.5694352584275144,0.3131117952380978,0.0016850127690581475,0.009622153480431536,0.13571341736500225
1750769784.672766,-2.0099856803953537,-1.6613310000000006,-1.0761121208406834,1.5727181983779195,-0.7361127569990682,-2.3058492542347704,0.05470012329965793,-0.1590000000000001,0.10462817081331,0.0018754614963477755,0.054309704408372135,0.05431286644798723,6.045983390852371,3.5689916310338785,0.31311135047257077,0.0016844959883824907,0.009622153479828895,0.1356381347776857
1750769784.6747758,-2.009875936122821,-1.6616499999999998,-1.0759022064602473,1.5727219610962675,-0.7360037960197836,-2.3057402869115196,0.05504414923236017,-0.16000000000000011,0.1052862096234566,0.0018872568516707174,0.05465127487634932,0.05465445680300602,6.045002123684164,3.5685450553549503,0.31311090423764437,0.00168397563206344,0.009622153479222842,0.13556237750060202
1750769784.6767528,-2.009765503798424,-1.6619710000000003,-1.07569097600219,1.5727257474053262,-0.7358941518995632,-2.3056306364075585,0.05538817516506243,-0.16100000000000012,0.1059442484336032,0.0018990522069936594,0.0549928453443265,0.05499604715802481,6.044014539844916,3.5680955285983598,0.31311045655850567,0.001683451694221269,0.00962215347861338,0.1354861455571485
1750769784.6807196,-2.009654383422161,-1.6622940000000002,-1.0754784294665125,1.5727295573050954,-0.7357838246384061,-2.305520302722887,0.05573220109776468,-0.16200000000000012,0.1066022872437498,0.0019108475623166015,0.05533441581230369,0.055337637513043596,6.043020636266882,3.5676430479550567,0.31311000746049844,0.0016829241689414456,0.009622153478000517,0.13540943897144025
1750769784.6811032,-2.0095425749940334,-1.6626190000000003,-1.0752645668532157,1.5727333907955754,-0.735672814236314,-2.305409285857506,0.05607622703046693,-0.16300000000000012,0.1072603260538964,0.0019226429176395434,0.055675986280280865,0.055679227868062384,6.042020409863771,3.5671876105993148,0.3131095569691226,0.001682393050274803,0.009622153477384066,0.13533225776831836
1750769784.6829998,-2.0094300785140398,-1.6629459999999998,-1.075049388162297,1.572737247876766,-0.7355611206932853,-2.305297585811415,0.05642025296316918,-0.16400000000000012,0.107918364864043,0.0019344382729624854,0.05601755674825805,0.05602081822308117,6.041013857530717,3.5667292136887663,0.31310910511003576,0.001681858332237529,0.009622153476764622,0.1352546019733602
1750769784.6848085,-2.009316893982181,-1.6632750000000005,-1.0748328933937588,1.5727411285486672,-0.7354487440093207,-2.305185202584614,0.056764278895871434,-0.16500000000000012,0.10857640367418962,0.0019462336282854275,0.05635912721623523,0.05636240857809996,6.040000976144293,3.566267854364387,0.3131086519090514,0.0016813200088111524,0.009622153476141605,0.13517647161289595
1750769784.6866846,-2.0092030213984557,-1.6636059999999997,-1.0746150825476004,1.572745032811279,-0.7353356841844203,-2.3050721361771025,0.05710830482857368,-0.16600000000000012,0.10923444248433622,0.0019580289836083693,0.05670069768421242,0.05670399893311875,6.038981762562552,3.565803529750561,0.31310819739213935,0.0016807780739426957,0.009622153475515217,0.1350978667140126
1750769784.688763,-2.0090884607628663,-1.663939,-1.0743959556238218,1.5727489606646017,-0.7352219412185841,-2.3049583865888814,0.057452330761275934,-0.16700000000000012,0.10989248129448283,0.001969824338931311,0.0570422681521896,0.057045589288137535,6.037956213625006,3.565336236955037,0.3131077415854273,0.0016802325215446545,0.009622153474885467,0.13501878730456807
1750769784.690782,-2.0089732120754107,-1.6642739999999998,-1.074175512622423,1.5727529121086348,-0.7351075151118112,-2.30484395381995,0.05779635669397819,-0.16800000000000012,0.11055052010462943,0.0019816196942542535,0.057383838620166785,0.05738717964315632,6.036924326152638,3.564865973068996,0.3131072845151987,0.0016796833454950234,0.009622153474252364,0.13493923341320319
1750769784.6927629,-2.0088572753360907,-1.6646109999999998,-1.0739537535434032,1.5727568871433788,-0.7349924058641033,-2.3047288378703086,0.058140382626680434,-0.16900000000000012,0.11120855891477603,0.0019934150495771953,0.05772540908814397,0.05772876999817511,6.035886096947931,3.564392735167035,0.3131068262078932,0.0016791305396373732,0.009622153473615912,0.13485920506935173
1750769784.694767,-2.0087406505449046,-1.6649500000000002,-1.073730678386763,1.572760885768833,-0.7348766134754587,-2.3046130387399573,0.05848440855938269,-0.17000000000000012,0.11186659772492263,0.002005210404900137,0.058066979556121154,0.05807036035319389,6.034841522794878,3.5639165203072065,0.313106366690108,0.0016785740977808402,0.009622153472976121,0.13477870230324596
1750769784.6969824,-2.0086233377018523,-1.6652909999999999,-1.0735062871525036,1.5727649079849984,-0.7347601379458784,-2.304496556428896,0.058828434492084934,-0.17100000000000012,0.11252463653506924,0.0020170057602230795,0.05840855002409833,0.05841195070821268,6.033790600458952,3.5634373255310154,0.3131059059885956,0.0016780140137003872,0.009622153472332803,0.13469772514595119
1750769784.698699,-2.0085053368069357,-1.6656339999999998,-1.073280579840623,1.572768953791874,-0.7346429792753622,-2.3043793909371244,0.05917246042478719,-0.17200000000000013,0.11318267534521584,0.0020288011155460213,0.058750120492075515,0.05875354106323147,6.0327333266872,3.5629551478634487,0.31310544413026636,0.0016774502811363933,0.009622153471686552,0.13461627362933537
1750769784.7006836,-2.0083866478601538,-1.665979,-1.0730535564511223,1.5727730231894606,-0.7345251374639101,-2.304261542264643,0.05951648635748944,-0.17300000000000013,0.11384071415536244,0.002040596470868963,0.0590916909600527,0.059095131418250256,6.031669698208156,3.5624699843129823,0.31310498114218555,0.0016768828937952047,0.009622153471036789,0.13453434778612108
1750769784.7026706,-2.0082672708615057,-1.6663259999999998,-1.0728252169840022,1.5727771161777575,-0.7344066125115223,-2.3041430104114515,0.05986051229019169,-0.17400000000000013,0.11449875296550906,0.0020523918261919055,0.059433261428029883,0.059436721773269044,6.0305997117319174,3.561981831871611,0.3131045170515762,0.0016763118453488551,0.00962215347038372,0.13445194764987559
1750769784.7047274,-2.0081472058109924,-1.6666749999999997,-1.072595561439261,1.5727812327567652,-0.7342874044181986,-2.30402379537755,0.06020453822289394,-0.17500000000000013,0.11515679177565566,0.0020641871815148473,0.05977483189600707,0.05977831212828783,6.029523363950151,3.561490687514854,0.31310405188581625,0.0016757371294352052,0.009622153469727349,0.134369073255028
1750769784.7112944,-2.0080264527086147,-1.667026,-1.0723645898168988,1.5727853729264836,-0.7341675131839382,-2.303903897162938,0.060548564155596195,-0.17600000000000013,0.11581483058580226,0.002075982536837789,0.06011640236398425,0.06011990248330662,6.0284406515360764,3.560996548201772,0.3131035856724416,0.0016751587396580435,0.009622153469067685,0.13428572463688054
1750769784.7116683,-2.0080264527086147,-1.667026,-1.0723645898168988,1.5727853729264836,-0.7341675131839382,-2.303903897162938,0.060548564155596195,-0.17600000000000013,0.11581483058580226,0.002075982536837789,0.06011640236398425,0.06011990248330662,6.0284406515360764,3.560996548201772,0.3131035856724416,0.0016751587396580435,0.009622153469067685,0.13428572463688054
1750769784.7118664,-2.0080264527086147,-1.667026,-1.0723645898168988,1.5727853729264836,-0.7341675131839382,-2.303903897162938,0.060548564155596195,-0.17600000000000013,0.11581483058580226,0.002075982536837789,0.06011640236398425,0.06011990248330662,6.0284406515360764,3.560996548201772,0.3131035856724416,0.0016751587396580435,0.009622153469067685,0.13428572463688054
1750769784.7126,-2.007782882348261,-1.6677340000000003,-1.0718986983393153,1.5727937240380523,-0.7339256812926109,-2.3036620511915853,0.061236616021000695,-0.17800000000000013,0.11713090820609547,0.0020995732474836733,0.06079954329993862,0.060803083193344196,6.026256119411779,3.5599992724607423,0.31310265021376943,0.0016739909127577953,0.009622153467738516,0.13411760487632907
1750769784.7147105,-2.0076600650902865,-1.6680910000000004,-1.0716637784840932,1.5727979349799026,-0.7338037406355422,-2.3035401034348433,0.06158064195370295,-0.17900000000000013,0.11778894701624207,0.002111368602806615,0.0611411137679158,0.061144673548362984,6.025154292955958,3.559496129868808,0.31310218102432374,0.001673401462671964,0.00962215346706883,0.13403283380899983
1750769784.7168462,-2.007536559780446,-1.66845,-1.07142754255125,1.5728021695124634,-0.7336811168375386,-2.3034174724973915,0.061924667886405195,-0.18000000000000013,0.11844698582638867,0.002123163958129557,0.06148268423589298,0.06148626390338177,6.024046088376624,3.55898997999262,0.3131017108989665,0.0016728083127972588,0.009622153466396275,0.13394758866854414
1750769784.7188451,-2.007412366418741,-1.6688109999999998,-1.0711899905407876,1.572806427635735,-0.7335578098985991,-2.30329415837923,0.06226869381910745,-0.18100000000000013,0.11910502463653527,0.0021349593134524993,0.061824254703870166,0.06182785425840056,6.02293150225502,3.558480819709226,0.31310123986601374,0.0016722114565674983,0.009622153465720274,0.13386186949480358
1750769784.7208538,-2.00728748500517,-1.669174,-1.070951122452704,1.5728107093497172,-0.7334338198187229,-2.303170161080358,0.0626127197518097,-0.18200000000000013,0.11976306344668187,0.002146754668775441,0.06216582517184735,0.06216944461341935,6.0218105311540056,3.5579686458793387,0.3131007679539384,0.0016716108873825995,0.00962215346504103,0.13377567632856865
1750769784.7228754,-2.0071619155397338,-1.6695390000000003,-1.0707109382870001,1.5728150146544102,-0.7333091465979118,-2.303045480600776,0.06295674568451196,-0.18300000000000013,0.12042110225682849,0.002158550024098383,0.06250739563982453,0.06251103496843813,6.020683171618121,3.55745345534733,0.3131002951913696,0.001671006598608721,0.009622153464358551,0.13368900921157814
1750769784.72473,-2.0070356580224313,-1.6699060000000001,-1.070469438043677,1.5728193435498137,-0.733183790236164,-2.3029201169404843,0.0633007716172142,-0.18400000000000014,0.1210791410669751,0.0021703453794213253,0.06284896610780172,0.06285262532345692,6.019549420173518,3.55693524494126,0.3130998216070904,0.0016703985835783374,0.009622153463672845,0.13360186818655923
1750769784.7267509,-2.0069087124532654,-1.6702750000000002,-1.0702266217227328,1.5728236960359279,-0.7330577507334803,-2.3027940700994822,0.06364479754991645,-0.18500000000000014,0.1217371798771217,0.002182140734744267,0.0631905365757789,0.0631942156784757,6.018409273328086,3.556414011472889,0.31309934723004296,0.001669786835589937,0.009622153462983922,0.13351425329718053
1750769784.7287564,-2.0067810788322324,-1.6706459999999996,-1.0699824893241683,1.5728280721127526,-0.7329310280898609,-2.3026673400777704,0.06398882348261871,-0.18600000000000014,0.1223952186872683,0.002193936090067209,0.06353210704375609,0.0635358060334945,6.01726272757135,3.5558897517377193,0.31309887208932397,0.0016691713479087583,0.009622153462291788,0.1334261645881557
1750769784.7321608,-2.006652757159334,-1.6710190000000003,-1.0697370408479836,1.5728324717802882,-0.7328036223053056,-2.3025399268753484,0.06433284941532096,-0.18700000000000014,0.1230532574974149,0.0022057314453901512,0.06387367751173327,0.06387739638851328,6.016109779374537,3.555362462514968,0.31309839621418556,0.0016685521137660454,0.009622153461596453,0.13333760210515047
1750769784.7326534,-2.0065237474345707,-1.6713940000000003,-1.0694902762941787,1.5728368950385343,-0.7326755333798136,-2.302411830492216,0.0646768753480232,-0.18800000000000014,0.1237112963075615,0.002217526800713093,0.06421524797971045,0.06421898674353207,6.014950425190609,3.554832140567632,0.31309791963403694,0.0016679291263597676,0.009622153460897927,0.1332485658948996
1750769784.734817,-2.006394049657942,-1.6717709999999997,-1.0692421956627536,1.572841341887491,-0.7325467613133867,-2.302283050928374,0.06502090128072546,-0.18900000000000014,0.1243693351177081,0.002229322156036035,0.06455681844768764,0.06456057709855086,6.013784661454244,3.5542987826424826,0.31309744237844284,0.0016673023788540899,0.009622153460196216,0.13315905600511735
1750769784.7366934,-2.006263663829448,-1.6721500000000002,-1.0689927989537082,1.5728458123271583,-0.7324173061060231,-2.302153588183822,0.06536492721342771,-0.19000000000000014,0.1250273739278547,0.0022411175113589772,0.06489838891566482,0.06490216745356965,6.012612484581811,3.5537623854700735,0.31309696447712276,0.0016666718643800896,0.00962215345949133,0.13306907248461367
1750769784.7386174,-2.0061325899490887,-1.6725310000000002,-1.0687420861670418,1.5728503063575363,-0.7322871677577236,-2.30202344225856,0.06570895314612996,-0.19100000000000014,0.12568541273800132,0.002252912866681919,0.065239959383642,0.06524375780858843,6.011433890971493,3.5532229457648,0.31309648595995465,0.0016660375760349717,0.009622153458782886,0.1329786153831996
1750769784.7406464,-2.006000828016864,-1.6729140000000005,-1.068490057302756,1.572854823978625,-0.7321563462684884,-2.301892613152588,0.06605297907883222,-0.19200000000000014,0.1263434515481479,0.002264708222004861,0.06558152985161918,0.06558534816360723,6.010248877003186,3.5526804602248743,0.3130960068569683,0.0016653995068830487,0.009622153458072068,0.13288768475180776
1750769784.742653,-2.0058683780327726,-1.673299,-1.0682367123608492,1.5728593651904244,-0.7320248416383173,-2.3017611008659054,0.06639700501153446,-0.19300000000000014,0.12700149035829453,0.002276503577327803,0.06592310031959636,0.06592693851862601,6.009057439038554,3.5521349255323686,0.3130955271983547,0.0016647576499548462,0.009622153457357709,0.13279628064240215
1750769784.7446125,-2.0057352399968176,-1.673686,-1.067982051341323,1.5728639299929343,-0.7318926538672104,-2.301628905398513,0.06674103094423671,-0.19400000000000014,0.12765952916844112,0.002288298932650745,0.06626467078757355,0.0662685288736448,6.0078595734210865,3.5515863383532222,0.31309504701445373,0.0016641119982480845,0.00962215345664021,0.13270440310808965
1750769784.7466924,-2.0056014139089964,-1.6740750000000002,-1.0677260742441756,1.572868518386155,-0.7317597829551667,-2.301496026750411,0.06708505687693897,-0.19500000000000015,0.12831756797858773,0.002300094287973687,0.06660624125555073,0.06661011922866358,6.006655276476041,3.551034695337278,0.31309456633576854,0.001663462544726801,0.00962215345591958,0.13261205220303318
1750769784.7488108,-2.00546689976931,-1.6744659999999998,-1.0674687810694081,1.5728731303700862,-0.7316262289021882,-2.3013624649215987,0.06742908280964122,-0.19600000000000015,0.12897560678873435,0.0023118896432966288,0.06694781172352791,0.06695170958368238,6.005444544510465,3.55047999311828,0.31309408519295123,0.0016628092823223206,0.009622153455195825,0.1325192279825689
1750769784.7506292,-2.0053316975777573,-1.6748589999999997,-1.0672101718170204,1.5728777659447282,-0.731491991708273,-2.301228219912076,0.06777310874234346,-0.19700000000000015,0.12963364559888094,0.002323684998619571,0.0672893821915051,0.06729329993870116,6.004227373813273,3.5499222283139096,0.3130936036168124,0.0016621522039324506,0.009622153454468959,0.13242593050311144
1750769784.7527547,-2.0051958073343403,-1.6752539999999998,-1.0669502464870124,1.5728824251100808,-0.7313570713734219,-2.301093291721844,0.06811713467504572,-0.19800000000000015,0.13029168440902755,0.002335480353942513,0.06763095265948228,0.06763489029371995,6.003003760655203,3.5493613975257996,0.3130931216383208,0.001661491302422288,0.009622153453738987,0.13233215982227578
1750769784.7549286,-2.0051958073343403,-1.6752539999999998,-1.0669502464870124,1.5728824251100808,-0.7313570713734219,-2.301093291721844,0.06811713467504572,-0.19800000000000015,0.13029168440902755,0.002335480353942513,0.06763095265948228,0.06763489029371995,6.003003760655203,3.5493613975257996,0.3130931216383208,0.001661491302422288,0.009622153453738987,0.13233215982227578
1750769784.7610471,-2.005059229039057,-1.6756510000000002,-1.0666890050793842,1.572887107866144,-0.731221467897635,-2.3009576803509013,0.06846116060774797,-0.19900000000000015,0.13094972321917414,0.0023472757092654548,0.06797252312745947,0.06797648064873874,6.0017737012888,3.548797497339541,0.3130926392885941,0.0016608265706235673,0.00962215345300592,0.13223791599878476
1750769784.7627518,-2.0046453658420162,-1.6768540000000005,-1.0658973843907784,1.5729012976785974,-0.7308105586246585,-2.3005467471538137,0.06949323840585472,-0.20200000000000015,0.13292383964961396,0.0023826617752342807,0.06899723453139102,0.0690012517137951,5.998044808193549,3.5470873460079115,0.31309119032556837,0.001658809321321982,0.00962215345078824,0.13195234627762478
1750769784.7647107,-2.004506035339272,-1.6772590000000003,-1.0656308786726694,1.5729060747975032,-0.7306722225851274,-2.300408403060031,0.06983726433855697,-0.20300000000000015,0.13358187845976055,0.002394457130557223,0.0693388049993682,0.06934284206881389,5.996788926157139,3.5465111337652075,0.31309070680523543,0.0016581291960302356,0.009622153450042885,0.13185621049469226
1750769784.7667544,-2.0043660167846626,-1.6776660000000003,-1.0653630568769392,1.5729108755071197,-0.7305332034046614,-2.3002693757855384,0.07018129027125923,-0.20400000000000015,0.13423991726990717,0.002406252485880165,0.06968037546734539,0.06968443242383268,5.995526578903512,3.545931834812623,0.3130902230716108,0.0016574452041163725,0.009622153449294478,0.1317596018807263
1750769784.7687335,-2.0043660167846626,-1.6776660000000003,-1.0653630568769392,1.5729108755071197,-0.7305332034046614,-2.3002693757855384,0.07018129027125923,-0.20400000000000015,0.13423991726990717,0.002406252485880165,0.06968037546734539,0.06968443242383268,5.995526578903512,3.545931834812623,0.3130902230716108,0.0016574452041163725,0.009622153449294478,0.1317596018807263
1750769784.7709029,-2.004225310178187,-1.6780749999999998,-1.0650939190035889,1.5729156998074467,-0.7303935010832587,-2.300129665330336,0.07052531620396148,-0.20500000000000015,0.13489795608005378,0.0024180478412031067,0.07002194593532257,0.07002602277885146,5.9942577625765985,3.5453494456400003,0.3130897391567456,0.0016567573382151677,0.009622153448543032,0.1316625205016883
1750769784.7726905,-2.004083915519846,-1.6784860000000004,-1.0648234650526192,1.5729205476984844,-0.7302531156209202,-2.299989271694423,0.07086934213666372,-0.20600000000000016,0.13555599489020037,0.002429843196526049,0.07036351640329976,0.07036761313387026,5.992982473302315,3.544763962721299,0.3130892550928492,0.0016560655909291576,0.009622153447788556,0.13156496642484142
1750769784.7746367,-2.003941832809641,-1.6788990000000004,-1.0645516950240284,1.5729254191802329,-0.730112047017645,-2.2998481948778005,0.07121336806936598,-0.20700000000000016,0.136214033700347,0.002441638551848991,0.07070508687127693,0.07070920348888904,5.9917007071885235,3.5441753825146076,0.31308877091228876,0.0016553699548278393,0.009622153447030669,0.13146693971866721
1750769784.7766209,-2.0037990620475696,-1.6793139999999998,-1.0642786089178173,1.5729303142526918,-0.7299702952734348,-2.2997064348804677,0.07155739400206823,-0.20800000000000016,0.13687207251049358,0.0024534339071719327,0.07104665733925411,0.07105079384390783,5.990412460325005,3.543583701462165,0.31308828664757987,0.0016546704224486325,0.009622153446270548,0.13136844045298146
1750769784.7786152,-2.003655603233632,-1.6797310000000003,-1.064004206733987,1.5729352329158617,-0.729827860388288,-2.2995639917024246,0.07190141993477048,-0.20900000000000016,0.1375301113206402,0.0024652292624948746,0.0713882278072313,0.07139238419892661,5.9891177287835955,3.5429889159903927,0.313087802331401,0.0016539669862960901,0.009622153445507037,0.13126946869884035
1750769784.7806563,-2.0035114563678302,-1.6801500000000003,-1.0637284884725347,1.5729401751697418,-0.7296847423622062,-2.299420865343672,0.07224544586747274,-0.21000000000000016,0.13818815013078678,0.002477024617817817,0.07172979827520848,0.07173397455394541,5.987816508618098,3.542391022509898,0.3130873179965783,0.0016532596388426784,0.009622153444740532,0.13117002452866378
1750769784.7826324,-2.003366621450162,-1.6805710000000005,-1.063451454133463,1.572945141014333,-0.7295409411951876,-2.299277055804209,0.07258947180017498,-0.21100000000000016,0.1388461889409334,0.0024888199731407587,0.07207136874318566,0.07207556490896419,5.986508795864307,3.541790017415506,0.3130868336760996,0.0016525483725281565,0.009622153443971045,0.13107010801614313
1750769784.7852187,-2.003366621450162,-1.6805710000000005,-1.063451454133463,1.572945141014333,-0.7295409411951876,-2.299277055804209,0.07258947180017498,-0.21100000000000016,0.1388461889409334,0.0024888199731407587,0.07207136874318566,0.07207556490896419,5.986508795864307,3.541790017415506,0.3130868336760996,0.0016525483725281565,0.009622153443971045,0.13107010801614313
1750769784.7871017,-2.00322109848063,-1.680994,-1.063173103716771,1.5729501304496345,-0.7293964568872333,-2.299132563084036,0.07293349773287723,-0.21200000000000016,0.13950422775107998,0.0025006153284637006,0.07241293921116285,0.07241715526398297,5.985194586540089,3.5411858970862866,0.3130863494031014,0.0016518331797603114,0.009622153443198583,0.13096971923635092
1750769784.7889585,-2.0030748874592312,-1.681419,-1.062893437222459,1.5729551434756468,-0.7292512894383432,-2.298987387183153,0.07327752366557949,-0.21300000000000016,0.1401622665612266,0.002512410683786643,0.07275450967914003,0.07275874561900177,5.983873876645321,3.5405786578855603,0.3130858652108816,0.0016511140529145438,0.00962215344242316,0.130868858265692
1750769784.7907143,-2.0029279883859665,-1.6818460000000002,-1.0626124546505267,1.5729601800923696,-0.7291054388485163,-2.2988415281015597,0.07362154959828174,-0.21400000000000016,0.14082030537137322,0.0025242060391095847,0.07309608014711722,0.07310033597402055,5.982546662161919,3.5399682961609273,0.31308538113288703,0.0016503909843338346,0.009622153441644781,0.13076752518191992
1750769784.7927225,-2.0027804012608375,-1.6822750000000006,-1.0623301560009732,1.5729652402998031,-0.7289589051177545,-2.2986949858392567,0.07396557553098398,-0.21500000000000016,0.1414783441815198,0.0025360013944325265,0.0734376506150944,0.07344192632903934,5.9812129390539175,3.5393548082442927,0.3130848972027221,0.0016496639663294897,0.009622153440863458,0.13066572006421187
1750769784.7946954,-2.002632126083843,-1.6827059999999996,-1.0620465412738005,1.5729703240979473,-0.728811688246056,-2.298547760396244,0.07430960146368625,-0.21600000000000016,0.14213638299166642,0.002547796749755469,0.07377922108307158,0.07378351668405812,5.979872703267411,3.538738190451889,0.31308441345414845,0.0016489329911802764,0.009622153440079202,0.13056344299308725
1750769784.7967725,-2.0024831628549826,-1.6831390000000006,-1.0617616104690066,1.572975431486802,-0.7286637882334217,-2.298399851772521,0.07465362739638849,-0.21700000000000016,0.142794421801813,0.0025595921050784107,0.07412079155104877,0.07412510703907692,5.978525950730549,3.5381184390842813,0.31308392992107614,0.0016481980511332823,0.009622153439292019,0.13046069405052976
1750769784.7987268,-2.0023335115742578,-1.6835740000000001,-1.0614753635865934,1.5729805624663677,-0.7285152050798516,-2.2982512599680875,0.07499765332909074,-0.21800000000000017,0.14345246061195963,0.0025713874604013525,0.07446236201902595,0.0744666973940957,5.97717267735368,3.537495550426418,0.3130834466375773,0.0016474591384033632,0.009622153438501922,0.13035747331989073
1750769784.8007088,-2.0021831722416668,-1.684011,-1.0611878006265592,1.5729857170366437,-0.7283659387853456,-2.298101984982944,0.075341679261793,-0.21900000000000017,0.14411049942210621,0.002583182815724295,0.07480393248700314,0.0748082877491145,5.9758128790292195,3.536869520747626,0.31308296363787197,0.0016467162451737326,0.00962215343770892,0.130253780886013
1750769784.8028502,-2.0020321448572105,-1.68445,-1.0608989215889046,1.5729908951976306,-0.7282159893499038,-2.297952026817091,0.07568570519449525,-0.22000000000000017,0.14476853823225283,0.0025949781710472367,0.07514550295498032,0.07514987810413327,5.97444655163172,3.5362403463016405,0.3130824809563404,0.0016459693635954295,0.009622153436913026,0.13014961683514192
1750769784.80485,-2.001880429420888,-1.6848910000000004,-1.06060872647363,1.572996096949328,-0.7280653567735262,-2.2978013854705277,0.07602973112719749,-0.22100000000000017,0.14542657704239942,0.0026067735263701785,0.0754870734229575,0.07549146845915207,5.973073691017931,3.53560802332664,0.3130819986275121,0.001645218485788088,0.009622153436114247,0.130044981255041
1750769784.806688,-2.0017280259327013,-1.685334,-1.060317215280735,1.573001322291736,-0.7279140410562119,-2.2976500609432544,0.07637375705989975,-0.22200000000000017,0.14608461585254603,0.002618568881693121,0.07582864389093469,0.07583305881417085,5.971694293026771,3.5349725480452556,0.31308151668607725,0.0016444636038392283,0.009622153435312593,0.12993987423490302
1750769784.8096614,-2.001574934392649,-1.6857790000000001,-1.0600243880102198,1.5730065712248547,-0.7277620421979618,-2.297498053235271,0.076717782992602,-0.22300000000000017,0.14674265466269265,0.0026303642370160626,0.07617021435891186,0.07617464916918965,5.970308353479299,3.53433391666459,0.31308103516687397,0.0016437047098050242,0.009622153434507683,0.1298342958654732
1750769784.81183,-2.001421154800731,-1.6862259999999996,-1.0597302446620844,1.5730118437486842,-0.7276093601987768,-2.2973453623465776,0.07706180892530425,-0.22400000000000017,0.14740069347283924,0.0026421595923390045,0.07651178482688904,0.07651623952420843,5.968915868178825,3.5336921253762577,0.31308055410489816,0.0016429417957097671,0.009622153433700702,0.1297282462389538
1750769784.8137178,-2.001421154800731,-1.6862259999999996,-1.0597302446620844,1.5730118437486842,-0.7276093601987768,-2.2973453623465776,0.07706180892530425,-0.22400000000000017,0.14740069347283924,0.0026421595923390045,0.07651178482688904,0.07651623952420843,5.968915868178825,3.5336921253762577,0.31308055410489816,0.0016429417957097671,0.009622153433700702,0.1297282462389538
1750769784.8146966,-2.0012666871569476,-1.6866750000000001,-1.0594347852363288,1.573017139863224,-0.727455995058655,-2.297191988277174,0.0774058348580065,-0.22500000000000017,0.14805873228298586,0.0026539549476619463,0.07685335529486623,0.07685782987922722,5.967516832910871,3.5330471703563906,0.3130800735353025,0.0016421748535464587,0.009622153432890485,0.12962172544912756
1750769784.816822,-2.0011115314612997,-1.6871260000000001,-1.0591380097329521,1.5730224595684748,-0.7273019467775965,-2.2970379310270608,0.07774986079070875,-0.22600000000000017,0.14871677109313244,0.0026657503029848886,0.07719492576284341,0.077199420234246,5.966111243443158,3.532399047765661,0.313079593493387,0.0016414038752763436,0.009622153432077438,0.12951473359126894
1750769784.8187363,-2.000955687713785,-1.6875790000000004,-1.058839918151956,1.573027802864436,-0.7271472153556031,-2.2968831905962372,0.078093886723411,-0.22700000000000017,0.14937480990327906,0.0026775456583078305,0.0775364962308206,0.0775410105892648,5.964699095525693,3.5317477537493267,0.31307911401461386,0.0016406288528294948,0.009622153431261564,0.12940727076225825
1750769784.8206842,-2.0007991559144056,-1.688034,-1.058540510493339,1.573033169751108,-0.7269918007926739,-2.2967277669847035,0.07843791265611326,-0.22800000000000017,0.15003284871342565,0.0026893410136307723,0.07787806669879778,0.07788260094428358,5.963280384890749,3.531093284437229,0.31307863513459283,0.0016398497781043462,0.009622153430442879,0.12929933706050017
1750769784.8226955,-2.000641936063161,-1.688491,-1.0582397867571025,1.5730385602284906,-0.726835703088808,-2.29657166019246,0.0787819385888155,-0.22900000000000018,0.15069088752357226,0.0027011363689537146,0.07821963716677496,0.07822419129930237,5.961855107252838,3.530435635943818,0.3130781568890926,0.0016390666429683678,0.00962215342962139,0.1291909325860379
1750769784.8245885,-2.0004840281600504,-1.6889500000000002,-1.057937746943245,1.5730439742965838,-0.7266789222440062,-2.2964148702195066,0.07912596452151775,-0.23000000000000018,0.15134892633371885,0.0027129317242766565,0.07856120763475215,0.07856578165432115,5.960423258308808,3.5297748043681967,0.31307767931403174,0.0016382794392573337,0.009622153428797112,0.12908205744046433
1750769784.826566,-2.0003254322050745,-1.6894109999999998,-1.0576343910517672,1.5730494119553877,-0.7265214582582686,-2.2962573970658426,0.07946999045422001,-0.23100000000000018,0.15200696514386547,0.0027247270795995983,0.07890277810272933,0.07890737200933995,5.958984833737811,3.529110785794129,0.31307720244548815,0.0016374881587763403,0.009622153427970051,0.128972711727046
1750769784.82861,-2.0001661481982334,-1.6898739999999997,-1.0573297190826692,1.5730548732049021,-0.7263633111315952,-2.2960992407314693,0.07981401638692226,-0.23200000000000018,0.15266500395401209,0.0027365224349225406,0.07924434857070652,0.07924896236435873,5.957539829201304,3.528443576290052,0.3130767263196875,0.0016366927932988946,0.00962215342714022,0.12886289555063
1750769784.8306224,-2.000006176139527,-1.6903389999999998,-1.057023731035951,1.5730603580451274,-0.726204480863986,-2.2959404012163853,0.0801580423196245,-0.23300000000000018,0.15332304276415867,0.0027483177902454825,0.0795859190386837,0.07959055271937752,5.956088240343114,3.527773171909122,0.3130762509730127,0.0016358933345678609,0.009622153426307628,0.12875260901776556
1750769784.8340158,-1.9998455160289552,-1.6908060000000003,-1.0567164269116125,1.573065866476063,-0.726044967455441,-2.2957808785205915,0.08050206825232677,-0.23400000000000018,0.1539810815743053,0.0027601131455684243,0.07992748950666088,0.0799321430743963,5.954630062789424,3.5270995686892372,0.313075776442003,0.0016350897742946923,0.009622153425472287,0.12864185223661478
1750769784.8346024,-1.9996841678665174,-1.691275,-1.0564078067096538,1.5730713984977096,-0.7258847709059593,-2.295620672644088,0.08084609418502901,-0.23500000000000018,0.15463912038445188,0.0027719085008913666,0.08026905997463807,0.0802737334294151,5.953165292148758,3.526422762653039,0.3130753027633445,0.0016342821041603842,0.00962215342463421,0.12853062531707415
1750769784.836742,-1.9995221316522152,-1.6917460000000002,-1.056097870430075,1.5730769541100666,-0.7257238912155426,-2.2954597835868737,0.08119012011773126,-0.23600000000000018,0.1552971591945985,0.0027837038562143084,0.08061063044261525,0.08061532378443388,5.951693924012087,3.525742749807957,0.3130748299738853,0.0016334703158145379,0.009622153423793401,0.12841892837068314
1750769784.838667,-1.9993594073860468,-1.6922189999999997,-1.0557866180728759,1.5730825333131344,-0.7255623283841892,-2.29529821134895,0.08153414605043352,-0.23700000000000018,0.15595519800474508,0.0027954992115372503,0.08095220091059244,0.08095691413945268,5.950215953952758,3.525059526146234,0.31307435811061946,0.0016326544008764792,0.009622153422949878,0.12830676151074738
1750769784.8407807,-1.9991959950680132,-1.6926940000000004,-1.0554740496380557,1.573088136106913,-0.7254000824119,-2.295135955930316,0.08187817198313577,-0.23800000000000018,0.1566132368148917,0.0028072945668601926,0.08129377137856962,0.08129850449447146,5.9487313775265225,3.5243730876449266,0.3130738872107012,0.0016318343509343408,0.009622153422103647,0.12819412485224999
1750769784.8426511,-1.9990318946981143,-1.6931709999999995,-1.0551601651256162,1.5730937624914019,-0.725237153298675,-2.2949730173309724,0.08222219791583801,-0.23900000000000018,0.1572712756250383,0.0028190899221831344,0.08163534184654679,0.08164009484949024,5.947240190271622,3.523683430265965,0.3130734173114322,0.0016310101575458796,0.00962215342125433,0.1280810185119619
1750769784.8446574,-1.9988671062763501,-1.6936499999999999,-1.0548449645355555,1.5730994124666016,-0.7250735410445142,-2.294809395550918,0.08256622384854027,-0.24000000000000019,0.1579293144351849,0.0028308852775060763,0.08197691231452398,0.08198168520450903,5.945742387708727,3.5229905499561425,0.3130729484502741,0.0016301818122381993,0.00962215342040311,0.12796744260839668
1750769784.8467183,-1.9987016298027198,-1.6941310000000005,-1.0545284478678756,1.573105086032512,-0.7249092456494166,-2.294645090590154,0.08291024978124252,-0.2410000000000002,0.15858735324533152,0.002842680632829018,0.08231848278250116,0.08232327555952781,5.944237965340964,3.5222944426471643,0.31307248066483573,0.0016293493065076495,0.009622153419548826,0.12785339726182568
1750769784.848682,-1.9985354652772251,-1.6946139999999996,-1.0542106151225745,1.5731107831891329,-0.7247442671133841,-2.29448010244868,0.08325427571394477,-0.2420000000000002,0.1592453920554781,0.0028544759881519604,0.08266005325047834,0.08266486591454661,5.942726918653998,3.521595104255669,0.31307201399288265,0.00162851263182046,0.00962215341869188,0.12773888259435684
1750769784.8506553,-1.9983686126998643,-1.695099,-1.0538914662996532,1.5731165039364645,-0.724578605436415,-2.294314431126496,0.08359830164664703,-0.2430000000000002,0.15990343086562472,0.0028662713434749023,0.08300162371845553,0.08300645626956539,5.94120924311597,3.5208925306832426,0.3130715484723357,0.0016276717796120332,0.009622153417832282,0.12762389872985583
1750769784.8527882,-1.9982010720706382,-1.6955860000000005,-1.0535710013991118,1.5731222482745069,-0.7244122606185099,-2.294148076623602,0.08394232757934927,-0.2440000000000002,0.1605614696757713,0.002878066698797844,0.08334319418643271,0.08334804662458419,5.939684934177526,3.520186717816447,0.3130710841412625,0.0016268267412878849,0.009622153416970045,0.1275084457940686
1750769784.8547046,-1.998032843389547,-1.6960750000000004,-1.05324922042095,1.5731280162032597,-0.7242452326596691,-2.2939810389399975,0.08428635351205152,-0.2450000000000002,0.16121950848591793,0.0028898620541207864,0.0836847646544099,0.08368963697960297,5.938153987271911,3.5194776615268575,0.3130706210378918,0.0016259775082228044,0.009622153416105178,0.12739252391452782
1750769784.8566759,-1.9978639266565903,-1.6965659999999998,-1.052926123365168,1.5731338077227233,-0.7240775215598925,-2.2938133180756832,0.08463037944475377,-0.2460000000000002,0.16187754729606452,0.0029016574094437282,0.08402633512238708,0.08403122733462176,5.936616397814882,3.518765357671075,0.313070159200598,0.0016251240717617653,0.009622153415237693,0.12727613322067793
1750769784.8586998,-1.9976943218717675,-1.6970590000000003,-1.052601710231766,1.5731396228328975,-0.72390912731918,-2.293644914030659,0.08497440537745603,-0.2470000000000002,0.16253558610621113,0.00291345276476667,0.08436790559036426,0.08437281768964054,5.935072161204792,3.5180498020907494,0.31306969866791523,0.0016242664232192581,0.0096221534143676,0.12715927384378467
1750769784.8648424,-1.9976943218717675,-1.6970590000000003,-1.052601710231766,1.5731396228328975,-0.72390912731918,-2.293644914030659,0.08497440537745603,-0.2470000000000002,0.16253558610621113,0.00291345276476667,0.08436790559036426,0.08437281768964054,5.935072161204792,3.5180498020907494,0.31306969866791523,0.0016242664232192581,0.0096221534143676,0.12715927384378467
1750769784.8652115,-1.9976943218717675,-1.6970590000000003,-1.052601710231766,1.5731396228328975,-0.72390912731918,-2.293644914030659,0.08497440537745603,-0.2470000000000002,0.16253558610621113,0.00291345276476667,0.08436790559036426,0.08437281768964054,5.935072161204792,3.5180498020907494,0.31306969866791523,0.0016242664232192581,0.0096221534143676,0.12715927384378467
1750769784.8666668,-1.9973530481465271,-1.6980510000000004,-1.051948935732101,1.5731513238253778,-0.7235702894149458,-2.2933060563984804,0.08566245724286052,-0.2490000000000002,0.16385166372650434,0.0029370434754125542,0.08505104652631863,0.08505599839967812,5.9319637280317785,3.5166089190485192,0.31306878167126473,0.0016225384549984824,0.009622153412619645,0.12692414957557202
1750769784.8687396,-1.9971813792061086,-1.69855,-1.0516205743658373,1.573157209707684,-0.7233998457514259,-2.293135602811326,0.08600648317556277,-0.25000000000000017,0.16450970253665093,0.002948838830735496,0.0853926169942958,0.0853975887546969,5.9303995221785994,3.515883583195438,0.3130683252851241,0.0016216681177993943,0.009622153411741411,0.12680588495635559
1750769784.8706906,-1.9970090222138248,-1.6990509999999999,-1.0512908969219543,1.5731631191807007,-0.7232287189469693,-2.2929644660434616,0.08635050910826501,-0.25100000000000017,0.16516774134679754,0.002960634186058438,0.08573418746227299,0.0857391791097157,5.928828650591848,3.515154978835483,0.3130678703592468,0.0016207935334775236,0.009622153410861398,0.1266871521983717
