mathias31415/primitives_from_planned_trajectory_python/data/saved_trajectories/trajectory_20250618_094231_planned.csv
time_from_start,shoulder_pan_joint_pos,shoulder_lift_joint_pos,elbow_joint_pos,wrist_1_joint_pos,wrist_2_joint_pos,wrist_3_joint_pos,shoulder_pan_joint_vel,shoulder_lift_joint_vel,elbow_joint_vel,wrist_1_joint_vel,wrist_2_joint_vel,wrist_3_joint_vel,shoulder_pan_joint_acc,shoulder_lift_joint_acc,elbow_joint_acc,wrist_1_joint_acc,wrist_2_joint_acc,wrist_3_joint_acc,fk_x,fk_y,fk_z,fk_qx,fk_qy,fk_qz,fk_qw
0.0,-1.6006999999999998,-1.7271,-2.2029999999999994,-0.8079999999999998,1.5951,-0.030999999999999694,-0.0005,-8.002991607413189e-05,0.0002362867234006737,-0.00015677069583732085,-1.6158606394087772e-05,-0.0004997837576752391,-0.5,-0.08002991607413189,0.2362867234006737,-0.15677069583732084,-0.016158606394087772,-0.49978375767523914,-0.18963153692348156,-0.6096838816511918,0.2609711486943511,-0.0003918678270918309,0.9998434779226772,0.01247829832752396,0.012536274005463676
0.1,-1.6032,-1.7275001495803706,-2.2018185663829963,-0.8087838534791865,1.5950192069680296,-0.03349891878837588,-0.04999999999999999,-0.008002991607413187,0.023628672340067363,-0.015677069583732082,-0.001615860639408777,-0.049978375767523904,-0.5,-0.08002991607413197,0.2362867234006747,-0.15677069583732217,-0.01615860639408798,-0.49978375767523825,-0.19118265456190037,-0.6097657727566538,0.2612473002770564,-0.00039183127225173524,0.9998439513669696,0.012449546269913053,0.012527097860735043
0.2,-1.6106999999999998,-1.7287005983214825,-2.198274265531986,-0.8111354139167463,1.5947768278721182,-0.04099567515350447,-0.0999999999999996,-0.016005983214826314,0.047257344680134546,-0.031354139167464046,-0.0032317212788175414,-0.09995675153504743,-0.49999999999965306,-0.08002991607407646,0.23628672340050122,-0.15677069583721115,-0.01615860639407649,-0.49978375767488437,-0.19584547160250176,-0.6099861568409118,0.2620766610279892,-0.0003917222235153999,0.9998453619012778,0.012364033422901165,0.012499180601931562
0.30000000000000004,-1.6231999999999998,-1.730701346223336,-2.192367097446969,-0.8150546813126792,1.5943728627122662,-0.05349026909538539,-0.15000000000000208,-0.024008974822239897,0.07088601702020308,-0.0470312087511969,-0.004847581918226399,-0.1499351273025738,-0.5000000000027478,-0.08002991607456912,0.23628672340196533,-0.15677069583817912,-0.016158606394175802,-0.49978375767795136,-0.20364765542285246,-0.6102687132335923,0.2634619377656925,-0.00039154252834573916,0.9998476801298646,0.01222399825636419,0.012451389480899971
0.4,-1.6406999999999996,-1.7335023932859306,-2.1840970621279454,-0.8205416556669854,1.5938073114884728,-0.07098270061401862,-0.19999999999999774,-0.032011966429652386,0.0945146893602684,-0.06270827833492762,-0.006463442557635035,-0.1999135030700934,-0.4999999999990008,-0.08002991607396197,0.23628672340018897,-0.1567706958369995,-0.01615860639405437,-0.4997837576742321,-0.21463287743053264,-0.6104847612079899,0.26540760444146294,-0.0003912952662225884,0.9998508570597262,0.012033198151188505,0.012381949248791196
0.5,-1.6615548200527361,-1.7368404122830539,-2.1742416279332017,-0.8270805049694446,1.5931333418311695,-0.09182850127721374,-0.2094395102393152,-0.033522852854119364,0.09897555125017928,-0.06566795551209026,-0.00676850121865522,-0.20934893086613338,4.324707556650119e-12,6.861314873531439e-13,-2.037602598806306e-12,1.344540490368787e-12,1.394787493230507e-13,4.296985072312618e-12,-0.22781335906699293,-0.6104655749490142,0.2677357486816486,-0.0003910071721274083,0.9998545385164989,0.011813871120390474,0.01229558337376275
0.6000000000000001,-1.6824987710766677,-1.7401926975684656,-2.1643440728081837,-0.8336473005206537,1.5924564917093038,-0.11276339436382732,-0.2094395102393333,-0.03352285285412226,0.09897555125018782,-0.06566795551209592,-0.006768501218655805,-0.20934893086615144,-1.3750352231400378e-11,-2.2039375048313105e-12,6.500922577143929e-12,-4.3108463144813684e-12,-4.444260770355591e-13,-1.3750352231400378e-11,-0.24114100413711992,-0.6101396911233683,0.2700841199676637,-0.00039072503740888976,0.9998581213335516,0.011602476431236493,0.012205207001464855
0.7000000000000001,-1.7034427221006005,-1.7435449828538778,-2.1544465176831658,-0.8402140960718631,1.5917796415874386,-0.13369828745044177,-0.2094395102393333,-0.03352285285412226,0.09897555125018782,-0.06566795551209592,-0.006768501218655805,-0.20934893086615144,-1.3750352231400378e-11,-2.2039375048313105e-12,6.500922577143929e-12,-4.3108463144813684e-12,-4.444260770355591e-13,-1.3750352231400378e-11,-0.254552173048302,-0.6095026506901223,0.2724426785429932,-0.00039045010977422647,0.9998615895326148,0.011400023476812762,0.012111514800094581
0.8,-1.724386673124533,-1.74689726813929,-2.1445489625581473,-0.8467808916230725,1.5911027914655729,-0.15463318053705621,-0.2094395102393333,-0.03352285285412226,0.09897555125018782,-0.06566795551209592,-0.006768501218655805,-0.20934893086615144,-1.3750352231400378e-11,-2.2039375048313105e-12,6.500922577143929e-12,-4.3108463144813684e-12,-4.444260770355591e-13,-1.3750352231400378e-11,-0.268039226775707,-0.608550751177717,0.2748113121367497,-0.0003901823903188636,0.9998649431134201,0.011206555373344659,0.012014841121027686
0.9,-1.7453306241484658,-1.7502495534247022,-2.134651407433129,-0.8533476871742819,1.5904259413437074,-0.17556807362367066,-0.2094395102393333,-0.03352285285412226,0.09897555125018782,-0.06566795551209592,-0.006768501218655805,-0.20934893086615144,-1.3750352231400378e-11,-2.2039375048313105e-12,6.500922577143929e-12,-4.3108463144813684e-12,-4.444260770355591e-13,-1.3750352231400378e-11,-0.2815944042369614,-0.6072804843279733,0.27718990783433306,-0.0003899218801356879,0.9998681820757126,0.01102210516590208,0.011915520603345532
1.0,-1.7662745751723983,-1.7536018387101142,-2.1247538523081104,-0.8599144827254912,1.589749091221842,-0.19650296671028492,-0.20943951023934354,-0.0335228528541239,0.09897555125019267,-0.06566795551209914,-0.006768501218656136,-0.2093489308661617,-2.397994895194082e-11,-3.846494701828657e-12,1.1338496094039069e-11,-7.526654497632292e-12,-7.753632338145605e-13,-2.397994895194082e-11,-0.2952098273465539,-0.6056885397098637,0.2795783520823954,-0.00038966858031684565,0.9998713064192504,0.01084669583659703,0.011813887898889146
1.1,-1.7872185261963314,-1.7569541239955266,-2.1148562971830915,-0.8664812782767007,1.5890722410999762,-0.21743785979689986,-0.20943951023934354,-0.0335228528541239,0.09897555125019267,-0.06566795551209914,-0.006768501218656136,-0.2093489308661617,-2.397994895194082e-11,-3.846494701828657e-12,1.1338496094039069e-11,-7.526654497632292e-12,-7.753632338145605e-13,-2.397994895194082e-11,-0.30887750617182713,-0.6037718081996853,0.2819765306938351,-0.00038942249195222597,0.9998743161438044,0.010680340319877921,0.011710277397813046
1.2,-1.8081624772202645,-1.7603064092809386,-2.1049587420580727,-0.8730480738279102,1.5883953909781108,-0.2383727528835149,-0.2094395102394034,-0.03352285285413325,0.09897555125022095,-0.0656679555121179,-0.006768501218658295,-0.20934893086622153,-1.761034728000355e-10,-2.7709199641435103e-11,8.321500964872624e-11,-5.5214440925888036e-11,-6.16245607167563e-12,-1.7604519898375487e-10,-0.3225893441869783,-0.6015273853248712,0.28438432885281956,-0.000389183616130247,0.9998772112491596,0.01052304152489791,0.011605022954812848
1.3,-1.8291064282441978,-1.7636586945663508,-2.095061186933054,-0.8796148693791198,1.587718540856245,-0.25930764597012984,-0.20943951023934354,-0.03352285285412367,0.09897555125019267,-0.06566795551209914,-0.006768501218656361,-0.2093489308661617,-2.397994895194082e-11,-3.839564080744282e-12,1.1338496094039069e-11,-7.526654497632292e-12,-7.753632338145605e-13,-2.397994895194082e-11,-0.3363371436214374,-0.5989525744687488,0.28680163111983703,-0.0003889519539374411,0.9998799917351133,0.01037479236493918,0.011498457616202126
1.4,-1.8500503792681309,-1.767010979851763,-2.0851636318080358,-0.8861816649303293,1.5870416907343794,-0.28024253905674484,-0.20943951023934354,-0.03352285285412367,0.09897555125019267,-0.06566795551209914,-0.006768501218656361,-0.2093489308661617,-2.397994895194082e-11,-3.839564080744282e-12,1.1338496094039069e-11,-7.526654497632292e-12,-7.753632338145605e-13,-2.397994895194082e-11,-0.35011261089889845,-0.5960448899336734,0.28922832143678,-0.0003887275064591284,0.9998826576014767,0.010235575793861399,0.011390913348015326
1.5,-1.870994330292064,-1.770363265137175,-2.075266076683017,-0.892748460481539,1.586364840612514,-0.3011774321433598,-0.20943951023934354,-0.03352285285412367,0.09897555125019267,-0.06566795551209914,-0.006768501218656361,-0.2093489308661617,-2.397994895194082e-11,-3.839564080744282e-12,1.1338496094039069e-11,-7.526654497632292e-12,-7.753632338145605e-13,-2.397994895194082e-11,-0.3639073621632291,-0.592802059860048,0.2916642831320555,-0.0003885102747785586,0.9998852088480736,0.010105364849550491,0.011282720765310202
1.6,-1.8919382813159973,-1.7737155504225874,-2.0653685215579984,-0.8993152560327484,1.5856879904906482,-0.32211232522997474,-0.20943951023934354,-0.03352285285412367,0.09897555125019267,-0.06566795551209914,-0.006768501218656361,-0.2093489308661617,-2.397994895194082e-11,-3.839564080744282e-12,1.1338496094039069e-11,-7.526654497632292e-12,-7.753632338145605e-13,-2.397994895194082e-11,-0.3777129288874007,-0.5892220289988532,0.29410939892572224,-0.00038830025997754286,0.9998876454747416,0.009984122704327879,0.011174208862843331
1.7000000000000002,-1.9128822323399304,-1.7770678357079994,-2.0554709664329796,-0.905882051583958,1.5850111403687825,-0.34304721831658974,-0.20943951023934354,-0.03352285285412367,0.09897555125019267,-0.06566795551209914,-0.006768501218656361,-0.2093489308661617,-2.397994895194082e-11,-3.839564080744282e-12,1.1338496094039069e-11,-7.526654497632292e-12,-7.753632338145605e-13,-2.397994895194082e-11,-0.39152076356152915,-0.585302961335411,0.2965635509346617,-0.00038809746313615785,0.9998899674813311,0.009871802722281331,0.011065704747292135
1.8,-1.9338261833638635,-1.7804201209934116,-2.0455734113079607,-0.9124488471351675,1.584334290246917,-0.36398211140320463,-0.20943951023934354,-0.03352285285412367,0.09897555125019267,-0.06566795551209914,-0.006768501218656361,-0.2093489308661617,-2.397994895194082e-11,-3.839564080744282e-12,1.1338496094039069e-11,-7.526654497632292e-12,-7.753632338145605e-13,-2.397994895194082e-11,-0.40532224545605,-0.5810432425622085,0.2990266206777711,-0.00038790188533282193,0.9998921748677057,0.009768348523478227,0.01095753337119475
1.9,-1.9547701343877963,-1.7837724062788238,-2.035675856182942,-0.919015642686377,1.5836574401250516,-0.3849170044898197,-0.20943951023934354,-0.03352285285412367,0.09897555125019267,-0.06566795551209914,-0.006768501218656361,-0.2093489308661617,-2.397994895194082e-11,-3.839564080744282e-12,1.1338496094039069e-11,-7.526654497632292e-12,-7.753632338145605e-13,-2.397994895194082e-11,-0.4191086864559935,-0.5764414823987185,0.30149848908118904,-0.0003877135276444363,0.9998942676337422,0.00967369405500933,0.010850017268777469
2.0,-1.9757140854117297,-1.787124691564236,-2.0257783010579233,-0.9255824382375866,1.582980590003186,-0.4058518975764346,-0.20943951023934354,-0.03352285285412367,0.09897555125019267,-0.06566795551209914,-0.006768501218656361,-0.2093489308661617,-2.397994895194082e-11,-3.839564080744282e-12,1.1338496094039069e-11,-7.526654497632292e-12,-7.753632338145605e-13,-2.397994895194082e-11,-0.4328713369622721,-0.5714965167562603,0.30397903648354724,-0.00038753239114565016,0.9998962457793311,0.009587763668813505,0.010743476293840362
2.1,-1.996658036435663,-1.7904769768496482,-2.0158807459329044,-0.9321492337887961,1.5823037398813204,-0.4267867906630496,-0.20943951023934354,-0.03352285285412367,0.09897555125019267,-0.06566795551209914,-0.006768501218656361,-0.2093489308661617,-2.397994895194082e-11,-3.839564080744282e-12,1.1338496094039069e-11,-7.526654497632292e-12,-7.753632338145605e-13,-2.397994895194082e-11,-0.44660139185583525,-0.5662074097460573,0.30646814264124944,-0.0003873584769102225,0.9998981093043754,0.009510472206227649,0.010638227359868394
2.2,-2.017601987459596,-1.7938292621350607,-2.005983190807886,-0.9387160293400056,1.5816268897594548,-0.44772168374966453,-0.2094395102393439,-0.033522852854123916,0.0989755512501925,-0.0656679555120992,-0.006768501218656141,-0.20934893086616183,-2.434034124832837e-11,-3.895009049419289e-12,1.1504831000064093e-11,-7.637544434982306e-12,-7.866254930766714e-13,-2.434034124832837e-11,-0.46028999652050645,-0.5605734555287495,0.308965686733778,-0.00038719178601017627,0.9998998582087918,0.009441725089204406,0.01053458418253419
2.3,-2.038545938483529,-1.7971815474204726,-1.9960856356828673,-0.9452828248912152,1.580950039637589,-0.46865657683627954,-0.2094395102393439,-0.033522852854123916,0.0989755512501925,-0.0656679555120992,-0.006768501218656141,-0.20934893086616183,-2.434034124832837e-11,-3.895009049419289e-12,1.1504831000064093e-11,-7.637544434982306e-12,-7.866254930766714e-13,-2.434034124832837e-11,-0.47392825292025986,-0.5545941800037424,0.3114715473690286,-0.000387032319515023,0.9999014924925098,0.009381418418127698,0.010432857024757759
2.4,-2.0594898895074625,-1.8005338327058849,-1.9861880805578485,-0.9518496204424247,1.5802731895157236,-0.4895914699228945,-0.2094395102393439,-0.033522852854123916,0.0989755512501925,-0.0656679555120992,-0.006768501218656141,-0.20934893086616183,-2.434034124832837e-11,-3.895009049419289e-12,1.1504831000064093e-11,-7.637544434982306e-12,-7.866254930766714e-13,-2.434034124832837e-11,-0.48750722572665667,-0.5482693423368876,0.31398560258866964,-0.00038688007849349825,0.9999030121554725,0.00932943907616699,0.010333352444487147
2.5,-2.0804338405313954,-1.803886117991297,-1.9762905254328298,-0.9584164159936341,1.579596339393858,-0.5105263630095094,-0.2094395102393439,-0.033522852854123916,0.0989755512501925,-0.0656679555120992,-0.006768501218656141,-0.20934893086616183,-2.434034124832837e-11,-3.895009049419289e-12,1.1504831000064093e-11,-7.637544434982306e-12,-7.866254930766714e-13,-2.434034124832837e-11,-0.5010179484921213,-0.54159893632509,0.3165077298735296,-0.0003867350640126475,0.9999044171976359,0.009285664840091561,0.010236373045359671
2.6,-2.1013777915553287,-1.8072384032767093,-1.9663929703078113,-0.9649832115448439,1.5789194892719924,-0.5314612560961244,-0.2094395102393439,-0.033522852854123916,0.0989755512501925,-0.0656679555120992,-0.006768501218656141,-0.20934893086616183,-2.434034124832837e-11,-3.895009049419289e-12,1.1504831000064093e-11,-7.637544434982306e-12,-7.866254930766714e-13,-2.434034124832837e-11,-0.5144514298646988,-0.5345831915965729,0.319037806149012,-0.0003865972771372302,0.9999057076189694,0.00924996449747307,0.010142217230406769
2.7,-2.122321742579262,-1.8105906885621215,-1.9564954151827925,-0.9715500070960533,1.5782426391501267,-0.5523961491827394,-0.2094395102393439,-0.033522852854123916,0.0989755512501925,-0.0656679555120992,-0.006768501218656141,-0.20934893086616183,-2.434034124832837e-11,-3.895009049419289e-12,1.1504831000064093e-11,-7.637544434982306e-12,-7.866254930766714e-13,-2.434034124832837e-11,-0.5277986598398965,-0.5272225746456355,0.32157570779053485,-0.00038646671893077583,0.9999068834194555,0.009222197970194832,0.010051178958955489
2.8,-2.143265693603195,-1.8139429738475337,-1.9465978600577738,-0.9781168026472629,1.5775657890282613,-0.5733310422693544,-0.2094395102393439,-0.033522852854123916,0.0989755512501925,-0.0656679555120992,-0.006768501218656141,-0.20934893086616183,-2.434034124832837e-11,-3.895009049419289e-12,1.1504831000064093e-11,-7.637544434982306e-12,-7.866254930766714e-13,-2.434034124832837e-11,-0.5410506160451909,-0.5195177897008599,0.32412131062899463,-0.0003863433904552523,0.9999079445990899,0.009202216444189117,0.00996354750688956
2.9,-2.164209644627128,-1.8172952591329459,-1.9367003049327551,-0.9846835981984724,1.5768889389063956,-0.5942659353559694,-0.2094395102393439,-0.033522852854123916,0.0989755512501925,-0.0656679555120992,-0.006768501218656141,-0.20934893086616183,-2.434034124832837e-11,-3.895009049419289e-12,1.1504831000064093e-11,-7.637544434982306e-12,-7.866254930766714e-13,-2.434034124832837e-11,-0.5541982700527451,-0.5114697794258419,0.3266744899562611,-0.0003862272927705674,0.9999088911578817,0.009189862505308361,0.009879607230415305
3.0,-2.1851535956510615,-1.820647544418358,-1.9268027498077365,-0.9912503937496819,1.57621208878453,-0.6152008284425843,-0.2094395102393439,-0.033522852854123916,0.0989755512501925,-0.0656679555120992,-0.006768501218656141,-0.20934893086616183,-2.434034124832837e-11,-3.895009049419289e-12,1.1504831000064093e-11,-7.637544434982306e-12,-7.866254930766714e-13,-2.434034124832837e-11,-0.5672325937158605,-0.5030797254516406,0.3292351205306908,-0.0003861184269351668,0.9999097230958528,0.009184970281246587,0.00979963733349187
3.1,-2.2060975466749944,-1.8239998297037703,-1.916905194682718,-0.9978171893008915,1.5755352386626644,-0.6361357215291992,-0.2094395102393439,-0.033522852854123916,0.0989755512501925,-0.0656679555120992,-0.006768501218656141,-0.20934893086616183,-2.434034124832837e-11,-3.895009049419289e-12,1.1504831000064093e-11,-7.637544434982306e-12,-7.866254930766714e-13,-2.434034124832837e-11,-0.5801445655246638,-0.4943490487402623,0.3318030765826724,-0.0003860167940061602,0.9999104404130386,0.009187365589412704,0.009723911639069799
3.2,-2.2270414976989277,-1.8273521149891823,-1.9070076395576994,-1.004383984852101,1.574858388540799,-0.6570706146158142,-0.2094395102393439,-0.033522852854123916,0.0989755512501925,-0.0656679555120992,-0.006768501218656364,-0.20934893086616183,-2.434034124832837e-11,-3.895009049419289e-12,1.1504831000064093e-11,-7.637544434982306e-12,-7.866254930766714e-13,-2.434034124832837e-11,-0.592925176976516,-0.4852794097786095,0.334378231820192,-0.00038592239503826753,0.9999110431094875,0.00919686609065935,0.009652698364287036
3.3,-2.2479854487228605,-1.8307044002745945,-1.8971100844326805,-1.0109507804033104,1.5741815384189333,-0.6780055077024292,-0.2094395102393439,-0.033522852854123916,0.0989755512501925,-0.0656679555120992,-0.006768501218656364,-0.20934893086616183,-2.434034124832837e-11,-3.895009049419289e-12,1.1504831000064093e-11,-7.637544434982306e-12,-7.866254930766714e-13,-2.434034124832837e-11,-0.6055654389566051,-0.475872708602456,0.336960459434425,-0.000385835231085403,0.9999115311852615,0.009213281448766306,0.00958625989976789
3.4,-2.268929399746793,-1.8340566855600067,-1.8872125293076625,-1.0175175759545196,1.573504688297068,-0.6989404007890426,-0.20943951023930285,-0.03352285285411735,0.0989755512501731,-0.06566795551208632,-0.006768501218655038,-0.2093489308661208,1.6661213086832415e-11,2.6613584963991877e-12,-7.873185551847598e-12,5.225688297617155e-12,5.379894616744452e-13,1.6633490602494926e-11,-0.6180563881241876,-0.4661310846501204,0.339549632105353,-0.00038575530319852433,0.9999119046404354,0.009236413495571754,0.009524852593164978
3.5,-2.2898733507707236,-1.8374089708454182,-1.877314974182645,-1.0240843715057286,1.5728278381752023,-0.7198752938756554,-0.20943951023930285,-0.03352285285411735,0.0989755512501731,-0.06566795551208632,-0.006768501218655038,-0.2093489308661208,1.6661213086832415e-11,2.6613584963991877e-12,-7.873185551847598e-12,5.225688297617155e-12,5.379894616744452e-13,1.6633490602494926e-11,-0.6303890932999207,-0.45605691644564006,0.34214562200740606,-0.0003856826124290765,0.9999121634750974,0.009266056401644483,0.009468726537082823
3.6,-2.3108173017946547,-1.8407612561308302,-1.8674174190576271,-1.0306511670569374,1.5721509880533366,-0.7408101869622684,-0.20943951023930285,-0.03352285285411735,0.0989755512501731,-0.06566795551208632,-0.006768501218655038,-0.2093489308661208,1.6661213086832415e-11,2.6613584963991877e-12,-7.873185551847598e-12,5.225688297617155e-12,5.379894616744452e-13,1.6633490602494926e-11,-0.6425546618497319,-0.4456528211113613,0.3447483008151244,-0.00038561715982459306,0.9999123076893487,0.009301996852386618,0.009418125361525607
3.7,-2.331761252818586,-1.8441135414162422,-1.8575198639326094,-1.0372179626081464,1.5714741379314712,-0.7617450800488812,-0.20943951023930285,-0.03352285285411735,0.0989755512501731,-0.06566795551208632,-0.006768501218655038,-0.2093489308661208,1.6661213086832415e-11,2.6613584963991877e-12,-7.873185551847598e-12,5.225688297617155e-12,5.379894616744452e-13,1.6633490602494926e-11,-0.6545442460606586,-0.43492165370999863,0.3473575397088494,-0.00038555894643200035,0.999912337283304,0.009344014229448756,0.009373286030995048
3.8,-2.352705203842517,-1.847465826701654,-1.8476223088075918,-1.0437847581593553,1.5707972878096057,-0.7826799731354942,-0.20943951023930285,-0.03352285285411735,0.0989755512501731,-0.06566795551208632,-0.006768501218655038,-0.2093489308661208,1.6661213086832415e-11,2.6613584963991877e-12,-7.873185551847598e-12,5.225688297617155e-12,5.379894616744452e-13,1.6633490602494926e-11,-0.6663490495041128,-0.42386650641631335,0.3499732093804348,-0.0003855079732966895,0.9999122522570908,0.009391880797342185,0.00933443864637482
3.9,-2.373649154866448,-1.850818111987066,-1.837724753682574,-1.050351553710564,1.57012043768774,-0.8036148662221073,-0.20943951023930285,-0.03352285285411735,0.0989755512501731,-0.06566795551208632,-0.006768501218655038,-0.2093489308661208,1.6661213086832415e-11,2.6613584963991877e-12,-7.873185551847598e-12,5.225688297617155e-12,5.379894616744452e-13,1.6633490602494926e-11,-0.6779603333820065,-0.4124907075187089,0.3525951800389815,-0.00038546424146196145,0.9999120526108504,0.009445361895125825,0.009301806251728903
4.0,-2.394593105890379,-1.854170397272478,-1.8278271985575565,-1.0569183492617729,1.5694435875658748,-0.82454975930872,-0.20943951023948865,-0.033522852854147085,0.0989755512502609,-0.06566795551214458,-0.006768501218661042,-0.20934893086630652,-1.6891309706841087e-10,-2.7036352850150616e-11,7.98268936498423e-11,-5.296380632680108e-11,-5.458730431581615e-12,-1.6885765209973587e-10,-0.6893694228511951,-0.4007978202511468,0.35522332141659685,-0.0003854277519695012,0.9999117383447365,0.009504216133043008,0.00927560464613861
4.1,-2.41553705691431,-1.8575226825578897,-1.8179296434325385,-1.063485144812982,1.568766737444009,-0.8454846523953332,-0.20943951023930285,-0.03352285285411735,0.0989755512501731,-0.06566795551208632,-0.006768501218655038,-0.2093489308661208,1.6661213086832415e-11,2.6613584963991877e-12,-7.873185551847598e-12,5.225688297617155e-12,5.379894616744452e-13,1.6633490602494926e-11,-0.7005677133217071,-0.38879164145591155,0.3578575027741754,-0.0003853985058598356,0.9999113094589169,0.009568195593981846,0.009256042200698575
4.2,-2.4364810079382413,-1.8608749678433014,-1.808032088307521,-1.0700519403641906,1.5680898873221436,-0.8664195454819459,-0.2094395102393027,-0.03352285285411733,0.09897555125017327,-0.06566795551208628,-0.006768501218654809,-0.20934893086612066,1.6799825508519872e-11,2.6821503596523064e-12,-7.92863052052258e-12,5.2672720241233925e-12,5.431874274877248e-13,1.6772103024182383e-11,-0.7115466767242347,-0.3764762000778795,0.36049759290720185,-0.00038537650417092034,0.9999107659535719,0.009637046039627652,0.009243319680795605
4.3,-2.457424958962173,-1.8642272531287134,-1.7981345331825032,-1.0766187359153996,1.567413037200278,-0.8873544385685588,-0.2094395102393027,-0.03352285285411733,0.09897555125017327,-0.06566795551208628,-0.006768501218654809,-0.20934893086612066,1.6799825508519872e-11,2.6821503596523064e-12,-7.92863052052258e-12,5.2672720241233925e-12,5.431874274877248e-13,1.6772103024182383e-11,-0.7222978677423854,-0.3638557554910588,0.36314346015157867,-0.00038536174793963907,0.9999101078288952,0.009710507121175866,0.009237630073781105
4.4,-2.478368909986104,-1.8675795384141252,-1.7882369780574854,-1.0831855314666086,1.5667361870784124,-0.9082893316551719,-0.2094395102393027,-0.03352285285411733,0.09897555125017327,-0.06566795551208628,-0.006768501218654809,-0.20934893086612066,1.6799825508519872e-11,2.6821503596523064e-12,-7.92863052052258e-12,5.2672720241233925e-12,5.431874274877248e-13,1.6772103024182383e-11,-0.7328129300052105,-0.35093479565829705,0.3657949723894727,-0.0003853542382016104,0.9999093350850938,0.00978831259446667,0.009239158422152175
4.5,-2.499312861010035,-1.8709318236995371,-1.778339422932468,-1.0897523270178175,1.566059336956547,-0.9292242247417846,-0.2094395102393027,-0.03352285285411733,0.09897555125017327,-0.06566795551208628,-0.006768501218654809,-0.20934893086612066,1.6799825508519872e-11,2.6821503596523064e-12,-7.92863052052258e-12,5.2672720241233925e-12,5.431874274877248e-13,1.6772103024182383e-11,-0.7430836022355566,-0.33771803512516324,0.3684519970551853,-0.00038535397598985703,0.9999084477223881,0.009870190539406515,0.009248081662350928
4.6,-2.520256812033966,-1.8742841089849491,-1.76844186780745,-1.0963191225690263,1.5653824868346815,-0.9501591178283977,-0.2094395102393027,-0.03352285285411733,0.09897555125017327,-0.06566795551208628,-0.006768501218654809,-0.20934893086612066,1.6799825508519872e-11,2.6821503596523064e-12,-7.92863052052258e-12,5.2672720241233925e-12,5.431874274877248e-13,1.6772103024182383e-11,-0.7531017243497993,-0.324210412849139,0.3711144011410445,-0.00038536096233656944,0.999907445741011,0.009955863583531064,0.009264568469285975
4.7,-2.5412007630578968,-1.8776363942703607,-1.7585443126824323,-1.1028859181202353,1.564705636712816,-0.9710940109150106,-0.2094395102393027,-0.03352285285411733,0.09897555125017327,-0.06566795551208628,-0.006768501218654809,-0.20934893086612066,1.6799825508519872e-11,2.6821503596523064e-12,-7.92863052052258e-12,5.2672720241233925e-12,5.431874274877248e-13,1.6772103024182383e-11,-0.7628592435045718,-0.31041708986536637,0.37378205120331615,-0.0003853751982716633,0.9999063291412094,0.010045049129569989,0.009288779106681643
4.8,-2.5621447140818283,-1.8809886795557726,-1.7486467575574145,-1.1094527136714443,1.5640287865909506,-0.9920289040016235,-0.2094395102393027,-0.03352285285411733,0.09897555125017327,-0.06566795551208628,-0.006768501218654809,-0.20934893086612066,1.6799825508519872e-11,2.6821503596523064e-12,-7.92863052052258e-12,5.2672720241233925e-12,5.431874274877248e-13,1.6772103024182383e-11,-0.7723482200861074,-0.2963434467903179,0.3764548133681379,-0.0003853966848231975,0.9999050979232428,0.010137459586863094,0.009320865283349937
4.9,-2.583088665105759,-1.8843409648411844,-1.738749202432397,-1.116019509222653,1.563351936469085,-1.0129637970882364,-0.2094395102393027,-0.03352285285411733,0.09897555125017327,-0.06566795551208628,-0.006768501218654809,-0.20934893086612066,1.6799825508519872e-11,2.6821503596523064e-12,-7.92863052052258e-12,5.2672720241233925e-12,5.431874274877248e-13,1.6772103024182383e-11,-0.7815608336378751,-0.28199508116487587,0.37913255333747486,-0.0003854254230185962,0.9999037520873844,0.010232802606481881,0.00936097001548232
5.0,-2.6040326161296905,-1.8876932501265964,-1.7288516473073792,-1.122586304773862,1.5626750863472196,-1.0338986901748493,-0.2094395102393027,-0.03352285285411733,0.09897555125017327,-0.06566795551208628,-0.006768501218654809,-0.20934893086612066,1.6799825508519872e-11,2.6821503596523064e-12,-7.92863052052258e-12,5.2672720241233925e-12,5.431874274877248e-13,1.6772103024182383e-11,-0.7904893887222137,-0.2673778046384117,0.38181513639509285,-0.0003854614138824295,0.9999022916339202,0.010330781319905103,0.009409227495054675
5.1,-2.6249765671536216,-1.8910455354120081,-1.7189540921823614,-1.129153100325071,1.561998236225354,-1.0548335832614621,-0.2094395102393027,-0.03352285285411733,0.09897555125017327,-0.06566795551208628,-0.006768501218654809,-0.20934893086612066,1.6799825508519872e-11,2.6821503596523064e-12,-7.92863052052258e-12,5.2672720241233925e-12,5.431874274877248e-13,1.6772103024182383e-11,-0.7991263207117141,-0.25249763999558883,0.3845024274125545,-0.0003855046584385245,0.9999007165631495,0.010431094581094234,0.009465762964429837
5.2,-2.6459205181775527,-1.8943978206974201,-1.7090565370573436,-1.1357198958762798,1.5613213861034885,-1.075768476348075,-0.2094395102393023,-0.0335228528541171,0.09897555125017327,-0.06566795551208628,-0.006768501218655034,-0.20934893086612066,1.7215662773582246e-11,2.7583871915804084e-12,-8.136549153053767e-12,5.392023203642105e-12,5.570486696564707e-13,1.7215662773582246e-11,-0.8074642015061517,-0.23736081802770453,0.3871942908552338,-0.00038555515770863347,0.999899026875385,0.010533437211814248,0.009530692597245247
5.3,-2.666864469201484,-1.897750105982832,-1.6991589819323258,-1.1422866914274885,1.560644535981623,-1.0967033694346882,-0.2094395102393023,-0.0335228528541171,0.09897555125017327,-0.06566795551208628,-0.006768501218655034,-0.20934893086612066,1.7215662773582246e-11,2.7583871915804084e-12,-8.136549153053767e-12,5.392023203642105e-12,5.570486696564707e-13,1.7215662773582246e-11,-0.8154957451708142,-0.22197377425051795,0.38989059078835064,-0.0003856129127128518,0.9998972225709525,0.0106375002500427,0.009604123385663178
5.4,-2.687808420225415,-1.9011023912682439,-1.6892614268073083,-1.1488534869786975,1.5599676858597573,-1.117638262521301,-0.2094395102393023,-0.0335228528541171,0.09897555125017327,-0.06566795551208628,-0.006768501218655034,-0.20934893086612066,1.7215662773582246e-11,2.7583871915804084e-12,-8.136549153053767e-12,5.392023203642105e-12,5.570486696564707e-13,1.7215662773582246e-11,-0.8232138134921193,-0.20634314547060742,0.3925911908830264,-0.00038567792446956336,0.9998953036501907,0.010742971201306982,0.009686153034063163
5.5,-2.708752371249346,-1.9044546765536556,-1.6793638716822903,-1.1554202825299063,1.5592908357378916,-1.1385731556079137,-0.2094395102393023,-0.0335228528541171,0.09897555125017327,-0.06566795551208628,-0.006768501218655034,-0.20934893086612066,1.7215662773582246e-11,2.7583871915804084e-12,-8.136549153053767e-12,5.392023203642105e-12,5.570486696564707e-13,1.7215662773582246e-11,-0.8306114214464829,-0.19047576620241868,0.3952959544223563,-0.00038575019399535865,0.9998932701134521,0.010849534292788402,0.009776869859245299
5.6,-2.729696322273277,-1.9078069618390674,-1.6694663165572727,-1.1619870780811152,1.5586139856160264,-1.1595080486945268,-0.2094395102393023,-0.0335228528541171,0.09897555125017327,-0.06566795551208628,-0.006768501218655034,-0.20934893086612066,1.7215662773582246e-11,2.7583871915804084e-12,-8.136549153053767e-12,5.392023203642105e-12,5.570486696564707e-13,1.7215662773582246e-11,-0.8376817425784414,-0.17437866493826826,0.3980047443075013,-0.00038582972230572936,0.9998911219611017,0.010956870730032733,0.009876352697219565
5.7,-2.750640273297208,-1.9111592471244794,-1.659568761432255,-1.1685538736323242,1.5579371354941607,-1.1804429417811397,-0.2094395102393023,-0.0335228528541171,0.09897555125017327,-0.06566795551208628,-0.006768501218655034,-0.20934893086612066,1.7215662773582246e-11,2.7583871915804084e-12,-8.136549153053767e-12,5.392023203642105e-12,5.570486696564707e-13,1.7215662773582246e-11,-0.8444181142841054,-0.15805906027367414,0.40071742306380104,-0.00038591651041377937,0.9998888591935183,0.011064658956099606,0.009984670816636544
5.8,-2.7715842243211393,-1.9145115324098911,-1.6496712063072372,-1.1751206691835332,1.5572602853722954,-1.2013778348677526,-0.2094395102393023,-0.0335228528541171,0.09897555125017327,-0.06566795551208628,-0.006768501218655034,-0.20934893086612066,1.7215662773582246e-11,2.7583871915804084e-12,-8.136549153053767e-12,5.392023203642105e-12,5.570486696564707e-13,1.7215662773582246e-11,-0.8508140429960761,-0.1415243568904921,0.403433852846902,-0.000386010559331433,0.9998864818110936,0.011172574912985466,0.010101883838930811
5.9,-2.79252817534507,-1.9178638176953031,-1.6397736511822196,-1.181687464734742,1.5565834352504297,-1.2223127279543657,-0.2094395102393023,-0.0335228528541171,0.09897555125017327,-0.06566795551208628,-0.006768501218655034,-0.20934893086612066,1.7215662773582246e-11,2.7583871915804084e-12,-8.136549153053767e-12,5.392023203642105e-12,5.570486696564707e-13,1.7215662773582246e-11,-0.856863209266027,-0.12478214140043521,0.4061538954489047,-0.00038611187006900547,0.9998839898142325,0.01128029230515552,0.010228041665225653
6.0,-2.8134721263690015,-1.9212161029807149,-1.6298760960572019,-1.188254260285951,1.5559065851285643,-1.2432476210409784,-0.2094395102393023,-0.0335228528541171,0.09897555125017327,-0.06566795551208628,-0.006768501218655034,-0.20934893086612066,1.7215662773582246e-11,2.7583871915804084e-12,-8.136549153053767e-12,5.392023203642105e-12,5.570486696564707e-13,1.7215662773582246e-11,-0.8625594727412216,-0.10784017805165787,0.4088774123045309,-0.0003862204436340253,0.9998813832033533,0.01138748286500995,0.0103631844100554
6.1,-2.8344160773929326,-1.9245683882661266,-1.619978540932184,-1.1948210558371597,1.5552297350066986,-1.2641825141275913,-0.2094395102393023,-0.0335228528541171,0.09897555125017327,-0.06566795551208628,-0.006768501218655034,-0.20934893086612066,1.7215662773582246e-11,2.7583871915804084e-12,-8.136549153053767e-12,5.392023203642105e-12,5.570486696564707e-13,1.7215662773582246e-11,-0.8678968770313066,-0.09070640430118734,0.41160426449730503,-0.000386336281034135,0.9998786619788873,0.011493816620121179,0.010507342341953638
6.2,-2.8553600284168636,-1.9279206735515386,-1.610080985807166,-1.2013878513883687,1.5545528848848331,-1.2851174072142044,-0.20943951023930285,-0.03352285285411735,0.0989755512501731,-0.06566795551208632,-0.006768501218654814,-0.2093489308661208,1.6661213086832415e-11,2.6613584963991877e-12,-7.873185551847598e-12,5.225688297617155e-12,5.379894616744452e-13,1.6633490602494926e-11,-0.8728696544617998,-0.07338892625607193,0.41433431276575594,-0.00038645938327427557,0.9998758261412789,0.011598962162064566,0.010660535830951251
6.3,-2.876303979440795,-1.9312729588369506,-1.6001834306821485,-1.2079546469395777,1.5538760347629677,-1.3060523003008175,-0.20943951023930285,-0.03352285285411735,0.0989755512501731,-0.06566795551208632,-0.006768501218654814,-0.2093489308661208,1.6661213086832415e-11,2.6613584963991877e-12,-7.873185551847598e-12,5.225688297617155e-12,5.379894616744452e-13,1.6633490602494926e-11,-0.8774722307107602,-0.05589601398622656,0.41706741750963283,-0.0003865897513574089,0.999872875690986,0.011702586916674855,0.010822775303024158
6.4,-2.897247930464726,-1.9346252441223624,-1.5902858755571307,-1.2145214424907866,1.553199184641102,-1.3269871933874304,-0.20943951023930285,-0.03352285285411735,0.0989755512501731,-0.06566795551208632,-0.006768501218654814,-0.2093489308661208,1.6661213086832415e-11,2.6613584963991877e-12,-7.873185551847598e-12,5.225688297617155e-12,5.379894616744452e-13,1.6633490602494926e-11,-0.8816992293252203,-0.03823609671203878,0.4198034387961426,-0.00038672738628594855,0.9998698106284796,0.011804357415551713,0.010994061201526543
6.5,-2.918191881488659,-1.9379775294077746,-1.580388320432112,-1.221088238041996,1.5525223345192365,-1.3479220864740453,-0.20943951023938495,-0.03352285285413049,0.0989755512502119,-0.06566795551211206,-0.006768501218657468,-0.20934893086620288,-6.534189558352552e-11,-1.0458307216327961e-11,3.0882847551992974e-11,-2.0486915925424422e-11,-2.1121067754645105e-12,-6.534189558352552e-11,-0.8855454761140247,-0.02041775786988281,0.42254223636619737,-0.0003868722890591789,0.9998666309542438,0.011903939568642085,0.011174383955644558
6.6,-2.939135832512595,-1.9413298146931872,-1.5704907653070923,-1.2276550335932064,1.5518454843973708,-1.3688569795606629,-0.20943951023938495,-0.03352285285413049,0.0989755512502119,-0.06566795551211206,-0.006768501218657468,-0.20934893086620288,-6.534189558352552e-11,-1.0458307216327961e-11,3.0882847551992974e-11,-2.0486915925424422e-11,-2.1121067754645105e-12,-6.534189558352552e-11,-0.8890060034138211,-0.002449730058807083,0.4252836696406834,-0.0003870244606758177,0.9998633366687759,0.012000998937724203,0.011363723955892845
6.7,-2.9600797835365302,-1.9446820999785994,-1.560593210182073,-1.2342218291444165,1.551168634275505,-1.3897918726472795,-0.20943951023938495,-0.03352285285413049,0.0989755512502119,-0.06566795551211206,-0.006768501218657468,-0.20934893086620288,-6.534189558352552e-11,-1.0458307216327961e-11,3.0882847551992974e-11,-2.0486915925424422e-11,-2.1121067754645105e-12,-6.534189558352552e-11,-0.8920760542250229,0.015659110128291617,0.42802759772674426,-0.0003871839021326008,0.9998599277725865,0.012095201010615852,0.01156205153668087
6.8,-2.981023734560465,-1.948034385264012,-1.5506956550570532,-1.2407886246956266,1.5504917841536394,-1.4107267657338964,-0.20943951023938495,-0.03352285285413049,0.0989755512502119,-0.06566795551211206,-0.006768501218657468,-0.20934893086620288,-6.534189558352552e-11,-1.0458307216327961e-11,3.0882847551992974e-11,-2.0486915925424422e-11,-2.1121067754645105e-12,-6.534189558352552e-11,-0.894751086214661,0.033899747385592524,0.4307738794240784,-0.0003873506144249149,0.9998564042661994,0.012186211475932938,0.011769326965967915
6.9,-3.0019676855844004,-1.9513866705494247,-1.5407980999320336,-1.2473554202468369,1.549814934031774,-1.4316616588205135,-0.20943951023938495,-0.03352285285413049,0.0989755512502119,-0.06566795551211206,-0.006768501218657468,-0.20934893086620288,-6.534189558352552e-11,-1.0458307216327961e-11,3.0882847551992974e-11,-2.0486915925424422e-11,-2.1121067754645105e-12,-6.534189558352552e-11,-0.8970267755831253,0.052263033083859864,0.43352237323125536,-0.00038752459854541103,0.9998527661501514,0.012273696498220002,0.011985500442019735
7.0,-3.021912290962496,-1.954579000738506,-1.5313728090234144,-1.2536088795734863,1.5491703799757937,-1.451597638462942,-0.17750000000001168,-0.028410620206318654,0.08388178680724438,-0.055653597022252504,-0.0057363052699015305,-0.17742323397472137,0.4999999999877598,0.08002991607217452,-0.23628672339489393,0.15677069583348524,0.01615860639369211,0.49978375766301875,-0.8988189102945899,0.06985563538398964,0.4361416485890119,-0.000387697041520171,0.9998491950909983,0.01235342531186136,0.012199575810289067
7.1,-3.037194999164509,-1.9570251484480912,-1.5241506069319297,-1.2584006411717032,1.5486764854428499,-1.466873737128255,-0.12749999999993275,-0.020407628598892846,0.06025311446713981,-0.039976527438495696,-0.004120444630490204,-0.12744485820711865,0.5000000000668077,0.08002991608482243,-0.23628672343223736,0.15677069585825665,0.016158606396246018,0.4997837577419835,-0.8999424678004979,0.08340061675549951,0.4381498825331812,-0.0003878336409059282,0.999846388407787,0.01241197129351851,0.0123689992149965
7.2,-3.0474777073665225,-1.958670996996935,-1.5192912720744516,-1.2616246958115467,1.5483441769738466,-1.4771519982168155,-0.07750000000003157,-0.012404636991495483,0.03662444212711922,-0.024299457854794607,-0.0025045839910846227,-0.07746648243969355,0.49999999996803945,0.08002991606901394,-0.23628672338556467,0.1567706958272983,0.01615860639305452,0.4997837576432849,-0.9005757110275383,0.09254356900735504,0.4395016404207682,-0.00038792772923064683,0.9998444656368478,0.012450047468616377,0.012485606331779253
7.3,-3.052760415568536,-1.9595165463850375,-1.5167948044509805,-1.263281043493017,1.5481734545687844,-1.4824324217286238,-0.027499999999975523,-0.004401645384073331,0.012995769787025442,-0.008622388271044964,-0.0008887233516740355,-0.027488106672113658,0.5000000000256427,0.08002991607823556,-0.236286723412791,0.15677069584536035,0.01615860639491647,0.49978375770087,-0.9008624862182713,0.09724950157575735,0.44019626781962906,-0.000387976748666427,0.9998434670774837,0.012469182305840338,0.012546326519858804
7.355654164,-3.053534762062291,-1.9596404881548526,-1.516428868859408,-1.2635238331703074,1.5481484298483739,-1.4832064333294068,-1.5101083851738228e-16,-2.417076946566075e-17,7.136371246252077e-17,-4.734814846669458e-17,-4.880249401687054e-18,-1.5094552864781198e-16,0.5000000002155094,0.0800299161086262,-0.2362867235025169,0.1567706959048918,0.01615860640105242,0.4997837578906549,-0.900902318287599,0.09793979044113378,0.44029809651913043,-0.000387983972896339,0.999843320094583,0.012471962320110023,0.012555273257232864
