mathias31415/primitives_from_planned_trajectory_python/data/saved_trajectories/trajectory_20250617_163418_executed.csv
timestamp,shoulder_lift_joint_pos,elbow_joint_pos,wrist_1_joint_pos,wrist_2_joint_pos,wrist_3_joint_pos,shoulder_pan_joint_pos,shoulder_lift_joint_vel,elbow_joint_vel,wrist_1_joint_vel,wrist_2_joint_vel,wrist_3_joint_vel,shoulder_pan_joint_vel,shoulder_lift_joint_eff,elbow_joint_eff,wrist_1_joint_eff,wrist_2_joint_eff,wrist_3_joint_eff,shoulder_pan_joint_eff
1750170870.5183532,-1.7271,-2.2029999999999994,-0.8079999999999998,1.5951,-0.030999999999999694,-1.6006999999999998,0.0,0.0,0.0,0.0,0.0,0.0,3.621137313700035,3.121199266827123,0.30055339469883446,0.0020055341419326616,0.0,1.208170004274665e-16
1750170870.5200408,-1.7271,-2.2029999999999994,-0.8079999999999998,1.5951,-0.030999999999999694,-1.6006999999999998,0.0,0.0,0.0,0.0,0.0,0.0,3.621137313700035,3.121199266827123,0.30055339469883446,0.0020055341419326616,0.0,1.208170004274665e-16
1750170870.5206034,-1.7271,-2.2029999999999994,-0.8079999999999998,1.5951,-0.030999999999999694,-1.6006999999999998,0.0,0.0,0.0,0.0,0.0,0.0,3.621137313700035,3.121199266827123,0.30055339469883446,0.0020055341419326616,0.0,1.208170004274665e-16
1750170870.5221598,-1.7271,-2.2029999999999994,-0.8079999999999998,1.5951,-0.030999999999999694,-1.6006999999999998,0.0,0.0,0.0,0.0,0.0,0.0,3.621137313700035,3.121199266827123,0.30055339469883446,0.0020055341419326616,0.0,1.208170004274665e-16
1750170870.5241818,-1.7271,-2.2029999999999994,-0.8079999999999998,1.5951,-0.030999999999999694,-1.6006999999999998,0.0,0.0,0.0,0.0,0.0,0.0,3.621137313700035,3.121199266827123,0.30055339469883446,0.0020055341419326616,0.0,1.208170004274665e-16
1750170870.5262415,-1.7271,-2.2029999999999994,-0.8079999999999998,1.5951,-0.030999999999999694,-1.6006999999999998,0.0,0.0,0.0,0.0,0.0,0.0,3.621137313700035,3.121199266827123,0.30055339469883446,0.0020055341419326616,0.0,1.208170004274665e-16
1750170870.5279903,-1.7271,-2.2029999999999994,-0.8079999999999998,1.5951,-0.030999999999999694,-1.6006999999999998,0.0,0.0,0.0,0.0,0.0,0.0,3.621137313700035,3.121199266827123,0.30055339469883446,0.0020055341419326616,0.0,1.208170004274665e-16
1750170870.5304005,-1.7271,-2.2029999999999994,-0.8079999999999998,1.5951,-0.030999999999999694,-1.6006999999999998,0.0,0.0,0.0,0.0,0.0,0.0,3.621137313700035,3.121199266827123,0.30055339469883446,0.0020055341419326616,0.0,1.208170004274665e-16
1750170870.532458,-1.7271,-2.2029999999999994,-0.8079999999999998,1.5951,-0.030999999999999694,-1.6006999999999998,0.0,0.0,0.0,0.0,0.0,0.0,3.621137313700035,3.121199266827123,0.30055339469883446,0.0020055341419326616,0.0,1.208170004274665e-16
1750170870.5348015,-1.7270993959277128,-2.202996095799156,-0.8080140503966451,1.5951091329762603,-0.03101102401439615,-1.6007017612562011,0.0003020215938282356,0.0019521094888535837,-0.00702522254225056,0.004566457913552671,-0.005512023434015406,-0.0008806220358391972,3.7198155350357878,3.3075494909575656,0.2050801018352559,0.06608893170165933,-0.07767341870483979,-0.1437471105476637
1750170870.5368576,-1.7270986409191966,-2.2029912154970983,-0.8080316135286871,1.5951205490266163,-0.03102480412371822,-1.6007039627923376,0.00045297782909270483,0.0029281982346288844,-0.010537924637096328,0.006849573556492791,-0.008268096035418967,-0.0013209103102085698,3.71980613705006,3.307567230667261,0.2050768784142246,0.06608733551001515,-0.07767479053477445,-0.1437402127586085
1750170870.5384796,-1.7270975840600453,-2.2029843829790163,-0.808056202167851,1.5951365311798327,-0.03104409644724626,-1.6007070448792469,0.0006038685905525545,0.003904327781435292,-0.014050735718942465,0.009132553218972578,-0.011024241698991867,-0.001761171291362127,3.7197911134398267,3.307592389306596,0.20507213592372459,0.06608484633438731,-0.07767684843140255,-0.143729749052749
1750170870.5403295,-1.7270962255030327,-2.202975598149706,-0.8080878165684382,1.5951570791186165,-0.031068901155459017,-1.600711007453242,0.0007546720538703772,0.004880511728649815,-0.01756369211417442,0.01141535156778473,-0.013780484780278948,-0.002201395879971359,3.7197704648495926,3.3076249662864092,0.20506587431714385,0.06608146403168537,-0.07767959242157756,-0.1437157190755857
1750170870.5432074,-1.7270962255030327,-2.202975598149706,-0.8080878165684382,1.5951570791186165,-0.031068901155459017,-1.600711007453242,0.0007546720538703772,0.004880511728649815,-0.01756369211417442,0.01141535156778473,-0.013780484780278948,-0.002201395879971359,3.7197704648495926,3.3076249662864092,0.20506587431714385,0.06608146403168537,-0.07767959242157756,-0.1437157190755857
1750170870.5440006,-1.7270945654445784,-2.2029648608867696,-0.8081264570573996,1.5951821924350025,-0.03109921846755004,-1.6007158504324375,0.0009053663949686549,0.0058567636748327314,-0.02107683014720362,0.01369792326418474,-0.016536849636088286,-0.002641574975348729,3.7197441921257632,3.30766496084136,0.20505809352706703,0.06607718840987865,-0.07768302254088448,-0.14369812235648788
1750170870.546448,-1.72709260412475,-2.202952171040609,-0.8081721240343338,1.5952118706303415,-0.03113504865142591,-1.6007215737167462,0.0010559297900595698,0.006833097217488475,-0.024590186139586866,0.015980222962596324,-0.019293360624829538,-0.003081699475104177,3.7197122962888325,3.307712372024915,0.2050487934839464,0.06607201923247352,-0.07768713883444034,-0.1436769583047553
1750170870.548497,-1.7270903418272638,-2.202937528434438,-0.8082248179714764,1.5952461131152853,-0.031176392023711585,-1.6007281771878716,0.0012063404157034183,0.007809525952886006,-0.028103796409717625,0.018262205309183696,-0.022050042106795273,-0.0035217602747956976,3.719674778543938,3.3077671987185164,0.20503797409963032,0.06606595621472144,-0.07769194135528673,-0.14365222620795765
1750170870.550518,-1.7270877788794827,-2.2029209328642727,-0.8082845394137008,1.5952849192097684,-0.031223248949756588,-1.600735660709307,0.0013565764488885435,0.008786063475861191,-0.03161769727220541,0.02054382494052701,-0.024806918444519176,-0.003961748267616416,3.7196316402928495,3.3078294396314454,0.20502563527678092,0.06605899902647044,-0.07769743016655635,-0.14362392524559509
1750170870.5526335,-1.7270849156524122,-2.2029023840989463,-0.8083512889785007,1.595328288142988,-0.031275619843636804,-1.6007440241263309,0.0015066160670827752,0.009762723379575207,-0.03513192503736748,0.022825036482167542,-0.02756401400304373,-0.004401654344024861,3.719582883116836,3.307899093288853,0.20501177690480776,0.06605114728858182,-0.07770360533892233,-0.1435920544688497
1750170870.5545983,-1.7270817525607054,-2.2028818818801064,-0.808425067355989,1.5953762190533798,-0.03133350516816069,-1.600753267265997,0.0016564374482694233,0.010739519255328274,-0.038646516010561356,0.025105794547364606,-0.030321353150293953,-0.004841469391425125,3.7195285087754457,3.30797615804431,0.2049963988650637,0.06604240057884549,-0.0777104669535868,-0.14355661281658388
1750170870.5562282,-1.727078290062658,-2.2028594259222185,-0.8085058753088816,1.595428710988593,-0.031396905434877276,-1.6007633899371339,0.0018060187710478128,0.011716464692352022,-0.042161506491783816,0.027386053735592795,-0.033078960257309956,-0.005281184293824056,3.7194685192305603,3.3080606320762502,0.20497950102312945,0.06603275842461873,-0.07771801509830185,-0.1435175991100365
1750170870.5583498,-1.7270745286602072,-2.202835015912571,-0.808593713672491,1.5954857629054606,-0.0314658212040797,-1.6007743919303294,0.0019553382146612524,0.012693573277611581,-0.045676932775133364,0.02966576863120883,-0.0358368596986086,-0.005720789931474039,3.719402916616085,3.30815251338766,0.2049610832324038,0.06602222030769614,-0.07772624987100892,-0.1434750120448088
1750170870.5603325,-1.7270704688989325,-2.202808651511286,-0.8086885833547095,1.5955473736699683,-0.03154025308481323,-1.6007862730179339,0.0021043739590608608,0.013670858595562416,-0.04919283114810976,0.03194489380217266,-0.03859507585250365,-0.0061602771805904346,3.7193317032546647,3.3082517997979397,0.20494114533882068,0.06601078566566186,-0.07773517137866737,-0.14342885021942695
1750170870.5623457,-1.7270661113680497,-2.2027803323513133,-0.8087904853359973,1.59561354205722,-0.03162020173488589,-1.6007990329540407,0.00225310418498519,0.0146483342279901,-0.052709237891178796,0.03422338379855095,-0.04135363310135154,-0.006599636912937773,3.719254881662661,3.308358488962868,0.20491968717388065,0.06599845388600732,-0.07774477973516031,-0.14337911208751525
1750170870.5644658,-1.727061456700417,-2.202750058038445,-0.8088994206693698,1.5956842667514004,-0.03170566786087381,-1.6008126714744861,0.002401507073981981,0.01562601375376749,-0.05622618927724049,0.03650119315116064,-0.044112555831913404,-0.007038859995549712,3.7191724545256344,3.3084725783501834,0.20489670855610295,0.06598522430977032,-0.0777550750645695,-0.14332579600552045
1750170870.5664756,-1.7270565055725235,-2.202717828151319,-0.8090153904803783,1.5957595463457361,-0.03179665221812922,-1.6008271882968312,0.002549560808511361,0.016603910748663173,-0.059743721570968855,0.03877827637033715,-0.04687186843562021,-0.007477937290374062,3.719084424734916,3.3085940652593595,0.20487220929619365,0.06597109623528863,-0.07776605749844509,-0.14326890020663774
1750170870.5683987,-1.7270512587044973,-2.202683642241423,-0.8091383959670964,1.5958393793424521,-0.03189315561079553,-1.60084258312036,0.0026972435719544796,0.017582038785135066,-0.06326187102836,0.04105458794439046,-0.049631595308905534,-0.007916859653947143,3.7189907953450905,3.3087229468094472,0.20484618918970138,0.0659560689091916,-0.07777772717771213,-0.1432084228097571
1750170870.5703406,-1.7270457168600934,-2.2026474998331045,-0.8092684384000988,1.5959237641527273,-0.031995178891811804,-1.6008588556260603,0.0028445335487287324,0.018560411432111,-0.06678067389609993,0.04333008233832627,-0.052391760853449966,-0.008355617937030489,3.71889156961978,3.3088592199452984,0.2048186480232968,0.06594014153406408,-0.07779008425018052,-0.143144361808364
1750170870.5727768,-1.7270398808467027,-2.2026094004235777,-0.8094055191224454,1.5960126990966461,-0.03210272296292782,-1.6008760054766178,0.002991408924285806,0.01953904225478479,-0.07030016641103423,0.04560471399245235,-0.05515238947652845,-0.008794202984314445,3.718786750982753,3.309002881431435,0.20478958557072646,0.06592331326497672,-0.07780312887344484,-0.14307671509135006
1750170870.5744693,-1.7270398808467027,-2.2026094004235777,-0.8094055191224454,1.5960126990966461,-0.03210272296292782,-1.6008760054766178,0.002991408924285806,0.01953904225478479,-0.07030016641103423,0.04560471399245235,-0.05515238947652845,-0.008794202984314445,3.718786750982753,3.309002881431435,0.20478958557072646,0.06592331326497672,-0.07780312887344484,-0.14307671509135006
1750170870.5767727,-1.7270337515153393,-2.202569343482928,-0.8095496395496591,1.5961061824031475,-0.03221578877471298,-1.6008940323163996,0.003137847885226004,0.020517944814438055,-0.07382038479965125,0.04787843732103406,-0.05791350559125633,-0.009232605634058807,3.7186763430675516,3.309153927866181,0.2047590015937209,0.06590558321104924,-0.07781686121203066,-0.14300548042298938
1750170870.5782163,-1.7270273297606469,-2.2025273284541234,-0.8097008011697042,1.5962042122099718,-0.032334377326566965,-1.6009129357714436,0.0032838286193102224,0.02149713266817721,-0.0773413652774006,0.05015120671091228,-0.060675133616905026,-0.009670816717775201,3.7185603496714323,3.309312355656765,0.2047268958451512,0.06588695043424646,-0.07783128143935654,-0.1429306554564628
1750170870.580483,-1.7270206165208872,-2.2024833547530234,-0.8098590055429646,1.5963067865636047,-0.03245848966673748,-1.600932715449443,0.00342932931555527,0.022476619368767797,-0.08086314404822387,0.0524229765201642,-0.06343729797919619,-0.010108827059891513,3.718438774793973,3.309478161044802,0.20469326806431246,0.06586741395064613,-0.07784638973712792,-0.14285223772805564
1750170870.582555,-1.7270136127779487,-2.2024374217683853,-0.8100242543022205,1.596413903419218,-0.03258812689232915,-1.6009533709397337,0.0035743281642478548,0.023456418464406725,-0.08438575730387524,0.05469370107665765,-0.06620002311052864,-0.010546627477412866,3.718311622600317,3.309651340089388,0.20465811798190908,0.06584697272738409,-0.07786218629344238,-0.14277022465466452
1750170870.5845969,-1.7270063195573346,-2.2023895288618736,-0.8101965491526233,1.5965255606406077,-0.03272329014931863,-1.6009749018132755,0.0037188033570603684,0.024436543498544145,-0.08790924122355107,0.05696333467677116,-0.06896333345031261,-0.010984208779600761,3.718178897465697,3.3098318886808453,0.20462144531205417,0.06582562568733397,-0.0778786713058136,-0.1426846135422116
1750170870.58636,-1.726998737928163,-2.202339675368073,-0.8103758918716686,1.5966417560001305,-0.032863980632567014,-1.6009973076226425,0.003862733087054792,0.02541700800962449,-0.09143363197306344,0.05923183158402458,-0.0717272534452163,-0.011421561767655079,3.7180406039265925,3.3100198025202276,0.20458324976423578,0.06580337170652352,-0.07789584497870093,-0.14259540158465264
1750170870.592146,-1.7269908690031652,-2.2022878605944953,-0.81056228430917,1.5967624871786354,-0.03301019958583851,-1.6010205879019992,0.004006095548764173,0.026397825530916123,-0.09495896570437559,0.06149914602764939,-0.07449180754942748,-0.011858677234352515,3.7178967467145,3.310215077141301,0.20454353103393919,0.06578020961251381,-0.0779137075239333,-0.1425025858492272
1750170870.5928056,-1.7269827139386829,-2.2022340838215904,-0.8107557283872326,1.5968877517653952,-0.03316194830181196,-1.6010447421670886,0.004148868938245452,0.027379009590299794,-0.09848527855503467,0.06376523220129812,-0.07725702022493691,-0.012295545963762223,3.7177473307444826,3.310417707898749,0.20450228880498966,0.06575613818815455,-0.07793225916132301,-0.14240616330380287
1750170870.593384,-1.7269742739346619,-2.2021783443027605,-0.8109562261002186,1.5970175472580326,-0.03331922812209953,-1.6010697699152132,0.00429103145314041,0.02836057371004535,-0.1020126066475445,0.06603004426165061,-0.0800229159417951,-0.01273215873089444,3.7175923611165063,3.3106276899679496,0.20445952275133308,0.0657311561687931,-0.07795150011791646,-0.1423061307931757
1750170870.595298,-1.7269655502346541,-2.202120641264365,-0.8111637795147217,1.597151871062446,-0.03348204043725911,-1.6010956706252149,0.0044325612927252536,0.0293425314066047,-0.10554098608870678,0.06829353632704681,-0.08278951917835393,-0.01316850630137709,3.7174318431123363,3.310845018347741,0.20441523253799776,0.06570526224294433,-0.07797143062756606,-0.14220248504839733
1750170870.59614,-1.726956544125807,-2.2020609739057413,-0.8113783907695336,1.5972907204927307,-0.033650386686816525,-1.6011224437574576,0.004573436657971036,0.030324896190423768,-0.10907045296920202,0.07055566247617252,-0.08555685442153303,-0.013604579431152243,3.717265782199705,3.3110696878622905,0.2043694178140645,0.06567845505373174,-0.07799205093162762,-0.14209522269390273
1750170870.5983737,-1.7269472569388693,-2.201999341399209,-0.8116000620756081,1.597434092771099,-0.03382426835927976,-1.6011500887538093,0.00471363575159035,0.0313076815657121,-0.1126010433627613,0.07281637674662467,-0.08832494616706171,-0.014040368866130071,3.7170941840262275,3.3113016931558454,0.20432207822449605,0.06565073319553763,-0.07801336127827369,-0.14198434023235207
1750170870.6002133,-1.726937690048179,-2.201935742890086,-0.8118287957160311,1.597581985027796,-0.034003686992155835,-1.6011786050376164,0.004853136778118475,0.03229090103024015,-0.11613279332573294,0.07507563313362622,-0.09109381891969624,-0.014475865341875293,3.716917054433387,3.3115410286960674,0.20427321339869622,0.06562209521817507,-0.07803536192179622,-0.14186983405673795
1750170870.6034608,-1.726927844871664,-2.2018701774967013,-0.8120645940459834,1.5977343943010132,-0.03418864417197298,-1.6012079920136877,0.004991917943929227,0.033274568075140246,-0.1196657388964212,0.07733338558864496,-0.09386349719352888,-0.014911059583306994,3.716734399430516,3.311787688773099,0.20422282295681576,0.06559253962408301,-0.0780580531251939,-0.14175170045322075
1750170870.6042912,-1.7269177228708381,-2.2018026443104084,-0.8123074594927022,1.597891317536801,-0.03437914153429311,-1.6012382490682695,0.005129957457325237,0.03425869618465842,-0.12319991609432747,0.07958958801802886,-0.09663400551212227,-0.015345942304357436,3.7165462252240915,3.312041667494552,0.20417090651285005,0.06556206486889224,-0.07808143515525068,-0.14162993558908865
1750170870.6066413,-1.7269073255507958,-2.201733142395601,-0.8125573945554461,1.5980527515889758,-0.03457518076373933,-1.6012693755690268,0.005267233528571404,0.03524329883600436,-0.12673536091977808,0.08184419428166717,-0.0994053684088109,-0.015780504207673365,3.7163525381960274,3.312302958799477,0.2041174636633433,0.06553066936202147,-0.07810550828724261,-0.1415045355248728
1750170870.6084003,-1.7268966544602105,-2.201661670789724,-0.8128144018054542,1.5982186932190263,-0.034776763594009275,-1.6013013708650163,0.005403724369959092,0.03622838949909005,-0.13027210935304123,0.08409715819162386,-0.1021776104268777,-0.01621473598428114,3.7161533449143738,3.312571556440851,0.2040624940019788,0.06549835146596406,-0.07813027280142182,-0.14137549620368045
1750170870.6102297,-1.7268857111913274,-2.2015882285032884,-0.8130784838859046,1.5983891390960163,-0.034983891807896406,-1.601334234286666,0.00553940819586711,0.037213981636356454,-0.13381019735391952,0.08634843351077842,-0.10495075611976837,-0.016648628313293223,3.715948652133597,3.312847453999473,0.20400599710595857,0.06546510949636647,-0.07815572898407591,-0.1412428134647293
1750170870.612644,-1.72687449737996,-2.2015128145198917,-0.8133496435118746,1.5985640857964851,-0.035196567237314014,-1.6013679651457497,0.00567426322279241,0.038200088702519605,-0.13734966086090908,0.08859797395154925,-0.10772483005135484,-0.017082171861595306,3.715738466780203,3.3131306448686337,0.20394797254800556,0.06543094172441145,-0.07818187712891739,-0.1411064830362476
1750170870.6143954,-1.726863014705489,-2.201435427796227,-0.8136278834702972,1.598743529804345,-0.035414791763310305,-1.6014025627353616,0.005808267669415526,0.039186724144415014,-0.14089053579069083,0.09084573317444869,-0.1104998567960638,-0.017515357283525154,3.7155227959696835,3.3134211222753107,0.20388841988755968,0.06539584637201215,-0.07820871753327643,-0.1409665005322669
1750170870.6165013,-1.726851264890855,-2.201356067262104,-0.8139132066199153,1.598927467510777,-0.035638567316096825,-1.6014380263298937,0.005941399756670844,0.04017390140074525,-0.1444328580374356,0.09309166478677287,-0.11327586093910996,-0.017948175220571363,3.7153016470057363,3.313718879259642,0.2038273386754066,0.06535982161558306,-0.07823625050105626,-0.1408228614610851
1750170870.6189766,-1.726851264890855,-2.201356067262104,-0.8139132066199153,1.598927467510777,-0.035638567316096825,-1.6014380263298937,0.005941399756670844,0.04017390140074525,-0.1444328580374356,0.09309166478677287,-0.11327586093910996,-0.017948175220571363,3.7153016470057363,3.313718879259642,0.2038273386754066,0.06535982161558306,-0.07823625050105626,-0.1408228614610851
1750170870.620259,-1.7268392497025538,-2.201274731820461,-0.8142056158912396,1.5991158952141216,-0.03586789587506267,-1.6014743551850064,0.006073637707775369,0.041161633901892404,-0.14797666347212426,0.09533572234127989,-0.11605286707666887,-0.018380616301062545,3.715075027364962,3.31402390868735,0.20376472845346494,0.0653228655857053,-0.07826447634102797,-0.14067556121936786
1750170870.6223001,-1.726826970950631,-2.201191420347385,-0.8145051142864954,1.5993088091197694,-0.0361027794688038,-1.6015115485376032,0.006204959748291016,0.04214993506968263,-0.1515219879418914,0.09757785933482939,-0.11883089981608307,-0.018812671139871236,3.714842944709112,3.314336203239995,0.20370058875381045,0.06528497636596167,-0.07829339536777002,-0.14052459509926002
1750170870.6265345,-1.726814430488682,-2.2011061316921285,-0.8148117048795793,1.599506205340048,-0.0363432201751408,-1.6015496056058058,0.006335344106167793,0.04313881831718373,-0.15506886726933258,0.09981802920701306,-0.12160998377601966,-0.019244330338102654,3.7146054068781877,3.3146557554220757,0.20363491909989892,0.06524615199268946,-0.07832300790029996,-0.140369958281622
1750170870.627121,-1.7268016302138411,-2.2010188646771267,-0.8151253908160099,1.5997080798941052,-0.03658922012114196,-1.6015885255889213,0.0064647690118175205,0.044128297048523925,-0.1586173372519494,0.10205618533888362,-0.12439014358662542,-0.01967558448279481,3.7143624219037945,3.314982557565896,0.20356771900280998,0.06520639045773764,-0.0783533142620046,-0.1402116458403827
1750170870.6283631,-1.7267885720667806,-2.200929618098015,-0.8154461753128723,1.599914428707792,-0.03684078148314818,-1.6016283076674167,0.006593212698143252,0.045118384658622994,-0.1621674336612475,0.10429228105151983,-0.12717140388971113,-0.020106424146623954,3.71411399798837,3.315316601812258,0.20349898797040333,0.06516568970374008,-0.07838431478146299,-0.14004965274470055
1750170870.6305118,-1.7267752580317044,-2.200838390723649,-0.8157740616587699,1.60012524761354,-0.03709790648679778,-1.6016689510028925,0.006720653400593602,0.04610909453302441,-0.16571919224219991,0.10652626960480435,-0.12995378933891874,-0.020536839887615493,3.7138601435181084,3.3156578801310164,0.20342872549743704,0.06512404763015313,-0.0784160097919655,-0.13988397385952323
1750170870.6337814,-1.7267478704519457,-2.2006499885307873,-0.8164511534093402,1.6005602785631061,-0.037628856568189484,-1.601752817996653,0.0069724388087427204,0.04809243456867267,-0.17282783876201271,0.1109877379583162,-0.1355220343500276,-0.02139636175802678,3.713336177371806,3.3163621059573014,0.20328360416738167,0.06503793087860106,-0.07848148463401988,-0.13954153761897373
1750170870.635253,-1.7267478704519457,-2.2006499885307873,-0.8164511534093402,1.6005602785631061,-0.037628856568189484,-1.601752817996653,0.0069724388087427204,0.04809243456867267,-0.17282783876201271,0.1109877379583162,-0.1355220343500276,-0.02139636175802678,3.713336177371806,3.3163621059573014,0.20328360416738167,0.06503793087860106,-0.07848148463401988,-0.13954153761897373
1750170870.6370919,-1.7267338010932818,-2.200552811116273,-0.8168003657483105,1.6007844818035657,-0.03790268634389804,-1.6017960398835207,0.007096739998546778,0.049085091452119915,-0.17638479805162313,0.11321512395996021,-0.13830794327949916,-0.021825448927528326,3.7130660833728775,3.316725036497001,0.2032087442604488,0.06499345176494652,-0.07851526515149188,-0.13936476946611662
1750170870.638826,-1.7267194842186289,-2.2004536477145065,-0.8171566938047956,1.601013137529108,-0.038182089157228205,-1.6018401194844678,0.007219951172793427,0.050078424043855645,-0.1799435622130197,0.11544021520234674,-0.1410950760904247,-0.022254074253737294,3.7127905941754387,3.3170951671797204,0.2031323508097023,0.06494802245704777,-0.07854974152814695,-0.1391842939087307
1750170870.6405153,-1.7267049220297688,-2.2003524969607344,-0.8175201412241453,1.6012462411031594,-0.038467067480656425,-1.601885055866294,0.007342050580426765,0.05107244567926239,-0.18350416684765633,0.11766296461906643,-0.14388345749750614,-0.02268222821698905,3.7125097190661265,3.3174724890701404,0.203054423270189,0.06490164062185422,-0.07858491411592955,-0.13900010529636003
1750170870.6422732,-1.7266901167719837,-2.2002493574635444,-0.8178907117228826,1.6014837877949448,-0.0387576238360996,-1.6019308480767371,0.007463016473250617,0.05206716968303343,-0.18706664752610058,0.11988332507442054,-0.14667311222797053,-0.02310990128117804,3.7122234675174575,3.317856993052255,0.2029749610877854,0.06485430387754351,-0.0786207832676793,-0.13881219785116292
1750170870.6443892,-1.726675070734049,-2.2001442278048806,-0.8182684090886392,1.601725772779347,-0.03905376079494349,-1.6019774951444505,0.007582827105952615,0.05306260936899702,-0.19063103978731255,0.12210124936214288,-0.14946406502173004,-0.0235370838935429,3.71193184917471,3.3182486698350653,0.20289396369995275,0.06480600979711211,-0.07865734934074109,-0.13862056571605513
1750170870.646243,-1.726659786248228,-2.200037106540078,-0.8186532371800928,1.6019721911367646,-0.03935548097806407,-1.6020249960789634,0.007701460736165521,0.054058778039834436,-0.19419737913780705,0.1243166902041308,-0.1522563406314294,-0.023963766484343323,3.711634873864373,3.3186475099337227,0.2028114305385325,0.06475675590887153,-0.0786946126937962,-0.13842520291818364
1750170870.6482263,-1.7266442656902656,-2.199927992197871,-0.8190451999269,1.6022230378529672,-0.039662787055856796,-1.6020733498706496,0.007818895624511633,0.05505568898695563,-0.19776570105101196,0.12652960024899212,-0.15504996382250733,-0.02438993946658953,3.711332551594462,3.3190535037015145,0.20272736102513997,0.06470653969103259,-0.07873257368725745,-0.1382261033851057
1750170870.650419,-1.7266285114793822,-2.199816883280425,-0.8194443013296322,1.602478307818947,-0.03997568174825972,-1.6021225554906886,0.007935110034646649,0.05605335549017752,-0.20133604096632424,0.12873993207088782,-0.15784495937333204,-0.024815593235780448,3.7110248925469436,3.3194666412872724,0.2026417545782242,0.06465535858008284,-0.07877123268535498,-0.13802326095029335
1750170870.6524827,-1.7266125260782683,-2.19970377826336,-0.8198505454597047,1.6027379958307693,-0.04029416782478368,-1.602172611891036,0.008050082233309252,0.05705179081757719,-0.2049084342884859,0.13094763816807245,-0.16064135207519525,-0.025240718169623155,3.7107119070856216,3.3198869126727835,0.2025546106051372,0.06460320996217567,-0.07881059005214919,-0.13781666934420367
1750170870.654339,-1.7265963119930765,-2.199588675595768,-0.8202639364593045,1.6030020965894187,-0.04061824810453096,-1.6022235180043838,0.00816379049036422,0.058051008225267306,-0.20848291638669586,0.13315267096169095,-0.1634391667323825,-0.025665304627754744,3.7103936057514817,3.3203143076572474,0.2024659285092106,0.06455009118040796,-0.07885064615368231,-0.13760632219535027
1750170870.6562908,-1.7265798717734189,-2.199471573700242,-0.8206844785413248,1.603270604700644,-0.040947925456227274,-1.6022752727441247,0.008276213078838659,0.059051020957156274,-0.21205952259388264,0.13535498279438626,-0.1662384281622248,-0.026089342951478075,3.7100699992578554,3.3207488158510206,0.20237570768456373,0.06449599952933953,-0.07889140135745107,-0.1373922130357609
1750170870.6584537,-1.7265632080123563,-2.1993524709729018,-0.8211121759892848,1.6035435146747994,-0.04128320279824749,-1.602327875004315,0.00838732827499417,0.06005184224472567,-0.2156382882057991,0.13755452592902928,-0.16903916119509155,-0.026512823463497724,3.7097410985081005,3.3211904266836774,0.20228394752190898,0.06444093225845628,-0.07893285603075306,-0.13717433530118098
1750170870.6602364,-1.726546323346394,-2.1992313657834135,-0.8215470331572572,1.6038208209266844,-0.04162408309863874,-1.6023813236596398,0.00849711435833838,0.061053485306826236,-0.21921924848020302,0.13975125254742884,-0.1718413906744727,-0.026935736467664013,3.709406914569583,3.3216391294033247,0.20219064740551362,0.0643848865715365,-0.07897501054320212,-0.13695268233182178
1750170870.6626077,-1.7265292204554763,-2.1991082564750206,-0.8219890544697943,1.6041025177753798,-0.04197056937514709,-1.6024356175653711,0.008605549611681364,0.06205596334946165,-0.222802438636186,0.14194511474899799,-0.17464514145691823,-0.02735807224868991,3.709067458690383,3.322094913075261,0.20209580670890778,0.06432785962543226,-0.07901786526270282,-0.1367272473640634
1750170870.6642268,-1.7265119020629767,-2.1989831413645664,-0.8224382444218437,1.6043885994440816,-0.0423226646952477,-1.60249075555733,0.008712612321184983,0.06305928956553898,-0.22638789385305166,0.14413606454946434,-0.17745043841207025,-0.027779821071914675,3.7087227422992712,3.3225577665777504,0.20199942480801608,0.06426984853117593,-0.07906142055806954,-0.13649802354711757
1750170870.6661248,-1.7264943709356944,-2.1988560187425232,-0.8228946075786743,1.6046790600599325,-0.04268037217616527,-1.6025467364518509,0.00881828077639752,0.06406347713466747,-0.22997564926971104,0.14632405387954342,-0.18025730642266086,-0.028200973183039973,3.7083727769966557,3.3230276786069335,0.20190150106577798,0.06421085035294355,-0.07910567679805203,-0.13626500393203966
1750170870.668312,-1.7264766298838454,-2.1987268868730148,-0.8233581485757888,1.604973893653851,-0.04304369498490512,-1.602603559045738,0.008922533270296679,0.06506853922295933,-0.23356573998374847,0.1485090345837128,-0.183065770384441,-0.02862151880787595,3.7080175745610013,3.3235046376811437,0.20180203484213363,0.064150862110878,-0.07915063434939862,-0.13602818147486254
1750170870.6736732,-1.7264405294643588,-2.198462588316543,-0.8243067829835686,1.6055766554173942,-0.04378719950291732,-1.6027197244209503,0.009126703563454009,0.06708133955236528,-0.2407530674819104,0.1528697770529168,-0.1886875858097159,-0.02946075140096571,3.7072915062726604,3.3244796500689437,0.2015984723738198,0.06402790327771825,-0.0792426548535908,-0.13554309939652837
1750170870.6742806,-1.7264405294643588,-2.198462588316543,-0.8243067829835686,1.6055766554173942,-0.04378719950291732,-1.6027197244209503,0.009126703563454009,0.06708133955236528,-0.2407530674819104,0.1528697770529168,-0.1886875858097159,-0.02946075140096571,3.7072915062726604,3.3244796500689437,0.2015984723738198,0.06402790327771825,-0.0792426548535908,-0.13554309939652837
1750170870.674571,-1.7264405294643588,-2.198462588316543,-0.8243067829835686,1.6055766554173942,-0.04378719950291732,-1.6027197244209503,0.009126703563454009,0.06708133955236528,-0.2407530674819104,0.1528697770529168,-0.1886875858097159,-0.02946075140096571,3.7072915062726604,3.3244796500689437,0.2015984723738198,0.06402790327771825,-0.0792426548535908,-0.13554309939652837
1750170870.6764002,-1.726422175934177,-2.1983274180263503,-0.8247918860156629,1.605884571166155,-0.044167387795325475,-1.60277906469788,0.009226577966189397,0.06808910405602595,-0.24435037424640518,0.15504544206381626,-0.19150098712959635,-0.02987941871914675,3.7069206648537465,3.3249776794886063,0.20149437482335517,0.0639649264946262,-0.07928971853452334,-0.1352948252262938
1750170870.6781232,-1.7264036241543295,-2.1981902312822896,-0.8252841861307258,1.6061968350508937,-0.04455320458187817,-1.6028392416653023,0.009324949614626933,0.06909779560345437,-0.24795015626707945,0.15721790493793858,-0.19431608411335474,-0.030297440250408137,3.7065446351584166,3.3254827081480123,0.20138873218795833,0.0639009472623621,-0.07933748498460984,-0.1350427191160714
1750170870.680281,-1.7263848771520145,-2.1980510262171773,-0.8257836883141554,1.6065134406187467,-0.044944653278861324,-1.6029002540217725,0.009421796819503832,0.07010742728974678,-0.2515524484213304,0.15938711706899872,-0.19713290172123513,-0.03071480611742199,3.7061634298444317,3.3259947236357412,0.20128154380267824,0.06383596237075176,-0.07938595456286479,-0.1347867735689435
1750170870.6825204,-1.7263659379978051,-2.1979098009376514,-0.8262903976210554,1.606834381319543,-0.04534173735249425,-1.6029621004460646,0.00951709789522233,0.07111801219511224,-0.2551572855397075,0.1615530297566509,-0.19995146492612045,-0.031131506421481263,3.7057770617349197,3.3265137133516545,0.20117280900268156,0.06376996856136916,-0.07943512762533377,-0.13452698098301952
1750170870.6841602,-1.7263468098056407,-2.1977665535242075,-0.826804319176146,1.607159650505616,-0.04574446031895363,-1.6030247795971366,0.009610831159882788,0.07212956338463399,-0.25876470240498783,0.1637155942053257,-0.20277179871348333,-0.031547531242332234,3.7053855438256678,3.3270396645049756,0.20106252711860667,0.06370296253302238,-0.07948500452667447,-0.1342633336913633
1750170870.6860545,-1.726327495732825,-2.197621282031223,-0.8273254581736644,1.6074892414316122,-0.04615282574440105,-1.6030882901140844,0.009702974935327251,0.07314209390807845,-0.2623747337512982,0.16587476152287842,-0.20559392808118215,-0.03196287063788984,3.704988889288065,3.3275725641277374,0.2009506974757149,0.06363494093662295,-0.07953558561580133,-0.1339958239192612
1750170870.688478,-1.7263079989800092,-2.1974739844869955,-0.8278538198772631,1.6078231472542956,-0.04656683724500521,-1.603152630616096,0.00979350754719276,0.07415561679962232,-0.2659874142630548,0.16803048271933266,-0.20841787803939027,-0.032377514644030776,3.7045871114726463,3.3281123990566464,0.20083731939850596,0.06356590037765558,-0.07958687123963416,-0.13372444381350065
1750170870.6901054,-1.7262883227911923,-2.1973246588937663,-0.8283894096199171,1.6081613610323515,-0.04698649848696679,-1.60321779970241,0.00988240732490913,0.07517014507764365,-0.26960277857397935,0.1701827087056309,-0.2112436736104269,-0.0327914532743775,3.7041802238871395,3.328659155943695,0.20072239220845745,0.06349583741635446,-0.0796388617403292,-0.13344918543615256
1750170870.6920412,-1.72626847045371,-2.1971733032277587,-0.8289322328038145,1.6085038757261871,-0.047411813186544194,-1.6032837959522706,0.00996965260176524,0.07618569174446954,-0.2732208612660897,0.17233139029238528,-0.21407133982860035,-0.03320467652006918,3.703768240223575,3.3292128212506507,0.20060591522487994,0.06342474856769661,-0.07969155745562694,-0.13317004076230737
1750170870.6941333,-1.7262484452982276,-2.1970199154392054,-0.8294822949002567,1.6088506841977295,-0.04784278511007667,-1.60335061792488,0.010055221714933118,0.07720226978617346,-0.2768416968687886,0.17447647818856526,-0.2169009017400143,-0.033617174349537995,3.70335117434159,3.3297733812565897,0.20048788776194423,0.06335263029953768,-0.07974495871780934,-0.1328870016798962
1750170870.6966677,-1.7262282506987319,-2.1968644934523844,-0.830039601449549,1.6092017792102207,-0.04827941807400471,-1.6034182641593553,0.010139093005507032,0.0782198921722876,-0.2804653198576608,0.1766179230002613,-0.21973238440241114,-0.03402893670830685,3.702929040273359,3.3303408220417894,0.20036830913667408,0.06327947903467677,-0.07979906585474672,-0.13260005999871555
1750170870.698793,-1.7262078900725246,-2.1967070351656517,-0.8306041580608934,1.609557153428011,-0.04872171594489938,-1.603486733174682,0.0102212448185183,0.0792385718556152,-0.28409176465355895,0.17875567522948602,-0.22256581288496882,-0.0344399535187793,3.7025018522153093,3.3309151295061317,0.2002471786608872,0.0632052911518993,-0.07985387918858756,-0.1323092074450289
1750170870.7005708,-1.726187366880211,-2.1965475384514725,-0.8311759704122794,1.6099167994163501,-0.049169682639478296,-1.6035560234696646,0.01030165550299565,0.08025832177196829,-0.28772106562150523,0.18088968527282775,-0.2254012122680316,-0.03485021468001468,3.702069624544905,3.3314962893568105,0.20012449564632054,0.06313006298175114,-0.07990939903389174,-0.13201443565877988
1750170870.7021387,-1.7261666846256958,-2.196386001156462,-0.8317550442503681,1.610280709641174,-0.049623322124632274,-1.6036261335228863,0.010380303411970104,0.08127915483990665,-0.29135325706955784,0.1830199034202957,-0.22823860764298276,-0.03525971006755719,3.701632371798217,3.332084287104305,0.2000002594050655,0.06305379081181454,-0.07996562570163934,-0.13171573621075194
1750170870.7041142,-1.7261458468561752,-2.196222421101411,-0.8323413853903787,1.610648876468891,-0.05008263841744576,-1.603697061792655,0.010457166902521416,0.08230108396055573,-0.29498837324782945,0.1851462798539954,-0.23107802411187048,-0.035668429533186746,3.7011901086881966,3.3326791080829397,0.1998744692460797,0.06297647088202363,-0.08002255949226479,-0.1314131005743171
1750170870.7062182,-1.7261248571621248,-2.1960567960813293,-0.8329349997159747,1.6110212921661653,-0.05054763558521724,-1.6037688067169569,0.010532224335813788,0.08332412201729866,-0.29862644834730384,0.1872687646469578,-0.23391948678724134,-0.03607636290476552,3.7007428500977975,3.3332807374211813,0.19974712447972895,0.06289809938874115,-0.08008020070151763,-0.13110652016119234
1750170870.7081711,-1.7261037191772939,-2.1958891238654736,-0.8335358931791381,1.6113979488996961,-0.0510183177454806,-1.6038413667134144,0.010605454077105931,0.08434828187557944,-0.3022675164987507,0.1893873077618699,-0.23676302079185013,-0.03648349998603411,3.7002906110718983,3.3338891600655476,0.19961822441564656,0.06281867248203267,-0.08013854961697042,-0.13079598630054895
1750170870.7103817,-1.7260824365786975,-2.195719402197394,-0.8341440718000523,1.6117788387359973,-0.0514946890660255,-1.6039147401792277,0.010676834495794908,0.08537357638258992,-0.3059116117714751,0.19150185904984918,-0.2396086512583413,-0.036889830556394505,3.69983340682679,3.3345043607577356,0.19948776836674348,0.06273818626689112,-0.08019760651722226,-0.13048149023671443
1750170870.7121716,-1.7260610130866096,-2.1955476287949587,-0.834759541666978,1.6121639536411723,-0.05197675376491606,-1.6039889254911355,0.010746343965441267,0.08640001836713908,-0.3095587681724299,0.19361236824920905,-0.2424564033289518,-0.037295344370765295,3.699371252750171,3.3351263240698557,0.19935575563972902,0.062656636802753,-0.08025737167250162,-0.13016302315166287
1750170870.7139316,-1.7260394524645504,-2.1953738013503994,-0.8353823089361248,1.612553285480687,-0.05246451611051128,-1.6040639210053609,0.010813960863801538,0.08742762063926579,-0.3132090196447209,0.19571878498424444,-0.24530630215519902,-0.03770003115935804,3.6989041643936704,3.3357550343538667,0.1992221855509001,0.06257402010420561,-0.08031784534424657,-0.12984057614032482
1750170870.7161982,-1.7260177585192809,-2.195197917530348,-0.8360123798315247,1.6129468260191415,-0.052957980421480144,-1.6041397250575606,0.010879663572842422,0.088456395990086,-0.3168624000666557,0.19782105876402264,-0.24815837289753162,-0.03810388062752171,3.6984321574740635,3.336390475786906,0.199087057411724,0.06249033214091995,-0.0803790277840578,-0.12951414023075258
1750170870.7182148,-1.7259959351007943,-2.195019974975871,-0.8366497606449013,1.6133445669200372,-0.05345715106682469,-1.6042163359627786,0.01094343047877669,0.08948635719149545,-0.32051894325040525,0.19991913898115113,-0.25101264072500057,-0.03850688245557051,3.6979552478777435,3.337032632343726,0.1989503705391679,0.062405568836975685,-0.08044091923427112,-0.1291837063807378
1750170870.7200332,-1.7259739861023071,-2.194839971302512,-0.837294457735533,1.6137464997455435,-0.053962032465888043,-1.6042937520153933,0.01100523997208719,0.09051751699592868,-0.324178682940867,0.20201297491053605,-0.25386913081483303,-0.03890902629858745,3.6974734516557803,3.3376814878070498,0.19881212424996383,0.06231972607060132,-0.08050351992521697,-0.12884926546753564
1750170870.7220664,-1.725951915460251,-2.19465790410033,-0.8379464775301217,1.614152615956261,-0.05447262908838191,-1.6043719714890692,0.01106507044755276,0.09154988813609366,-0.3278416528143677,0.2041025157082687,-0.2567278683521097,-0.03931030178628569,3.6969867850261986,3.338337025762425,0.19867231786505965,0.06223279967762414,-0.08056683007813709,-0.12851080830860995
1750170870.724013,-1.7259297271542628,-2.1944737709339357,-0.8386058265226524,1.6145629069109821,-0.05498894545439015,-1.6044509926367052,0.011122900304276116,0.09258348332471553,-0.3315078864774339,0.2061877104103281,-0.2595888785293086,-0.03971069852281608,3.6964952643728637,3.3389992296006357,0.19853095070759483,0.06214478544629898,-0.08063084990142272,-0.12816832564219124
1750170870.7261982,-1.7259074252071773,-2.1942875693425368,-0.8392725112742498,1.6149773638664509,-0.05551098613439098,-1.6045308136903795,0.011178707945691183,0.09361831525427665,-0.33517741746550456,0.208268507931442,-0.26245218654590013,-0.040110206086618444,3.6959989062378,3.3396680825151255,0.19838802210426085,0.06205567912166324,-0.08069557959205448,-0.12782180814187563
1750170870.7282279,-1.7258850136850192,-2.194099296839976,-0.8399465384130416,1.615395977977118,-0.05603875574927031,-1.6046114328613053,0.011232471779609291,0.09465439659674067,-0.33885027924161737,0.21034485706381634,-0.2653178176079236,-0.040508814030272934,3.695497727337175,3.340343567500745,0.19824353138615466,0.06196547640172184,-0.08076101933508953,-0.12747124641805388
1750170870.7300386,-1.7258624966969895,-2.193908950914773,-0.8406279146340037,1.6158187402948954,-0.056572258970327916,-1.6046928483397718,0.011284170218229698,0.09569174000331701,-0.34252650519515965,0.2124167064760633,-0.2681857969274949,-0.040906511880328025,3.6949917445463316,3.3410256673605505,0.19809747788681034,0.06187417294311948,-0.08082716930170962,-0.12711663100697754
1750170870.7337964,-1.7258398783954654,-2.1937165290301657,-0.841316646698818,1.6162456417689073,-0.05711150051929703,-1.6047750582950986,0.0113337816781408,0.09673035810415842,-0.3462061286404485,0.21448400471192863,-0.2710561497223742,-0.04130328913717255,3.6944809748947045,3.3417143646904766,0.19794986094642694,0.06178176435522985,-0.08089402965092463,-0.12675795238763898
1750170870.7346916,-1.7258398783954654,-2.1937165290301657,-0.841316646698818,1.6162456417689073,-0.05711150051929703,-1.6047750582950986,0.0113337816781408,0.09673035810415842,-0.3462061286404485,0.21448400471192863,-0.2710561497223742,-0.04130328913717255,3.6944809748947045,3.3417143646904766,0.19794986094642694,0.06178176435522985,-0.08089402965092463,-0.12675795238763898
1750170870.7359772,-1.7258171629759822,-2.1935220286241535,-0.8420127414357204,1.61667667324524,-0.05765648516834876,-1.604858060875575,0.01138128458039702,0.09777026350810317,-0.3498891828154254,0.21654670018914038,-0.2739289012154228,-0.04169913527486124,3.6939654355983307,3.3424096418938216,0.19780067990942585,0.061688246203696694,-0.08096160052643964,-0.12639520096582915
1750170870.7379668,-1.7257943546772312,-2.1933254471095394,-0.8427162057393423,1.6171118254666879,-0.058207217740108064,-1.604941854208417,0.011426657350472984,0.09881146880242295,-0.3535757008803022,0.21860474119823206,-0.2768040766341328,-0.0420940397410159,3.693445144009124,3.3431114811738047,0.19764993412472306,0.06159361400943063,-0.0810298820587116,-0.12602836709760115
1750170870.7399123,-1.7257714577810486,-2.193126781873973,-0.8434270465705573,1.6175510890724984,-0.05876370310765644,-1.6050264363997062,0.01146987841832911,0.09985398655250644,-0.35726571591609574,0.22065807590136638,-0.27968170121005625,-0.042487991956632984,3.692920117657859,3.343819864528522,0.1974976229493356,0.06149786324881585,-0.08109887436211614,-0.12565744105927948
1750170870.7419524,-1.7257484766124032,-2.192926030279996,-0.8441452709563233,1.617994454598114,-0.059325946194543455,-1.6051118055343405,0.01151092621842184,0.1008978293016147,-0.3609592609233144,0.22270665233119394,-0.28256180017830196,-0.042880981316001564,3.692390374235392,3.344534773759942,0.1973437457438183,0.06140098935436068,-0.0811685775368565,-0.12528241308434204
1750170870.7439926,-1.7257254155393937,-2.1927231896650863,-0.8448708859895131,1.6184419124749119,-0.059893951974790305,-1.6051979596759782,0.011549779189695908,0.1019430095705908,-0.3646563688204324,0.22475041838965387,-0.285444398776919,-0.04327299718654066,3.691855931581585,3.3452561904660922,0.19718830187798575,0.0613029877131812,-0.08123899166576704,-0.12490327333409258
1750170870.745989,-1.7257022789732348,-2.1925182573417015,-0.8456038988287569,1.6188934530299415,-0.060467725472897804,-1.605284896866988,0.011586415775645762,0.10298953985756176,-0.3683570724424739,0.22678932184686856,-0.2883295222463478,-0.0436640289086947,3.691316807715433,3.3459840960408793,0.19703129072793,0.06120385366948008,-0.081310116816217,-0.12452001192043197
1750170870.7479877,-1.7256790713682495,-2.1923112305973262,-0.8463443166982687,1.6193490664856596,-0.06104727176385083,-1.60537261512839,0.011620814424292053,0.10403743263768106,-0.37206140453954323,0.22882331033994752,-0.29121719582876293,-0.04405406579578964,3.6907730207991234,3.346718471679461,0.1968727116772048,0.06110358252198556,-0.08138195303706967,-0.1241326188882287
1750170870.7498326,-1.7256557972218607,-2.19210210669452,-0.8470921468876762,1.6198087429596635,-0.061632595973116544,-1.605461112459806,0.011652953588223469,0.10508670036281037,-0.3757693977752966,0.23085233137188715,-0.2941074447675075,-0.044443097133941296,3.690224589165037,3.347459298367585,0.19671256411836746,0.06100216952649425,-0.08145450036124499,-0.12374108423664437
1750170870.7519815,-1.7256324610745821,-2.1918908828709593,-0.8478473967518481,1.620272472464421,-0.06222370327665416,-1.6055503868394005,0.011682811724600834,0.10613735546126206,-0.37948108472548026,0.232876332310377,-0.2970002943063658,-0.04483111218191655,3.689671531300145,3.348206556893351,0.19655084745115278,0.06089960989325486,-0.08152775880118149,-0.12334539789977257
1750170870.754209,-1.725609067510006,-2.1916775563394895,-0.8486100737107147,1.6207402449069999,-0.0628205989009043,-1.605640436223828,0.011710367295187821,0.10718941033745855,-0.38319649787629667,0.23489526038675557,-0.29989576968897586,-0.04521810017105465,3.6891138658561307,3.3489602278300876,0.19638756108685887,0.06079589879102187,-0.08160172835276316,-0.12294554976986544
1750170870.7560916,-1.725585621154801,-2.1914621242881704,-0.8493801852490863,1.621212050088792,-0.06342328812280051,-1.6057312585481816,0.011735598766332902,0.1082428773716692,-0.3869156696228911,0.23690906269475798,-0.30279389615808,-0.04560405030514085,3.688551611629423,3.349720291550718,0.1962227044449712,0.060691031341162105,-0.0816764089907689,-0.1225415296774976
1750170870.7583683,-1.7255621266786934,-2.1912445838803265,-0.8501577389164741,1.6216878777052397,-0.06403177626975509,-1.6058228517259305,0.011758484609038547,0.10929776891969446,-0.3906386322677776,0.23891768618953543,-0.30569469895481777,-0.045988951760300704,3.6879847875971703,3.3504867282209982,0.19605627695504443,0.06058500262530769,-0.08175180067005247,-0.12213332740147598
1750170870.7600467,-1.7255385887944668,-2.191024932254594,-0.8509427423268976,1.6221677173455546,-0.0646460687196635,-1.6059152136488697,0.011779003298904975,0.11035409731257198,-0.3943654180191858,0.2409210776864314,-0.3085982033180248,-0.046372793684931815,3.6874134128651606,3.3512595177967417,0.19588827805806,0.060477807678231056,-0.08182790332572056,-0.12172093267856816
1750170870.7620733,-1.7255150122579463,-2.190803166524975,-0.8517352031586993,1.6226515584924395,-0.06526617090089548,-1.6060083421870637,0.011797133316213205,0.11141187485624582,-0.3980960589894439,0.24291918385991088,-0.31150443448344983,-0.04675556519959021,3.686837506724532,3.3520386400242175,0.19571870720603451,0.06036944149227995,-0.081904716870823,-0.12130433519103775
1750170870.7640762,-1.725491401867993,-2.190579283780881,-0.8525351291543473,1.6231393905218034,-0.0658920882922871,-1.6061022351887901,0.011812853145885756,0.11247111383129849,-0.40183058719335063,0.2449119512424917,-0.3144134176829869,-0.04713725539691322,3.6862570886025536,3.352824074446317,0.1955475638617753,0.06025989901726312,-0.0819822411967782,-0.12088352457486903
1750170870.7660022,-1.7254677624664945,-2.1903532810871917,-0.8533425281202414,1.6236312027024782,-0.06652382642313448,-1.6061968904804838,0.011826141277521759,0.11353182649256982,-0.4055690345463748,0.2468993262235623,-0.3173251781438643,-0.04751785334152314,3.6856721780896446,3.3536158003830545,0.19537484750342618,0.06014917515719021,-0.08206047617215816,-0.12045849041669081
1750170870.7680132,-1.7254440989383522,-2.190125155484301,-0.8541574079265111,1.62412698419593,-0.06716139087318407,-1.6062923058666794,0.01183697620541728,0.11459402506890501,-0.4093114328630789,0.24888125504840883,-0.3202397410878479,-0.047897348069975164,3.685082794938638,3.3544137969569263,0.19520055761869956,0.06003726477607582,-0.08213942164309643,-0.12002922226649773
1750170870.7700064,-1.7254204162114766,-2.1898949039881703,-0.8549797765068137,1.6246267240559709,-0.0678047872726184,-1.6063884791299596,0.011845336428552804,0.11565772176278188,-0.4130578138553146,0.25085768381700335,-0.3231571317303738,-0.04827572859066224,3.6844889590445407,3.3552180430661918,0.19502469371014328,0.05992416269114362,-0.08221907743128513,-0.11959570962316327
1750170870.7721174,-1.7253967192567723,-2.1896625235903873,-0.8558096418581238,1.6251304112284661,-0.0684540213020437,-1.606485408030891,0.011851200450630007,0.11672292874999914,-0.41680820913043926,0.25282855848303015,-0.32607737527967395,-0.04865298388374522,3.6838906904692017,3.3560285174010387,0.19484725529536268,0.059809863679501626,-0.08229944333379334,-0.11915794194308742
1750170870.7742853,-1.7253730130881362,-2.189428011258209,-0.8566470120405274,1.625638034551042,-0.06910909869247472,-1.6065830903079776,0.011854546780048714,0.11778965817938651,-0.4205626501896298,0.25479382485275076,-0.3290004969359268,-0.04902910290111643,3.683288009416279,3.356845198442989,0.194668241903614,0.05969436247337532,-0.08238051912375859,-0.11871590865028521
1750170870.7760415,-1.7253493027624387,-2.1891913639346265,-0.8574918951770032,1.626149582752788,-0.06977002522531972,-1.6066815236775946,0.011855353929968827,0.11885792217237931,-0.42432116842590667,0.2567534285839626,-0.3319265218902846,-0.04940407456629303,3.6826809362610886,3.357668064443265,0.19448765308380603,0.05957765376289039,-0.08246230454691815,-0.11826959911490667
1750170870.7780452,-1.725325593379523,-2.188952578538414,-0.8583442994532069,1.626665044453961,-0.07043680673235553,-1.6067807058339385,0.0118536004182566,0.1199277328227693,-0.42808379512242334,0.25870731518496226,-0.3348554753239856,-0.04977788777441241,3.682069491509767,3.3584970934511467,0.19430548839703757,0.059459732195868926,-0.08254479932400163,-0.11781900268366234
1750170870.7800486,-1.725301890082192,-2.1887116519641863,-0.85920423311725,1.627184408165683,-0.07110944909571515,-1.6068806344489666,0.01184926476755404,0.12099910219631188,-0.43185056145056083,0.2606554300134526,-0.3377873824073546,-0.05015053139214159,3.6814536958441395,3.3593322632920812,0.1941217474219912,0.059340592376380404,-0.08262800314758484,-0.11736410865429288
1750170870.7835326,-1.7252781980561949,-2.1884685810824545,-0.8600717044794717,1.6277076622896405,-0.07178795824785755,-1.6069813071723402,0.011842325505261422,0.12207204233038367,-0.43562149846800263,0.2625977182755216,-0.3407222682988305,-0.05052199425765227,3.68083357008812,3.3601735515726774,0.19393642975508096,0.0592202288665409,-0.08271191568284178,-0.11690490629540742
1750170870.7841015,-1.7252545225302232,-2.1882233627396843,-0.8609467219122129,1.6282347951177798,-0.07247234017154636,-1.607082721631369,0.011832761163527057,0.12314656523364491,-0.43939663711685006,0.26453412502461243,-0.343660158143966,-0.050892265180580924,3.6802091352099446,3.361020935681874,0.19374953500918426,0.05909863618622927,-0.08279653656677863,-0.11644138484086265
1750170870.7861066,-1.7252308687759017,-2.1879759937583536,-0.8618292938495795,1.6287657948320002,-0.07316260089982318,-1.6071848754309555,0.011820550279288298,0.12422268288567075,-0.4431760082216378,0.2664645951604803,-0.3466010770743714,-0.05126133294198408,3.679580412343116,3.361874392787941,0.19356106281663013,0.05897580881265106,-0.08288186540664153,-0.11597353348959888
1750170870.788072,-1.725207242107773,-2.187726470937008,-0.8627194287872095,1.6293006495038462,-0.07385874651597835,-1.607287766153532,0.011805671394286114,0.12530040723658756,-0.44695964248739123,0.2683890734281856,-0.34954505020664095,-0.05162918629429661,3.6789474227744696,3.362733899837291,0.19337101282758173,0.05885174118129008,-0.08296790177943508,-0.11550134140543365
1750170870.7900748,-1.725183647883294,-2.1874747910503265,-0.8636171352820288,1.629839347094197,-0.074560783153518,-1.6073913913590099,0.011788103055032806,0.126379750206695,-0.4507475704975191,0.2703075044170602,-0.35249210264130615,-0.05199581396133618,3.678310187925254,3.3635994335489583,0.19317938471427268,0.0587264276849508,-0.08305464523267324,-0.1150247977322381
1750170870.7921414,-1.725160091502822,-2.1872209508491745,-0.8645224219520058,1.6303818754529538,-0.07526871699613391,-1.6074957485847179,0.011767823812862588,0.12746072368613312,-0.45453982271193155,0.2722198325597155,-0.35544225946167657,-0.05236120463825097,3.67766872938564,3.3644709704285862,0.1929861781652379,0.058599862675013666,-0.08314209528122139,-0.1145438915746487
1750170870.7944605,-1.7251365784096073,-2.1869649470606687,-0.865435297475905,1.6309282223187251,-0.07598255427766532,-1.6076008353453473,0.011744812223909416,0.12854333953446248,-0.4583364294648315,0.27412600213105653,-0.3583955457327292,-0.05272534699152212,3.677023068882328,3.3653484867461683,0.19279139289345731,0.058472040461399415,-0.08323025140865448,-0.11405861201665846
1750170870.7961934,-1.7251365784096073,-2.1869649470606687,-0.865435297475905,1.6309282223187251,-0.07598255427766532,-1.6076008353453473,0.011744812223909416,0.12854333953446248,-0.4583364294648315,0.27412600213105653,-0.3583955457327292,-0.05272534699152212,3.677023068882328,3.3653484867461683,0.19279139289345731,0.058472040461399415,-0.08323025140865448,-0.11405861201665846
1750170870.7980158,-1.7251131140897833,-2.186706776388238,-0.8663557705930316,1.6314783753185114,-0.07670230128206246,-1.6077066491328935,0.011719046849141239,0.12962760958028874,-0.46213742096265936,0.2760259572472423,-0.36135198649992284,-0.053088229658932555,3.676373228302733,3.366231958548551,0.19259502863252756,0.05834295531103917,-0.08331911306515015,-0.1135689481101047
1750170870.7999544,-1.7250897040723574,-2.1864464355116837,-0.8672838501029734,1.6320323219673851,-0.07742796434334576,-1.6078131874165997,0.01169050625435306,0.13071354562089418,-0.4659428272819758,0.27791964186476353,-0.3643116067880081,-0.05344984124957843,3.6757192296787027,3.3671213616581626,0.19239708513804152,0.05821260145104089,-0.08340867966736201,-0.11307488888812293
1750170870.8020635,-1.7250663539291988,-2.186183921087247,-0.8682195448653403,1.632590049668172,-0.07815954984556406,-1.6079204476428952,0.011659169010182812,0.1318011594218181,-0.4697526783672905,0.27980699977944834,-0.3672744315998131,-0.053810170343854394,3.675061095193007,3.368016671663493,0.19219756218873518,0.058080973066624596,-0.08349895059773672,-0.11257642335687
1750170870.80423,-1.7250430692750331,-2.1859192297476664,-0.869162863799497,1.6331515457111274,-0.07889706422274756,-1.6080284272353458,0.011625013692113668,0.13289046271648186,-0.4735670040288524,0.2816879746254587,-0.37024048591498837,-0.05416920549347114,3.674398847176517,3.3689178639281963,0.1919964595878115,0.05794806430069207,-0.08358992520336724,-0.11207354050568685
1750170870.8061397,-1.7250198557674263,-2.1856523581022502,-0.8701138158842925,1.6337167972736126,-0.0796405139588634,-1.608137123594589,0.01158801888049856,0.1339814672057527,-0.47738583394044637,0.2835625098743941,-0.3732097946887256,-0.0545269352214383,3.673732508113182,3.3698249135787397,0.19179377716213888,0.05781386925690225,-0.08368160279525043,-0.11156622929552922
1750170870.8081834,-1.724996719106783,-2.185383302736934,-0.8710724101577849,1.634285791419769,-0.08038990558776149,-1.6082465340982806,0.011548163160544387,0.13507418455756445,-0.48120919763712644,0.2854305488342869,-0.37618238285045774,-0.054883348022097544,3.673062100626893,3.370737795514513,0.19158951476421573,0.05767838199637263,-0.08377398264776455,-0.1110544786748431
1750170870.8101034,-1.7249736650363303,-2.1851120602143546,-0.8720386557169633,1.6348585151001898,-0.08114524569312564,-1.6083566561010372,0.011505425122352114,0.13616862640646704,-0.48503712451290576,0.2872920346487099,-0.37915827530252794,-0.055238432361136285,3.67238764750146,3.3716564843955803,0.19138367227304842,0.05754159654084331,-0.08386706399779514,-0.11053827757464935
1750170870.8120556,-1.7249506993421093,-2.1848386270739093,-0.8730125617174602,1.6354349551515894,-0.08190654090841498,-1.6084674869343765,0.011459783360908162,0.1372648043532379,-0.48886964381847253,0.289146910295807,-0.3821374969188044,-0.055592176675598605,3.671709171661783,3.372580954653508,0.19117624959341958,0.05740350687043146,-0.08396084604320403,-0.11001761490482997
1750170870.8139844,-1.7249278278529685,-2.184562999831831,-0.8739941373732645,1.636015098296473,-0.08267379791680618,-1.6085790239066622,0.01141121647608791,0.13836272996440177,-0.4927067846587625,0.29099511858739,-0.3851200725433316,-0.05594456937393216,3.671026696176124,3.3735111804716027,0.19096724665917233,0.05726410692531028,-0.08405532794386027,-0.10949247956842234
1750170870.8159254,-1.7249050564405506,-2.1842851749812535,-0.8749833919564267,1.636598931142802,-0.08344702345113575,-1.6086912643030482,0.011359703072694986,0.13946241477184648,-0.4965485759906671,0.29283660216803253,-0.3881060269888653,-0.05629559883600611,3.6703402442741995,3.3744471358082473,0.19075666343025502,0.05712339060566163,-0.08415050881836332,-0.10896286045016698
1750170870.8179352,-1.7248823910192836,-2.1840051489922807,-0.875980334796763,1.637186440183659,-0.08422622429382987,-1.6088042053854172,0.011305221760457061,0.14056387027232484,-0.5003950466204912,0.2946713035141323,-0.39109538503544283,-0.05664525341314535,3.6696498393243226,3.3753887943701297,0.1905444998985494,0.05698135177061832,-0.08424638774503368,-0.10842874642257412
1750170870.820032,-1.7248598375463722,-2.1837229183120606,-0.8769849752815473,1.6377776117969107,-0.0850114072768422,-1.6089178443923267,0.011247751154024663,0.14166710792705575,-0.5042462252015986,0.29649916493307565,-0.3940881714289015,-0.05699352142819429,3.6689555048386793,3.376336129632478,0.19033075608303363,0.05683798424104049,-0.08434296376046259,-0.10789012635448803
1750170870.8219626,-1.7248374020217838,-2.1834384793648525,-0.8779973228552063,1.6383724322448685,-0.08580257928158375,-1.6090321785389516,0.01118726987301338,0.14277213916122478,-0.5081021402318209,0.2983201285622956,-0.39708441087935886,-0.05734039117554766,3.6682572644874365,3.377289114821656,0.1901154320361271,0.05669328179647414,-0.08444023585842264,-0.10734698910174749
1750170870.8240786,-1.7248150904882458,-2.183151828552103,-0.8790173870190046,1.6389708876739482,-0.08659974723884734,-1.6091472050170283,0.011123756541987844,0.14387897536352565,-0.5119628200509895,0.30013413636841707,-0.4000841280596805,-0.05768585092120451,3.6675551420746872,3.3782477229189656,0.18989852783967812,0.05654723817749464,-0.08453820298952976,-0.10679932351264809
1750170870.8261034,-1.7247929090312297,-2.1828629622525177,-0.8800451773307261,1.639572964114327,-0.08740291812873213,-1.6092629209947944,0.011057189790509757,0.1449876278857067,-0.5158282928383607,0.30194113014639773,-0.4030873476038851,-0.058029888902829306,3.6668491615671,3.379211926666655,0.1896800436086124,0.05639984708549539,-0.08463686405946345,-0.1062471184317727
1750170870.8280385,-1.7247708637789412,-2.182571876822136,-0.8810807034043515,1.6401786474796003,-0.08821209898056814,-1.6093793236169374,0.010987548253133767,0.14609810804205384,-0.5196985866099438,0.3037410515186857,-0.40609409410557373,-0.05837249332983038,3.666139347068646,3.3801816985505364,0.18945997949256946,0.05625110218301917,-0.08473621792966471,-0.10569036270533748
1750170870.8326383,-1.7247272066149986,-2.1819830338802673,-0.88317500157223,1.6414007780542201,-0.08984851893304491,-1.6096141772549917,0.010838955383940857,0.1483245963242918,-0.5274537483380285,0.30731944266823524,-0.4121182661437142,-0.0590533542166029,3.6647083132424907,3.382137835449605,0.18901511236783272,0.05594952539948717,-0.08493699928186293,-0.10456315465455708
1750170870.8330395,-1.7247272066149986,-2.1819830338802673,-0.88317500157223,1.6414007780542201,-0.08984851893304491,-1.6096141772549917,0.010838955383940857,0.1483245963242918,-0.5274537483380285,0.30731944266823524,-0.4121182661437142,-0.0590533542166029,3.6647083132424907,3.382137835449605,0.18901511236783272,0.05594952539948717,-0.08493699928186293,-0.10456315465455708
1750170870.833985,-1.7247056071733473,-2.181685268968211,-0.8842337931724336,1.642017196504723,-0.09067577233772273,-1.609732622442003,0.01075996134636381,0.14944062688711557,-0.531338671486638,0.30909779482019145,-0.4151357406502627,-0.059391586954473885,3.6639871428621573,3.3831241441913087,0.18879030983036926,0.0557966806486121,-0.08503842425132839,-0.10399268001019434
1750170870.8360326,-1.7246841688764114,-2.1813852701243803,-0.8853003595457558,1.6426371643617326,-0.09150906431224293,-1.6098517426154775,0.01067780711139838,0.15055852995694652,-0.5352285259981725,0.3108688393142306,-0.4181568400510617,-0.05972833869407769,3.6632622363815925,3.3841159085235617,0.18856392835164193,0.055642456348545075,-0.08514053699432853,-0.10341761007862145
1750170870.838041,-1.7246628980659269,-2.181083033592632,-0.8863747105821123,1.64326066695071,-0.09234840213076811,-1.6099715348014936,0.010592471338853254,0.15167831665337556,-0.5391233390323082,0.3126325168976953,-0.4211815887122962,-0.0600635975046027,3.6625336186392663,3.385113099679202,0.18833596825775628,0.05548684596768658,-0.08524333613128152,-0.10283793370217366
1750170870.8401024,-1.724641801126305,-2.180778555594628,-0.8874568562255583,1.6438876894784333,-0.09319379311614284,-1.6100919960022377,0.010503932693655184,0.15279999805544295,-0.5430231375689951,0.31438876814051725,-0.42421001094942196,-0.06039735142745886,3.6618013146210076,3.3861156886193013,0.18810642991764853,0.05532984293810471,-0.08534682023313821,-0.10225363973305766
1750170870.8420837,-1.7246208844846205,-2.180471832329914,-0.8885468064739266,1.6445182170326431,-0.09404524463979236,-1.6102131231959547,0.010412169845871979,0.15392358520118238,-0.5469279484057403,0.316137533434423,-0.4272421310253011,-0.06072958847639455,3.6610653494623735,3.3871236460628262,0.18787531373581487,0.05517144065371162,-0.08545098781833918,-0.10166471703544762
1750170870.8440406,-1.7246001546106058,-2.1801628599759963,-0.8896445713784606,1.645152234581684,-0.0949027641216098,-1.610334913336886,0.010317161470737362,0.15504908908701132,-0.5508377981545881,0.3178787529921484,-0.43027797314833593,-0.06106029663757018,3.6603257484421188,3.3881369424553847,0.187642620159786,0.05501163247052714,-0.08555583735274411,-0.10107115447165994
1750170870.8460777,-1.7245796180166355,-2.1798516346884353,-0.8907501610434396,1.6457897269741468,-0.09576635902985231,-1.61045736335522,0.010218886248695012,0.15617652066717927,-0.5547527132392255,0.31961236684670347,-0.4333175614705876,-0.061389463869705424,3.6595825369940473,3.3891555479806756,0.18740834967681755,0.05485041170785178,-0.08566136724922285,-0.10047294092804775
1750170870.8480387,-1.7245592812577186,-2.179538152600923,-0.891863585625801,1.6464306789385077,-0.09663603688102196,-1.6105804701570339,0.010117322865406949,0.15730589085323038,-0.5586727198919388,0.3213383148506209,-0.4363609200858035,-0.061717078104170084,3.6588357406911167,3.3901794325643304,0.18717250281811187,0.0546877716478522,-0.0857675758650738,-0.09987006529261548
1750170870.8500028,-1.7245391509314878,-2.179222409825372,-0.8929848553347499,1.647075075082767,-0.09751180523974767,-1.6107042306242407,0.010012450011801427,0.15843721051339107,-0.5625978441506072,0.3230565366752212,-0.4394080730274616,-0.06204312724511982,3.658085385259227,3.3912085658574904,0.1869350801570185,0.054523705535828,-0.08587446150249943,-0.09926251647331821
1750170870.8520281,-1.7245192336781878,-2.1789044024520026,-0.8941139804313725,1.6477228998940858,-0.09839367171866442,-1.6108286416145372,0.009904246384103327,0.15957049047198635,-0.5665281118555886,0.3247669718098982,-0.4424590442667707,-0.06236759916962041,3.6573314965708996,3.392242917243671,0.186696082312261,0.05435820658074719,-0.08598202240737732,-0.09865028339225243
1750170870.8541908,-1.7245192336781878,-2.1789044024520026,-0.8941139804313725,1.6477228998940858,-0.09839367171866442,-1.6108286416145372,0.009904246384103327,0.15957049047198635,-0.5665281118555886,0.3247669718098982,-0.4424590442667707,-0.06236759916962041,3.6573314965708996,3.392242917243671,0.186696082312261,0.05435820658074719,-0.08598202240737732,-0.09865028339225243
1750170870.8559396,-1.7244995361806668,-2.1785841265494312,-0.8952509712282346,1.6483741377384218,-0.09928164397828532,-1.6109536999613425,0.009792690683868354,0.16070574150885333,-0.5704635486466217,0.32646955956141915,-0.44551385771058927,-0.0626904817277701,3.656574100645994,3.393282455838075,0.18645550994725044,0.05419126795556995,-0.08609025676695295,-0.09803335498459777
1750170870.8584716,-1.7244800651643626,-2.178261578164758,-0.8963958380889778,1.6490287728601625,-0.10017572972687105,-1.6110794024737531,0.0096777616180297,0.1618429743587272,-0.5744041799596556,0.3281642390532041,-0.448572537199389,-0.06301176274286717,3.655813223656951,3.3943271504816996,0.18621336377187364,0.054022882796458845,-0.08619916271110398,-0.09741172021544471
1750170870.8599775,-1.7244608273972961,-2.17793675332366,-0.8975485914279115,1.6496867893817584,-0.10107593672029491,-1.6112057459364841,0.009559437898926309,0.16298219971059918,-0.5783500310235913,0.32985094922467595,-0.45163510650510236,-0.06333143001152079,3.655048891917701,3.3953769697357945,0.1859696445445547,0.05385304420484694,-0.08630873830907634,-0.09678536805832554
1750170870.8621442,-1.7244418296900577,-2.1776096480304847,-0.8987092417095912,1.6503481713033548,-0.10198227276190508,-1.611332727109816,0.009437698244378503,0.16412342820711714,-0.5823011268571209,0.3315296288305746,-0.45470158932896826,-0.06364947130382204,3.654281131906843,3.3964318818921115,0.18572435306989366,0.05368174524617546,-0.08641898156942605,-0.09615428751746122
1750170870.8642633,-1.7244230788957937,-2.177280258268337,-0.8998777994483955,1.6510129025024207,-0.10289474570237633,-1.6114603427295444,0.009312521377698774,0.16526667044393364,-0.5862574922653488,0.3332002164402915,-0.4577720092993567,-0.06396587436349548,3.6535099702370974,3.397491854959546,0.18547749020400162,0.05350897895043933,-0.08652989043942878,-0.09551846761896012
1750170870.8659716,-1.7244045819102025,-2.1769485799991823,-0.9010542752080992,1.6516809667333783,-0.1038133634395697,-1.6115885895069262,0.00918388602775591,0.1664119369690138,-0.5902191518364399,0.3348626504372504,-0.4608463899695367,-0.06428062690805283,3.6527354336756637,3.398556856657567,0.1852290568535062,0.05333473831338914,-0.08664146280348461,-0.09487789741322464
1750170870.8680015,-1.7243863456715154,-2.1766146091639342,-0.9022386796014334,1.65235234762723,-0.1047381339183735,-1.6117174641286276,0.009051770929045445,0.16755923828204114,-0.5941861299383091,0.33651686901828304,-0.4639247548153753,-0.0645937166289684,3.651957549151691,3.399626854438367,0.18497905397515288,0.053159016296287956,-0.08675369648117034,-0.09423256598093413
1750170870.8699498,-1.7243683771604923,-2.1762783416825604,-0.9034310232896416,1.6530270286911846,-0.10566906513054697,-1.6118469632566708,0.00891615482171855,0.16870858483365964,-0.598158450715085,0.33816281019296235,-0.467007127233065,-0.06490513119183425,3.651176343730066,3.4007018154490667,0.18472748258040833,0.05298180582460125,-0.08686658922804474,-0.09358246242666762
1750170870.8719745,-1.724350683400404,-2.175939773454173,-0.9046313169820275,1.6537049933082828,-0.106606165114564,-1.6119770835283838,0.008777016451664437,0.16985998702486005,-0.6021361380837121,0.3398004117830913,-0.47009353053675945,-0.06521485823656657,3.6503918446420194,3.401781706565864,0.18447434373298366,0.052803099792271505,-0.08698013873306996,-0.09292757589588019
1750170870.8739512,-1.7243332714570263,-2.1755989003571337,-0.9058395714355001,1.6543862247370202,-0.10754944195543992,-1.6121078215563482,0.008634334570564967,0.17101345520620806,-0.6061192157303658,0.3414296114220222,-0.47318398795619504,-0.06552288537755994,3.6496040792639386,3.4028664943586295,0.18421963855245477,0.05262289105688603,-0.0870943426181968,-0.09226789555752832
1750170870.875996,-1.724316148438624,-2.1752557182491543,-0.9070557974541078,1.6550707061109704,-0.10849890378456273,-1.6122391739283515,0.008488087935961317,0.17216899967717667,-0.6101077071069038,0.34305034655414496,-0.4762785226342575,-0.06582920020389489,3.6488130751286065,3.4039561451142446,0.18396336821409257,0.05244117244428685,-0.08720919843683597,-0.09160341062120428
1750170870.8781629,-1.724299321495943,-2.174910222967399,-0.908280005888563,1.6557584204384064,-0.10945455877951993,-1.6123711372073313,0.00833825531132857,0.17332663068539736,-0.6141016354272103,0.344662554434344,-0.4793771576245181,-0.0661337902795173,3.6480188599237247,3.4050506248199786,0.18370553395118214,0.05225793674766452,-0.08732470367298624,-0.0909341103279419
1750170870.8800006,-1.7242827978221928,-2.1745624103285897,-0.9095122076357667,1.6564493506019207,-0.11041641516391199,-1.612503707931329,0.008184815466154547,0.17448635842593002,-0.6181010236635878,0.34626617212738336,-0.4824799158887303,-0.06643664314345006,3.647221461494509,3.4061498991667425,0.18344613705355534,0.05207317672531631,-0.08744085574013137,-0.09025998396147049
1750170870.8821595,-1.7242665846530407,-2.1742122761291114,-0.9107524136383187,1.6571434793580448,-0.11138448120717026,-1.6126368826134403,0.008027747176004544,0.17564819304049292,-0.6221058945429352,0.3478611365074389,-0.4855868202942827,-0.06673774630999263,3.6464209078360357,3.4072539335415803,0.1831851788733341,0.05188688510480005,-0.08755765198000061,-0.08958102084300465
1750170870.8859515,-1.7242506892665972,-2.173859816145119,-0.9120006348840244,1.657840789336868,-0.11235876522436516,-1.6127706577417644,0.007867029222626953,0.17681214461670972,-0.6261162705430716,0.3494473842575941,-0.4886978936115997,-0.06703708726893047,3.645617227110378,3.4083626930322084,0.182922660820855,0.05169905458177561,-0.08767508966110128,-0.08889721033546909
1750170870.8880422,-1.724219881166409,-2.17314790182772,-0.9145211672791289,1.6592448828484567,-0.11432602066784714,-1.6130399951641738,0.0075345594845882295,0.17914643872937197,-0.6341536265483845,0.352593475641951,-0.4949326375626452,-0.06763043240187713,3.6440005978820125,3.4105942461712098,0.18239295105607928,0.05131874744871196,-0.08791187805077214,-0.08751500482702425
1750170870.8900452,-1.7242049832209823,-2.1727884389464673,-0.9157935006256075,1.6599516310057376,-0.11531900895066904,-1.613175550309041,0.007362765295101602,0.18031680116343998,-0.6381806502289303,0.354153191682359,-0.4980563532285821,-0.06792441143487946,3.6431877064895346,3.411716968451719,0.18212576248128806,0.051126256071654136,-0.08803122292191605,-0.08681658878003047
1750170870.89198,-1.7241904325948774,-2.1724266331852284,-0.91707389360836,1.660661489633978,-0.11631824892007714,-1.613311691601588,0.007187236632944072,0.18148932035277512,-0.6422132663731311,0.3557039359043644,-0.501184327865213,-0.06821657797871053,3.6423718022544715,3.4128442731079165,0.18185702031115816,0.05093219625823797,-0.08815119755642545,-0.08611328324899575
1750170870.8942182,-1.7241762367782236,-2.1720624802206814,-0.9183623574335318,1.661374440725294,-0.11732374911627552,-1.6134484154042106,0.007007952312172862,0.1826640061024525,-0.6462514961548771,0.3572456440283681,-0.5043165837178997,-0.06850691940395585,3.6415529141480234,3.4139761236666133,0.1815867262788718,0.05073656054808197,-0.08827179884107629,-0.08540507783749553
1750170870.8963242,-1.72416240330352,-2.1716959757099463,-0.9196589033493447,1.6620904661430482,-0.11833551812384879,-1.6135857180540238,0.006824891153598326,0.18384086815855621,-0.6502953604752311,0.3587782515809525,-0.5074531429186331,-0.06879542305807117,3.640731071286441,3.4151124833427926,0.18131488218626277,0.05053934145172767,-0.08839302358220617,-0.08469196219633114
1750170870.8979907,-1.724148939745616,-2.171327115290717,-0.9209635426455476,1.6628095476214626,-0.11935356457152846,-1.6137235958628127,0.006638031984950844,0.18501991620726138,-0.6543448799583385,0.36030169389444183,-0.5105940274831413,-0.06908207626562453,3.6399063029695338,3.4162533150212453,0.18104148990323324,0.05034053144893695,-0.08851486850466651,-0.08397392603022995
1750170870.8999689,-1.7241358537216973,-2.170955894581371,-0.9222762866528553,1.6635316667652293,-0.12037789713195757,-1.6138620451169903,0.006447353640993749,0.18620115987399027,-0.6584000749472428,0.36181590610657105,-0.5137392593079595,-0.06936686632857042,3.6390786386617533,3.4173985812707435,0.18076655137070083,0.050140122991614154,-0.08863733025077626,-0.08325095910580353
1750170870.9019156,-1.7241231528912744,-2.170582309181098,-0.9235971467423854,1.6642568050491209,-0.12140852452145179,-1.6140010620775502,0.0062528349636345616,0.18738460872246893,-0.6624609654995991,0.3633208231601022,-0.5168888601674676,-0.06964978052649407,3.6382481079852447,3.418548244322561,0.1804900686024613,0.04993810850228122,-0.0887604053794062,-0.08252305124179643
1750170870.9040496,-1.724110844956166,-2.1702063546700243,-0.9249261343250819,1.6649849438175999,-0.12244545549975161,-1.6141406429800247,0.006054454802104901,0.18857027225381562,-0.6665275713834158,0.3648163798024792,-0.5200428517108604,-0.06993080611688558,3.6374147407513417,3.4197022660812295,0.1802120436849891,0.049734480375020505,-0.0888840903640705,-0.08179019232083372
1750170870.9058762,-1.724098937660484,-2.169828026609334,-0.9262632608511296,1.6657160642844286,-0.12348869886976743,-1.6142807840344373,0.005852192013072022,0.18975815990563522,-0.6705999120727665,0.36630251058552177,-0.5232012554590618,-0.07020993033540704,3.6365785669300625,3.420860608122035,0.17993247877766888,0.04952923097651279,-0.0890083815913596,-0.08105237228404388
1750170870.9083114,-1.7240874387906224,-2.169447320541405,-0.927608537809367,1.666450147532277,-0.12453826347732022,-1.6144214814252615,0.00564602546080145,0.19094828105100697,-0.6746780067432698,0.3677791498650897,-0.5263640928016617,-0.07048714039617945,3.635739616668324,3.422023231671738,0.1796513761188762,0.049322352645039036,-0.08913327536157317,-0.08030958114095542
1750170870.9102268,-1.7240874387906224,-2.169447320541405,-0.927608537809367,1.666450147532277,-0.12453826347732022,-1.6144214814252615,0.00564602546080145,0.19094828105100697,-0.6746780067432698,0.3677791498650897,-0.5263640928016617,-0.07048714039617945,3.635739616668324,3.422023231671738,0.1796513761188762,0.049322352645039036,-0.08913327536157317,-0.08030958114095542
1750170870.912244,-1.7240763561752352,-2.1690642319899283,-0.9289619767266792,1.6671871745123306,-0.12559415821087594,-1.6145627313113788,0.00543593401733955,0.1921406449975776,-0.6787618742677672,0.3692462318008407,-0.5295313849937054,-0.07076242349206423,3.634897920301589,3.4231900976321126,0.17936873802108694,0.049113837693094346,-0.08925876788456823,-0.07956180896565826
1750170870.913979,-1.7240656976852273,-2.168678756460051,-0.9303235891673918,1.6679271260438975,-0.12665639200127554,-1.6147045298260352,0.005221896562642345,0.19333526098649828,-0.6828515332116999,0.37070369035592465,-0.5327031531525346,-0.07103576679494443,3.634053508323462,3.424361166543715,0.17908456687766416,0.048903678405446266,-0.089384855281212,-0.07880904589712989
1750170870.9160547,-1.7240554712337337,-2.168290889438503,-0.9316933867326487,1.6686699828140157,-0.12772497382145076,-1.6148468730767984,0.005003891984782519,0.19453213819148563,-0.6869470018286109,0.37215145929674986,-0.5358794182544901,-0.07130715745602173,3.633206411424983,3.4255363986178806,0.17879886516083243,0.04869186704110253,-0.08951153357949285,-0.07805128214451829
1750170870.9179554,-1.7240456847761063,-2.1679006263937364,-0.9330713810597873,1.669415725377059,-0.1287999126861461,-1.6149897571455192,0.004781899180125632,0.19573128571774084,-0.691048298055517,0.3735894721927732,-0.5390602011316703,-0.07157658260613413,3.632356660474337,3.4267157537029016,0.17851163542363968,0.04847839583380767,-0.08963879871606653,-0.07728850799549887
1750170870.9202294,-1.7240363463098944,-2.1675079627760594,-0.934457583821696,1.6701643341543428,-0.12988121765162042,-1.6151331780882892,0.004555897053512186,0.19693271260095005,-0.6951554395082155,0.37501766241626505,-0.5422455224685333,-0.07184402935603766,3.631504286522096,3.4278991913047308,0.17822288030266908,0.04826325699134909,-0.0897666465318924,-0.0765207138013345
1750170870.9221938,-1.7240274638748314,-2.167112894017782,-0.9358520067261713,1.6709157894337299,-0.13096889781535204,-1.6152771319354038,0.004325864518465983,0.19813642780616472,-0.6992684434765157,0.3764359631421302,-0.5454354027985393,-0.0721094847967323,3.6306493208073163,3.4290866705607863,0.1779326025190059,0.048046442696934956,-0.08989507277332867,-0.07574788999505101
1750170870.9241781,-1.7240190455528115,-2.166715415533356,-0.9372546615152588,1.6716700713692354,-0.13206296231573145,-1.6154216146913187,0.004091780497416122,0.19934244022676736,-0.7033873269195119,0.377844307347758,-0.548629862500682,-0.07237293599976818,3.629791794766059,3.430278150260562,0.17764080487786776,0.047827945110003836,-0.09002407308902946,-0.07497002708258309
1750170870.9261806,-1.7240110994678783,-2.1663155227195166,-0.9386655599645888,1.6724271599806315,-0.1331634203317531,-1.6155666223346135,0.00385362392188089,0.2005507586833495,-0.7075121064606822,0.379242627812861,-0.5518289217960224,-0.07263437001758638,3.6289317400114025,3.4314735888241414,0.1773474902723309,0.047607756365694476,-0.09015364303000124,-0.0741871156550792
1750170870.928128,-1.7240036337862001,-2.1659132109554324,-0.9400847138826975,1.673187035153052,-0.13427028108268768,-1.6157121508179548,0.0036113737327409636,0.20176139192257486,-0.7116427983830045,0.380630857119348,-0.5550326007441345,-0.07289377388383533,3.6280691883698726,3.432672944304793,0.1770526616832781,0.04738586857581799,-0.09028377804713217,-0.07339914638220038
1750170870.9301388,-1.7239966567160563,-2.1655084756028558,-0.9415121351103419,1.6739496766365967,-0.13538355382776324,-1.615858196068059,0.0033650088804377614,0.20297434861603716,-0.715779418623925,0.3820089276512395,-0.5582409192395268,-0.07315113461370233,3.6272041718488612,3.4338761743843884,0.17675632218293794,0.04716227382992496,-0.09041447349049157,-0.07260611001470466
1750170870.9321108,-1.7239901765078134,-2.165101312006268,-0.9429478355198047,1.6747150640459354,-0.13650324786583035,-1.616004753985651,0.003114508325251018,0.2041896373591223,-0.7199219827704204,0.38337677159457484,-0.5614538970079852,-0.07340643920425538,3.6263367226700756,3.435083236378195,0.1764584749325646,0.04693696419496948,-0.09054572460714028,-0.07180799739001244
1750170870.9340706,-1.7239842014539102,-2.1646917154930385,-0.9443918270141891,1.675483176859912,-0.13762937253501661,-1.6161518204454364,0.0028598510375284257,0.20540726666977144,-0.7240705060538163,0.3847343209373447,-0.5646715536029278,-0.07365967463480126,3.6254668732445254,3.43629408721136,0.17615912318813434,0.046709931715869075,-0.09067752654144094,-0.07100479943751355
1750170870.9385524,-1.7239787398888318,-2.164279681373582,-0.9458441215266999,1.6762539944211485,-0.13876193721238117,-1.6162993912960584,0.002601015997993841,0.20662724498731636,-0.7282250033447081,0.3860815074694821,-0.5678939084016039,-0.07391082786721243,3.62459465620796,3.437508683440214,0.17585827029851922,0.04648116841719971,-0.09080987433069417,-0.07019650716762663
1750170870.9400709,-1.7239693907732123,-2.1634482814737988,-0.9487736674850638,1.6778036604724007,-0.14104642429239966,-1.616596029433894,0.0020707286397735796,0.20907428199989567,-0.7365519775961638,0.38874451827115225,-0.5743527892157405,-0.07440683550018817,3.622843250834506,3.4399489363586646,0.17525207496265888,0.046018417354437374,-0.09107618709286487,-0.06856460419958274
1750170870.9420595,-1.7239655201016966,-2.1630289062309487,-0.9502509429412465,1.6785824669629843,-0.14219836564058674,-1.6167450882877947,0.0017992343368513123,0.21030135716925627,-0.740724482446844,0.39006020513019435,-0.5775893530706852,-0.07465166374062895,3.621964128810015,3.4411745042075785,0.1749467397006077,0.04578441353814009,-0.09121014160268727,-0.06774097599384774
1750170870.9439847,-1.7239621966770118,-2.162607074457151,-0.9517365694347113,1.6793638942011713,-0.14335678488726966,-1.6168946346658446,0.001523478314267424,0.2115308142916155,-0.7449030170745597,0.3913652543576943,-0.580830690800497,-0.0748943574634427,3.621082771804452,3.442403639768109,0.17463991766372436,0.04554864679772328,-0.09134462103877619,-0.06691221846654961
1750170870.9460232,-1.7239594290435614,-2.1621827813804595,-0.9532305590380634,1.6801479208425314,-0.14452169159866823,-1.617044664285891,0.0012434396089320838,0.21276266139424654,-0.7490875944666407,0.3926595967535091,-0.5840768208438807,-0.07513490354884814,3.6201992135205536,3.443636297625133,0.17433161269661113,0.045311109060387295,-0.09147961989083696,-0.06607832310574727
1750170870.9480228,-1.7239572257876654,-2.1617560222129573,-0.9547329238494919,1.6809345254040364,-0.14569309537768316,-1.6171951728395255,0.0009590972699700058,0.21399690641807834,-0.7532782272174832,0.3939431629197046,-0.5873277614399022,-0.07537328886186503,3.619313487894894,3.444872431964015,0.17402182874539682,0.045071792235116134,-0.09161513253500818,-0.06523928150549649
1750170870.9500709,-1.7239555955375296,-2.161326792150936,-0.9562436759919786,1.6817236862636644,-0.1468710058634901,-1.617346155992057,0.0006704303590789985,0.21523355721630894,-0.7574749275229209,0.3952158832606895,-0.5905835306238794,-0.07560950025271093,3.618425629096969,3.446111996558589,0.17371056986237277,0.04483068821380362,-0.09175115323166907,-0.06439508536657416
1750170870.952058,-1.7239545469632276,-2.1608950863750653,-0.9577628276124912,1.6825153816600047,-0.14805543273112676,-1.6174976093824789,0.0003774179508745561,0.21647262155302222,-0.7616777071745884,0.39647768798337424,-0.5938441462232121,-0.07584352455716957,3.617535671521239,3.447354944771792,0.1733978402060009,0.044587788871958245,-0.09188767612372906,-0.0635457264849497
1750170870.9539964,-1.723954088776666,-2.1604609000505803,-0.9592903908811721,1.683309589691863,-0.1492463856910744,-1.617649528623443,8.003913331148193e-05,0.21771410710174532,-0.7658865775542041,0.3977285070973571,-0.5971096258532013,-0.0760753485970154,3.6166436498187364,3.448601229546802,0.17308364404308368,0.0443430860692532,-0.09202469523631493,-0.06269119677482428
1750170870.9560149,-1.7239542297315662,-2.16002422832746,-0.9608263779905135,1.6841062883178675,-0.1504438744888299,-1.61780190930123,-0.00022172699197318133,0.21895802144402254,-0.7701015496277758,0.3989682704151332,-0.6003799869127657,-0.07630495918040653,3.615749598861735,3.4498508034074358,0.1727679857504895,0.04409657165015974,-0.092162204473909,-0.06183148825373779
1750170870.9580593,-1.7239549786234285,-2.1595850663406146,-0.9623708011545187,1.684905455356074,-0.15164790890446778,-1.617954746975724,-0.0005279013091938502,0.22020437206794155,-0.7743226339398195,0.40019690755233095,-0.6036552465801388,-0.07653234310230284,3.6148535537947146,3.4511036184545647,0.1724508698150512,0.043848237444592604,-0.09230019761975186,-0.060966593055528366
1750170870.9601605,-1.723956344289511,-2.1591434092100696,-0.9639236726078524,1.6857070684835733,-0.15285849875219526,-1.6181080371803862,-0.0008385046880390233,0.22145316636664095,-0.7785498406073822,0.4014143479279786,-0.6069354218084871,-0.07675748714487632,3.6139555499942078,3.452359626358614,0.1721323008383873,0.043598075268701575,-0.09243866833367187,-0.06009650342431863
1750170870.962211,-1.723958335608792,-2.1586992520411643,-0.9654850046049841,1.6865111052360977,-0.15407565387989575,-1.6182617754222308,-0.0011535579831942568,0.22270441163675098,-0.7827831793140893,0.40262052076478927,-0.6102205293214916,-0.0769803780779368,3.6130556231078863,3.4536187783500485,0.1718122835360688,0.043346076925262635,-0.09257761015100925,-0.05922121172353317
1750170870.9641924,-1.7239609615019482,-2.1582525899247402,-0.9670548094193077,1.6873175430076288,-0.15529938416866873,-1.6184159571817975,-0.001473082033910582,0.22395811507689353,-0.7870226593041368,0.4038153550894851,-0.6135105856088519,-0.0772010026593467,3.612153809036478,3.454881025231252,0.171490822739368,0.0430922342047508,-0.09271701648046426,-0.05834071042879179
1750170870.966092,-1.7239642309313146,-2.157803417937341,-0.9686330993422647,1.688126359050006,-0.15652969953235285,-1.6185705779131316,-0.0017970976635089233,0.22521428378606542,-0.7912682893761653,0.40499877973314896,-0.6168056069217779,-0.07741934763547806,3.611250143956373,3.4561463173542823,0.1711679233979236,0.04283653888593205,-0.0928568806037378,-0.057454992146395635
1750170870.9681323,-1.7239681529008593,-2.157351731141416,-0.9702198866824423,1.6889375304725356,-0.15776660991704894,-1.61872563304376,-0.002125625678914068,0.2264729247620361,-0.7955200778770604,0.4061707233315976,-0.6201056092683811,-0.0776353997416271,3.6103446643052584,3.4574146046242054,0.1708435905817006,0.04257898273648345,-0.09299719567269145,-0.0565640495959521
1750170870.9701316,-1.7239727364561475,-2.156897524585517,-0.9718151837646625,1.6897510342416004,-0.15901012530062708,-1.6188811179746683,-0.002458686870125323,0.22773404489973953,-0.7997780326957845,0.407331114325778,-0.6234106084090081,-0.07784914570246332,3.609437406808984,3.4586858365010116,0.17051782948031421,0.04231955751351699,-0.09313795470773953,-0.05566787562425652
1750170870.9720652,-1.7239779906843058,-2.1564407933045135,-0.9734190029290639,1.690566847180271,-0.1602602556922248,-1.6190370280802826,-0.0027963020096922137,0.22899765098955638,-0.8040421612570191,0.4084798809622029,-0.6267206198515809,-0.07806057223248233,3.6085284084735103,3.4599599619761463,0.17019064540738035,0.04205825496456508,-0.0932791505980315,-0.05476646320749908
1750170870.9740946,-1.7239839247139885,-2.1559815323197986,-0.9750313565301658,1.6913849459679167,-0.16151701113173988,-1.619193358708448,-0.003138491852188165,0.23026374971567967,-0.8083124705148084,0.4096169512934344,-0.6300356588467911,-0.0782696660364536,3.6076177065885977,3.461236929592393,0.16986204380118822,0.041795066828922915,-0.09342077609733176,-0.05385980544725425
1750170870.9761224,-1.7239839247139885,-2.1559815323197986,-0.9750313565301658,1.6913849459679167,-0.16151701113173988,-1.619193358708448,-0.003138491852188165,0.23026374971567967,-0.8083124705148084,0.4096169512934344,-0.6300356588467911,-0.0782696660364536,3.6076177065885977,3.461236929592393,0.16986204380118822,0.041795066828922915,-0.09342077609733176,-0.05385980544725425
1750170870.9781585,-1.7239905477153412,-2.1555197366395067,-0.9766522569359166,1.6922053071398182,-0.16278040168931085,-1.6193501051804082,-0.003485277133630213,0.2315323476543528,-0.8125889669461356,0.41074225317855173,-0.6333557403833019,-0.07847641380987923,3.6067053387440122,3.4625166874184763,0.1695320302256504,0.04152998483705569,-0.09356282382424258,-0.0529478955776104
1750170870.9802432,-1.7239978688999607,-2.1550554012587266,-0.9782817165267392,1.6930279070867817,-0.16405043746478665,-1.6195072627907914,-0.0038366785709026403,0.23280345127213659,-0.8168716565444213,0.41185571428369827,-0.6366808791828837,-0.07868080223946666,3.6057913428287955,3.4637991830565045,0.16920061037275919,0.04126300071276436,-0.09370528626034619,-0.05203072696875851
1750170870.982118,-1.7240058975208603,-2.1545885211597255,-0.9799197476945523,1.693852722054753,-0.16532712858718934,-1.6196648268075897,-0.0041927168611684985,0.23407706692410904,-0.821160544812912,0.41295726208261496,-0.6400110896954563,-0.07888281800357659,3.604875757031494,3.465084363629126,0.1688677900651329,0.04099410617276765,-0.0938481557475429,-0.05110829311862669
1750170870.9841828,-1.724014642872426,-2.154119091312177,-0.9815663628417859,1.6946797281444335,-0.16661048521416433,-1.6198227924721431,-0.0045534126812129625,0.2353532008520565,-0.8254556367580911,0.41404682385725317,-0.643346386094119,-0.07908244777271856,3.603958619869336,3.4663721757810486,0.16853357525560378,0.04072329292878354,-0.09399142448775122,-0.05018058767174045
1750170870.9860737,-1.7240241142903763,-2.1536471066733807,-0.9832215743803818,1.695508901310897,-0.16790051753142254,-1.6199811549991256,-0.0049187866868441454,0.2366318591826544,-0.829756936882957,0.415124326698379,-0.6466867822700968,-0.07927967821002399,3.6030399701610736,3.4676625656752025,0.1681979720304989,0.04045055268725324,-0.09413508454050572,-0.04924760440863535
1750170870.9910913,-1.72403432115172,-2.1531725621885016,-0.9848853947307781,1.6963402173632087,-0.16919723575217116,-1.6201399095765332,-0.00528885951219514,0.2379130479255356,-0.8340644491802272,0.4161896975062214,-0.6500322918276297,-0.0794744959717233,3.602119847063461,3.468955478974127,0.16786098661134513,0.040175877150500146,-0.09427912782137769,-0.04830933725131106
1750170870.9919841,-1.7240452728747133,-2.152695452790807,-0.9865578363208805,1.697173651964044,-0.17050065011653448,-1.620299051365663,-0.005663651769063829,0.23919677297142156,-0.8383781771254966,0.4172428629911662,-0.6533829280788042,-0.07966688770762749,3.601198290056757,3.4702508608528473,0.1675226253564131,0.039899258017964796,-0.0944235461003427,-0.04736578026189877
1750170870.994037,-1.72405697891881,-2.152215773401898,-0.9882389115850252,1.6980091806293096,-0.1718107708909642,-1.6204585755011092,-0.006043184046180248,0.24048304009019375,-0.8426981236703903,0.41828374967448195,-0.6567387040383466,-0.07985684006165648,3.6002753389731885,3.471548655989275,0.167182894760682,0.03962068698692355,-0.09456833100069796,-0.046416927662211914
1750170870.9964983,-1.724069448784622,-2.1517335189319633,-0.9899286329629202,1.6988467787277668,-0.17312760836764074,-1.6206184770907468,-0.0064274769084979215,0.2417718549288453,-0.8470242912354636,0.4193122838890479,-0.6600996324183397,-0.08004433967229702,3.599351033977971,3.4728488085394176,0.1668418014618881,0.0393401557526159,-0.09471347399691164,-0.045462773808243574
1750170870.9980762,-1.7240826920138614,-2.1512486842800183,-0.9916270128985802,1.6996864214806542,-0.17445117286386047,-1.6207787512157248,-0.006816550896428724,0.24306322300957084,-0.8513566817032806,0.4203283917801583,-0.6634657256228506,-0.08022937317313161,3.598425415600635,3.4741512621701256,0.1664993522368519,0.03905765601022667,-0.09485896641210986,-0.04450331321495892
1750170870.9999793,-1.7240967181893012,-2.1507612643341645,-0.9933340638392387,1.7005280839613148,-0.1757814747214148,-1.6209393929304525,-0.007210426525074088,0.2443571497276358,-0.8556952964111733,0.42133199930634724,-0.666836995742569,-0.08041192719333372,3.597498524724382,3.4754559600128045,0.1661555540086929,0.03877317945543094,-0.0950047994183912,-0.04353854054661708
1750170871.002007,-1.724111536934716,-2.1502712539718365,-0.9950497982342545,1.7013717410948221,-0.17711852430596142,-1.6211003972625946,-0.007609124283398391,0.24565364034936377,-0.8600401361441897,0.42232303224022133,-0.6702134545493226,-0.0805919883581931,3.5965704026155767,3.476762844692264,0.16581041384267026,0.038486717784512285,-0.09515096403332862,-0.04256845062711509
1750170871.0041668,-1.7241271579148298,-2.149778648060071,-0.9967742285339956,1.70221736765761,-0.17846233200637496,-1.6212617592130627,-0.008012664633437265,0.24695270000996658,-0.864391201127701,0.4233014161693882,-0.6735951134905781,-0.08076954328963293,3.5956410909003105,3.4780718582924566,0.16546393895440595,0.03819826269700944,-0.09529745111961713,-0.04159303843727508
1750170871.0060058,-1.7241435908352667,-2.1492834414557667,-0.9985073671887168,1.703064938277103,-0.1798129082340978,-1.6214234737560105,-0.00842106800942248,0.2482543337114375,-0.8687484910201619,0.42426707649734463,-0.6769819836838475,-0.0809445786067218,3.5947106316014255,3.4793829423752536,0.16511613670642797,0.03790780589454049,-0.09544425138234915,-0.040612299113988316
1750170871.0079355,-1.7241608454424888,-2.1487856290059515,-1.0002492266474174,1.7039144274313496,-0.181170263422473,-1.6215855358388254,-0.00883435481690716,0.24955854632037683,-0.8731120049057142,0.42521993844446787,-0.680374075911038,-0.08111708092620712,3.5937790671346352,3.4806960379666694,0.16476701461208765,0.03761533908361779,-0.09559135536746315,-0.039626227958059576
1750170871.0109365,-1.7241789315237401,-2.148285205548058,-1.0019998193566835,1.7047658094486564,-0.1825344080260649,-1.6217479403821269,-0.009252545431853214,0.2508653425657185,-0.877481741286685,0.42615992704900807,-0.6837714006127854,-0.08128703686305955,3.5928464403189992,3.482011085537763,0.16441658033777348,0.03732085397556211,-0.09573875346126876,-0.03863482044027619
1750170871.0121787,-1.7241978589069857,-2.1477821659102014,-1.0037591577595162,1.7056190585072257,-0.18390535251997608,-1.6219106822797649,-0.00967566019970872,0.2521747270365155,-0.8818576980760804,0.4270869671681363,-0.6871739678826752,-0.08145443303100092,3.5919127943821056,3.4833280250197767,0.16406484170370683,0.03702434228809424,-0.09588643588728134,-0.037638072193811135
1750170871.0142756,-1.7242176374608515,-2.14727650491146,-1.005527254294151,1.7064741486347939,-0.1852831073991421,-1.6220737563988141,-0.010103719434454164,0.2534867041796393,-0.8862398725899685,0.42800098347900906,-0.6905817874614182,-0.08161925604303369,3.590978172968056,3.4846467957880596,0.16371180668644972,0.0367257957457181,-0.096034392704943,-0.03663597901630305
1750170871.0162437,-1.7242382770945568,-2.1467682173621636,-1.0073041213928473,1.7073310537082722,-0.18666768317762195,-1.6222371575795753,-0.010536743417586043,0.25480127829744903,-0.8906282615398439,0.42890190047988824,-0.693994868730972,-0.08178149251201369,3.5900426201628384,3.4859673366588817,0.1633574834194938,0.036425206081150234,-0.09618261380808961,-0.03562853688728117
1750170871.018084,-1.7242597877578527,-2.14625729806418,-1.0090897714806806,1.708189747453391,-0.1880590903878776,-1.6224008806355759,-0.010974752397120842,0.2561184535454068,-0.8950228610248407,0.4297896424913143,-0.6974132207086248,-0.08194112905118463,3.5891061804803965,3.487289585878766,0.1630018801970027,0.03612256503684421,-0.09633108892389791,-0.034615741953428925
1750170871.0200996,-1.7242821794409524,-2.14574374181122,-1.0108842169743033,1.7090502034443442,-0.1894573395800334,-1.62256492035357,-0.011417766586533798,0.257438233929666,-0.8994236665239494,0.4306641336572599,-0.7008368520409607,-0.08209815227473641,3.588168898888491,3.488613481122412,0.1626450054738078,0.03581786436433526,-0.09647980760955963,-0.03359759053907815
1750170871.0219646,-1.724305462174458,-2.1452275433891312,-1.0126874702807003,1.7099123951034392,-0.19086244132113261,-1.622729271493541,-0.01186580616368391,0.25876062330467214,-0.9038306728881682,0.4315252979464233,-0.70426577099781,-0.0822525487983676,3.587230820813979,3.4899389594978336,0.1622868678674959,0.03551109582816067,-0.09662875925182257,-0.03257407914682285
1750170871.0239372,-1.7243296460292932,-2.1447086975762044,-1.0144995437959228,1.7107762957007455,-0.19227440619437353,-1.6228939287887085,-0.01231889126971225,0.26008562537061564,-0.9082438743324993,0.432373059153454,-0.7076999854661423,-0.08240430523985617,3.586291992145811,3.4912659575159375,0.16192747616160771,0.03520225120382427,-0.09677793306542049,-0.03154520446311355
1750170871.0260918,-1.7243296460292932,-2.1447086975762044,-1.0144995437959228,1.7107762957007455,-0.19227440619437353,-1.6228939287887085,-0.01231889126971225,0.26008562537061564,-0.9082438743324993,0.432373059153454,-0.7076999854661423,-0.08240430523985617,3.586291992145811,3.4912659575159375,0.16192747616160771,0.03520225120382427,-0.09677793306542049,-0.03154520446311355
1750170871.028017,-1.7243547411166258,-2.1441871991434898,-1.0163204499038123,1.7116418783537497,-0.19369324479834393,-1.6230588869455262,-0.012777042007871813,0.2614132436709235,-0.9126632644279727,0.43320734090029267,-0.7111395029438584,-0.08255340821960878,3.585352459264338,3.492594411104729,0.1615668393057006,0.03489132228108433,-0.09692731809018627,-0.030510963350821402
1750170871.0302298,-1.7243807575877899,-2.1436630428551053,-1.0181502009746968,1.7125091160270105,-0.1951189677462315,-1.6232241406436945,-0.01324027844237963,0.2627434815897174,-0.9170888360935692,0.43402806663753923,-0.7145843305335573,-0.08269984436126507,3.5844122690298423,3.493924255600781,0.16120496641768528,0.034578300864542715,-0.09707690319038217,-0.029471352868470028
1750170871.0319893,-1.72440770563421,-2.1431362234685665,-1.0199888093640865,1.7133779815318175,-0.19655158566502795,-1.6233896845361642,-0.013708620597204412,0.2640763423491573,-0.9215205815880279,0.43483515964582414,-0.7180344749362491,-0.08284360029224927,3.583471468801812,3.4952554257299,0.16084186678654627,0.03426317877381838,-0.097226677053153,-0.028426370253853195
1750170871.034003,-1.7244355954873152,-2.1426067357351064,-1.0218362874113431,1.7142484475258528,-0.19799110919472174,-1.6235555132491442,-0.014182088454802703,0.2654118290068452,-0.9259584925016955,0.4356285430372929,-0.7214899424449535,-0.08298466264436369,3.5825301064636466,3.496587855623868,0.16047754987203303,0.0339459478466462,-0.09737662818531556,-0.02737601293900893
1750170871.0359147,-1.7244644374184581,-2.1420745744000094,-1.02369264743833,1.7151204865128558,-0.199437548987472,-1.6237216213821135,-0.014660701954882156,0.26674994445309896,-0.9304025597481824,0.43640813975705883,-0.724950738938301,-0.08312301805438291,3.5815882304027133,3.497921478791333,0.16011202530876142,0.03362659993787336,-0.09752674491342556,-0.026320278551025075
1750170871.0407083,-1.7244942417388271,-2.1415397342029507,-1.0255579017480585,1.7159940708422898,-0.2008909157067782,-1.6238880035078287,-0.01514448099303619,0.26809069140821334,-0.9348527735560238,0.4371738725847539,-0.728416869874035,-0.08325865316462175,3.580645889563347,3.4992562281245294,0.15974530290691316,0.033305126922325914,-0.09767701538099388,-0.025259164905452464
1750170871.041088,-1.7244942417388271,-2.1415397342029507,-1.0255579017480585,1.7159940708422898,-0.2008909157067782,-1.6238880035078287,-0.01514448099303619,0.26809069140821334,-0.9348527735560238,0.4371738725847539,-0.728416869874035,-0.08325865316462175,3.580645889563347,3.4992562281245294,0.15974530290691316,0.033305126922325914,-0.09767701538099388,-0.025259164905452464
1750170871.0419652,-1.7245250187993566,-2.1410022098783354,-1.0274320626233004,1.716869172709014,-0.20235122002662465,-1.6240546541723377,-0.015633445419447983,0.26943407241972567,-0.9393091234603052,0.437925664136105,-0.7318883402824561,-0.08339155462355861,3.5797031334159994,3.5005920358958242,0.15937739265265322,0.03298152069531446,-0.0978274275468564,-0.024192670023743715
1750170871.0441463,-1.7245567789906335,-2.1404619961556497,-1.029315142325201,1.7177457641529557,-0.2038184726306289,-1.6242215678949918,-0.016127615037466726,0.2707800898595371,-0.9437715982940968,0.43866343686454484,-0.7353651547598417,-0.08352170908641474,3.578760012003476,3.501928833736424,0.15900830471334473,0.0326557731736929,-0.0979779691844748,-0.023120792122213032
1750170871.0460536,-1.7245895327428054,-2.1399190877598127,-1.0312071530918612,1.7186238170587886,-0.2052926842111562,-1.6243887391684613,-0.016627009602214048,0.27212874592109765,-0.9482401861799667,0.43938711306289513,-0.7388473174617417,-0.08364910321576657,3.5778165759290883,3.5032665526483964,0.1586380494355252,0.032327876297812586,-0.09812862787845403,-0.02204352962147247
1750170871.0480952,-1.7246232905254786,-2.139373479411539,-1.0331081071369077,1.719503303155613,-0.20677386546843923,-1.6245561624587461,-0.01713164881909038,0.27348004261646636,-0.9527148745213243,0.44009661486506924,-0.7423348320962599,-0.08377372368214214,3.576872876392335,3.5046051229853985,0.15826663734940086,0.03199782203206428,-0.0982793910241244,-0.020960881144611313
1750170871.0501466,-1.7246580628476202,-2.1388251658277024,-1.0350180166480492,1.7203841940166393,-0.208262027109674,-1.6247238322052002,-0.017641552342316603,0.2748339817733768,-0.9571956499937557,0.4407918642478329,-0.7458277019172928,-0.0838955571646585,3.5759289651723702,3.5059444744516024,0.15789407916877785,0.03166560236638375,-0.0984302458263559,-0.019872845530351072
