mathias31415/primitives_from_planned_trajectory_python/data/saved_trajectories/trajectory_20250624_102029_executed.csv
timestamp,shoulder_lift_joint_pos,elbow_joint_pos,wrist_1_joint_pos,wrist_2_joint_pos,wrist_3_joint_pos,shoulder_pan_joint_pos,shoulder_lift_joint_vel,elbow_joint_vel,wrist_1_joint_vel,wrist_2_joint_vel,wrist_3_joint_vel,shoulder_pan_joint_vel,shoulder_lift_joint_eff,elbow_joint_eff,wrist_1_joint_eff,wrist_2_joint_eff,wrist_3_joint_eff,shoulder_pan_joint_eff
1750753248.8663247,-1.7271,-2.2029999999999994,-0.8079999999999998,1.5951,-0.030999999999999694,-1.6006999999999998,0.0,0.0,0.0,0.0,0.0,0.0,3.621137313700035,3.121199266827123,0.30055339469883446,0.0020055341419326616,0.0,1.208170004274665e-16
1750753248.868454,-1.7271,-2.2029999999999994,-0.8079999999999998,1.5951,-0.030999999999999694,-1.6006999999999998,0.0,0.0,0.0,0.0,0.0,0.0,3.621137313700035,3.121199266827123,0.30055339469883446,0.0020055341419326616,0.0,1.208170004274665e-16
1750753248.8690376,-1.7271,-2.2029999999999994,-0.8079999999999998,1.5951,-0.030999999999999694,-1.6006999999999998,0.0,0.0,0.0,0.0,0.0,0.0,3.621137313700035,3.121199266827123,0.30055339469883446,0.0020055341419326616,0.0,1.208170004274665e-16
1750753248.8693619,-1.7271,-2.2029999999999994,-0.8079999999999998,1.5951,-0.030999999999999694,-1.6006999999999998,0.0,0.0,0.0,0.0,0.0,0.0,3.621137313700035,3.121199266827123,0.30055339469883446,0.0020055341419326616,0.0,1.208170004274665e-16
1750753248.871101,-1.7271,-2.2029999999999994,-0.8079999999999998,1.5951,-0.030999999999999694,-1.6006999999999998,0.0,0.0,0.0,0.0,0.0,0.0,3.621137313700035,3.121199266827123,0.30055339469883446,0.0020055341419326616,0.0,1.208170004274665e-16
1750753248.876863,-1.7271,-2.2029999999999994,-0.8079999999999998,1.5951,-0.030999999999999694,-1.6006999999999998,0.0,0.0,0.0,0.0,0.0,0.0,3.621137313700035,3.121199266827123,0.30055339469883446,0.0020055341419326616,0.0,1.208170004274665e-16
1750753248.8788607,-1.727099937871432,-2.2030000977920405,-0.8080000015929638,1.595099960586054,-0.031001533102577028,-1.6007015331568706,6.212741476436815e-05,-9.77906189736297e-05,-1.5932147939752691e-06,-3.9413986274440234e-05,-0.001533103036251322,-0.0015331573309499027,3.6876628065781047,3.069587227802559,0.2988445533746118,-0.0030544082098878512,-0.043188008546835875,-0.5582241998688885
1750753248.8807364,-1.727099937871432,-2.2030000977920405,-0.8080000015929638,1.595099960586054,-0.031001533102577028,-1.6007015331568706,6.212741476436815e-05,-9.77906189736297e-05,-1.5932147939752691e-06,-3.9413986274440234e-05,-0.001533103036251322,-0.0015331573309499027,3.6876628065781047,3.069587227802559,0.2988445533746118,-0.0030544082098878512,-0.043188008546835875,-0.5582241998688885
1750753248.8824756,-1.7270994409259046,-2.203000880025952,-0.8080000143547137,1.5950996452715789,-0.03101379795624748,-1.6007137984449935,0.00018632690129104067,-0.0002933035760572665,-4.791667940063831e-06,-0.0001182438975780012,-0.004599331144135487,-0.004599494099513698,3.6876453504403615,3.0695922159241222,0.29884428495097676,-0.003054476800953093,-0.04318847410190405,-0.5582274361786814
1750753248.8831725,-1.727099006219631,-2.2030015643312595,-0.8080000255475461,1.595099369367172,-0.031024529751411123,-1.6007245306204583,0.0002483713013603291,-0.0003909917736349781,-6.402917926383633e-06,-0.00015766079195294528,-0.006132467231992437,-0.006132684588997478,3.6876281972831646,3.069597690783241,0.2988440334682553,-0.0030545473156218333,-0.04318893962146668,-0.5582307558970832
1750753248.8835263,-1.727099006219631,-2.2030015643312595,-0.8080000255475461,1.595099369367172,-0.031024529751411123,-1.6007245306204583,0.0002483713013603291,-0.0003909917736349781,-6.402917926383633e-06,-0.00015766079195294528,-0.006132467231992437,-0.006132684588997478,3.6876281972831646,3.069597690783241,0.2988440334682553,-0.0030545473156218333,-0.04318893962146668,-0.5582307558970832
1750753248.8849912,-1.727097764824319,-2.2030035187211183,-0.8080000576623299,1.5950985810470564,-0.03105519227117437,-1.6007551942276006,0.00037228023478101473,-0.0005861462550815647,-9.664492628913839e-06,-0.00023650088126128064,-0.009198811007311897,-0.00919913739924891,3.687577043928214,3.0696146024708573,0.2988432959840529,-0.0030547607798060853,-0.0431903359679462,-0.5582407970487568
1750753248.8870668,-1.727097764824319,-2.2030035187211183,-0.8080000576623299,1.5950985810470564,-0.03105519227117437,-1.6007551942276006,0.00037228023478101473,-0.0005861462550815647,-9.664492628913839e-06,-0.00023650088126128064,-0.009198811007311897,-0.00919913739924891,3.687577043928214,3.0696146024708573,0.2988432959840529,-0.0030547607798060853,-0.0431903359679462,-0.5582407970487568
1750753248.8891084,-1.727096958412,-2.2030047884642645,-0.8080000786443939,1.5950980686216547,-0.031075123105918756,-1.600775125769779,0.0004341170953150473,-0.0006835783979192644,-1.1320827865910055e-05,-0.00027592504534901024,-0.01073202970219799,-0.010732410763092563,3.6875430454942917,3.069626039519199,0.2988428099978215,-0.0030549037289834343,-0.04319126668841111,-0.5582475176045165
1750753248.8917325,-1.7270960284205064,-2.2030062529550483,-0.8080001029596664,1.5950974773446134,-0.031098120415675723,-1.6007981238964293,0.0004958571026986563,-0.0007808910479134718,-1.299820159614139e-05,-0.00031535260167778667,-0.012265286936287298,-0.012265722790898617,3.687503434031042,3.0696394642261855,0.29884224585920033,-0.0030550708194905843,-0.04319235235030365,-0.5582553707276796
1750753248.8929305,-1.7270949750573834,-2.203007911937414,-0.8080001306532285,1.5950968072086635,-0.031124184283021883,-1.600824188690396,0.0005574864196948084,-0.0008780671341769569,-1.4699618292933578e-05,-0.00035478403470821435,-0.013798588206795545,-0.013799078997714348,3.687458210851947,3.0696548767566245,0.29884160358033307,-0.0030552620526856605,-0.04319359287054163,-0.5582643557197171
1750753248.8950238,-1.7270937985578465,-2.2030097651211618,-0.808000161776171,1.5950960582055673,-0.03115331480152328,-1.6008533202455482,0.0006189912086537623,-0.0009750895856175344,-1.6428082023650522e-05,-0.00039421982871899004,-0.015331939007594005,-0.01533248489524353,3.687407377456831,3.0696722773053433,0.29884088317401514,-0.0030554774238914168,-0.04319498815491087,-0.5582744717844569
1750753248.8995347,-1.727092499184792,-2.203011812181952,-0.8080001963855903,1.5950952303261186,-0.031185512075732724,-1.600885518666776,0.0006803576314302557,-0.0010719413309460118,-1.8186596397807952e-05,-0.00043366046796942205,-0.01686534482879272,-0.016865945991422618,3.687350935504718,3.0696916660813107,0.2988400846540686,-0.003055716933058214,-0.043196538097456376,-0.5582857180210354
1750753248.900099,-1.727092499184792,-2.203011812181952,-0.8080001963855903,1.5950952303261186,-0.031185512075732724,-1.600885518666776,0.0006803576314302557,-0.0010719413309460118,-1.8186596397807952e-05,-0.00043366046796942205,-0.01686534482879272,-0.016865945991422618,3.687350935504718,3.0696916660813107,0.2988400846540686,-0.003055716933058214,-0.043196538097456376,-0.5582857180210354
1750753248.9011476,-1.727091077228791,-2.2030140527613007,-0.8080002345445925,1.5950943235601425,-0.03122077622117647,-1.6009207840699817,0.0007415718493656088,-0.0011686052986086483,-1.9978164510041763e-05,-0.00047310643659261806,-0.018398811156296192,-0.018399467789996477,3.687288886845694,3.0697130433290885,0.29883920803683933,-0.003055980577064928,-0.04319824257970659,-0.5582980934236883
1750753248.9040349,-1.7270895330080904,-2.2030164864665798,-0.8080002763222858,1.5950933378964964,-0.03125910736434889,-1.6009591165820698,0.0008026200232127953,-0.0012650644167882222,-2.1805788944770877e-05,-0.0005125582185820316,-0.019932343471404317,-0.019933055790107804,3.687221233492701,3.0697364093085504,0.2988382533381165,-0.0030562683524281366,-0.04320010147194814,-0.5583115968865222
1750753248.9057412,-1.7270878668686205,-2.2030191128710195,-0.808000321793787,1.59509227332307,-0.03130050564270448,-1.6010005163409389,0.0008634883130751477,-0.0013613016134045336,-2.3672471580721504e-05,-0.0005520162978682812,-0.02146594725039421,-0.021466715485863135,3.6871479776284026,3.06976176429853,0.2988372205793361,-0.0030565802578168618,-0.04320211463268816,-0.5583262271955228
1750753248.9077866,-1.7270860791839882,-2.203021931513704,-0.8080003710402126,1.5950911298267842,-0.03134497120464097,-1.6010449834954699,0.0009241628784015097,-0.0014572998160270127,-2.558121374833573e-05,-0.0005914811582092127,-0.022999627964069177,-0.02300045236592709,3.6870691216319544,3.069789108616016,0.2988361097782624,-0.003056916288789077,-0.043204281907726905,-0.5583419830386992
1750753248.9092534,-1.727084170355484,-2.2030249418995727,-0.8080004241486822,1.5950899073935938,-0.03139250420949402,-1.6010925182055145,0.000984629877872491,-0.0015530419519164521,-2.7535015988262516e-05,-0.0006309532832159376,-0.02453339107738975,-0.02453427191310001,3.6869846680281535,3.069818442584524,0.29883492095880876,-0.0030572764416411553,-0.04320660313247226,-0.5583588629992428
1750753248.9112327,-1.7270821408120813,-2.2030281434994183,-0.808000481212316,1.595088606008486,-0.031443104827522994,-1.6011431206418845,0.0010448754693943504,-0.001648510947970178,-2.9536878092898435e-05,-0.0006704331563545491,-0.026067242049016035,-0.026068179603897085,3.686894619536609,3.0698497665597064,0.2988336541443924,-0.0030576607127092725,-0.04320907812943891,-0.5583768655576529
1750753248.9129167,-1.7270799910104397,-2.203031535749889,-0.8080005423302339,1.595087225655481,-0.03149677323989675,-1.6011967909863394,0.0011048858100305235,-0.0017436897306858398,-3.158979912274446e-05,-0.0007099212609422717,-0.02760118633089531,-0.02760218090812079,3.6867989790438043,3.0698830809216795,0.29883230935796123,-0.0030580690981986645,-0.043211706709524275,-0.5583959890878395
1750753248.915093,-1.7270777214349042,-2.2030351180534833,-0.8080006076075508,1.5950857663176325,-0.031553509638682975,-1.6012535294315686,0.001164647055961932,-0.0018385612261788726,-3.3696777169887036e-05,-0.0007494180801249639,-0.02913522936782401,-0.029136281288436327,3.686697749615002,3.06991838606713,0.29883088662935986,-0.003058501593657652,-0.043214488671286695,-0.5584162318597863
1750753248.917195,-1.7270753325975097,-2.2030388897785524,-0.8080006771553787,1.5950842279770288,-0.03161331422682956,-1.60131333618118,0.0012241453624195764,-0.0019331083601241581,-3.586080948912671e-05,-0.0007889240968079291,-0.030669376597078645,-0.030670486199981865,3.686590934484065,3.0699556824202814,0.2988293859846892,-0.0030589581927364952,-0.04321742380288779,-0.5584375920501902
1750753248.9195685,-1.727072825037978,-2.2030428502592994,-0.8080007510908223,1.5950826106147917,-0.03167618721815302,-1.6013762114496872,0.0012833668836602203,-0.0020273140577481696,-3.808489236825931e-05,-0.0008284397937934567,-0.03220363344793145,-0.03220480108990521,3.68647853706952,3.0699949704282914,0.2988278074541298,-0.0030594388928991633,-0.04322051187884424,-0.558460067718301
1750753248.9212832,-1.7270701993237294,-2.2030469987957764,-0.8080008295369785,1.5950809142110784,-0.031742128837317196,-1.6014421554624851,0.0013422977728766744,-0.002121161243794857,-4.037202111570441e-05,-0.0008679656535936042,-0.03373800534126247,-0.033739231396958606,3.686360560948334,3.070036250560816,0.2988261510680323,-0.003059943686304477,-0.04322375266274547,-0.5584836568239594
1750753248.9236765,-1.7270674560498733,-2.2030513346538836,-0.8080009126229335,1.5950791387450807,-0.031811139319820825,-1.6015111684558399,0.0014009241822094142,-0.002214632842529184,-4.272518992640652e-05,-0.0009075021585375159,-0.03527249768913267,-0.035273782551095326,3.6862370098988806,3.0700795233087166,0.29882441686111044,-0.003060472568215891,-0.04322714590615492,-0.5585083572324829
1750753248.9251447,-1.7270645958392192,-2.2030558570653707,-0.8080010004837606,1.595077284195026,-0.03188321891197887,-1.6015832506768684,0.0014592322626406585,-0.0023077117776945937,-4.5147391952194394e-05,-0.0009470497907717902,-0.03680711589435823,-0.03680845997300984,3.686107887849075,3.070124789186526,0.2988226048657221,-0.0030610255338109913,-0.04323069134864455,-0.5585341666899526
1750753248.9271953,-1.7270645958392192,-2.2030558570653707,-0.8080010004837606,1.595077284195026,-0.03188321891197887,-1.6015832506768684,0.0014592322626406585,-0.0023077117776945937,-4.5147391952194394e-05,-0.0009470497907717902,-0.03680711589435823,-0.03680845997300984,3.686107887849075,3.070124789186526,0.2988226048657221,-0.0030610255338109913,-0.04323069134864455,-0.5585341666899526
1750753248.929116,-1.7270616193422752,-2.203060565227834,-0.8080010932605184,1.595075350538178,-0.03195836787089856,-1.601658402383518,0.0015172081639791355,-0.0024003809724902543,-4.764161915882711e-05,-0.000986609032125298,-0.0383418653500855,-0.03834326907374926,3.6859731989184112,3.0701720487341824,0.29882071511887276,-0.0030616025744879534,-0.043234388717811593,-0.5585610828515604
1750753248.9310687,-1.7270585272372507,-2.2030654583047156,-0.8080011911002476,1.595073337750837,-0.03203658646446783,-1.60173662384455,0.001574838034806179,-0.0024926233495555588,-5.0210862342687474e-05,-0.0010261803642248814,-0.039876751439370986,-0.03987821525427338,3.6858329473980733,3.0702213025123206,0.298818747657002,-0.0030622036849027577,-0.04323823772942207,-0.5585891032627455
1750753248.933089,-1.7270553202300585,-2.2030705354253017,-0.8080012941559716,1.5950712458083398,-0.03211787497132779,-1.6018179153395158,0.0016321080224331608,-0.002584421830953319,-5.285811106697408e-05,-0.001065764268448859,-0.041411779534752925,-0.04141330390502401,3.6856871377568066,3.070272551103935,0.2988167025185255,-0.00306282885836127,-0.0432422380871729,-0.5586182253624774
1750753248.9353018,-1.7270519990543187,-2.2030757956847236,-0.8080014025866884,1.595069074685061,-0.03220223368085229,-1.6019022771587368,0.0016890042728387687,-0.002675759338133104,-5.558635359937446e-05,-0.0011053612258898643,-0.04294695499782851,-0.042948540405516065,3.6855357746337685,3.0703257951172453,0.29881457974379544,-0.0030634780871427536,-0.043246389482851345,-0.5586484464902443
1750753248.9368794,-1.727048564471362,-2.2030812381439517,-0.8080015165573728,1.5950668243544135,-0.032289662893131066,-1.6019897096032834,0.001745512930642135,-0.002766618791928726,-5.8398576861842974e-05,-0.0011449717173448218,-0.04448228317883495,-0.04448393012391019,3.6853788628517377,3.070381035180212,0.29881237937471533,-0.003064151363228348,-0.04325069159644304,-0.5586797638811453
1750753248.9393275,-1.7270450172702292,-2.203086861829802,-0.8080016362389735,1.5950644947888486,-0.03238016291893864,-1.6020802129849487,0.001801620139057015,-0.002856983112543684,-6.129776637736549e-05,-0.001184596223364103,-0.046017769416212884,-0.046019478416569254,3.6852164074089977,3.070438271942517,0.2988101014547953,-0.003064848679950991,-0.04325514409563474,-0.5587121746594514
1750753248.941246,-1.7270413582676776,-2.2030926657349266,-0.8080017618084057,1.595062085959857,-0.03247373407971743,-1.6021737876262288,0.0018573120398375684,-0.0029468352194878737,-6.428690627424054e-05,-0.0012242352241514777,-0.04755341903618362,-0.0475551906276628,3.6850484134790698,3.0704975060846516,0.29880774602779225,-0.003065570027858181,-0.04325974663620386,-0.5587456758546253
1750753248.9431891,-1.727037588308181,-2.203098648817817,-0.8080018934485533,1.595059597837969,-0.032570376707548476,-1.6022704338602924,0.0019125747732439548,-0.0030361580315927143,-6.736897929320333e-05,-0.0012638891996189724,-0.04908923735232842,-0.0490910720887104,3.684874886413567,3.070558738302218,0.2988053131370466,-0.0030663153989824487,-0.043264498862076395,-0.5587802643815509
1750753248.9524732,-1.7270337082639369,-2.2031048100028023,-0.8080020313482654,1.5950570303927556,-0.03267009114512476,-1.6023701520309626,0.00196739447799181,-0.003124934467018406,-7.054696645433605e-05,-0.0013035586293746572,-0.05062522966516321,-0.05062712811817833,3.6846958317398535,3.0706219693093986,0.29880280283567934,-0.0030670847850608803,-0.04326940040519767,-0.5588159370588902
1750753248.9531636,-1.7270337082639369,-2.2031048100028023,-0.8080020313482654,1.5950570303927556,-0.03267009114512476,-1.6023701520309626,0.00196739447799181,-0.003124934467018406,-7.054696645433605e-05,-0.0013035586293746572,-0.05062522966516321,-0.05062712811817833,3.6846958317398535,3.0706219693093986,0.29880280283567934,-0.0030670847850608803,-0.04326940040519767,-0.5588159370588902
1750753248.954233,-1.7270337082639369,-2.2031048100028023,-0.8080020313482654,1.5950570303927556,-0.03267009114512476,-1.6023701520309626,0.00196739447799181,-0.003124934467018406,-7.054696645433605e-05,-0.0013035586293746572,-0.05062522966516321,-0.05062712811817833,3.6846958317398535,3.0706219693093986,0.29880280283567934,-0.0030670847850608803,-0.04326940040519767,-0.5588159370588902
1750753248.9546323,-1.727021416760551,-2.2031243509011347,-0.8080024845826479,1.5950488517984949,-0.03298766890193505,-1.602687741759996,0.0021290567835675995,-0.003387814683557167,-8.068620095407991e-05,-0.001422664435091833,-0.05523430338378799,-0.055236396596769904,3.6841255600521534,3.070823662639458,0.2987948079355247,-0.003069536935229351,-0.043284997073278486,-0.55892942655314
1750753248.955025,-1.7270171056538013,-2.2031312130544727,-0.8080026495282553,1.5950459667365235,-0.0330996742167855,-1.6027997513273462,0.0021819657286749864,-0.003474234778851161,-8.427762448102597e-05,-0.0014624004709701888,-0.05677104441203288,-0.05677320380828833,3.683924453809233,3.070894896473158,0.29879198847806915,-0.003070402283349181,-0.043290491960816246,-0.5589694018701682
1750753248.955378,-1.72701268923921,-2.2031382474190515,-0.8080028217670092,1.595043002184713,-0.03321475321310974,-1.6029148347091962,0.002234362314212481,-0.003560023076921714,-8.797984368174082e-05,-0.0015021543538506247,-0.05830798572844943,-0.058310211969604404,3.6837178502828167,3.070968133038092,0.29878909186187647,-0.003071291597705496,-0.04329613414348261,-0.559010443834703
1750753248.9569185,-1.7270081685553649,-2.2031454527141916,-0.808003001523474,1.595039958106892,-0.03333290629670049,-1.603032992312679,0.0022862326688192097,-0.0036451624913014947,-9.179582965089436e-05,-0.0015419265611375619,-0.05984513254611204,-0.059847426311801594,3.683505756071858,3.0710433731860123,0.2987861181454243,-0.003072204866298471,-0.04330192318014113,-0.5590525486282363
1750753248.9587905,-1.7270035446686034,-2.2031528276250363,-0.8080031890281525,1.5950368344659343,-0.03345413388375995,-1.6031542245553734,0.0023375629193077433,-0.003729635934666905,-9.572855174053916e-05,-0.0015817175698610599,-0.061382490062018985,-0.0613848520498958,3.6832881779520483,3.071120617797609,0.29878306738343824,-0.0030731420787881705,-0.04330785861792273,-0.5590957123278621
1750753248.9608285,-1.7269988186730076,-2.203160370802557,-0.8080033845174839,1.5950336312237605,-0.03357843640086777,-1.603278531865275,0.0023883391906635025,-0.003813426318870349,-9.978097743642669e-05,-0.0016215278566067243,-0.06292006345666891,-0.0629224943824099,3.6830651228926823,3.071199867767284,0.29877993963426014,-0.0030741032228424185,-0.04331393999202718,-0.5591399309087988
1750753248.9628136,-1.7269939916904118,-2.2031680808635468,-0.8080035882338414,1.5950303483413384,-0.03370581428494823,-1.6034059146807547,0.0024385476059752423,-0.003896516554891199,-0.00010395607228346049,-0.001661357897548869,-0.06445785789359595,-0.06446035849091786,3.6828365980295468,3.0712811240178786,0.298776734958599,-0.0030750882870090013,-0.043320166824558984,-0.5591852002302737
1750753248.9647193,-1.7269890648704065,-2.203175956390618,-0.8080038004255279,1.5950269857786836,-0.03383626798323469,-1.603536373450532,0.0024881742864083867,-0.003978889552828857,-0.00010825679993041499,-0.0017012081684466072,-0.065995878518983,-0.06599844953964455,3.682602610682031,3.0713643874909473,0.29877345341581973,-0.003076097259803043,-0.04332653862672768,-0.5592315160577587
1750753248.9680884,-1.7269840393903433,-2.2031839959322053,-0.808004021346771,1.595023543494861,-0.03396979795323585,-1.6036699086336377,0.0025372053511839585,-0.004060528221888936,-0.0001126861220604458,-0.0017410791445985542,-0.0675341304611879,-0.0675367726750077,3.682363168355105,3.0714496591511766,0.2987700950675657,-0.0030771301283760433,-0.043333054896396196,-0.5592788740419093
1750753248.969022,-1.7269840393903433,-2.2031839959322053,-0.808004021346771,1.595023543494861,-0.03396979795323585,-1.6036699086336377,0.0025372053511839585,-0.004060528221888936,-0.0001126861220604458,-0.0017410791445985542,-0.0675341304611879,-0.0675367726750077,3.682363168355105,3.0714496591511766,0.2987700950675657,-0.0030771301283760433,-0.043333054896396196,-0.5592788740419093
1750753248.971148,-1.7269789164553337,-2.2031921980025597,-0.808004251257719,1.595020021447985,-0.03410640466269754,-1.6038065206993757,0.0025856269175479007,-0.004141415470366086,-0.00011724699830604968,-0.0017809713008661394,-0.06907261883031689,-0.06907533302517975,3.682118278735952,3.071536939986283,0.2987666599781578,-0.0030781868805283366,-0.04333971511941051,-0.5593272697257039
1750753248.9731326,-1.726973697298262,-2.2032005610817453,-0.8080044904244383,1.5950164195952212,-0.0342460885895699,-1.6039462101272886,0.00263342510071022,-0.004221534205612743,-0.00012194238631902837,-0.0018208851115766134,-0.07061134871781154,-0.07061413569968479,3.6818679496814113,3.0716262310059532,0.29876314820974587,-0.0030792675013685024,-0.043346518769981586,-0.5593766985558654
1750753248.9747648,-1.726968383179778,-2.2032090836156435,-0.8080047391189087,1.5950127378927865,-0.03438885022196292,-1.6040889774071179,0.0026805860138623587,-0.00430086733408177,-0.0001267752415701421,-0.00186082105063883,-0.0721503251959854,-0.07215318578892418,3.681612189248173,3.0717175332339517,0.29875955983048597,-0.0030803719792036745,-0.04335346530926629,-0.5594271558610271
1750753248.9767215,-1.7269629753883127,-2.203217764015948,-0.8080049976190189,1.5950089762959507,-0.03453469005811627,-1.6042348230387677,0.0027270957681012125,-0.004379397761243877,-0.00013174851744584819,-0.001900779591471708,-0.07368955331760309,-0.0736924883637584,3.6813510056578367,3.071810847726901,0.2987558949059433,-0.003081500300339569,-0.04336055418656531,-0.5594786368670008
1750753248.9786258,-1.7269574752400718,-2.203226600660157,-0.8080052662085606,1.5950051347590375,-0.034683608606351335,-1.604383747532264,0.002772940472439326,-0.004457108391586009,-0.00013686516523042834,-0.0019407612068992328,-0.0752290381154228,-0.07523204847507868,3.681084407330782,3.0719061755622405,0.2987521535025065,-0.0030826524480986575,-0.04336778483829033,-0.5595311366969389
1750753248.980786,-1.7269518840790514,-2.203235591891585,-0.8080055451772266,1.595001213235425,-0.034835606385037465,-1.6045357514077132,0.002818106233743038,-0.004533982128674839,-0.00014212813387914203,-0.0019807663693448933,-0.07676878460179352,-0.0767718711533335,3.6808124028520584,3.072003517822023,0.29874833569244746,-0.0030838284112612783,-0.04337515668950903,-0.5595846503546429
1750753248.9829865,-1.7269462032770289,-2.203244736019345,-0.8080058348206078,1.5949972116775475,-0.034990683922545784,-1.604690835195263,0.0028625791567603574,-0.004610001875008369,-0.00014754037031657798,-0.002020795550631398,-0.07830879776816399,-0.07831196140812821,3.680535001018641,3.072102875639935,0.2987444415408997,-0.003085028172974242,-0.0433826691514526,-0.5596391727494655
1750753248.9848368,-1.7269404342335815,-2.203254031318359,-0.8080061354401833,1.5949931300368958,-0.035148841757211,-1.604848999435056,0.0029063453440231145,-0.00468515053215675,-0.0001531048189792356,-0.002060849222061373,-0.07984908258469746,-0.07985232422776178,3.6802522107748272,3.072204250136505,0.2987404711247458,-0.003086251718628842,-0.043390321624503694,-0.5596946986751808
1750753248.9869823,-1.7269345783760768,-2.203263476029348,-0.8080064473433204,1.5949889682640188,-0.03531008043728434,-1.605010244677195,0.002949390895898632,-0.004759411000617168,-0.00015882442217385784,-0.0021009278543569856,-0.08138964399979372,-0.0813929645788069,3.679964041285839,3.0723076424842204,0.2987364245120941,-0.0030874990319307767,-0.04339811349557764,-0.5597512228252994
1750753248.9890802,-1.7269286371596886,-2.2032730683588353,-0.8080067708432681,1.5949847263085244,-0.03547440052089357,-1.6051745714816894,0.002991701910503989,-0.004832766179903095,-0.00016470211977641857,-0.0021410319177098064,-0.08293048693964865,-0.0829338874056272,3.6796705018701386,3.0724130538536714,0.29873230177870136,-0.0030887700979022516,-0.04340604413918351,-0.5598087397703387
1750753248.9907603,-1.726922612067396,-2.203282806479141,-0.8080071062591543,1.594980404119081,-0.03564180257599503,-1.605341980418416,0.0030332644837353442,-0.004905198968474152,-0.0001707408493355977,-0.00218116188171864,-0.08447161630782954,-0.08447509762997762,3.6793716020562655,3.07252048545102,0.2987281029982859,-0.0030900648998873673,-0.0434141129178664,-0.559867243988546
1750753248.9927278,-1.726916504609986,-2.2032926885283803,-0.8080074539159767,1.5949760016434178,-0.035812287180331026,-1.6055124720670744,0.003074064709228391,-0.004976692263730045,-0.0001769435460893229,-0.002221318215372794,-0.08601303698482142,-0.08601660015054402,3.6790673515487335,3.0726299385012803,0.2987238282439449,-0.003091383420702498,-0.043422319181391604,-0.5599267298431408
1750753248.9953194,-1.7269103163260624,-2.203302712610464,-0.808007814144605,1.5949715188283273,-0.03598585492137918,-1.6056860470171337,0.0031140886783186644,-0.005047228962053823,-0.00018331314268082391,-0.0022615013870736257,-0.08755475382756941,-0.08755839984248132,3.678757760227834,3.0727414142402076,0.2987194775967485,-0.0030927256437269573,-0.043430662266632454,-0.5599871915826612
1750753248.996846,-1.7269040487820506,-2.203312876795094,-0.8080081872817679,1.5949669556196655,-0.036162506396308025,-1.6058627058677928,0.003153322480064036,-0.005116791958731692,-0.00018985256944946318,-0.002301711864598233,-0.08909677166906452,-0.0891005015570083,3.678442838179706,3.0728549139389303,0.2987150511300845,-0.003094091551394763,-0.04343914149879323,-0.5600486233614068
1750753248.9987817,-1.7268977035721962,-2.2033231791177617,-0.8080085736700546,1.5949623119623535,-0.03634224221192728,-1.6060424492279282,0.003191752201220882,-0.005185364147997283,-0.00019656475418099845,-0.002341950115116296,-0.09063909531785215,-0.09064291012091485,3.678122595671805,3.072970438880263,0.29871054892442245,-0.0030954811264930168,-0.04344775618923428,-0.5601110192084497
1750753249.0074353,-1.7268912823185767,-2.2033336175797436,-0.8080089736579072,1.5949575878003788,-0.036525062984640755,-1.6062252777160442,0.003229363926196009,-0.0052529284229973945,-0.00020345262216708092,-0.002382216605108554,-0.09218172955762712,-0.09218563033614607,3.6777970431460503,3.0730879903702455,0.29870597105846536,-0.003096894349553791,-0.04345650563790566,-0.560174373053438
1750753249.0101306,-1.7268847866711008,-2.203344190148105,-0.8080093875996139,1.5949527830767962,-0.03671096934039131,-1.606411191960225,0.0032661437370843883,-0.0053194676758091,-0.00021051909619167642,-0.0024225118004513268,-0.09372467914676431,-0.09372866697933979,3.6774661912525803,3.073207569733189,0.29870131761162816,-0.0030983312034746084,-0.043465389131537635,-0.5602386787135557
1750753249.0105827,-1.7268847866711008,-2.203344190148105,-0.8080093875996139,1.5949527830767962,-0.03671096934039131,-1.606411191960225,0.0032661437370843883,-0.0053194676758091,-0.00021051909619167642,-0.0024225118004513268,-0.09372467914676431,-0.09372866697933979,3.6774661912525803,3.073207569733189,0.29870131761162816,-0.0030983312034746084,-0.043465389131537635,-0.5602386787135557
1750753249.0109031,-1.726878218307517,-2.2033548947556927,-0.8080098158553088,1.59494789773373,-0.03689996191461553,-1.6066001925980817,0.003302077713611284,-0.005384964797418335,-0.00021776709636936648,-0.0024628361663001914,-0.09526794881787147,-0.09527202480138237,3.677130050811944,3.073329178316049,0.298696588668054,-0.0030997916678348904,-0.04347440594426041,-0.5603039298962008
1750753249.0111828,-1.7268715789334177,-2.203365729301134,-0.8080102587909623,1.5949429317123742,-0.03709204135218869,-1.6067922802767,0.003337151933161902,-0.005449402677685568,-0.00022519954040156045,-0.002503190167188217,-0.09681154327732407,-0.09681570852695122,3.676788632849874,3.0734528174922553,0.29869178430486215,-0.0031012757249895247,-0.04348355533710313,-0.5603701201973738
1750753249.013024,-1.72686487028224,-2.2033766916488347,-0.8080107167783765,1.5949378849529952,-0.03728720830737142,-1.6069874556525914,0.0033713524707524,-0.005512764205395395,-0.00023281934325720632,-0.0025435742668749664,-0.09835546720485244,-0.09835972285408545,3.6764419485730713,3.0735784886445527,0.2986869046081852,-0.0031027833530283726,-0.04349283655946362,-0.5604372431107498
1750753249.0147922,-1.7268580941152738,-2.2033877796289794,-0.8080111901951827,1.5949327573949321,-0.03748546344375647,-1.607185719391632,0.003404665399020107,-0.005575032268239621,-0.0002406294172497922,-0.0025839889284791375,-0.09989972525304652,-0.09990407245368924,3.676090009375651,3.073706193178489,0.298681949662054,-0.00310431453370465,-0.04350224884678775,-0.56050529200373
1750753249.0167015,-1.7268512522216692,-2.2033989910375222,-0.8080116794248333,1.5949275489765984,-0.03768680743421449,-1.6073870721690167,0.003437076788226652,-0.005636189752769349,-0.0002486326721073603,-0.002624434614388183,-0.10144432204692681,-0.10144876196912776,3.6757328268489884,3.0738359325284157,0.2986769195489619,-0.003105869246304678,-0.04351179142243578,-0.5605742601503687
1750753249.0187283,-1.726844346418435,-2.203410323636195,-0.8080121848565964,1.594922259635484,-0.037891240960839845,-1.6075915146691973,0.003468572706265818,-0.005696219544455974,-0.00025683201484918625,-0.00266491178620938,-0.10298926218347872,-0.10299379601573509,3.675370412777256,3.073967708136578,0.2986718143547195,-0.0031074474686109167,-0.043521463496650016,-0.5606441407015861
1750753249.0221312,-1.726844346418435,-2.203410323636195,-0.8080121848565964,1.594922259635484,-0.037891240960839845,-1.6075915146691973,0.003468572706265818,-0.005696219544455974,-0.00025683201484918625,-0.00266491178620938,-0.10298926218347872,-0.10299379601573509,3.675370412777256,3.073967708136578,0.2986718143547195,-0.0031074474686109167,-0.043521463496650016,-0.5606441407015861
1750753249.0230381,-1.7268373785504476,-2.2034217751524947,-0.8080127068855543,1.5949168893081558,-0.03809876471488938,-1.607799047585826,0.003499139218633225,-0.005755104527621303,-0.00026523034979965065,-0.0027054209048144877,-0.10453455023120173,-0.10453917918037996,3.6750027791279196,3.0741015214782617,0.29866663416523903,-0.0031090491797224245,-0.0435312642669731,-0.5607149267031453
1750753249.0250602,-1.7268303504904559,-2.2034333432796886,-0.8080132459125915,1.59491143793026,-0.038309379396731735,-1.6080096716217032,0.0035287623884475393,-0.00581282758551207,-0.0002738305785169864,-0.0027459624303458672,-0.10608019072965903,-0.10608491602100519,3.6746299380667717,3.074237374032954,0.2986613790681152,-0.003110674358892903,-0.04354119291825985,-0.5607866110900814
1750753249.0270402,-1.7268232641390817,-2.2034450256768086,-0.8080138023443961,1.5949059054365236,-0.03852308571578256,-1.6082233874887137,0.003557428276457131,-0.0058693716002281475,-0.00028263559990799475,-0.0027865368221603438,-0.10762618818899297,-0.10763101106614918,3.674251901956769,3.0743752673155713,0.2986560491483589,-0.003112322983704844,-0.04355124862171562,-0.5608591866773144
1750753249.0292864,-1.7268161214248323,-2.2034568199686486,-0.8080143765934507,1.5949002917607549,-0.0387398843904494,-1.6084401959077699,0.003585122941007285,-0.005924719452767521,-0.00029164831002729706,-0.0028271445387913507,-0.10917254708950345,-0.10917746881452071,3.673868683339225,3.074515202849403,0.2986506444963702,-0.0031139950307358315,-0.04356143053666943,-0.5609326461797457
1750753249.0312212,-1.7268089243040965,-2.2034687237457646,-0.808014969078025,1.5948945968358466,-0.03895977614806867,-1.6086600976087535,0.0036118324380945495,-0.005978854023008702,-0.00030087160221257037,-0.002867786037977002,-0.11071927188115645,-0.11072429373452063,3.6734802949703,3.074657182183153,0.29864516519919987,-0.0031156904773026934,-0.043571737808604113,-0.5610069821949863
1750753249.0328004,-1.7268016747611554,-2.2034807345644705,-0.8080155802221745,1.5948888205937766,-0.039182761724847914,-1.6088830933304488,0.003637542821330536,-0.006031758189725259,-0.0003103083669648905,-0.002908461776641887,-0.11226636698313797,-0.11227149026376537,3.673086749782256,3.0748012068808177,0.2986396113471385,-0.003117409300151783,-0.04358216957043886,-0.5610821872017652
1750753249.0349808,-1.7267943748081862,-2.203492849946839,-0.8080162104557331,1.5948829629656096,-0.03940884186580096,-1.609109183820486,0.0036622401419799484,-0.00608341483057241,-0.00031996149201684904,-0.002949172210880239,-0.11381383678339495,-0.11381906280866105,3.6726880609168755,3.0749472785293688,0.298633983028919,-0.0031191514756265222,-0.04359272494215846,-0.5611582535800945
1750753249.0367389,-1.7267870264852636,-2.203505067380693,-0.8080168602143063,1.594877023881499,-0.03963801732468575,-1.6093383698352772,0.003685910448951366,-0.0061338068220740056,-0.00032983386229379314,-0.002989917795931484,-0.11536168563815158,-0.11536701574390826,3.6722842417037507,3.0750953987384633,0.2986282803345838,-0.003120916979276751,-0.04360340303012278,-0.5612351735848914
1750753249.0392218,-1.726779631860368,-2.2035173843196105,-0.8080175299392671,1.594871003270689,-0.039870288863940395,-1.6095706521399507,0.0037085397888157153,-0.006182917039695774,-0.000339928359803276,-0.003030698986147786,-0.11690991787146897,-0.1169153534120519,3.6718753056698183,3.0752455691219223,0.2986225033569829,-0.00312270578575038,-0.04361420292828762,-0.5613129393646027
1750753249.0408556,-1.7267721930293893,-2.2035297981829185,-0.8080182200777495,1.5948649010615152,-0.04010565725461834,-1.6098060315082883,0.003730114205815163,-0.006230728357737054,-0.0003502478638809022,-0.0030715162350559546,-0.11845853777475517,-0.11846408012300506,3.6714612665405304,3.0753977913356576,0.2986166521827521,-0.003124517871418814,-0.04362512371680558,-0.5613915429489063
1750753249.0427628,-1.7267647121161316,-2.2035423063556916,-0.8080189310826444,1.5948587171814077,-0.040344123276325305,-1.6100445087226571,0.0037506197418961506,-0.00627722364947601,-0.0003607952507666154,-0.003112369995249976,-0.12000754960631642,-0.120013200153592,3.671042138243575,3.075552067027503,0.29861072691021034,-0.00312635320959695,-0.04363616446318839,-0.5614709762600542
1750753249.0447168,-1.7267571912723163,-2.2035549061887476,-0.8080196634125905,1.594852451556892,-0.040585687717146435,-1.6102860845739455,0.0037700424367044126,-0.006322385787040841,-0.00037157339401841614,-0.0031532607184021587,-0.12155695759088682,-0.12156271774708458,3.6706179348990484,3.0757083978890547,0.29860472762644075,-0.0031282117739133398,-0.04364732422169733,-0.5615512311055272
1750753249.04674,-1.7267571912723163,-2.2035549061887476,-0.8080196634125905,1.594852451556892,-0.040585687717146435,-1.6102860845739455,0.0037700424367044126,-0.006322385787040841,-0.00037157339401841614,-0.0031532607184021587,-0.12155695759088682,-0.12156271774708458,3.6706179348990484,3.0757083978890547,0.29860472762644075,-0.0031282117739133398,-0.04364732422169733,-0.5615512311055272
1750753249.048618,-1.7267496326775875,-2.203567594998651,-0.8080204175319716,1.5948461041135915,-0.04083035137358504,-1.6105307598614944,0.003788368327611863,-0.006366197641510006,-0.00038258516426414445,-0.003194188855310866,-0.12310676591914967,-0.12311263711271277,3.6701886708263323,3.0758667856124804,0.29859865442530625,-0.0031300935392937126,-0.04365860203311076,-0.5616322991733443
1750753249.0506413,-1.726742038539518,-2.203580370067705,-0.8080211939109105,1.5948396747762286,-0.04107811505049064,-1.6107785353930284,0.0038055834497344393,-0.006408642082871126,-0.00039383342921529146,-0.0032351548557737054,-0.124656978747281,-0.12466296242521423,3.6697543605461815,3.076027231918848,0.298592507400833,-0.003131998477076292,-0.04366999692534808,-0.5617141720433284
1750753249.0535274,-1.726734411093613,-2.2035932286439532,-0.8080219930252621,1.5948331634686268,-0.0413289795609888,-1.6110294119845872,0.0038216738359670723,-0.006449701980040151,-0.00040532105377513364,-0.003276159168689563,-0.12620760019644847,-0.12621369782434588,3.6693150187832027,3.076189738544926,0.29858628664391373,-0.003133926561454851,-0.04368150791221115,-0.5617968411756356
1750753249.0574892,-1.7267267526033105,-2.2036061679411745,-0.8080228153566065,1.5948265701137134,-0.04158294572641541,-1.6112833904604535,0.003836625517001798,-0.006489360200887574,-0.00041705089987544567,-0.003317202241957522,-0.12775863435237156,-0.1277648474144217,3.6688706604610335,3.076354307242948,0.29857999225028087,-0.0031358777637471922,-0.043693133995114077,-0.5618802979193014
1750753249.0578716,-1.7267267526033105,-2.2036061679411745,-0.8080228153566065,1.5948265701137134,-0.04158294572641541,-1.6112833904604535,0.003836625517001798,-0.006489360200887574,-0.00041705089987544567,-0.003317202241957522,-0.12775863435237156,-0.1277648474144217,3.6688706604610335,3.076354307242948,0.29857999225028087,-0.0031358777637471922,-0.043693133995114077,-0.5618802979193014
1750753249.060153,-1.7267190653599958,-2.2036191851388836,-0.808023661392248,1.5948198946335208,-0.041840014376236745,-1.6115404716530852,0.00385042452133252,-0.00652759961222813,-0.0004290258265954102,-0.0033582845224943503,-0.129310085264843,-0.12931641526383908,3.668421300695742,3.0765209397852757,0.2985736243122133,-0.003137852055756564,-0.04370487416198882,-0.5619645335076743
1750753249.0607736,-1.7267113516829928,-2.2036322773823276,-0.8080245316252039,1.594813136949188,-0.04210018634798818,-1.6118006564030374,0.0038630568753374116,-0.006564403079834325,-0.0004412486901218489,-0.0033994064562012055,-0.1308619569472103,-0.13086840540459077,3.6679669548289806,3.0766896379655893,0.29856718292378975,-0.0031398494082823486,-0.04371672738616133,-0.5620495390557586
1750753249.0627623,-1.726703613919578,-2.2036454417824833,-0.8080254265542024,1.5948062969809638,-0.042363462487190695,-1.6120639455588952,0.0038745086032454853,-0.006599753468467206,-0.00045372234366907084,-0.003440568487987845,-0.13241425337596818,-0.1324208218318072,3.6675076383781247,3.0768604035876743,0.2985606681808827,-0.0031418697928500207,-0.04372869262947594,-0.5621353055683302
1750753249.064689,-1.7266958544449817,-2.203658675416058,-0.8080263466836728,1.5947993746482079,-0.042629843647283394,-1.6123303399771949,0.0038847657272144654,-0.006633633641866899,-0.00046644963762019353,-0.003481771061734268,-0.13396697849021838,-0.13397366850325163,3.6670433670832283,3.077033238479876,0.29855408017587054,-0.0031439131798005468,-0.0437407688385618,-0.5622218239255542
1750753249.066707,-1.7266880756623921,-2.2036719753254825,-0.8080272925237448,1.5947923698693935,-0.04289933068954355,-1.6125998405223516,0.003893814267351318,-0.00666602646275522,-0.00047943341947926066,-0.0035230146202207577,-0.13552013619122985,-0.13552694933887627,3.6665741568847823,3.0772081444896284,0.29854741900268406,-0.003145979537549298,-0.04375295494765601,-0.5623090849034812
1750753249.0687003,-1.7266802800029568,-2.2036853385189143,-0.8080282645902388,1.5947852825621092,-0.043171924483015545,-1.6128724480665815,0.0039016402417549807,-0.0066969147929041494,-0.000492676533779616,-0.0035642996052357486,-0.13707373034193915,-0.13708066822030202,3.6661000239280885,3.0773851234716085,0.2985406847577099,-0.0031480688374720374,-0.04376524987692293,-0.5623970791486925
1750753249.070727,-1.7266724699257914,-2.2036987619702337,-0.8080292634046629,1.5947781126430611,-0.0434476259044283,-1.613148163489826,0.003908229666533949,-0.006726281493092489,-0.0005061818221972916,-0.0036056264574200456,-0.1386277647664746,-0.13863482899037,3.6656209845582897,3.0775641773081848,0.29853387753443034,-0.0031501810465622477,-0.04377765253312181,-0.5624857972012598
1750753249.0731091,-1.726664647917981,-2.2037122426190408,-0.8080302894942033,1.594770860028075,-0.043726435838121525,-1.6134269876796719,0.003913568555873432,-0.006754109423137656,-0.0005199521235404329,-0.003646995616337849,-0.14018224324966616,-0.14018943545263826,3.6651370553373948,3.0777453078975237,0.2985269974268877,-0.0031523161337689578,-0.043790161809205655,-0.5625752294781964
1750753249.075316,-1.726664647917981,-2.2037122426190408,-0.8080302894942033,1.594770860028075,-0.043726435838121525,-1.6134269876796719,0.003913568555873432,-0.006754109423137656,-0.0005199521235404329,-0.003646995616337849,-0.14018224324966616,-0.14018943545263826,3.6651370553373948,3.0777453078975237,0.2985269974268877,-0.0031523161337689578,-0.043790161809205655,-0.5625752294781964
1750753249.077088,-1.726648978198634,-2.2037393630961057,-0.8080324256357523,1.5947561063692048,-0.04429338481727463,-1.6139939659472766,0.003920438775585574,-0.00680508040750005,-0.000548299105623733,-0.0037298626070765297,-0.14329254733198368,-0.143300000468712,3.664154594612695,3.0781138069887795,0.29851301894084553,-0.00315665481393587,-0.04381549572565948,-0.5627561977952505
1750753249.0790439,-1.726648978198634,-2.2037393630961057,-0.8080324256357523,1.5947561063692048,-0.04429338481727463,-1.6139939659472766,0.003920438775585574,-0.00680508040750005,-0.000548299105623733,-0.0037298626070765297,-0.14329254733198368,-0.143300000468712,3.664154594612695,3.0781138069887795,0.29851301894084553,-0.00315665481393587,-0.04381549572565948,-0.5627561977952505
1750753249.0808213,-1.7266411356011506,-2.2037529966321516,-0.8080335367704867,1.5947486051525914,-0.04458152566874052,-1.614282121837725,0.00392194212506905,-0.006828189176857734,-0.0005628814495825005,-0.0037713613123825183,-0.1448483802999463,-0.14485596642888607,3.6636560972683743,3.0783011793746655,0.2985059207487971,-0.0031588583411200507,-0.04382831808364629,-0.5628477140874726
1750753249.082743,-1.7266332913011322,-2.203766674781253,-0.8080346773457769,1.5947410208945862,-0.04487277864433814,-1.614573390119995,0.00392213897743489,-0.006849690606211796,-0.0005777401328690438,-0.0038129040713317883,-0.14640467206326455,-0.14641239289302269,3.6631527783874147,3.0784906362640783,0.29849875005024545,-0.003161084613469232,-0.04384124249732371,-0.5629399051066979
1750753249.0847795,-1.726625447925568,-2.203780394311586,-0.808035847917127,1.5947333535066477,-0.045167144665245296,-1.6148677717187008,0.003921015337897764,-0.006869567550926065,-0.0005928779798606068,-0.003854491317785189,-0.14796142620301178,-0.14796928346098606,3.6626446555718863,3.0786821796321373,0.2984915069415626,-0.0031633335992632735,-0.04385426779099561,-0.5630327606757767
1750753249.08681,-1.7266176081294393,-2.2037941519570374,-0.8080370490456872,1.5947256028993682,-0.0454646246597612,-1.6151652675656143,0.003918557210039453,-0.006887802865480719,-0.0006082978122448222,-0.0038961234843204644,-0.1495186462580371,-0.14952664169046012,3.6621317466413803,3.078875811484499,0.29848419151270905,-0.0031656052615015853,-0.04386739277519146,-0.5631262705136092
1750753249.0890193,-1.726609774595719,-2.203807944417198,-0.8080382812982458,1.5947177689824759,-0.04576521956321944,-1.615465878599581,0.003914750595873337,-0.006904379403572043,-0.000624002448786044,-0.003937801002353746,-0.15107633572448553,-0.15108447109641876,3.6616140696280985,3.079071533829349,0.29847680386020925,-0.003167899566534657,-0.043880616246924374,-0.5632204242083555
1750753249.0908275,-1.7266019500353798,-2.2038217683573684,-0.8080395452472287,1.5947098516648375,-0.0460689303179036,-1.6157696057664328,0.003909581495864274,-0.006919280018091344,-0.0006399947055515106,-0.00397952430201377,-0.1526344980552936,-0.15264277515065286,3.6610916427614235,3.0792693486962524,0.2984693440740052,-0.0031702164771539284,-0.04389393698899616,-0.5633152112344263
1750753249.0927932,-1.7265941371873934,-2.2038356204085563,-0.8080408414706906,1.5947018508544606,-0.04637575787295756,-1.6160764500189027,0.0039030359090440076,-0.00693248756120405,-0.0006562773956471549,-0.004021293812211662,-0.15419313665969644,-0.15420155728126142,3.6605644845070207,3.0794692581248695,0.29846181225215057,-0.0031725559580805347,-0.04390735377032429,-0.563410620944245
1750753249.0947845,-1.726586338818736,-2.203849497167467,-0.8080421705523078,1.5946937664584964,-0.046685703184301985,-1.6163864123165332,0.003895099833035694,-0.006943984884263658,-0.0006728533296423008,-0.004063109960583037,-0.15575225490271136,-0.15576082087215667,3.6600326135305212,3.0796712641896873,0.2984542084808037,-0.0031749179723634577,-0.04392086534527884,-0.5635066425680955
1750753249.0968473,-1.7265785577243893,-2.203863395196514,-0.8080435330813769,1.594685598383242,-0.04699876721454199,-1.6166994936255916,0.003885759264135155,-0.006953754837986684,-0.0006897253151808287,-0.004104973173421239,-0.15731185610470855,-0.1573205692625903,3.6594960487160995,3.079875368951592,0.2984465328566912,-0.0031773024811843627,-0.0439344704561365,-0.5636032652274793
1750753249.0987473,-1.7265707967273443,-2.203877311023806,-0.808044929652806,1.594677346534143,-0.0473149509328783,-1.6170156949189796,0.0038750001973889866,-0.006961780272362918,-0.0007068961572568187,-0.004146883875766523,-0.1588719435408215,-0.1588808057466189,3.65895480917104,3.0800815745127124,0.2984387854696791,-0.003179709448151731,-0.0439481678285635,-0.5637004779093695
1750753249.1008775,-1.726563058678603,-2.2038912411431557,-0.8080463608671113,1.5946690108157968,-0.04763425531501486,-1.6173350171761403,0.0038628086266528677,-0.006968044036757958,-0.0007243686581260775,-0.004188842491322351,-0.1604325204404947,-0.160441533572615,3.658408914211755,3.0802898829738,0.2984309664116318,-0.0031821388344912952,-0.043961956175487434,-0.5637982694849641
1750753249.105367,-1.726563058678603,-2.2038912411431557,-0.8080463608671113,1.5946690108157968,-0.04763425531501486,-1.6173350171761403,0.0038628086266528677,-0.006968044036757958,-0.0007243686581260775,-0.004188842491322351,-0.1604325204404947,-0.160441533572615,3.658408914211755,3.0802898829738,0.2984309664116318,-0.0031821388344912952,-0.043961956175487434,-0.5637982694849641
1750753249.1062586,-1.7265553464571788,-2.203905182014072,-0.8080478273304106,1.5946605911319542,-0.04795668134307185,-1.6176574613829677,0.0038491705446697224,-0.006972528979881138,-0.0007421456174381018,-0.004230849442400352,-0.16199358998698304,-0.16200275594278044,3.6578583833772047,3.0805002964639723,0.29842307577126453,-0.0031845905998676783,-0.043975834195731235,-0.563896628709014
1750753249.107709,-1.7265476629701038,-2.2039191300617604,-0.808049329654418,1.594652087385523,-0.04828223000548615,-1.6179830285317127,0.003834071943142802,-0.006975217949880301,-0.0007602298320732949,-0.004272905150015583,-0.16355515531684203,-0.1635644760126202,3.6573032364215226,3.080712817115119,0.2984151136417589,-0.003187064706581822,-0.0439898005737581,-0.5639955442079829
1750753249.1090338,-1.7265400111524256,-2.203933081677121,-0.8080508684564389,1.59464349947857,-0.048610902296922553,-1.6183117196208912,0.0038174988128278683,-0.006976093794313316,-0.0007786240964466214,-0.004315010033719002,-0.16511721951941916,-0.1651266968904678,3.656743493326016,3.0809274470852137,0.2984070801080072,-0.0031895611121998805,-0.04400385397970335,-0.5640950044968007
1750753249.1107304,-1.7265323939672115,-2.2039470332167514,-0.8080524443593653,1.5946348273123252,-0.04894269921817429,-1.6186435356551874,0.003799437143604094,-0.006975139360251107,-0.0007973312022103006,-0.004357164511673565,-0.1666797856363603,-0.1666894216369517,3.656179174286375,3.081144188534489,0.2983989752633266,-0.003192079776362953,-0.044017993069797236,-0.5641949979595425
1750753249.1127102,-1.7265248144055505,-2.2039609810029415,-0.8080540579916686,1.5946260707871827,-0.0492776217760742,-1.61897847764536,0.0037798729245580053,-0.006972337494242469,-0.0008163539385724413,-0.004399369000686736,-0.16824285666107944,-0.16825265326448857,3.655610299720906,3.0813630436506747,0.29839079919229,-0.0031946206596136675,-0.04403221648533168,-0.5642955128575573
1750753249.1146984,-1.7265172754865539,-2.203974921323672,-0.8080557099873973,1.5946172298027048,-0.04961567098338815,-1.6193165466081432,0.0037587921440812235,-0.006967671042381473,-0.0008356950921754471,-0.004441623916053897,-0.16980643553826721,-0.1698163947367892,3.6550368902751695,3.0815840146306996,0.2983825519831231,-0.0031971837180312856,-0.04404652285375385,-0.5643965373355385
1750753249.1166599,-1.7265097802573575,-2.2039888504326175,-0.8080574009861712,1.594608304257625,-0.04995684785872623,-1.6196577435661483,0.0037361807899491573,-0.006961122850364388,-0.0008553574471535553,-0.004483929671596032,-0.1713705251633869,-0.17138064896834765,3.654458966812187,3.0818071036802333,0.29837423372221755,-0.003199768908742108,-0.04406091078831359,-0.5644980594155169
1750753249.1208491,-1.7265023317931192,-2.204002764549143,-0.8080591316331747,1.59459929404985,-0.050301153426438816,-1.620002069547767,0.0037120248494267242,-0.006952675763494564,-0.0008753437851847711,-0.004526286679710682,-0.1729351283821432,-0.1729454188239189,3.6538765504262645,3.0820323130275997,0.2983658444950675,-0.0032023761902672193,-0.04407537888729458,-0.5646000669926183
1750753249.121347,-1.7265023317931192,-2.204002764549143,-0.8080591316331747,1.59459929404985,-0.050301153426438816,-1.620002069547767,0.0037120248494267242,-0.006952675763494564,-0.0008753437851847711,-0.004526286679710682,-0.1729351283821432,-0.1729454188239189,3.6538765504262645,3.0820323130275997,0.2983658444950675,-0.0032023761902672193,-0.04407537888729458,-0.5646000669926183
1750753249.1231883,-1.7264875876002899,-2.2040305325108474,-0.8080627144804096,1.5945810192337297,-0.05099915476448924,-1.620700112723708,0.003659023156202183,-0.0069300162847277325,-0.0009162995251153909,-0.00461115609551712,-0.17606588673162762,-0.17607651661439616,3.6526983243608933,3.0824891015842857,0.29834885347795737,-0.0032076568460373935,-0.04410454990178336,-0.5648054896147423
1750753249.1248834,-1.7264802981621514,-2.2040443786232036,-0.8080645679987963,1.5945717544170945,-0.051352852611327826,-1.621053832002806,0.0036301493762969286,-0.006915769581902043,-0.0009372744783951847,-0.004653669320336685,-0.17763204730040708,-0.17764285002552097,3.652102557994485,3.0827206853113647,0.298340251854207,-0.003210330131473257,-0.04411924994152256,-0.5649088798325388
1750753249.1268287,-1.726473068069879,-2.204058194277497,-0.8080664638017137,1.5945624045211906,-0.05170968330333725,-1.6214106844748617,0.0035996749557967,-0.00689955536244549,-0.0009585845175952024,-0.004696235431899484,-0.17919873233793004,-0.179209710012082,3.651502385330338,3.0829543983716223,0.2983315795973164,-0.003213025327212724,-0.04413402439578424,-0.5650127059051987
1750753249.1289022,-1.7264659005387646,-2.204071975521538,-0.8080684025621041,1.5945529694398393,-0.05206964789205326,-1.6217706711956446,0.0035675858808557905,-0.006881356470349871,-0.000980232412775894,-0.004738854834871271,-0.18076594443345217,-0.18077709918245427,3.6508978285934006,3.0831902430640263,0.29832283678405463,-0.003215742388454665,-0.04414887179021499,-0.5651169551090727
1750753249.130741,-1.7264587988121338,-2.204085718368825,-0.8080703849584481,1.5945434490660548,-0.05243274743413551,-1.6221337932260855,0.003533868137710227,-0.006861155749525693,-0.0010022209315972469,-0.004781527932233199,-0.1823336861233946,-0.18234502009217948,3.6502889102336304,3.083428221685549,0.2983140234987967,-0.0032184812660837185,-0.044163790636449686,-0.5652216145972163
1750753249.1327589,-1.7264517661613352,-2.2040994187985454,-0.8080724116747575,1.5945338432920466,-0.052798982991266286,-1.6225000516321755,0.003498507712830933,-0.006838936043766403,-0.0010245528397376793,-0.0048242551254220264,-0.18390195989079822,-0.18391347524344823,3.64967565295093,3.083668336563389,0.2983051398146588,-0.0032212419149599907,-0.044178779430750034,-0.5653266713994102
1750753249.1349282,-1.7264448058857464,-2.2041130727555736,-0.8080744834005751,1.5945241520092228,-0.053168355630037745,-1.6228694474848542,0.0034614905929949607,-0.006814680196855304,-0.0010472309006090287,-0.0048670368141665475,-0.1854707681648407,-0.18548246708457694,3.64905807965794,3.083910590024956,0.29829618581264344,-0.0032240242852392244,-0.04419383665577134,-0.5654321124192879
1750753249.1368098,-1.726437921312769,-2.2041266761504685,-0.8080766008309688,1.594514375108194,-0.05354086642184708,-1.6232419818599038,0.003422802765424461,-0.006788371052566375,-0.0010702578756982364,-0.004909873396557715,-0.18704011332026635,-0.18705199800948777,3.64843621350953,3.084154984419368,0.2982871615643185,-0.003226828329053268,-0.04420896077810737,-0.5655379244365945
1750753249.1389225,-1.7264311157978307,-2.204140224859481,-0.8080787646665266,1.5945045124787764,-0.05391651644278728,-1.6236176558378412,0.0033824302178986406,-0.006759991454774141,-0.0010936365243704857,-0.004952765268934326,-0.18860999767692174,-0.18862207035719164,3.647810077889909,3.0844015220964494,0.2982780671467702,-0.003229653995256224,-0.04422415025127265,-0.5656440941087761
1750753249.1410193,-1.7264243927243843,-2.204153714724548,-0.808080975613354,1.594494564009995,-0.05429530677353345,-1.6239964705038048,0.00334035893889671,-0.006729524247454357,-0.0011173696040597289,-0.004995712826004315,-0.19018042349915487,-0.19019268641122827,3.647179696426947,3.084650205430384,0.2982689026322726,-0.0032325012360412447,-0.04423940351185326,-0.5657506079553241
1750753249.1427822,-1.7264177555039035,-2.2041671415532935,-0.8080832343830675,1.5944845295900874,-0.05467723849923445,-1.6243784269474428,0.0032965749177048375,-0.00669695227472662,-0.0011414598704060374,-0.005038716460673445,-0.19175139299533694,-0.191763848399178,3.6465450929768366,3.0849010368068694,0.2982596680890921,-0.0032353699987766023,-0.0442547189829651,-0.5658574523828335
1750753249.1451032,-1.7264112075758815,-2.2041805011190334,-0.8080855416927957,1.5944744091065066,-0.05506231270939921,-1.6247635262628055,0.0032510641445599904,-0.006662258380976903,-0.0011659100770830193,-0.005081776564116183,-0.19332290831735424,-0.19333555849211992,3.6459062916368294,3.085154018611358,0.29825036359041485,-0.0032382602327842387,-0.04427009507340993,-0.5659646136684904
1750753249.1468055,-1.7264047524078325,-2.204193789160767,-0.8080878982651711,1.5944642024459255,-0.0554505304977857,-1.6251517695482258,0.003203812610761205,-0.006625425410849496,-0.0011907229759743946,-0.005124893525686702,-0.19489497156000254,-0.1949078188040888,3.6452633167346242,3.0854091532533836,0.2982409892048033,-0.0032411718847744,-0.044285530174929394,-0.566072077956439
1750753249.1488712,-1.726398393495284,-2.204207001383189,-0.8080903048283279,1.5944539094942398,-0.05584189296227926,-1.6255431579062067,0.0031548063088414503,-0.00658643620932813,-0.001215901317386282,-0.0051680677330066555,-0.19646758476052809,-0.1964806313915523,3.6446161928502656,3.0856664431486744,0.2982315449947144,-0.0032441049039485335,-0.04430102266633446,-0.5661798312688932
1750753249.157143,-1.7263921343617792,-2.2042201334566798,-0.8080927621159013,1.5944435301365723,-0.0562364012047869,-1.6259376924433084,0.0031040312326693184,-0.006545273621788554,-0.0012414478498200686,-0.005211299571782581,-0.19804074989807494,-0.19805399825289907,3.6439649447908256,3.085925890726129,0.298222031029461,-0.003247059234308328,-0.04431657091086829,-0.5662878595067883
1750753249.157609,-1.7263799296661233,-2.2042461396668607,-0.8080978318263048,1.5944225117399369,-0.05703485945083919,-1.6267362045006841,0.002997118740724967,-0.006456359672510532,-0.0012936564741892495,-0.005297937677518693,-0.20118874360697891,-0.20120240249700308,3.64265017661944,3.0864512686954777,0.2982027940774494,-0.00325303161597732,-0.04434782803463411,-0.5665046836779554
1750753249.158946,-1.7263739912910987,-2.2042590049727746,-0.8081004457438681,1.5944118724673806,-0.05743881167722087,-1.627140184253295,0.0029409533207667574,-0.006408574004024199,-0.0013203240556035134,-0.005341344706596129,-0.20276357584125887,-0.20277744358121752,3.641986707337498,3.086717203998929,0.29819307121255595,-0.003256049555300516,-0.04436353356542166,-0.5666134507723728
1750753249.1608222,-1.7263681670693618,-2.2042717724682106,-0.8081031133753065,1.5944011463216732,-0.057845914127047315,-1.627547314649461,0.0028829631185120132,-0.006358546336183892,-0.0013473708071098252,-0.0053848108914038625,-0.20433896733729157,-0.20435304634111331,3.6413192155630365,3.0869853068072364,0.29818327883290907,-0.0032590885860717305,-0.04437928815000959,-0.5667224350856244
1750753249.162914,-1.7263624606644772,-2.204284437652019,-0.8081058354817037,1.594390333184127,-0.058256167920532675,-1.6279575968142446,0.0028231341367903604,-0.006306259517245945,-0.0013747994700558741,-0.005428336608195407,-0.2059149197756527,-0.20592921247654566,3.6406477273133273,3.0872555796035654,0.29817341699296573,-0.003262148650683984,-0.04439509007695899,-0.5668316218813024
1750753249.1647599,-1.7263568757679977,-2.204296995988745,-0.8081086128296215,1.594379432935303,-0.058669574181191564,-1.6283710318760445,0.0027614523807190047,-0.006251696396235197,-0.0014026127845508122,-0.00547192223127717,-0.20749143477554982,-0.207505943626029,3.639972268877434,3.087528024883476,0.2981634857470482,-0.0032652296918832917,-0.04441093761750785,-0.5669409962806313
1750753249.1667817,-1.7263514160994662,-2.2043094429086354,-0.8081114461911021,1.5943684454550162,-0.05908613403571561,-1.6287876209664773,0.0026979038578133258,-0.006194839823035335,-0.001430813489511888,-0.005515568132891717,-0.20906851389436057,-0.20908324136623782,3.639292866770207,3.087802645143718,0.2981534851476472,-0.003268331649152554,-0.04442682902988965,-0.5670505432901043
1750753249.1698463,-1.726346085406405,-2.204321773807636,-0.8081143363436656,1.5943573706223388,-0.059505848613846446,-1.629207365220248,0.002632474578185947,-0.006135672648414973,-0.0014594043228337136,-0.00555927468336789,-0.21064615862701003,-0.21066110721140988,3.638609547769693,3.0880794429030676,0.2981434152432026,-0.003271454466076362,-0.04444276255479434,-0.5671602477684388
1750753249.1708837,-1.7263408874643158,-2.2043339840473957,-0.8081172840703035,1.5943462083156046,-0.05992871904825581,-1.6296302657750283,0.0025651505546840734,-0.006074177724122479,-0.001488388021403631,-0.005603042250899758,-0.21222437040549516,-0.21223954261286182,3.6379223388913173,3.0883584206819648,0.2981332760814249,-0.0032745980800390163,-0.04445873641951677,-0.5672700944657557
1750753249.1727955,-1.7263358260766717,-2.2043460689552674,-0.8081202901594846,1.594334958412413,-0.06035474647441319,-1.6300563237713295,0.0024959178030929483,-0.006010337902968449,-0.0015177673211773013,-0.0056468712016831315,-0.21380315059829583,-0.21381854895839417,3.637231267413183,3.0886395810109715,0.2981230677082519,-0.00327776243214927,-0.044474748834759555,-0.5673800679862413
1750753249.1747818,-1.72633090507491,-2.2043580238243123,-0.8081233554051463,1.594323620789633,-0.060783932030462395,-1.6304855403523746,0.0024247623422987644,-0.005944136038864001,-0.0015475449573480555,-0.005690761899796254,-0.21538250050984906,-0.2153981275717721,3.636536360861932,3.08892292643583,0.29811279016503067,-0.00328094746013379,-0.04449079799641551,-0.5674901528131816
1750753249.1766992,-1.7263261283184272,-2.204369843913298,-0.8081264806066955,1.5943121953234076,-0.061216276857092744,-1.6309179166639698,0.002351670194454394,-0.005875554986919742,-0.0015777236643386414,-0.0057347147071574525,-0.2169624213799846,-0.2169782797121754,3.63583764701125,3.089208459506179,0.2981024434933171,-0.003284153100458896,-0.04450688208447607,-0.5676003332990941
1750753249.1787717,-1.7263214996945724,-2.204381524446706,-0.8081296665690072,1.5943006818891583,-0.06165178209740585,-1.6313534538543726,0.0022766273851768533,-0.0058045776035335435,-0.001608306175933731,-0.0057787299836053,-0.21854291438340354,-0.21855900657363414,3.635135153894392,3.0894961827787113,0.29809202773100324,-0.0032873792917936092,-0.04452299926424721,-0.5677105936617648
1750753249.1808107,-1.726317023118641,-2.2043930606147297,-0.8081329141024245,1.5942890803615888,-0.062090448896789496,-1.6317921530741648,0.0021996199437301312,-0.005731186746439017,-0.0016392952253701909,-0.005822808086768744,-0.22012398062912114,-0.2201403092845082,3.634428909801168,3.089786098824861,0.2980815429138218,-0.003290625969125661,-0.04453914768533645,-0.5678209179985632
1750753249.1829343,-1.726312702533864,-2.204404447573282,-0.8081362240227552,1.5942773906146899,-0.06253227840278086,-1.6322340154761195,0.002120633903218063,-0.005655365274796398,-0.0016706935454712604,-0.0058669493721149974,-0.22170562115988057,-0.2217221889069008,3.633718943277654,3.090078210222457,0.2980709890737126,-0.003293893068672598,-0.044555325480837925,-0.5679312902641452
1750753249.184649,-1.7263085419114033,-2.2044156804439936,-0.8081395971512748,1.5942656125217434,-0.06297727176493773,-1.6326790422150648,0.0020396553007611257,-0.005577096049285638,-0.0017025038686163687,-0.0059111541928639055,-0.2232878369516599,-0.22330464643612713,3.6330052831218236,3.0903725195548484,0.2980603662435824,-0.0032971805242118005,-0.04457153076995778,-0.5680416942896211
1750753249.1866407,-1.7263045452503416,-2.204426754314218,-0.8081430343147202,1.5942537459553274,-0.0634254301347017,-1.6331272344477554,0.0019566701777033665,-0.005496361932150645,-0.0017347289270419808,-0.005955422899981655,-0.224870628913065,-0.224887682800169,3.632287958395695,3.090669029420555,0.2980496744480369,-0.0033004882693117394,-0.04458776165479822,-0.5681521137779714
1750753249.1888378,-1.7263007165776756,-2.2044376642370365,-0.8081465363452942,1.59424179078732,-0.06387675466526499,-1.6335785933327305,0.001871664579811149,-0.0054131457873441095,-0.001767371452711977,-0.005999755842199822,-0.22645399788481205,-0.22647129885908804,3.63156699841879,3.0909677424151383,0.2980389137153466,-0.003303816237952574,-0.044604016222885935,-0.5682625322905008
1750753249.1908772,-1.7262970599483047,-2.2044484052312594,-0.8081501040806636,1.5942297468889044,-0.06433124651143096,-1.6340331200301836,0.0017846245574788342,-0.005327430480549594,-0.0018004341776115334,-0.006044153365900175,-0.22803794463916846,-0.22805549540451714,3.630842432775841,3.0912686611535496,0.2980280840658528,-0.0033071643608933803,-0.044620292545996504,-0.5683729332731583
1750753249.192772,-1.7262935794450254,-2.2044589722814294,-0.8081537383639592,1.5942176141305728,-0.06478890682948002,-1.634490815701823,0.0016955361659249245,-0.005239198879304192,-0.0018339198337410548,-0.006088615815195397,-0.22962246987936497,-0.22964027315905483,3.630114291307019,3.0915717882516622,0.2980171855200102,-0.0033105325710222782,-0.044636588679343926,-0.5684833000233198
1750753249.1947942,-1.7262902791785137,-2.2044693603378267,-0.8081574400437743,1.5942053923821322,-0.06524973677702928,-1.6349516815107297,0.0016043854654289953,-0.0051484338530764446,-0.0018678311533059369,-0.006133143531775327,-0.23120757423908658,-0.23122563277574307,3.629382604128368,3.091877126335058,0.2980062180931936,-0.003313920796874335,-0.04465290266380346,-0.5685936157199726
1750753249.1968114,-1.726287163287326,-2.204479564316472,-0.8081612099741688,1.594193081512708,-0.06571373751289311,-1.635415718621224,0.0015111585214921184,-0.00505511827336607,-0.001902170868687048,-0.006177736855007534,-0.2327932582818836,-0.2328115748374983,3.62864740159776,3.0921846780327464,0.2979951818014634,-0.0033173289697791515,-0.04466923252365689,-0.568703863405506
1750753249.1988,-1.726284235937877,-2.2044895790991337,-0.8081650490146677,1.5941806813907498,-0.06618091019694194,-1.6358829281987193,0.0014158414051229618,-0.004959235013777977,-0.0019369417127375304,-0.00622239612182359,-0.23437952250060332,-0.23439809985654209,3.6279087143676505,3.0924944459869947,0.29798407665304233,-0.003320757017737641,-0.044685576267177715,-0.5688140259885741
1750753249.2073367,-1.7262766272218482,-2.2045184365751362,-0.8081769894740312,1.594142944184122,-0.06760147154976881,-1.6373036034007962,0.001117209818046886,-0.004656007925366254,-0.0020438683533068945,-0.006356772916453522,-0.2391418000689064,-0.23916117670759124,3.6256720548193337,3.0934370738844703,0.29795034813158416,-0.0033311596886625126,-0.04473467065349912,-0.5691438302557947
1750753249.2078,-1.7262744962603946,-2.2045276427065765,-0.8081811136595309,1.594130185723166,-0.06808134364140628,-1.637783514517352,0.0010133928391107207,-0.004549682727818708,-0.0020803910518910054,-0.006401699277823445,-0.2407303884866264,-0.24075003724468483,3.6249197405018867,3.093755733387531,0.2979389676036849,-0.0033346665080275974,-0.044751049705260636,-0.569253478900854
1750753249.208154,-1.7262744962603946,-2.2045276427065765,-0.8081811136595309,1.594130185723166,-0.06808134364140628,-1.637783514517352,0.0010133928391107207,-0.004549682727818708,-0.0020803910518910054,-0.006401699277823445,-0.2407303884866264,-0.24075003724468483,3.6249197405018867,3.093755733387531,0.2979389676036849,-0.0033346665080275974,-0.044751049705260636,-0.569253478900854
1750753249.2089071,-1.7262744962603946,-2.2045276427065765,-0.8081811136595309,1.594130185723166,-0.06808134364140628,-1.637783514517352,0.0010133928391107207,-0.004549682727818708,-0.0020803910518910054,-0.006401699277823445,-0.2407303884866264,-0.24075003724468483,3.6249197405018867,3.093755733387531,0.2979389676036849,-0.0033346665080275974,-0.044751049705260636,-0.569253478900854
1750753249.2107987,-1.7262725750903103,-2.204536633537196,-0.8081853113347748,1.59411733734195,-0.06856439349142374,-1.6382666039394014,0.0009074161326481834,-0.004440704253378876,-0.002117358553089011,-0.006446693230382319,-0.24231955846464626,-0.24233948222024446,3.6241640986909567,3.0940766224473384,0.29792751822317026,-0.0033381928350970087,-0.04476743244713375,-0.5693629550127998
1750753249.2128286,-1.726270868044943,-2.20454540374333,-0.808189583392104,1.594104398904969,-0.06905062226301162,-1.6387528728359113,0.0007992658072647098,-0.004329055390356065,-0.002154773594419448,-0.00649175509599642,-0.24390931005993668,-0.2439295117105803,3.6234051616511205,3.0943997437296407,0.29791599998497487,-0.0033417385913999164,-0.04478381679389017,-0.5694722407148162
1750753249.214787,-1.7262693794854167,-2.204553947967092,-0.8081939307293382,1.5940913702760775,-0.06954003111939855,-1.6392423223759236,0.000688927978648017,-0.0042147190298212935,-0.0021926389146676526,-0.006536885193965586,-0.24549964325481494,-0.24552012571735546,3.6226429619081277,3.0947250999238713,0.29790441287574204,-0.003345303700795412,-0.0448002006425179,-0.569581317983789
1750753249.2185316,-1.7262681138006153,-2.20456226081638,-0.8081983542497753,1.5940782513184937,-0.07003262122370302,-1.6397349537284107,0.0005763887698545175,-0.0040976780657376215,-0.002230957254061443,-0.006582083840928517,-0.24709055795641702,-0.24711132416706166,3.6218775322796324,3.0950526937197016,0.29789275687723615,-0.0033488880844876963,-0.04481658187513652,-0.5696901686806058
1750753249.2190955,-1.7262670754071703,-2.204570336864884,-0.8082028548621949,1.594065041894805,-0.07052839373878417,-1.6402307680621222,0.00046163431151617526,-0.0039779153950848896,-0.0022697313542655003,-0.006627351350927794,-0.24868205399612311,-0.24870310691039937,3.6211089058393733,3.0953825278075513,0.29788103197125054,-0.003352491665345072,-0.044832958357680606,-0.569798774513445
1750753249.2210014,-1.7262662687494439,-2.2045781706520895,-0.8082074334808613,1.5940517418669737,-0.07102734982708458,-1.6407297665454328,0.0003446507421266868,-0.0038554139179514018,-0.0023089639585580396,-0.0066726880351894915,-0.2502741311289961,-0.25029547372176264,3.6203371159544315,3.0957146048866937,0.29786923813502764,-0.0033561143600162663,-0.044849327940266456,-0.56990711707691
1750753249.2231734,-1.7262656982995122,-2.2045857566832865,-0.8082120910255286,1.5940383510963423,-0.07152949065048286,-1.6412319503461879,0.00022542420828319871,-0.003730156537631639,-0.0023486578120309938,-0.006718094202331191,-0.25186678903317217,-0.2518884242986228,3.6195621962622213,3.096048927663033,0.29785737534015566,-0.0033597560909078327,-0.044865688455844224,-0.5700151778153149
1750753249.2248259,-1.7262653685571507,-2.2045930894295758,-0.8082168284214406,1.5940248694436385,-0.07203481737013373,-1.6417373206315524,0.00010394086495955961,-0.003602126160778736,-0.0023888156615923897,-0.006763570158156378,-0.2534600273093682,-0.253481958260999,3.6187841806852434,3.09638549883865,0.29784544355820514,-0.003363416774596519,-0.044882037723486985,-0.5701229380549074
1750753249.2267783,-1.7262652840498163,-2.2046001633278722,-0.8082216465993382,1.5940112967689817,-0.07254333114631795,-1.6422458785678522,-1.9813124230409598e-05,-0.0034713056974539774,-0.0024294402562981855,-0.006809116205711211,-0.25505384548024396,-0.2550760751508515,3.6180031034266236,3.0967243211329536,0.29783344275175194,-0.003367096329122795,-0.04489837354430274,-0.5702303789746922
1750753249.228797,-1.7262654493326295,-2.204606972780917,-0.8082265464954634,1.5939976329318877,-0.07305503313828243,-1.6427576253204181,-0.0001458515867658521,-0.0033376780612921534,-0.00247053434735409,-0.0068547326451825,-0.256648242989859,-0.2566707744315467,3.6172189989704266,3.0970653972582034,0.2978213728831609,-0.0033707946696440077,-0.044914693704094,-0.5703374816339914
1750753249.2307034,-1.7262658689883583,-2.2046135121572803,-0.8082315290515609,1.5939838777912747,-0.07356992450408129,-1.6432725620534292,-0.00027418834093955493,-0.003201226169588756,-0.002512100688313315,-0.006900419773953597,-0.25824321920310417,-0.25826605548725856,3.6164319020870876,3.097408729937472,0.2978092339095897,-0.0033745117127788682,-0.04493099597265542,-0.5704442269489894
1750753249.232874,-1.7262665476273948,-2.2046197757913717,-0.8082365952148871,1.5939700312054692,-0.07408800640042212,-1.6437906899297552,-0.00040483719557606594,-0.0030619329434431125,-0.0025541420351948858,-0.006946177886533107,-0.2598387734051271,-0.25986191762240224,3.615641847832947,3.097754321892022,0.29779702578481104,-0.003378247373060255,-0.04494727810359502,-0.5705505957049652
1750753249.2347338,-1.7262674898877401,-2.2046257579834476,-0.8082417459382114,1.5939560930322114,-0.0746092799825,-1.6443120101107898,-0.0005378119497653427,-0.002919781307843151,-0.0025966611467026514,-0.006992007274519016,-0.2614349048007403,-0.2614583600610556,3.6148488715449547,3.098102175852961,0.29778474845661446,-0.0033820015639167765,-0.044963537833842965,-0.5706565685508264
1750753249.2368555,-1.7262687004349857,-2.2046314529996165,-0.8082469821798242,1.5939420631286616,-0.07513374640383841,-1.6448365237562985,-0.0006731263925678261,-0.002774754191800723,-0.0026396607843303496,-0.0070379082265472495,-0.26303161251389895,-0.2630553819464204,3.614053008852234,3.0984522945516475,0.29777240186995085,-0.0033857741973289707,-0.044979772885628704,-0.5707621260149156
1750753249.2388744,-1.7262701839622894,-2.2046368550718505,-0.8082523049035419,1.5939279413514054,-0.07566140681613032,-1.6453642320242494,-0.0008107943027026125,-0.0026268345284969014,-0.0026831437124897545,-0.007083881028297123,-0.26462889558706165,-0.2646529823401978,3.6132542956798748,3.0988046807199567,0.29775998596633557,-0.003389565185234986,-0.044995980963160626,-0.5708672484749212
1750753249.2407472,-1.726271945190354,-2.204641958397991,-0.8082577150787129,1.59391372755646,-0.07619226236906851,-1.6458951360706529,-0.0009508294482901242,-0.0024760052553574967,-0.002727112698774186,-0.007129925962437821,-0.26622675298067194,-0.2662511602220513,3.6124527682298884,3.0991593370997186,0.29774750067989386,-0.0033933744380730477,-0.045012159756051134,-0.5709719161867142
1750753249.2429233,-1.726273988867411,-2.2046467571417594,-0.808263213680223,1.5938994215992808,-0.07672631421018661,-1.6464292370493965,-0.001093245586538074,-0.0023222493142341693,-0.0027715705139920764,-0.00717604330863781,-0.26782518357255675,-0.26784991448900886,3.6116484630002517,3.099516266425543,0.2977349459437874,-0.003397201866421139,-0.04502830693696295,-0.5710761092657065
1750753249.244924,-1.7262763197691928,-2.204651245432766,-0.8082688016885049,1.5938850233347663,-0.07726356348468943,-1.6469665361120773,-0.0012380564634198888,-0.002165549651489147,-0.002816519932435386,-0.007222233343445058,-0.26942418615735253,-0.2694492439549052,3.6108414167918492,3.099875471444046,0.29772232168410173,-0.003401047377410245,-0.045044420162393836,-0.5711798076999652
1750753249.2468133,-1.7262789426989134,-2.204655417366518,-0.8082744800895405,1.5938705326172655,-0.07780401133528692,-1.6475070344078375,-0.0013852758134018886,-0.002005889218129068,-0.0028619637320345874,-0.00726849634037187,-0.27102375944594936,-0.27104914734979413,3.610031666684599,3.100236954901447,0.29770962782236265,-0.0034049108804929096,-0.045060497073180904,-0.5712829913390423
1750753249.2552147,-1.7262789426989134,-2.204655417366518,-0.8082744800895405,1.5938705326172655,-0.07780401133528692,-1.6475070344078375,-0.0013852758134018886,-0.002005889218129068,-0.0028619637320345874,-0.00726849634037187,-0.27102375944594936,-0.27104914734979413,3.610031666684599,3.100236954901447,0.29770962782236265,-0.0034049108804929096,-0.045060497073180904,-0.5712829913390423
1750753249.2556105,-1.726288612099558,-2.2046659754679734,-0.8082920675924541,1.593826504282212,-0.07944455772980596,-1.6491477361446343,-0.0018415218671373817,-0.0015089728771690801,-0.003001289254201317,-0.007407725791505343,-0.27582588937484875,-0.2758522871402182,3.607586568292421,3.101335103372274,0.29767112778788446,-0.003416608398160313,-0.04510848607737012,-0.5715892500053152
1750753249.2568357,-1.726296607799716,-2.2046713226332235,-0.8083042628850832,1.593796687099456,-0.08055426902869733,-1.6502575544095945,-0.0021579795197576046,-0.0011625791203117837,-0.003096695947488649,-0.00750091510761917,-0.2790301353910485,-0.27905722287408286,3.6059436764959134,3.102078644953112,0.29764511145557143,-0.003424494961703778,-0.04514025318475492,-0.5717904730880465
1750753249.2588158,-1.7263010853004426,-2.204673470520567,-0.8083105046602013,1.5937816385753494,-0.08111393217178087,-1.6508172720769458,-0.002319937447013017,-0.0009847963120424067,-0.0031451645936128427,-0.007547621442742228,-0.2806331010678982,-0.2806605384099728,3.605118498468026,3.1024538567820574,0.2976319980910498,-0.003428464417233561,-0.045156061748229406,-0.5718901373750869
1750753249.260775,-1.7263058892190148,-2.204675259765157,-0.808316843886085,1.593766496563827,-0.08167680180582781,-1.6513801969383337,-0.002484399639304558,-0.0008039335318396201,-0.0031941471818311843,-0.007594402564877195,-0.2822366260310875,-0.2822644165910655,3.604290884498171,3.102831366310661,0.2976188144485663,-0.0034324511896893835,-0.045171817025432895,-0.5719891420943113
1750753249.2627506,-1.7263110245775968,-2.2046766841900416,-0.8083232815934318,1.5937512609150668,-0.08224287904744454,-1.6519463301171013,-0.0026513797273892753,-0.0006199737728075217,-0.0032436465253122236,-0.007641258721506736,-0.28384070830071184,-0.2838688554564501,3.603460874062604,3.1032111762963797,0.29760556040832176,-0.0034364551774787385,-0.04518751652808236,-0.5720874660344836
1750753249.266459,-1.726316496425599,-2.2046777375842614,-0.808329818818569,1.5937359314787551,-0.08281216500919086,-1.6525156727325836,-0.0028208913275313834,-0.0004329000339515752,-0.003293665442436026,-0.007688190156760996,-0.2854453458079085,-0.28547385295624356,3.6026285069633923,3.103593289496449,0.29759223584886313,-0.003440476280325229,-0.045203157750200215,-0.5721850878483092
1750753249.2670176,-1.7263223098396496,-2.2046784137028608,-0.8083364566034668,1.5937205081040935,-0.08338466079939799,-1.6530882258999249,-0.002992948041188425,-0.00024269532033124866,-0.003344206756971078,-0.007735197111323217,-0.2870505363942826,-0.2870794069510077,3.6017938232944173,3.103977708665288,0.2975788406435461,-0.0034445143951649638,-0.045218738169636494,-0.572281986052672
1750753249.2689621,-1.7263223098396496,-2.2046784137028608,-0.8083364566034668,1.5937205081040935,-0.08338466079939799,-1.6530882258999249,-0.002992948041188425,-0.00024269532033124866,-0.003344206756971078,-0.007735197111323217,-0.2870505363942826,-0.2870794069510077,3.6017938232944173,3.103977708665288,0.2975788406435461,-0.0034445143951649638,-0.045218738169636494,-0.572281986052672
1750753249.2708573,-1.7263284699235637,-2.2046787062669004,-0.8083431959957483,1.5937049906398055,-0.08396036752199088,-1.6536639907298998,-0.0031675634546472547,-4.934264318150934e-05,-0.003395273298404069,-0.007782279822399282,-0.2886562778113612,-0.28868551521118596,3.60095686346358,3.104364436562566,0.29756537465663185,-0.003448569418019254,-0.04523425524886339,-0.5723781390370262
1750753249.272803,-1.726334981808316,-2.2046786089634693,-0.808350038048701,1.5936893789341438,-0.08453928627630614,-1.6542429683287345,-0.0033447511386749096,0.0001471749798947097,-0.0034468679019029674,-0.0078294385237329,-0.2902625677199913,-0.29029217541652114,3.600117668184773,3.104753475940372,0.2975518377535443,-0.0034526412452479784,-0.04524970643339064,-0.5724735250570276
1750753249.2749875,-1.7263418506520027,-2.2046781154456987,-0.808356983821291,1.593673672834897,-0.08512141815691354,-1.654825159797924,-0.003524524648142003,0.00034687452482701724,-0.003498993408822463,-0.007876673445484284,-0.29186940368977154,-0.29189938515547803,3.5992762784897523,3.1051448295602353,0.2975382297856119,-0.0034567297696631786,-0.045265089152726,-0.5725681222355504
1750753249.276716,-1.7263490816398175,-2.204677219332776,-0.8083640343781706,1.593657872189397,-0.08570676425342683,-1.6554105662340461,-0.003706897521685421,0.0005497729608738378,-0.003551652666633376,-0.00792398481428084,-0.29347678319847187,-0.2935071419246577,3.598432735709876,3.105538500173222,0.2975245506061016,-0.0034608348854189806,-0.045280400820025046,-0.5726619085602617
1750753249.2787414,-1.726356679984014,-2.204675914209953,-0.8083711907896944,1.5936419768445265,-0.08629532565032516,-1.6559991887285808,-0.003891883281308315,0.0007558872505137213,-0.0036048485292977327,-0.007971372853078775,-0.2950847036314691,-0.29511544312825,3.5975870815050794,3.105934490539924,0.29751080005819686,-0.0034649564827057846,-0.04529563883254266,-0.5727548618974231
1750753249.2808535,-1.7263646509238715,-2.204674193628567,-0.8083784541319314,1.593625986646725,-0.08688710342676575,-1.6565910283677248,-0.004079495432018008,0.0009652343492293717,-0.0036585838574418107,-0.008018837781299809,-0.2966931622811665,-0.29672428607741463,3.5967393578412015,3.1063328034071294,0.2974969779797323,-0.0034690944554262486,-0.04531080057118355,-0.5728469599673149
1750753249.2826812,-1.7263729997256618,-2.2046720511060514,-0.8083858254866794,1.5936099014419978,-0.08748209865639556,-1.6571860862322012,-0.004269747461461618,0.0011778312054118573,-0.0037128615185477807,-0.008066379814582041,-0.2983021563464068,-0.29833366798973415,3.5958896069984134,3.106733441534021,0.2974830842038053,-0.0034732486903548505,-0.04532588340031809,-0.5729381803671839
1750753249.2849383,-1.7263817316826167,-2.204669480125947,-0.8083933059414772,1.593593721075922,-0.08808031240716652,-1.6577843633970764,-0.004462652839531121,0.001393694760136079,-0.003767684387087264,-0.008113999164902875,-0.2999116829319238,-0.29994358598863596,3.5950378715772007,3.1071364076655463,0.2974691185595041,-0.003477419077684116,-0.045340884668867085,-0.5730285005639905
1750753249.286665,-1.7263908521148874,-2.2046664741379223,-0.8084008965896201,1.5935774453936546,-0.08868174574114551,-1.6583858609315678,-0.0046582250179728404,0.0016128419470457472,-0.003823055344927954,-0.008161696040476472,-0.30152173904773694,-0.3015540371028025,3.5941841944988457,3.107541704554698,0.29745508086470873,-0.0034816055045524727,-0.045355801708696616,-0.5731178978876489
1750753249.2888174,-1.7264003663695107,-2.2046630265577862,-0.8084085985301757,1.5935610742399402,-0.0892863997143234,-1.6589905798988553,-0.004856477430007578,0.0018352896921678878,-0.0038789772814438335,-0.008209470645750068,-0.3031323216085868,-0.3031650182656065,3.5933286189999585,3.1079493349483474,0.2974409709342245,-0.003485807857930159,-0.045370631835767665,-0.5732063495409999
1750753249.2906795,-1.7264102798203727,-2.204659130767503,-0.808416412867996,1.593544607459118,-0.08989427537642403,-1.65959852135589,-0.0050574234899321705,0.0020610549137526643,-0.003935453093718177,-0.008257323181335043,-0.304743427433396,-0.3047765263145359,3.592471188640265,3.1083593015934166,0.29742678857738847,-0.00349002602272614,-0.045385372350862305,-0.5732938325959223
1750753249.298662,-1.7264313259403563,-2.2046499679152216,-0.8084323831838729,1.593511386391529,-0.09111969593381275,-1.660824075934702,-0.005467450113586822,0.002522605419339779,-0.00405007797390038,-0.008353262826463174,-0.3079671956677981,-0.30800110993787194,3.590750939196869,3.109186254601193,0.2973982057872194,-0.0034985093209448995,-0.04541457366217458,-0.5734658005515152
1750753249.299139,-1.7264540340013923,-2.2046389319605115,-0.80844881649241,1.5934777809377954,-0.09235801567845137,-1.6620625329916914,-0.005888411809522459,0.0029976286476313327,-0.004166953325634969,-0.008449516502880425,-0.3111930163635039,-0.3112277607332088,3.5890238011084996,3.1100225854942254,0.2973693308328299,-0.003507054458791801,-0.04544338372024065,-0.5736336157231275
1750753249.3009076,-1.7264660249786559,-2.20463269466552,-0.8084572095930032,1.5934608336728904,-0.09298201529820549,-1.6626866025201767,-0.00610302663272771,0.0032402347408365065,-0.004226242259835004,-0.008497761562688364,-0.31280668739693845,-0.31284185237898116,3.588157761174138,3.110444274485871,0.29735478324670006,-0.003511349919120005,-0.04545763510809092,-0.5737159073159026
1750753249.3027828,-1.7264784479570663,-2.2046259687423397,-0.8084657218424054,1.5934437898388434,-0.09360924276279636,-1.6633139007384532,-0.006320415169503138,0.0034862596469318126,-0.004286102627694165,-0.008546085674078248,-0.3144208605629394,-0.314456449890124,3.5872901345490713,3.1108683161441744,0.2973401619504383,-0.0035156604776321555,-0.04547178034500535,-0.5737970900151217
1750753249.304862,-1.726491308497324,-2.204618747336484,-0.8084743543864406,1.5934266492773776,-0.09423969907263618,-1.6639444286544167,-0.006540590690240181,0.0037357202248384166,-0.004346537386980453,-0.00859448900989173,-0.3160355319934892,-0.3160715494168839,3.586420967081673,3.1112947131954916,0.2973254667058854,-0.0035199860130343454,-0.045485816618616316,-0.5738771399833323
1750753249.3068233,-1.7265046121866492,-2.2046110235597585,-0.8084831083768584,1.593409411829875,-0.09487338522030342,-1.664578187268166,-0.006763566443103429,0.003988633324275488,-0.0044075495049864235,-0.008642971738776737,-0.31765069772018123,-0.31768714700907785,3.5855503049414876,3.1117234683582056,0.29731069727187287,-0.0035243263993247104,-0.045499741100925986,-0.5739560332680019
1750753249.3092072,-1.7265183646387356,-2.204602790490279,-0.8084919849713517,1.593392077337384,-0.09551030219033674,-1.665215177571798,-0.006989355653573521,0.004245015785623981,-0.004469141959044949,-0.008691534025268101,-0.3192663536735925,-0.3193032386154749,3.5846781946394164,3.1121545843574436,0.29729585339296455,-0.0035286815125734434,-0.04551355094627509,-0.5740337457709443
1750753249.3110216,-1.7265325714937036,-2.204594041172488,-0.808500985333577,1.5933746456406284,-0.09615045095903696,-1.665855400549205,-0.0072179715240206855,0.004504884439675606,-0.0045313177364829085,-0.008740176029726786,-0.3208824956827846,-0.3209198200832512,3.583804683014863,3.1125880639014576,0.2972809348149778,-0.003533051227070239,-0.045527243294937514,-0.574110253275
1750753249.3129084,-1.7265472384180578,-2.2045847686171776,-0.8085101106331782,1.5933571165800156,-0.09679383249425833,-1.6664988571758705,-0.007449427233266716,0.004768256107469507,-0.004594079835023318,-0.008788897908195828,-0.32249911947474263,-0.3225368871574442,3.582929817240947,3.113023909697631,0.29726594127237965,-0.003537435412940189,-0.04554081527138964,-0.5741855314425163
1750753249.31475,-1.7265623711046327,-2.2045749658015072,-0.8085193620458035,1.593339489995645,-0.09744044775520955,-1.6671455484186692,-0.007683735936120757,0.005035147600127794,-0.004657431263071145,-0.008837699812511077,-0.3241162206737343,-0.32415443548036427,3.5820536448349007,3.1134621244560403,0.2972508724920494,-0.003541833943304037,-0.0455542639820455,-0.5742595558011684
1750753249.3169832,-1.7265779752725523,-2.2045646256690254,-0.808528740753129,1.5933217657273167,-0.09809029769224065,-1.6677954752356534,-0.007920910762953726,0.005305575718609939,-0.004721375039842108,-0.008886581890181803,-0.3257337948008264,-0.32577246059102166,3.5811762136385172,3.113902710869838,0.29723572819684596,-0.003546246687746711,-0.04556758651970483,-0.5743323017489761
1750753249.319048,-1.7265940566671718,-2.204553741129688,-0.8085382479428818,1.59330394361454,-0.09874338324664489,-1.6684486385758506,-0.008160964819208978,0.005579557253589127,-0.004785914195832137,-0.008935544284329487,-0.3273518372732997,-0.327390957924606,3.580297571849981,3.114345671642426,0.2972205080970369,-0.0035506735141023304,-0.045580779960677886,-0.5744037445731317
1750753249.320746,-1.7266106210600363,-2.2045423050598805,-0.8085478848088599,1.5932860234965425,-0.09939970535044207,-1.6691050393790565,-0.008403911184981882,0.00585710898518532,-0.004851051772830853,-0.00898458713372248,-0.3289703434040894,-0.3290099228118893,3.5794177679878616,3.1147910094569258,0.2972052119020928,-0.003555114290998185,-0.045593841365522206,-0.574473859422726
1750753249.3227696,-1.7266276742488218,-2.204530310302437,-0.8085576525509559,1.5932680052122785,-0.10005926492617423,-1.6697646785756195,-0.008649762914518688,0.006138247682800816,-0.00491679082434224,-0.0090337105726839,-0.33058930840121115,-0.3306293504786692,3.5785368509284203,3.115238726999407,0.2971898393100643,-0.0035595688843279814,-0.045606767778613104,-0.5745426213235396
1750753249.3246908,-1.7266452220572894,-2.2045177496666657,-0.8085675523751839,1.5932498886004387,-0.10072206288669516,-1.6704275570862395,-0.008898533035780726,0.006422990104930475,-0.004983134415888596,-0.009082914731039574,-0.33220872736725404,-0.3322492360452483,3.5776548698775263,3.1156888269496794,0.29717439001024276,-0.0035640371584865988,-0.0456195562300567,-0.5746100051895222
1750753249.3267758,-1.7266632703352274,-2.2045046159283697,-0.8085775854936976,1.5932316734994578,-0.10138810013495636,-1.671093675821746,-0.009150234549939316,0.006711352998933373,-0.005050085625150593,-0.009132199734124484,-0.33382859529874837,-0.33386957452581945,3.5767718743966914,3.1161413119804218,0.2971588636884041,-0.003568518977791572,-0.04563220373213818,-0.5746759857913094
1750753249.328999,-1.7266632703352274,-2.2045046159283697,-0.8085775854936976,1.5932316734994578,-0.10138810013495636,-1.671093675821746,-0.009150234549939316,0.006711352998933373,-0.005050085625150593,-0.009132199734124484,-0.33382859529874837,-0.33386957452581945,3.5767718743966914,3.1161413119804218,0.2971588636884041,-0.003568518977791572,-0.04563220373213818,-0.5746759857913094
1750753249.330771,-1.7266818249584004,-2.204490901829865,-0.8085877531248222,1.593213359747525,-0.10205737756379563,-1.6717630356828925,-0.009404880430925085,0.007003353100850624,-0.005117647542334441,-0.009181565702737243,-0.33544890708569713,-0.33549036082796463,3.5758879143827493,3.1165961847597106,0.29714326001981867,-0.0035730142052876313,-0.04564470728395123,-0.5747405377947428
1750753249.3329625,-1.726700891828493,-2.2044766000800102,-0.8085980564930741,1.5931949471825924,-0.10272989605572658,-1.6724356375601417,-0.009662483624932603,0.007299007135182127,-0.005185823270442136,-0.009231012753056777,-0.3370696575109632,-0.33711158975207683,3.57500304008308,3.1170534479469922,0.29712757867221373,-0.003577522701463831,-0.04565706386732188,-0.5748036357346468
1750753249.334688,-1.726720476873055,-2.2044617033542266,-0.8086084968291889,1.5931764356423839,-0.10340565648271749,-1.6731114823334465,-0.009923057049938034,0.0075983318147016385,-0.005254615925551671,-0.009280540996639894,-0.3386908412497413,-0.3387332559908053,3.574117302091886,3.1175131042006083,0.29711181930571257,-0.0035820443266163533,-0.04566927044920667,-0.5748652540222537
1750753249.343273,-1.7267612253247568,-2.20443009550951,-0.808629793359203,1.5931391149859542,-0.10476690657575549,-1.6744729040342126,-0.010453166120797445,0.008208059900380494,-0.005394064547917748,-0.009379841486454273,-0.3419344868270257,-0.34197787864077056,3.5723434391555897,3.1184396064867568,0.29708006512121554,-0.0035911263984466564,-0.04569322140010464,-0.5749839487015426
1750753249.343588,-1.7267824007157984,-2.2044133695744446,-0.8086406520459093,1.5931203055441265,-0.1054523979310833,-1.6751584826670989,-0.010722727457085775,0.008518496671475794,-0.005464726815199853,-0.00942961393224156,-0.3435569374726825,-0.34360082389371155,3.5714554171442456,3.118906457797489,0.2970640695828753,-0.0035956865573594575,-0.04570495962603846,-0.5750409733201501
1750753249.343863,-1.7268041182489924,-2.2043960190312397,-0.808651652686148,1.59310139647583,-0.10614113459959906,-1.6758473076064542,-0.010995310404226822,0.008832670817166403,-0.005536018610011148,-0.009479467970419153,-0.3451797990450736,-0.34522418414357603,3.5705667373110392,3.1193757127220567,0.29704799458843123,-0.003600259274248541,-0.04571653556514938,-0.575096414735985
1750753249.344738,-1.7268263839803364,-2.2043780363884924,-0.8086627965421584,1.5930823876177913,-0.10683311739730339,-1.6765393796764378,-0.011270927731668573,0.009150598988351206,-0.005607943118070834,-0.009529403688719362,-0.34680306567287955,-0.34684795353615716,3.5696774520068657,3.1198473738897228,0.2970318397563626,-0.003604844399640988,-0.04572794610729,-0.5751502467728435
1750753249.34676,-1.7268492039913328,-2.2043594141215106,-0.8086740848825631,1.5930632788065664,-0.10752834712834236,-1.6772346996893859,-0.01154959217762479,0.009472297822871586,-0.005680503539871419,-0.009579421170092008,-0.3484267313738612,-0.3484721261062189,3.568787613936807,3.120321443908852,0.2970156046992374,-0.0036094417885038197,-0.04573918812781961,-0.5752024431181878
1750753249.349056,-1.7268725843889303,-2.204340144672342,-0.8086855189824034,1.5930440698785502,-0.10822682458478727,-1.6779332684455985,-0.01183131644859184,0.009797783945316312,-0.005753703090999068,-0.00962952049252331,-0.3500507900543552,-0.3500966957770176,3.567897276150169,3.1207979253829032,0.29699928902057016,-0.0036140512906622426,-0.04575025848787925,-0.5752529773615924
1750753249.3507175,-1.7268725843889303,-2.204340144672342,-0.8086855189824034,1.5930440698785502,-0.10822682458478727,-1.6779332684455985,-0.01183131644859184,0.009797783945316312,-0.005753703090999068,-0.00962952049252331,-0.3500507900543552,-0.3500966957770176,3.567897276150169,3.1207979253829032,0.29699928902057016,-0.0036140512906622426,-0.04575025848787925,-0.5752529773615924
1750753249.3543203,-1.726921050898567,-2.2042996338294767,-0.8087088295928178,1.5930053510169793,-0.10963352578046148,-1.6793401553274467,-0.012403995129667831,0.010460184484767729,-0.00590203252095335,-0.009729964947643988,-0.3533000614185907,-0.3533470015528784,3.566115315460878,3.121758133088692,0.29696641416947495,-0.0036233060325347537,-0.045771871589478,-0.5753489532591163
1750753249.3547482,-1.726921050898567,-2.2042996338294767,-0.8087088295928178,1.5930053510169793,-0.10963352578046148,-1.6793401553274467,-0.012403995129667831,0.010460184484767729,-0.00590203252095335,-0.009729964947643988,-0.3533000614185907,-0.3533470015528784,3.566115315460878,3.121758133088692,0.29696641416947495,-0.0036233060325347537,-0.045771871589478,-0.5753489532591163
1750753249.3570092,-1.7269461493511455,-2.2042783771538037,-0.8087207086858301,1.5929858407554993,-0.11034175104143706,-1.680048474991449,-0.012694974789352118,0.010797132082696432,-0.0059771689092550425,-0.009780310211367839,-0.3549252613528778,-0.35497272494193743,3.5652238004574794,3.1222418644918983,0.29694985416132547,-0.0036279509675651556,-0.04578240797662757,-0.5753943414934779
1750753249.3590975,-1.726971832871274,-2.2042564427320457,-0.8087327387032204,1.5929662297213982,-0.11105322707086174,-1.6807600464749948,-0.012989064772129627,0.011137933329925716,-0.0060529574464533295,-0.009830737578097668,-0.3565508287667308,-0.3565988199986765,3.5643320015526805,3.1227280176944126,0.2969332118586986,-0.0036326074074694327,-0.04579275999494587,-0.5754379607866907
1750753249.3608863,-1.7269981076921432,-2.2042338228403473,-0.808744920952579,1.5929465177504163,-0.11176795459705335,-1.681474870514796,-0.013286277617908506,0.011482604781400533,-0.006129401428223916,-0.009881247100610365,-0.3581767570012184,-0.3582252800806779,3.563439973595811,3.123216595261968,0.29691648682427113,-0.0036372751963396036,-0.04580292442901462,-0.57547978413655
1750753249.36267,-1.7270249800719917,-2.204210509721757,-0.8087572567481045,1.5929267046781934,-0.1124859343349005,-1.6821929478341655,-0.01358662583168199,0.011831162977477671,-0.006206504167370058,-0.009931838826516116,-0.3598030392828091,-0.3598520984308254,3.5625477717986405,3.1237075997561745,0.29689967860483096,-0.003641954177399544,-0.04581289805050552,-0.5755197844374166
1750753249.3646953,-1.7270524562940297,-2.2041864955862573,-0.8087697474106399,1.5929067903402796,-0.11320716698562627,-1.6829142791427856,-0.013890121882962035,0.012183624443605096,-0.006284268993764338,-0.009982512798224773,-0.3614296687228276,-0.3614792681767719,3.5616554517437744,3.1242010337158477,0.2968827867490061,-0.003646644192749134,-0.04582267761578719,-0.5755579344689759
1750753249.3669462,-1.7270805426663713,-2.204161772610796,-0.8087823942677028,1.5928867745721451,-0.11393165323656351,-1.68363886513648,-0.014196778205253394,0.012540005690167784,-0.006362699255019176,-0.010033269052865777,-0.36305663831698515,-0.3631067823304428,3.5607630693699353,3.124696899684291,0.29686581078648816,-0.0036513450821230075,-0.045832259867986544,-0.5755942069050889
1750753249.3690982,-1.7271092455219632,-2.2041363329393127,-0.8087951986535264,1.5928666572091914,-0.1146593937609186,-1.684366706496979,-0.014506607195498547,0.01290032321221015,-0.006441798316620928,-0.010084107622295458,-0.3646839409447877,-0.3647346337874946,3.5598706809807625,3.125195200189585,0.29684875024330903,-0.003656056685261071,-0.04584164153356464,-0.5756285743001509
1750753249.3706543,-1.7271385712185063,-2.204110168682776,-0.8088081619090914,1.5928464380867615,-0.1153903892175423,-1.6850978038916873,-0.01481962121350109,0.013264593489207393,-0.0065215695623615745,-0.01013502853303032,-0.3663115693691121,-0.36636281532682596,3.558978343255,3.1256959377528832,0.2968316046334633,-0.0036607788399199565,-0.04585081932704262,-0.5756610091075046
1750753249.3728359,-1.7271685261383851,-2.2040832719192096,-0.8088212853821659,1.5928261170401508,-0.11612464025069258,-1.6858321579734517,-0.015135832581385308,0.013632832984817815,-0.006602016394581143,-0.01018603180620316,-0.36793951623564025,-0.3679913196100658,3.558086113230033,3.1261991148845722,0.29681437346413697,-0.0036655113824583816,-0.0458597899469997,-0.5756914836699911
1750753249.374695,-1.7271991166885883,-2.2040556346937255,-0.808834570427341,1.5928056939046178,-0.11686214748980106,-1.6865697693803217,-0.015455253583022669,0.014005058146636164,-0.0066831422345400545,-0.010237117457537364,-0.36956777407238645,-0.36962013918105885,3.5571940483144373,3.1267047340852536,0.2967970562320681,-0.0036702541483396947,-0.045868550078700256,-0.5757199702197442
1750753249.3766527,-1.727230349300637,-2.204027249018557,-0.8088480184060689,1.592785168515395,-0.11760291154923852,-1.6873106387353207,-0.015777896463470636,0.01438128540594391,-0.006764950522719201,-0.010288285497244927,-0.37119633528920837,-0.3712492664653944,3.5563022062836303,3.127212797844293,0.29677965242555177,-0.0036750069700555274,-0.04587709639363624,-0.5757464408929741
1750753249.3786306,-1.7272622304304992,-2.203998106873093,-0.808861630686704,1.5927645407077,-0.11834693302807509,-1.6880547666462,-0.016103773428367107,0.01476153117746956,-0.006847444719253535,-0.01033953593009296,-0.372825192177266,-0.3728786937698585,3.555410645295527,3.1277233086451295,0.29676216152094165,-0.0036797696817286777,-0.04588542554805451,-0.5757708677033839
1750753249.3846352,-1.7272947665585185,-2.2039682002039065,-0.8088754086445382,1.5927438103167464,-0.11909421250984487,-1.6888021537052076,-0.016432896643406456,0.015145811859141668,-0.0069306283041420955,-0.01039086875524929,-0.3744543369085781,-0.3745084132819986,3.554519423859219,3.128236268958906,0.2967445829885306,-0.0036845421130871445,-0.04589353418570731,-0.5757932225797012
1750753249.38519,-1.7272947665585185,-2.2039682002039065,-0.8088754086445382,1.5927438103167464,-0.11909421250984487,-1.6888021537052076,-0.016432896643406456,0.015145811859141668,-0.0069306283041420955,-0.01039086875524929,-0.3744543369085781,-0.3745084132819986,3.554519423859219,3.128236268958906,0.2967445829885306,-0.0036845421130871445,-0.04589353418570731,-0.5757932225797012
1750753249.3877478,-1.7272947665585185,-2.2039682002039065,-0.8088754086445382,1.5927438103167464,-0.11909421250984487,-1.6888021537052076,-0.016432896643406456,0.015145811859141668,-0.0069306283041420955,-0.01039086875524929,-0.3744543369085781,-0.3745084132819986,3.554519423859219,3.128236268958906,0.2967445829885306,-0.0036845421130871445,-0.04589353418570731,-0.5757932225797012
1750753249.3882802,-1.727396370098793,-2.2038738120282915,-0.8089177504391234,1.5926810019966455,-0.1213556045700317,-1.6910638754558702,-0.01743986483434074,0.016323027086774917,-0.0071843504954114835,-0.010545361492349237,-0.37934341808460886,-0.3793992451405347,3.551848387681524,3.1297898715225987,0.2966913161606386,-0.0036989160189093355,-0.04591650322455633,-0.5758475732326337
1750753249.3888392,-1.7274315915074325,-2.2038407660749098,-0.8089322049989125,1.592659859625107,-0.12211592157976892,-1.6918243047113721,-0.017782093886868938,0.016723611043169044,-0.0072703268445556595,-0.010597023766122848,-0.38097363350890634,-0.3810300529562997,3.550959117133858,3.1303126543825583,0.2966733816075852,-0.003703725614425582,-0.04592369595369701,-0.5758613575054896
1750753249.390774,-1.7274675006786469,-2.203806914839692,-0.8089468322179005,1.592638613846712,-0.12287949926866926,-1.6925879958352574,-0.018127629397882795,0.017128311638274576,-0.007357010293120047,-0.010648768343376707,-0.3826040958321877,-0.3826611121113803,3.5500704843396798,3.1308378989519934,0.29665535662408427,-0.0037085440646026364,-0.04593065117799791,-0.5758729279111234
1750753249.3927417,-1.7275041042372727,-2.2037722500730688,-0.8089616335138885,1.5926172644968877,-0.12364633812199788,-1.6933549493216873,-0.01847648328088127,0.017537145163780736,-0.007444404447936113,-0.01070059518907149,-0.3842347965013815,-0.38429241406755177,3.549182550074246,3.131365607635251,0.2966372406206276,-0.0037133711919596474,-0.04593736545950899,-0.5758822557701577
1750753249.3946977,-1.7275414088319323,-2.203736763492901,-0.808976610311916,1.5925958114111372,-0.12441643860779106,-1.6941251656476233,-0.018828667405251548,0.017950127892791056,-0.007532512938266696,-0.010752504262345992,-0.3858657268409265,-0.3859239501639567,3.548295375478925,3.131895782834171,0.2966190329957388,-0.0037182068187635226,-0.04594383534765339,-0.5758893122974575
