mathias31415/primitives_from_planned_trajectory_python/data/saved_trajectories/trajectory_20250624_153109_executed.csv
timestamp,shoulder_lift_joint_pos,elbow_joint_pos,wrist_1_joint_pos,wrist_2_joint_pos,wrist_3_joint_pos,shoulder_pan_joint_pos,shoulder_lift_joint_vel,elbow_joint_vel,wrist_1_joint_vel,wrist_2_joint_vel,wrist_3_joint_vel,shoulder_pan_joint_vel,shoulder_lift_joint_eff,elbow_joint_eff,wrist_1_joint_eff,wrist_2_joint_eff,wrist_3_joint_eff,shoulder_pan_joint_eff
1750771875.1022441,-1.7245420971677028,-2.4908363003625773,-0.5302907339278908,1.582545480587263,-0.4527719024290304,-2.022564677722377,0.0,0.0,0.0,0.0,0.0,0.0,2.8610000914774885,2.216827825114824,0.29986077321476834,0.0009693944100502294,0.0,2.4765775824328895e-17
1750771875.104002,-1.7245420971677028,-2.4908363003625773,-0.5302907339278908,1.582545480587263,-0.4527719024290304,-2.022564677722377,0.0,0.0,0.0,0.0,0.0,0.0,2.8610000914774885,2.216827825114824,0.29986077321476834,0.0009693944100502294,0.0,2.4765775824328895e-17
1750771875.1062021,-1.7245420971677028,-2.4908363003625773,-0.5302907339278908,1.582545480587263,-0.4527719024290304,-2.022564677722377,0.0,0.0,0.0,0.0,0.0,0.0,2.8610000914774885,2.216827825114824,0.29986077321476834,0.0009693944100502294,0.0,2.4765775824328895e-17
1750771875.1070766,-1.7245420971677028,-2.4908363003625773,-0.5302907339278908,1.582545480587263,-0.4527719024290304,-2.022564677722377,0.0,0.0,0.0,0.0,0.0,0.0,2.8610000914774885,2.216827825114824,0.29986077321476834,0.0009693944100502294,0.0,2.4765775824328895e-17
1750771875.107637,-1.7245420971677028,-2.4908363003625773,-0.5302907339278908,1.582545480587263,-0.4527719024290304,-2.022564677722377,0.0,0.0,0.0,0.0,0.0,0.0,2.8610000914774885,2.216827825114824,0.29986077321476834,0.0009693944100502294,0.0,2.4765775824328895e-17
1750771875.108078,-1.7245420971677028,-2.4908363003625773,-0.5302907339278908,1.582545480587263,-0.4527719024290304,-2.022564677722377,0.0,0.0,0.0,0.0,0.0,0.0,2.8610000914774885,2.216827825114824,0.29986077321476834,0.0009693944100502294,0.0,2.4765775824328895e-17
1750771875.1097746,-1.7245420971677028,-2.4908363003625773,-0.5302907339278908,1.582545480587263,-0.4527719024290304,-2.022564677722377,0.0,0.0,0.0,0.0,0.0,0.0,2.8610000914774885,2.216827825114824,0.29986077321476834,0.0009693944100502294,0.0,2.4765775824328895e-17
1750771875.1131883,-1.7245420971677028,-2.4908363003625773,-0.5302907339278908,1.582545480587263,-0.4527719024290304,-2.022564677722377,0.0,0.0,0.0,0.0,0.0,0.0,2.8610000914774885,2.216827825114824,0.29986077321476834,0.0009693944100502294,0.0,2.4765775824328895e-17
1750771875.1137817,-1.7245420971677028,-2.4908363003625773,-0.5302907339278908,1.582545480587263,-0.4527719024290304,-2.022564677722377,0.0,0.0,0.0,0.0,0.0,0.0,2.8610000914774885,2.216827825114824,0.29986077321476834,0.0009693944100502294,0.0,2.4765775824328895e-17
1750771875.117745,-1.7245420971677028,-2.4908363003625773,-0.5302907339278908,1.582545480587263,-0.4527719024290304,-2.022564677722377,0.0,0.0,0.0,0.0,0.0,0.0,2.8610000914774885,2.216827825114824,0.29986077321476834,0.0009693944100502294,0.0,2.4765775824328895e-17
1750771875.1184216,-1.7245420971677028,-2.4908363003625773,-0.5302907339278908,1.582545480587263,-0.4527719024290304,-2.022564677722377,0.0,0.0,0.0,0.0,0.0,0.0,2.8610000914774885,2.216827825114824,0.29986077321476834,0.0009693944100502294,0.0,2.4765775824328895e-17
1750771875.1218646,-1.7245420971677028,-2.4908363003625773,-0.5302907339278908,1.582545480587263,-0.4527719024290304,-2.022564677722377,0.0,0.0,0.0,0.0,0.0,0.0,2.8610000914774885,2.216827825114824,0.29986077321476834,0.0009693944100502294,0.0,2.4765775824328895e-17
1750771875.1223333,-1.7245420971677028,-2.4908363003625773,-0.5302907339278908,1.582545480587263,-0.4527719024290304,-2.022564677722377,0.0,0.0,0.0,0.0,0.0,0.0,2.8610000914774885,2.216827825114824,0.29986077321476834,0.0009693944100502294,0.0,2.4765775824328895e-17
1750771875.1228664,-1.7245420971677028,-2.4908363003625773,-0.5302907339278908,1.582545480587263,-0.4527719024290304,-2.022564677722377,0.0,0.0,0.0,0.0,0.0,0.0,2.8610000914774885,2.216827825114824,0.29986077321476834,0.0009693944100502294,0.0,2.4765775824328895e-17
1750771875.1251166,-1.7245420971677028,-2.4908363003625773,-0.5302907339278908,1.582545480587263,-0.4527719024290304,-2.022564677722377,0.0,0.0,0.0,0.0,0.0,0.0,2.8610000914774885,2.216827825114824,0.29986077321476834,0.0009693944100502294,0.0,2.4765775824328895e-17
1750771875.1273913,-1.7245420971677028,-2.4908363003625773,-0.5302907339278908,1.582545480587263,-0.4527719024290304,-2.022564677722377,0.0,0.0,0.0,0.0,0.0,0.0,2.8610000914774885,2.216827825114824,0.29986077321476834,0.0009693944100502294,0.0,2.4765775824328895e-17
1750771875.1289668,-1.7245420971677028,-2.4908363003625773,-0.5302907339278908,1.582545480587263,-0.4527719024290304,-2.022564677722377,0.0,0.0,0.0,0.0,0.0,0.0,2.8610000914774885,2.216827825114824,0.29986077321476834,0.0009693944100502294,0.0,2.4765775824328895e-17
1750771875.1316414,-1.7245420971677028,-2.4908363003625773,-0.5302907339278908,1.582545480587263,-0.4527719024290304,-2.022564677722377,0.0,0.0,0.0,0.0,0.0,0.0,2.8610000914774885,2.216827825114824,0.29986077321476834,0.0009693944100502294,0.0,2.4765775824328895e-17
1750771875.132953,-1.7245420971677028,-2.4908363003625773,-0.5302907339278908,1.582545480587263,-0.4527719024290304,-2.022564677722377,0.0,0.0,0.0,0.0,0.0,0.0,2.8610000914774885,2.216827825114824,0.29986077321476834,0.0009693944100502294,0.0,2.4765775824328895e-17
1750771875.135046,-1.7245420971677028,-2.4908363003625773,-0.5302907339278908,1.582545480587263,-0.4527719024290304,-2.022564677722377,0.0,0.0,0.0,0.0,0.0,0.0,2.8610000914774885,2.216827825114824,0.29986077321476834,0.0009693944100502294,0.0,2.4765775824328895e-17
1750771875.1379876,-1.7245420971677028,-2.4908363003625773,-0.5302907339278908,1.582545480587263,-0.4527719024290304,-2.022564677722377,0.0,0.0,0.0,0.0,0.0,0.0,2.8610000914774885,2.216827825114824,0.29986077321476834,0.0009693944100502294,0.0,2.4765775824328895e-17
1750771875.1403563,-1.7245420971677028,-2.4908363003625773,-0.5302907339278908,1.582545480587263,-0.4527719024290304,-2.022564677722377,0.0,0.0,0.0,0.0,0.0,0.0,2.8610000914774885,2.216827825114824,0.29986077321476834,0.0009693944100502294,0.0,2.4765775824328895e-17
1750771875.1437492,-1.7245420971677028,-2.4908363003625773,-0.5302907339278908,1.582545480587263,-0.4527719024290304,-2.022564677722377,0.0,0.0,0.0,0.0,0.0,0.0,2.8610000914774885,2.216827825114824,0.29986077321476834,0.0009693944100502294,0.0,2.4765775824328895e-17
1750771875.146173,-1.7245420971677028,-2.4908363003625773,-0.5302907339278908,1.582545480587263,-0.4527719024290304,-2.022564677722377,0.0,0.0,0.0,0.0,0.0,0.0,2.8610000914774885,2.216827825114824,0.29986077321476834,0.0009693944100502294,0.0,2.4765775824328895e-17
1750771875.1467345,-1.7245420971677028,-2.4908363003625773,-0.5302907339278908,1.582545480587263,-0.4527719024290304,-2.022564677722377,0.0,0.0,0.0,0.0,0.0,0.0,2.8610000914774885,2.216827825114824,0.29986077321476834,0.0009693944100502294,0.0,2.4765775824328895e-17
1750771875.14721,-1.7245420971677028,-2.4908363003625773,-0.5302907339278908,1.582545480587263,-0.4527719024290304,-2.022564677722377,0.0,0.0,0.0,0.0,0.0,0.0,2.8610000914774885,2.216827825114824,0.29986077321476834,0.0009693944100502294,0.0,2.4765775824328895e-17
1750771875.1491535,-1.7245420971677028,-2.4908363003625773,-0.5302907339278908,1.582545480587263,-0.4527719024290304,-2.022564677722377,0.0,0.0,0.0,0.0,0.0,0.0,2.8610000914774885,2.216827825114824,0.29986077321476834,0.0009693944100502294,0.0,2.4765775824328895e-17
1750771875.151413,-1.7245420971677028,-2.4908363003625773,-0.5302907339278908,1.582545480587263,-0.4527719024290304,-2.022564677722377,0.0,0.0,0.0,0.0,0.0,0.0,2.8610000914774885,2.216827825114824,0.29986077321476834,0.0009693944100502294,0.0,2.4765775824328895e-17
1750771875.1562943,-1.7245420971677028,-2.4908363003625773,-0.5302907339278908,1.582545480587263,-0.4527719024290304,-2.022564677722377,0.0,0.0,0.0,0.0,0.0,0.0,2.8610000914774885,2.216827825114824,0.29986077321476834,0.0009693944100502294,0.0,2.4765775824328895e-17
1750771875.15751,-1.7245420971677028,-2.4908363003625773,-0.5302907339278908,1.582545480587263,-0.4527719024290304,-2.022564677722377,0.0,0.0,0.0,0.0,0.0,0.0,2.8610000914774885,2.216827825114824,0.29986077321476834,0.0009693944100502294,0.0,2.4765775824328895e-17
1750771875.1603487,-1.7245420971677028,-2.4908363003625773,-0.5302907339278908,1.582545480587263,-0.4527719024290304,-2.022564677722377,0.0,0.0,0.0,0.0,0.0,0.0,2.8610000914774885,2.216827825114824,0.29986077321476834,0.0009693944100502294,0.0,2.4765775824328895e-17
1750771875.1630614,-1.7245420971677028,-2.4908363003625773,-0.5302907339278908,1.582545480587263,-0.4527719024290304,-2.022564677722377,0.0,0.0,0.0,0.0,0.0,0.0,2.8610000914774885,2.216827825114824,0.29986077321476834,0.0009693944100502294,0.0,2.4765775824328895e-17
1750771875.1645632,-1.7245420971677028,-2.4908363003625773,-0.5302907339278908,1.582545480587263,-0.4527719024290304,-2.022564677722377,0.0,0.0,0.0,0.0,0.0,0.0,2.8610000914774885,2.216827825114824,0.29986077321476834,0.0009693944100502294,0.0,2.4765775824328895e-17
1750771875.1665363,-1.7245420971677028,-2.4908363003625773,-0.5302907339278908,1.582545480587263,-0.4527719024290304,-2.022564677722377,0.0,0.0,0.0,0.0,0.0,0.0,2.8610000914774885,2.216827825114824,0.29986077321476834,0.0009693944100502294,0.0,2.4765775824328895e-17
1750771875.168191,-1.7245420971677028,-2.4908363003625773,-0.5302907339278908,1.582545480587263,-0.4527719024290304,-2.022564677722377,0.0,0.0,0.0,0.0,0.0,0.0,2.8610000914774885,2.216827825114824,0.29986077321476834,0.0009693944100502294,0.0,2.4765775824328895e-17
1750771875.169314,-1.7245420971677028,-2.4908363003625773,-0.5302907339278908,1.582545480587263,-0.4527719024290304,-2.022564677722377,0.0,0.0,0.0,0.0,0.0,0.0,2.8610000914774885,2.216827825114824,0.29986077321476834,0.0009693944100502294,0.0,2.4765775824328895e-17
1750771875.171484,-1.7245424428871168,-2.4908344211272095,-0.5302922726624022,1.5825454604260503,-0.4527724870818899,-2.0225652626844184,-0.00034572100784689176,0.0018792354674309637,-0.0015387329974532106,-2.0161176621122613e-05,-0.0005846517420681638,-0.000584960924142707,2.779803797298985,2.6040272590900577,0.26652843895294903,-0.0007604499234261109,-0.01646982863500314,-0.14213093319044726
1750771875.1731374,-1.7245434800644883,-2.4908287834199085,-0.5302968888477713,1.5825453999428456,-0.4527742410270612,-2.022567017557133,-0.0006914611472360394,0.0037584721332058145,-0.0030774478310294207,-4.032191950806727e-05,-0.0011692900778891146,-0.001169908436798955,2.779817715808307,2.604043291544173,0.2665289909862646,-0.0007604501642350423,-0.016469450976685004,-0.1421275812150185
1750771875.1752625,-1.7245452087572133,-2.490819387237079,-0.5303045824295083,1.5825452991389504,-0.4527771642243268,-2.0225699423002848,-0.0010372395482922264,0.005637711195935501,-0.004616126338563001,-6.048179492646676e-05,-0.0017539016019639721,-0.0017548291272644217,2.7798383731878546,2.6040700772895105,0.26653005540490476,-0.000760437566587558,-0.01646869568112579,-0.14212036850497697
1750771875.1773267,-1.7245476290609414,-2.4908062325727274,-0.5303153533168024,1.5825451580165333,-0.45278125660665847,-2.0225740368468212,-0.0013830753382552503,0.007516953854762606,-0.006154750361351563,-8.064036924003931e-05,-0.0023384729104134493,-0.002339709586416345,2.7798657706860728,2.604107615908248,0.26653163210794645,-0.000760412132674717,-0.016467562793950542,-0.14210929553040838
1750771875.179091,-1.7245507411095744,-2.4907893194184623,-0.5303292013825285,1.58254497657863,-0.45278651808022374,-2.022579301102871,-0.0017289876401068182,0.00939620130959482,-0.007693301745708908,-0.000100797208821243,-0.0029229906017370546,-0.0029245364074875946,2.7798999101333055,2.6041559068179247,0.2665337209503846,-0.0007603738621068211,-0.01646605238217108,-0.14209436299612846
1750771875.1812217,-1.7245507411095744,-2.4907893194184623,-0.5303292013825285,1.58254497657863,-0.45278651808022374,-2.022579301102871,-0.0017289876401068182,0.00939620130959482,-0.007693301745708908,-0.000100797208821243,-0.0029229906017370546,-0.0029245364074875946,2.7798999101333055,2.6041559068179247,0.2665337209503846,-0.0007603738621068211,-0.01646605238217108,-0.14209436299612846
1750771875.1833334,-1.7245545450752537,-2.490768647763491,-0.5303461264632618,1.5825447548291434,-0.45279294852438845,-2.0225857349477563,-0.002074995571097989,0.01127545476142733,-0.009231762344914787,-0.0001209518801877184,-0.003507441277494608,-0.0035092961868613878,2.7799407939807046,2.6042149492906055,0.2665363217325877,-0.0007603227584004698,-0.016464164531995985,-0.14207557184967634
1750771875.1851838,-1.7245590411683516,-2.4907442175946173,-0.530366128359292,1.5825444927728436,-0.4528005477917265,-2.0225933382339907,-0.0024211182413422265,0.013154715412548233,-0.01077011402072149,-0.00014110394994227283,-0.004091811543248224,-0.004093975524839975,2.7799884252739444,2.604284742429118,0.26653943421226184,-0.0007602588233189227,-0.016461899356172482,-0.14205292327307956
1750771875.1870294,-1.7245642296374468,-2.4907160288962387,-0.5303892068346432,1.582544190415367,-0.45280931570802796,-2.0226021107872985,-0.0027673747523708912,0.01503398446682611,-0.012308338645124107,-0.00016125298484934535,-0.004676088009284221,-0.004678561026464663,2.7800428076695067,2.604365285183225,0.26654305809741186,-0.0007601820608720734,-0.01645925698778273,-0.14202641869918467
1750771875.1889691,-1.7245701107693163,-2.4906840816503437,-0.5304153616170941,1.5825438477632163,-0.4528192520723078,-2.022612052406613,-0.00311378419575209,0.016913263129982425,-0.013846418102126406,-0.00018139855183033863,-0.005260257291278602,-0.005263039302254681,2.780103945407718,2.6044565763464367,0.2665471930459584,-0.0007600924748397208,-0.016456237578654498,-0.14199605978389573
1750771875.190697,-1.7245766848889055,-2.4906483758365074,-0.5304445923982044,1.5825434648237604,-0.45283035665681837,-2.022623162864101,-0.0034603656516045737,0.018792552609839502,-0.015384334289366922,-0.00020154021799100716,-0.005844306011380574,-0.005847396969050237,2.7801718433564115,2.604558614552493,0.26655183867044396,-0.0007599900698946034,-0.016452841311142483,-0.14196184844319865
1750771875.1927116,-1.7245839523593087,-2.4906089114318863,-0.5304768988333466,1.5825430416052335,-0.45284262920706464,-2.022635441905166,-0.003807138187238672,0.02067185411658217,-0.016922069119817945,-0.00022167755066289464,-0.006428220798628393,-0.006431620650725524,2.7802465069582376,2.6046713982773593,0.2665569945351414,-0.0007598748517469285,-0.01644906837931114,-0.14192378680753162
1750771875.1949222,-1.724591913581743,-2.4905656884112144,-0.5305122805417328,1.582542578116735,-0.45285606944181556,-2.022648889248469,-0.0041541208557014184,0.022551168863032302,-0.018459604523536448,-0.00024181011740590994,-0.007011988290019173,-0.007015696979034667,2.780327942271234,2.6047949258413445,0.26656266015518754,-0.0007597468263012149,-0.01644491900736538,-0.14188187726714863
1750771875.1967897,-1.7246005689955126,-2.4905187067467973,-0.5305507371064548,1.5825420743682292,-0.45287067705312456,-2.0226635045859407,-0.0045013326943586915,0.024430498064899803,-0.01999692244932617,-0.0002619374860429797,-0.007595595131151892,-0.007599612594352147,2.7804161559518,2.604929195406406,0.2665688349989033,-0.0007596060003627783,-0.01644039343762221,-0.14183612243743893
1750771875.1991954,-1.724609919077981,-2.4904679664085054,-0.5305922680745239,1.5825415303705443,-0.4528864517063429,-2.022679287582804,-0.004848792723504441,0.02630984294106246,-0.02153400486646159,-0.000282059224653469,-0.008179027977028262,-0.008183354146489534,2.7805111552464665,2.605074204979477,0.26657551848592415,-0.000759452380616185,-0.016435491934959166,-0.1417865251824805
1750771875.2009199,-1.7246199643445355,-2.490413467363769,-0.5306368729569089,1.5825409461353719,-0.4529033930401454,-2.0226962378775903,-0.005196519944943617,0.028189204713793336,-0.02307083376629648,-0.0003021749016796461,-0.008762273492877715,-0.008766908295431272,2.7806129479995296,2.6052299524047746,0.2665827099905127,-0.0007592859766922307,-0.01643021478749537,-0.14173308859068873
1750771875.2092495,-1.7246307053485443,-2.4903552095775687,-0.5306845512285872,1.5825403216752663,-0.45292150066654546,-2.0227143550821634,-0.00554453334056168,0.030068584609063528,-0.024607391164049232,-0.00032228408585461936,-0.00934531835486605,-0.009350261712151815,2.7807215426611323,2.6053964353778594,0.2665904088369068,-0.0007591067962354144,-0.016424562303310984,-0.14167581599986978
1750771875.2098615,-1.724667108887875,-2.490157883383117,-0.5308460205902987,1.5825382070838245,-0.4529828170220789,-2.022775703873677,-0.006590480063519691,0.035706845350448164,-0.029215254889544472,-0.00038256837400731396,-0.011093115960506557,-0.01109898445965392,2.781088231392526,2.60596027214171,0.2666165419696268,-0.0007584926927286974,-0.016405356253843557,-0.14148101910880623
1750771875.2109787,-1.7246806391335818,-2.490084590231637,-0.5309059864508372,1.5825374218667643,-0.4530055854066646,-2.0227984843034665,-0.006939827527756753,0.03758631007827937,-0.030750546966295995,-0.0004026472815285153,-0.011675225215568682,-0.011681401903907125,2.781224129956933,2.606169671087764,0.2666262624901821,-0.0007582625069594659,-0.016398205953505347,-0.14140844058065857
1750771875.2128766,-1.7246948684518113,-2.490007538126593,-0.5309690225374899,1.5825365965004607,-0.45302951774488687,-2.0228224293031687,-0.0072895557281251145,0.039465799122836445,-0.032285478033149996,-0.00042271754563827027,-0.01225706738946286,-0.01226355216260108,2.781366881525582,2.6063897916946814,0.2666364862680338,-0.0007580195981967068,-0.01639068219059588,-0.14133204626315474
1750771875.2148159,-1.7247097976228742,-2.4899267270180987,-0.5310351281104246,1.5825357310026298,-0.45305461348934006,-2.022847538325162,-0.0076396834977836125,0.041345313737633525,-0.03382003028334224,-0.0004427787375756164,-0.012838629240477436,-0.012845421988833896,2.781516498073561,2.606620630712688,0.2666472123503956,-0.000757763980204667,-0.01638278540438485,-0.14125184090107165
1750771875.2169175,-1.7247254274647181,-2.489842156853756,-0.5311043023942306,1.582534825391844,-0.4530808720661499,-2.022873810795348,-0.00799022964022375,0.04322485518172767,-0.035354185945781595,-0.00046283042901807173,-0.013419897543291846,-0.01342699815211195,2.7816729921801198,2.606862184748553,0.2666584397287061,-0.0007574956648232124,-0.016374516056614337,-0.1411678294823516
1750771875.218819,-1.7247417588328657,-2.4897538275786424,-0.5311765445779919,1.5825338796875326,-0.453108292875009,-2.022901246113186,-0.008341212927918605,0.04510442471993019,-0.03688792728648871,-0.0004828721921666032,-0.014000859089763453,-0.014008267439087493,2.781836376997861,2.6071144502450228,0.2666701673537537,-0.0007572146662560656,-0.01636587463119268,-0.14108001721928085
1750771875.2207584,-1.7247587926203538,-2.4896617391353,-0.5312518538153643,1.582532893909979,-0.45313687528921065,-2.022929843651723,-0.008692652100970756,0.04698402362307358,-0.03842123661025508,-0.0005029035998170341,-0.014581500689609018,-0.014589216654315654,2.782006666253695,2.6073774234913127,0.2666823941295016,-0.0007569210007266103,-0.016356861631224306,-0.14098840955389005
1750771875.222736,-1.7247765297576647,-2.489565891463722,-0.5313302292246513,1.5825318680803213,-0.45316661865568797,-2.022959602757637,-0.009044565865720758,0.04886365316828739,-0.039954096262348915,-0.0005229242252520101,-0.01516180917127504,-0.015169832621065542,2.782183874265544,2.607651100624975,0.2666951189120199,-0.0007566146814662286,-0.01634747758433224,-0.14089301217618116
1750771875.2247958,-1.7247949712126598,-2.489466284501343,-0.5314116698888895,1.5825308022205502,-0.4531975222950484,-2.02299052275127,-0.009396972893411296,0.050743314639243274,-0.041486488630126016,-0.0005429336423612023,-0.015741771382627768,-0.01575010218203006,2.782368015918047,2.6079354776270898,0.2667083405118025,-0.0007562957250330469,-0.01633772303757727,-0.1407938309909347
1750771875.2290914,-1.7248141179905048,-2.4893629181830215,-0.5314961748559357,1.5825296963535078,-0.4532295855016164,-2.0230226029266696,-0.009749891818821126,0.05262300932640937,-0.04301839614460426,-0.0005629314257226577,-0.01632137419173902,-0.01633001220009046,2.782559106676241,2.6082305503247376,0.26672205769515694,-0.0007559641503158335,-0.016327598560157024,-0.1406908721361135
1750771875.2295187,-1.7248141179905048,-2.4893629181830215,-0.5314961748559357,1.5825296963535078,-0.4532295855016164,-2.0230226029266696,-0.009749891818821126,0.05262300932640937,-0.04301839614460426,-0.0005629314257226577,-0.01632137419173902,-0.01633001220009046,2.782559106676241,2.6082305503247376,0.26672205769515694,-0.0007559641503158335,-0.016327598560157024,-0.1406908721361135
1750771875.2313173,-1.7248545317214958,-2.489144907205033,-0.5316743737144938,1.582527364693228,-0.45329718766249805,-2.0230902408677363,-0.010457339711596535,0.05638250354688763,-0.046080686566189015,-0.0006028903922430306,-0.0174794491809628,-0.01748870116468196,2.7829622002106436,2.6088527653580087,0.2667509736401675,-0.0007552632068908903,-0.0163062421943118,-0.14047364715792177
1750771875.2328293,-1.7248758008708256,-2.489030262402087,-0.5317680655266255,1.582526138949922,-0.45333272507441613,-2.0231257970904046,-0.010811905754176343,0.05826230569750019,-0.04761103456843772,-0.0006228507276991815,-0.01805789520494939,-0.018067453944799926,2.783174236761153,2.609179898582374,0.2667661697060496,-0.0007548938768822726,-0.016295011548936544,-0.1403593944575432
1750771875.2349668,-1.72489777973521,-2.4889118579566087,-0.5318648174829939,1.5825248732992034,-0.4533694189688422,-2.023162510408932,-0.011167057842236811,0.06014214629946097,-0.049140827910974565,-0.0006427977339128096,-0.01863592951602836,-0.01864579485072364,2.783393289964354,2.609517709285465,0.26678185595909076,-0.0007545119985518843,-0.016283413463126523,-0.14024139095345486
1750771875.2370017,-1.7249204695051805,-2.4887896937903693,-0.5319646284569446,1.5825235677681537,-0.45340726850932533,-2.023200379986541,-0.011522814408243825,0.06202202668113351,-0.050670049267488006,-0.0006627309888062511,-0.019213539094518253,-0.01922371085764633,2.7836193781093455,2.609866192528512,0.2667980309404391,-0.0007541175936931196,-0.016271448608677217,-0.14011964392444665
1750771875.2387285,-1.7249204695051805,-2.4887896937903693,-0.5319646284569446,1.5825235677681537,-0.45340726850932533,-2.023200379986541,-0.011522814408243825,0.06202202668113351,-0.050670049267488006,-0.0006627309888062511,-0.019213539094518253,-0.01922371085764633,2.7836193781093455,2.609866192528512,0.2667980309404391,-0.0007541175936931196,-0.016271448608677217,-0.14011964392444665
1750771875.240798,-1.7249438714080885,-2.4886637698224736,-0.5320674972872235,1.5825222223846966,-0.45344627283340166,-2.02323940496043,-0.011879193840222792,0.06390194817925902,-0.05219868136508767,-0.0006826500710006676,-0.019790710945369622,-0.019801188965473695,2.7838525200578497,2.6102253432293767,0.26681469314148354,-0.0007537106815194177,-0.016259117679479282,-0.13999416088300354
1750771875.2427385,-1.7249679867080152,-2.4885340859693446,-0.5321734227780857,1.5825208371775985,-0.4534864310526414,-2.02327958444182,-0.012236214480475835,0.06578191213915531,-0.05372670698566361,-0.0007025545598820667,-0.020367432099154807,-0.02037821619955415,2.784092735219386,2.610595156143271,0.2668318410151419,-0.0007532912831048164,-0.016246421397309436,-0.13986494956370452
1750771875.244636,-1.7249928167056803,-2.4884006421447062,-0.5322824036994058,1.5825194121764659,-0.453527742252704,-2.0233209175160125,-0.012593894624286651,0.06766191991501828,-0.055254108967639284,-0.000722444035646587,-0.020943689612501218,-0.020954779611417722,2.784340043556495,2.6109756258831482,0.2668494729649441,-0.0007528594208149801,-0.01623336049614567,-0.1397320179245781
1750771875.247159,-1.7250183627383464,-2.488263438259565,-0.5323944387867936,1.5825179474117441,-0.4535702054933859,-2.0233634032424366,-0.012952252518614395,0.06954197287016532,-0.05678087020746463,-0.000742318079300063,-0.02151947056894457,-0.0215308662794982,2.7845944655888877,2.611366746910324,0.2668675873525375,-0.0007524151169731314,-0.01621993573400383,-0.13959537414308779
1750771875.248886,-1.725044626179721,-2.488122474222191,-0.5325095267417099,1.5825164429147156,-0.4536138198086821,-2.023407040654705,-0.013311306360836493,0.07142207237727936,-0.05830697366110405,-0.0007621762726475042,-0.022094762079692538,-0.02210646330990135,2.784856022375721,2.6117685135325495,0.2668861824974961,-0.0007519583936719804,-0.016206147890411953,-0.13945502663006776
1750771875.2513192,-1.7250716084398539,-2.4879777499381,-0.5326276662315905,1.5825148987174986,-0.4536585842068339,-2.023451828760672,-0.013671074297453383,0.07330221981867985,-0.05983240234571126,-0.0007820181983854602,-0.022669551284332935,-0.022681557837096668,2.7851247355280946,2.6121809199122343,0.2669052566722761,-0.00075148927556311,-0.016191997764848275,-0.13931098400573078
1750771875.2528107,-1.7250993109650379,-2.4878292653100322,-0.5327488558899658,1.5825133148530448,-0.4537044976703939,-2.0234977665424925,-0.014031574422858304,0.07518241658655324,-0.06135713934100296,-0.0008018434400837438,-0.023243825351499322,-0.02325613702466136,2.785400627186092,2.612603960057294,0.2669248081105174,-0.0007510077868099148,-0.016177486175539872,-0.13916325511569644
1750771875.254672,-1.7251277352376997,-2.4876770202379346,-0.5328730943165896,1.582511691355138,-0.45375155915627996,-2.0235448529566735,-0.014392824778050194,0.0770626640832274,-0.06288116779090035,-0.0008216515821775952,-0.023817571479725838,-0.023830188065993272,2.78568372003963,2.613037627831916,0.266944834999796,-0.0007505139513288632,-0.01616261396479719,-0.1390118490217861
1750771875.2566419,-1.7251568827762949,-2.4875210146189386,-0.5330003800775707,1.5825100282583922,-0.4537997675958385,-2.0235930869341408,-0.014754843349408254,0.07894296372141878,-0.06440447090501682,-0.0008414422100520712,-0.02439077689802495,-0.02440369818505034,2.7859740373055724,2.6134819169498402,0.2669653354856219,-0.0007500077954839536,-0.016147381991203316,-0.138856775009976
1750771875.2586484,-1.725186755135196,-2.4873612483473395,-0.5331307117055024,1.5825083255982497,-0.4538491218949048,-2.0236424673803013,-0.015117648067452976,0.0808233169244871,-0.06592703196013668,-0.0008612149100472231,-0.024963428866667185,-0.02497665463704843,2.7862716027323327,2.6139368209784104,0.26698630767195997,-0.0007494893457472804,-0.0161317911353082,-0.13869804257709387
1750771875.2687519,-1.7252173539045792,-2.487197721314575,-0.5332640876996004,1.582506583410979,-0.45389962093386593,-2.0236929931751018,-0.015481256805607515,0.08270372512667915,-0.06744883430173218,-0.0008809692694265769,-0.02553551467792774,-0.02554904470917467,2.786576440599717,2.6144023333360042,0.26700774962000484,-0.0007489586276898463,-0.016115842298694203,-0.13853566143628462
1750771875.2692769,-1.72524868071031,-2.487030433409203,-0.533400506525842,1.5825048017336736,-0.45395126356772764,-2.0237446631730975,-0.015845687379005356,0.08458418977337814,-0.0689698613453969,-0.0009007048764561504,-0.026107021656731493,-0.026120855721312845,2.7868885757020285,2.6148784472930764,0.26702965935047024,-0.0007484156691693847,-0.016099536401112887,-0.13836964152001735
1750771875.2700613,-1.725313525112008,-2.486684574520338,-0.5336824663733211,1.5825011200614405,-0.45405797491365085,-2.023851431070323,-0.016577084993253343,0.08834529423910488,-0.07200952356120645,-0.0009401181916209161,-0.02724824858429838,-0.02726269001278215,2.7875348394194193,2.615862452373392,0.2670748740253224,-0.0007472931436010618,-0.016065857204982527,-0.13802672613636338
1750771875.2706904,-1.7253470461370775,-2.4865060032993576,-0.5338280041616068,1.5824992201448032,-0.45411304120940965,-2.0239065265523006,-0.016944087362020067,0.09022593700687001,-0.073528125928559,-0.0009597950814188313,-0.027817943352652443,-0.027832688101631694,2.7878690202139045,2.616370329307699,0.2670981748052194,-0.0007467136346722301,-0.016048485846429157,-0.1378498515892161
1750771875.2728117,-1.7253813020564497,-2.486323670730749,-0.5339765783164312,1.5824972808947075,-0.45416924626759947,-2.0239627614031033,-0.017311982219477606,0.0921066421171538,-0.0750458873914575,-0.0009794515822228816,-0.02838700892914147,-0.028402056750911956,2.7882106026078857,2.616888779478829,0.26712193503170273,-0.0007461220001709033,-0.016030761308025072,-0.13766938010286361
1750771875.274784,-1.7254162946726197,-2.486137576688324,-0.5341281871397605,1.582495302352338,-0.45422658881733025,-2.02402013435134,-0.017680787071322448,0.09398741107480568,-0.0765627917382053,-0.0009990872875274873,-0.028955432812546308,-0.028970783454456417,2.788559613957828,2.6174177954278477,0.26714615252195495,-0.000745518270541217,-0.016012684606231734,-0.13748532266722926
1750771875.2766125,-1.7254520258230261,-2.4859477210428733,-0.5342828289012163,1.5824932845596913,-0.45428506756274434,-2.024078644100644,-0.018050519357837292,0.09586824539732558,-0.07807882283598432,-0.0010187017919948966,-0.029523202538559907,-0.029538855742936167,2.788916082130469,2.6179573695610965,0.2671708250502445,-0.0007449024782760323,-0.015994256780876404,-0.13729769046549511
1750771875.2789392,-1.7254884973799243,-2.4857541036621384,-0.534440501838235,1.5824912275595735,-0.4543446811830947,-2.0241382893297466,-0.01842119645278451,0.0977491466150862,-0.07959396463215246,-0.0010382946913525212,-0.03009030568045078,-0.03010626118458636,2.789280035474862,2.6185074941349185,0.2671959503539928,-0.0007442746530246806,-0.01597547889047512,-0.13710649490029395
1750771875.2807763,-1.7255257112502491,-2.4855567244107877,-0.5346012041562282,1.582489131395598,-0.4544054283328167,-2.024199068692555,-0.01879283566222589,0.09963011627161747,-0.0811082011558381,-0.001057865582532512,-0.030656729849610015,-0.03067298738586167,2.7896515028491082,2.6190681612720734,0.2672215261259629,-0.000743634828373209,-0.01595635200895175,-0.13691174757201252
1750771875.2827032,-1.7255636693754761,-2.4853555831503886,-0.5347649340287495,1.5824869961121835,-0.45446730764161014,-2.0242609808182266,-0.01916545422343199,0.1015111559238105,-0.0826215165190973,-0.0010774140635996757,-0.031222462696408403,-0.03123902199211811,2.7900305135870322,2.6196393629448878,0.2672475500261924,-0.000742983035863486,-0.015936877234378578,-0.13671346028643502
1750771875.2846513,-1.7256023737314896,-2.485150679739382,-0.5349316895976601,1.5824848217545509,-0.45453031771451347,-2.024324024311249,-0.019539069303770692,0.10339226714217875,-0.08413389491840846,-0.0010969397338756735,-0.03178749191071131,-0.03180435268827624,2.790417097505277,2.6202210909870898,0.26727401967249514,-0.0007423193105690226,-0.0159170556793297,-0.13651164504886737
1750771875.286751,-1.7256418263284363,-2.484942014033053,-0.5351014689733002,1.5824826083687216,-0.454594457131984,-2.024388197751522,-0.01991369799957831,0.10527345151112998,-0.08564532063604814,-0.0011164421937977468,-0.03235180522263148,-0.03236896719951363,2.790811284912034,2.6208133370981215,0.26730093264431604,-0.0007416436835810844,-0.0158968884775864,-0.13630631407356628
1750771875.2898097,-1.7256820292105832,-2.484729585883505,-0.5352742702346607,1.5824803560015148,-0.45465972444998215,-2.0244534996944337,-0.02028935733510219,0.10715471062915422,-0.08715577804131239,-0.0011359210450981158,-0.032915390403192336,-0.0329328532918848,2.7912131065763472,2.6214160928259727,0.2673282864862815,-0.0007409561910296064,-0.015876376781616967,-0.1360974797609048
1750771875.2909896,-1.725722984456172,-2.4845133951396288,-0.5354500914295608,1.582478064700545,-0.4547261182000497,-2.024519928670948,-0.020666064261400854,0.10903604610912229,-0.08866525159203449,-0.0011553758908112023,-0.03347823526492179,-0.033495998772997214,2.7916225937471757,2.622029349590382,0.26735607870050476,-0.0007402568692876692,-0.015855521760615252,-0.13588515471451096
1750771875.2931128,-1.7257646941772755,-2.484293441647076,-0.5356289305748225,1.5824757345142193,-0.45479363688939856,-2.024587483187684,-0.0210438356552991,0.11091745957849579,-0.09017372583575334,-0.0011748063351403873,-0.03404032766260932,-0.03405839149268653,2.792039778132107,2.622653098665167,0.26738430675606517,-0.0007395457509692851,-0.015834324605104224,-0.13566935174133768
1750771875.2949436,-1.7258071605196408,-2.4840697252482276,-0.535810785656456,1.5824733654917351,-0.45486227900098886,-2.0246561617270054,-0.021422688318298223,0.11279895267958652,-0.09168118541112485,-0.001194211983683823,-0.03460165549381095,-0.034620019343628065,2.79246469191308,2.623287331191278,0.2674129680825138,-0.0007388228750610052,-0.01581278651983037,-0.13545008383207363
1750771875.2966473,-1.7258503856625458,-2.4838422457821654,-0.5359956546298399,1.5824709576830773,-0.45493204299362233,-2.0247259627471017,-0.021802638975596342,0.11468052706978726,-0.09318761504913763,-0.001213592443268847,-0.035162206699620606,-0.03518087026200656,2.7928973677056814,2.6239320381679954,0.26744206007477284,-0.000738088275875528,-0.01579090873127052,-0.13522736417745546
1750771875.298989,-1.7258943718186401,-2.483611003084641,-0.5361835354199087,1.582468511139016,-0.45500292730202574,-2.0247968846820843,-0.022183704274996704,0.11656218442180967,-0.09469299957442663,-0.001232947322123584,-0.03572196926526746,-0.03574093222814536,2.7933378386014627,2.6245872104592785,0.26747158009113664,-0.000737341992604365,-0.015768692482729683,-0.13500120615868696
1750771875.3008125,-1.7259391212337887,-2.4833759969880447,-0.5363744259213403,1.5824660259111032,-0.45507493033694235,-2.0248689259420622,-0.022565900785921047,0.11844392642394062,-0.09619732390658833,-0.0012522762297796693,-0.03628093122071073,-0.03630019326712468,2.7937861381273645,2.625252838795872,0.2675015254527033,-0.0007365840616301481,-0.01574613903426708,-0.1347716233406698
1750771875.3027945,-1.7259846361869196,-2.4831372273213757,-0.5365683239987487,1.5824635020516704,-0.4551480504852181,-2.0249420849132473,-0.02294924499842472,0.1203257547802655,-0.09770057306133006,-0.001271578777168832,-0.03683908064131592,-0.03685864144946091,2.7942423002469723,2.625928913768658,0.2675318934481066,-0.0007358145221948417,-0.01572324966499232,-0.1345386294931467
1750771875.3047194,-1.7260309189898582,-2.482894693910208,-0.5367652274868746,1.5824609396138263,-0.45522228610989757,-2.025016359958033,-0.023333753322151582,0.12220767121091697,-0.09920273215184998,-0.001290854576642679,-0.03739640564843808,-0.03741626489165282,2.7947063593799673,2.6266154258387604,0.26756268132737043,-0.0007350334139463726,-0.015700025670446056,-0.13430223854858056
1750771875.3066423,-1.726077971987169,-2.482648396576659,-0.5369651341907851,1.5824583386514532,-0.45529763555031444,-2.025091749415095,-0.023719442085416733,0.12408967745232351,-0.10070378638999879,-0.00131010324187235,-0.0379528944101485,-0.03797305175689267,2.7951783503580345,2.627312365332122,0.26759388630751735,-0.0007342407738543997,-0.01567646836664028,-0.13406246465272045
1750771875.3086255,-1.7261257975559916,-2.4823983351393566,-0.5371680418860718,1.582455699219205,-0.455374097122184,-2.0251682515994816,-0.024106327534203543,0.12597177525739955,-0.10220372108740572,-0.001329324388055689,-0.03850853514167666,-0.038528990255600234,2.7956583084526874,2.628019722434993,0.2676255055739794,-0.0007334366446408131,-0.01565257908203588,-0.13381932211108882
1750771875.3105302,-1.726174398105873,-2.4821445094134074,-0.5373739483190478,1.5824530213725028,-0.45545166911770174,-2.025245864802711,-0.02449442583121881,0.12785396639584484,-0.10370252165684785,-0.0013485176318090224,-0.03906331610613157,-0.0390840686460788,2.7961462693571373,2.6287374872124856,0.2676575362737259,-0.0007326210660322384,-0.015628359165414548,-0.13357282542490687
1750771875.3125782,-1.7262237760786032,-2.48188691921036,-0.5375828512069551,1.582450305167534,-0.45553034980563734,-2.0253245872928645,-0.024883753054968618,0.12973625265434194,-0.10520017361331205,-0.0013676825911793202,-0.03961722561512072,-0.03963827523510435,2.796642269176053,2.6294656495904434,0.2676899755236582,-0.0007317940780728168,-0.015603809982994835,-0.1333229892713143
1750771875.3146002,-1.7262739339480415,-2.481625564338174,-0.5377947482381691,1.582447550661248,-0.45561013743143164,-2.025404417314687,-0.025274325198809747,0.13161863583680347,-0.10669666257526232,-0.0013868188857491868,-0.040170252029293585,-0.04019159837853207,2.797146344435647,2.63020419936622,0.2677228204050566,-0.0007309557238198554,-0.01557893291630514,-0.13306982850921686
1750771875.316593,-1.7263248742199515,-2.481360444601183,-0.5380096370724061,1.5824447579113536,-0.45569103021729696,-2.0254853530896844,-0.025666158170082196,0.1335011177645903,-0.1081919742656142,-0.0014059261365537389,-0.040722383758970394,-0.04074402648188999,2.7976585320530827,2.6309531262036465,0.2677560679716902,-0.000730106043957815,-0.01555372936458646,-0.13281335817348688
1750771875.3186204,-1.7263765994318216,-2.48109155980006,-0.5382275153409344,1.582441926976316,-0.45577302636231654,-2.0255673928162246,-0.026059267789136316,0.13538370027678365,-0.10968609451320539,-0.0014250039662145083,-0.04127360926468133,-0.041295548000944524,2.7981788693752048,2.631712419645846,0.26778971523611617,-0.0007292450829477064,-0.015528200742269379,-0.132553593468362
1750771875.3264108,-1.7264291121526965,-2.480818909731782,-0.538448380646785,1.5824390579153536,-0.45585612404254583,-2.0256505346696354,-0.0264536697885414,0.1372663852303733,-0.11117900925355856,-0.0014440519988329096,-0.04182391705779791,-0.041846151442327055,2.7987073941119043,2.632482069096499,0.2678237591890939,-0.0007283728822984487,-0.015502348481570683,-0.13229054978404498
1750771875.3268785,-1.7264824149829945,-2.4805424941895944,-0.5386722305649707,1.582436150788435,-0.45594032141111374,-2.025734776802313,-0.026849379812125568,0.13914917450052064,-0.11267070453027084,-0.0014630698600844603,-0.04237329570111739,-0.04239582536408526,2.7992441443980804,2.6332620638394615,0.2678581967826104,-0.0007274894861551496,-0.015476174031170424,-0.1320242426759358
1750771875.327159,-1.7264824149829945,-2.4805424941895944,-0.5386722305649707,1.582436150788435,-0.45594032141111374,-2.025734776802313,-0.026849379812125568,0.13914917450052064,-0.11267070453027084,-0.0014630698600844603,-0.04237329570111739,-0.04239582536408526,2.7992441443980804,2.6332620638394615,0.2678581967826104,-0.0007274894861551496,-0.015476174031170424,-0.1320242426759358
1750771875.3274202,-1.7265914015293475,-2.47997836583759,-0.5391288743995863,1.5824302225803362,-0.45611200771177174,-2.0259065544009847,-0.027644786058661684,0.14291507358329109,-0.1156503814133159,-0.0015010135791930458,-0.04346922005001325,-0.043492339141393395,2.800342475981515,2.6348530456862393,0.2679282405607047,-0.0007256892863565219,-0.015422864433730386,-0.13148190124716724
1750771875.3286912,-1.7266470906015128,-2.4796906525952718,-0.5393616633278988,1.5824272016228158,-0.45619949283642747,-2.025994086058028,-0.028044513118182655,0.14479818723911042,-0.11713833565642474,-0.0015199386963581911,-0.04401574314334337,-0.044039156375263705,2.800904135434268,2.635664010719585,0.2679638405014266,-0.0007247725724822544,-0.015395732264089312,-0.13120589888619977
1750771875.3306582,-1.726703580494953,-2.479399173013965,-0.539597426892751,1.5824241428466526,-0.4562880700347618,-2.0260827103766434,-0.02844560987340529,0.1466814128983483,-0.11862501571155439,-0.0015388321608088345,-0.04456129186342834,-0.0445849988472444,2.8014741767085845,2.6364852769086458,0.26799982159661206,-0.0007238448418469591,-0.015368283854525284,-0.1309266970065958
1750771875.3326168,-1.726703580494953,-2.479399173013965,-0.539597426892751,1.5824241428466526,-0.4562880700347618,-2.0260827103766434,-0.02844560987340529,0.1466814128983483,-0.11862501571155439,-0.0015388321608088345,-0.04456129186342834,-0.0445849988472444,2.8014741767085845,2.6364852769086458,0.26799982159661206,-0.0007238448418469591,-0.015368283854525284,-0.1309266970065958
1750771875.3346224,-1.7267608739642633,-2.4791039268676967,-0.5398361625323504,1.5824210463155184,-0.45637773734685005,-2.0261724253961235,-0.02884809151213578,0.14856475253040585,-0.12011040817827366,-0.0015576936063460274,-0.04510585503863315,-0.04512985538095952,2.8020526397998675,2.637316832899937,0.26803618065183127,-0.000722906143782774,-0.015340520736389422,-0.13064431199833432
1750771875.3366117,-1.7268189737943214,-2.4788049139265356,-0.5400778676582121,1.5824179120938162,-0.4564684927904743,-2.02626322913346,-0.029251973128562193,0.15044820812425053,-0.12159449977049279,-0.001576522668297109,-0.04564942155199875,-0.04567371485481512,2.802639565062329,2.6381586672302286,0.26807291444262354,-0.0007219565211059947,-0.015312444449919532,-0.13035876041377503
1750771875.3385983,-1.726877882800098,-2.4785021339565527,-0.5403225396553992,1.5824147402466762,-0.45656033436124055,-2.0263551195834575,-0.029657269722471853,0.15233178168859535,-0.1230772773174764,-0.0015953189837796611,-0.04619198034186549,-0.04621656620251871,2.803234993206635,2.6390107683041695,0.26811001971568404,-0.0007209960241323396,-0.015284056552918486,-0.13007005896005278
1750771875.340597,-1.7269376038264683,-2.478195586719782,-0.5405701758827473,1.582411530839953,-0.456653260032688,-2.0264480947188446,-0.030063996198514683,0.15421547525215942,-0.12455872776484089,-0.0016140821915791147,-0.04673352040247184,-0.04675839841362916,2.803838965285219,2.6398731244118445,0.2681474931897652,-0.0007200246997185035,-0.015255358620054959,-0.12977822450581447
1750771875.3433335,-1.7269981397480212,-2.4778852719741793,-0.540820773673099,1.5824082839402214,-0.4567472677563975,-2.026542152490384,-0.030472167365455823,0.15609929086387295,-0.12603883817549955,-0.0016328119321379465,-0.047274030784337145,-0.04729920053408932,2.8044515226950666,2.640745723718636,0.268185331556942,-0.0007190425944255188,-0.015226352236777858,-0.12948327407759816
1750771875.3449094,-1.7270594934688672,-2.477571189473582,-0.5410743303335428,1.5824049996147742,-0.4568423554621095,-2.0266372908269883,-0.030881797935447403,0.1579832305931021,-0.1275175957306389,-0.0016515078476934074,-0.047813500594927116,-0.0478389616667294,2.8050727071700186,2.641628554270806,0.268223531481801,-0.0007180497587119998,-0.015197039007286231,-0.12918522485003603
1750771875.3466349,-1.727121667922444,-2.4772533389676687,-0.5413308431456487,1.582401677931618,-0.45693852105783783,-2.0267335076358313,-0.031292902523318664,0.15986729652987727,-0.12899498773064022,-0.0016701695822110695,-0.048351918999073415,-0.048377670971793185,2.805702560774798,2.642521603996808,0.26826208960305514,-0.0007170462411626852,-0.015167420547596807,-0.12888409415279334
1750771875.3485992,-1.7271846660713193,-2.476931720201917,-0.5415903093657066,1.582398318959469,-0.45703576242998256,-2.0268308008024674,-0.03170549564587318,0.16175149078512782,-0.13047100159608838,-0.0016887967813713023,-0.0488892752195023,-0.0489153176674634,2.8063411259020166,2.6434248607089703,0.26830100253098416,-0.0007160320900104172,-0.015137498488618707,-0.1285798994705203
1750771875.3508604,-1.727248490906998,-2.476606332917562,-0.5418527262249686,1.582394922767751,-0.45713407744344625,-2.0269291681909447,-0.032119591721230564,0.1636358154908875,-0.13194562486859243,-0.0017073890927042361,-0.04942555853738104,-0.0494518910303274,2.8069884452539284,2.6443383120999324,0.2683402668526769,-0.0007150073572667999,-0.015107274476654676,-0.1282726584234039
1750771875.3528616,-1.7273131454497204,-2.4762771768515517,-0.5421180909298924,1.5823914894265905,-0.4572334639417557,-2.0270286076439223,-0.03253520506812629,0.1655202728005169,-0.13341884521173564,-0.0017259461654802867,-0.04996075829279948,-0.04998738039591239,2.8076445618603287,2.64526194574613,0.2683798791285956,-0.0007139720918958963,-0.015076750171573273,-0.12796238879062716
1750771875.3546503,-1.727378632748266,-2.475944251736508,-0.5423864006623846,1.582388019006814,-0.45733391974717463,-2.027129116982792,-0.032952349905292694,0.1674048648889349,-0.13489065041193365,-0.0017444676507791194,-0.05049486388521456,-0.05052177515917024,2.808309519046598,2.646195749110564,0.2684198358949535,-0.0007129263448199132,-0.015045927245763523,-0.12764910849234304
1750771875.3566155,-1.727444955879749,-2.4756075573006795,-0.5426576525800488,1.5823845115799438,-0.4574354426608265,-2.027230694007793,-0.033371040350803384,0.16928959395281917,-0.1363610283792642,-0.0017629532015180783,-0.05102786477399607,-0.05105506477494458,2.8089833604470975,2.647139709539016,0.26846013366467614,-0.0007118701677374551,-0.015014807386990441,-0.12733283558577702
1750771875.358665,-1.7275121179494208,-2.475267093267901,-0.5429318438164339,1.5823809672181945,-0.45753803046281316,-2.0273333364981365,-0.03379129042146287,0.17117446221086047,-0.13782996714846102,-0.0017814024724518854,-0.051559750478871444,-0.051587238758471016,2.8096661299888783,2.648093814269627,0.26850076892261343,-0.0007108036123838882,-0.014983392295548632,-0.12701358827423803
1750771875.360618,-1.7275801220904636,-2.4749228593575467,-0.5432089714812811,1.5823773859944694,-0.4576416809123387,-2.0274370422121217,-0.03421311403218904,0.1730594719039333,-0.13929745487953257,-0.0017998151202132217,-0.052090510580404405,-0.05211828668583349,2.810357871893772,2.6490580504200687,0.2685417381363441,-0.0007097267316209747,-0.014951683685215482,-0.12669138489498147
1750771875.3627121,-1.727648971463787,-2.474574855284487,-0.5434890326607817,1.5823737679823568,-0.4577463917478264,-2.027541808887266,-0.034636524995443084,0.17494462529535398,-0.14076347985875517,-0.0018181908032317143,-0.05262013472047981,-0.05264819819447212,2.8110586306612073,2.6500324050022677,0.2685830377452872,-0.0007086395760841603,-0.014919683283427122,-0.12636624393346355
1750771875.364695,-1.727718669257822,-2.474223080759043,-0.5437720244178212,1.582370113256126,-0.4578521606870476,-2.0276476342404184,-0.03506153702063529,0.17682992467109032,-0.14222803049944452,-0.0018365291818541736,-0.05314861260276948,-0.05317696298358587,2.811768451075348,2.6510168649183576,0.26862466416733694,-0.0007075421997254843,-0.014887392830743211,-0.12603818399117825
1750771875.3667517,-1.7277892186883168,-2.473867535486941,-0.5440579437922448,1.582366421890724,-0.45795898542724167,-2.027754515967893,-0.035488163713588164,0.17871537233993065,-0.14369109534253047,-0.0018548299183639807,-0.05367593399318606,-0.05370457081463137,2.8124873781854585,2.6520114169501263,0.2686666138040439,-0.0007064346571442763,-0.01485481408050771,-0.12570722381668073
1750771875.3750815,-1.7278606229981248,-2.473508219169267,-0.5443467878011035,1.5823626939617712,-0.45806686364524296,-2.0278624517455865,-0.03591641857595672,0.1806009706337832,-0.14515266305771693,-0.0018730926769016032,-0.05420208872018795,-0.05423101151174943,2.8132154573206916,2.653016047787794,0.2687088830244898,-0.0007053170006285626,-0.014821948794652599,-0.12537338228085718
1750771875.3754592,-1.7279328854570002,-2.4731451315024198,-0.5446385534389204,1.5823589295455576,-0.4581757929976069,-2.0279714392291073,-0.036346315004744445,0.18248672190781273,-0.1466127224438579,-0.001891317123575607,-0.05472706667559216,-0.05475627496222091,2.8139527340543573,2.6540307439977697,0.2687514681869607,-0.0007041892856681583,-0.014788798758014513,-0.1250366783878372
1750771875.3757796,-1.7279328854570002,-2.4731451315024198,-0.5446385534389204,1.5823589295455576,-0.4581757929976069,-2.0279714392291073,-0.036346315004744445,0.18248672190781273,-0.1466127224438579,-0.001891317123575607,-0.05472706667559216,-0.05475627496222091,2.8139527340543573,2.6540307439977697,0.2687514681869607,-0.0007041892856681583,-0.014788798758014513,-0.1250366783878372
1750771875.3762074,-1.7279328854570002,-2.4731451315024198,-0.5446385534389204,1.5823589295455576,-0.4581757929976069,-2.0279714392291073,-0.036346315004744445,0.18248672190781273,-0.1466127224438579,-0.001891317123575607,-0.05472706667559216,-0.05475627496222091,2.8139527340543573,2.6540307439977697,0.2687514681869607,-0.0007041892856681583,-0.014788798758014513,-0.1250366783878372
1750771875.3767054,-1.7281548548246288,-2.4720332372995335,-0.5455313497388099,1.5823474181462196,-0.4585088641248811,-2.0283046881690634,-0.037645986078782445,0.18814491751653828,-0.15098374057206726,-0.001945757282261528,-0.05629483978445191,-0.05632490166278016,2.816220209472718,2.6571350890060623,0.268881082549738,-0.0007007463323903885,-0.014687658078385074,-0.12400958448764415
1750771875.3787277,-1.7282305831079148,-2.4716550611045927,-0.5458347713961453,1.5823435085571245,-0.458621974179092,-2.0284178586306645,-0.038082580632088976,0.19003130473625598,-0.1524376572426136,-0.00196382518119689,-0.05681501084751135,-0.0568453562773771,2.816994737438539,2.6581899103192006,0.26892489460789054,-0.0006995789303685616,-0.0146533870454401,-0.12366162369554287
1750771875.380784,-1.7283071862851358,-2.471273111970514,-0.5461410993261984,1.5823395628721297,-0.45873612335070213,-2.028532068776274,-0.03852088214928279,0.19191785706878334,-0.15389001154331378,-0.001981853128036639,-0.05733395555914032,-0.05736458404383347,2.8177786946145407,2.6592547282837122,0.26896900407755947,-0.0006984017471386271,-0.014618840328869964,-0.12331089741587138
1750771875.3827698,-1.7283846677829962,-2.4708873895645764,-0.546450330393796,1.582335581171462,-0.45885130917727857,-2.0286473161424574,-0.0389609033890979,0.19380457701348502,-0.15534079306379203,-0.0019998408006801525,-0.0578516641986672,-0.05788257523719308,2.818572128021847,2.6603295288482722,0.2690134071929121,-0.0006972148379623538,-0.014584019777834816,-0.1229574253814017
1750771875.384628,-1.72846303105361,-2.470497893549036,-0.5467624614430795,1.5823315635359898,-0.458967529177011,-2.0287635982463996,-0.03940265700233211,0.19569146709448318,-0.15678999152770767,-0.002017787879058978,-0.05836812711149717,-0.058399320198563844,2.819375084900365,2.661414297855725,0.2690581001749136,-0.0006960182602025054,-0.01454892725374068,-0.12260122743987696
1750771875.3866527,-1.7285422795742846,-2.4701046235810753,-0.5470774892977719,1.5823275100472205,-0.45908478084884674,-2.0288809125860343,-0.03984615553144121,0.19757852986087418,-0.15823759679346913,-0.0020356940451234946,-0.05888333470941269,-0.05891480933549345,2.8201876127028362,2.6625090210502727,0.2691030792243347,-0.0006948120708149396,-0.014513564626455477,-0.12224232354590209
1750771875.388671,-1.7286224168473039,-2.4697075793127534,-0.5473954107614478,1.582323420787295,-0.45920306167262304,-2.0289992566401738,-0.040291411410159246,0.19946576788692383,-0.15968359885473277,-0.00205355898292969,-0.05939727747104276,-0.059429033122349394,2.8210097590857615,2.6636136840749804,0.26914834052796915,-0.0006935963292288873,-0.014477933779069049,-0.12188073376262162
1750771875.3924248,-1.7286224168473039,-2.4697075793127534,-0.5473954107614478,1.582323420787295,-0.45920306167262304,-2.0289992566401738,-0.040291411410159246,0.19946576788692383,-0.15968359885473277,-0.00205355898292969,-0.05939727747104276,-0.059429033122349394,2.8210097590857615,2.6636136840749804,0.26914834052796915,-0.0006935963292288873,-0.014477933779069049,-0.12188073376262162
1750771875.392857,-1.7287034463997104,-2.4693067603909555,-0.5477162226178045,1.5823192958389838,-0.459322369109203,-2.02911862786865,-0.04073843696311708,0.20135318377230585,-0.16112798784115717,-0.0020713823785262608,-0.05990994594219497,-0.05994198210073647,2.8218415719106593,2.6647282724796315,0.2691938802513376,-0.0006923710917366869,-0.014442036604023323,-0.12151647827342518
1750771875.3948567,-1.7287853717830846,-2.4689021664573416,-0.5480399216309371,1.5823151352856837,-0.4594427006006061,-2.0292390237124422,-0.0411872444054838,0.2032407801422759,-0.16257075401884746,-0.002089163920024336,-0.06042133073626038,-0.06045364687983151,2.822683099233496,2.665852771711762,0.26923969454749425,-0.0006911364165513522,-0.0144058750051671,-0.12114957735616042
1750771875.3966799,-1.7288681965733312,-2.4684937971482963,-0.5483665045456068,1.582310939211413,-0.4595640535701495,-2.02936044159382,-0.04163784584265425,0.20512855964787632,-0.1640118877908571,-0.002106903297654176,-0.060931422534552485,-0.06096401813676334,2.823534389288371,2.6669871671217287,0.26928577955525534,-0.000689892363541864,-0.014369450895896693,-0.12078005139663235
1750771875.3988833,-1.7289519243704508,-2.4680816520948756,-0.5486959680875207,1.5823067077008075,-0.45968642542257854,-2.02948287891647,-0.04209025326986587,0.20701652496617318,-0.16545137969791596,-0.0021246002037016236,-0.06144021208664697,-0.06147308661696433,2.8243954905140582,2.668131443972396,0.269332131393259,-0.000688638990753721,-0.014332766199180235,-0.12040792088077613
1750771875.4006786,-1.7290365587983292,-2.467665730922755,-0.5490283089636048,1.5823024408391162,-0.4598098135442088,-2.0296063330656438,-0.04254447857195791,0.20890467880042662,-0.16688922041878504,-0.0021422543326053054,-0.06194769021083402,-0.061980843134533455,2.8252664514993087,2.669285587423804,0.2693787461697084,-0.0006873763590384073,-0.014295822850728255,-0.12003320639674436
1750771875.403028,-1.7291221035045075,-2.4672460332521773,-0.5493635238622812,1.5822981387121975,-0.45993421530306033,-2.029730801408287,-0.04300053352301224,0.21079302388029617,-0.16832540077078026,-0.0021598653808641917,-0.062453847794308265,-0.062487278572570575,2.826147321028525,2.670449582545588,0.2694256199785366,-0.0006861045265904219,-0.01425862279160026,-0.11965592862796064
1750771875.4050653,-1.7292085621599647,-2.4668225586978996,-0.5497016094537441,1.5822938014065142,-0.46005962804899525,-2.0298562812931813,-0.04345842978613275,0.21268156296206528,-0.16975991171032528,-0.002177433047097601,-0.06295867579361057,-0.06299238388352714,2.827038148028342,2.6716234143174065,0.26947274889773987,-0.0006848235533503466,-0.01422116797530198,-0.1192761083553532
1750771875.4067543,-1.7292959384588968,-2.4663953068691393,-0.5500425623902414,1.58228942900913,-0.46018604911386163,-2.029982770051083,-0.043918178913137304,0.21457029882882447,-0.17119274433340073,-0.002194957032117258,-0.06346216523498757,-0.06349615008952637,2.827938981600856,2.6728070676255617,0.2695201289929055,-0.0006835335012978527,-0.01418346036546852,-0.11889376645084873
1750771875.4087794,-1.7293842361184897,-2.465964277369521,-0.5503863793063539,1.5822850216077047,-0.46031347581162585,-2.030110264994862,-0.044379792344320775,0.21645923429066913,-0.17262388987595104,-0.0022124370388506547,-0.06396430721462534,-0.06399856828269257,2.8288498709968035,2.6740005272655267,0.26956775631816987,-0.0006822344302394072,-0.014145501932315974,-0.11850892387841507
1750771875.4107847,-1.7294734588786982,-2.4655294697970223,-0.550733056819273,1.5822805792904902,-0.4604419054385218,-2.0302387634196455,-0.04484328140825048,0.21834837218491387,-0.17405333971435955,-0.0022298727723672027,-0.06446509289904603,-0.06449962962547627,2.8297708656029243,2.6752037779454625,0.2696156269141447,-0.0006809264007493032,-0.014107294657234643,-0.1181216016922522
1750771875.4127576,-1.7295636105020247,-2.4650908837439176,-0.5510825915290845,1.5822761021463259,-0.4605713352731824,-2.030368262602952,-0.04530865732151184,0.2202377153762751,-0.17548108536584742,-0.002247263939932273,-0.06496451352530412,-0.06499932535095304,2.8307020149605875,2.676416804283393,0.2696637368104122,-0.0006796094749240198,-0.014068840527141956,-0.1177318210305185
1750771875.4147432,-1.7296546947732896,-2.464648518796725,-0.5514349800190486,1.5822715902646347,-0.46070176257678774,-2.030498759804839,-0.04577593118852497,0.22212726675709218,-0.1769071184889565,-0.0022646102509682737,-0.06546256040144494,-0.06549764676315063,2.8316433687393374,2.677639590813528,0.2697120820228571,-0.0006782837138015953,-0.014030141541874088,-0.1173396031224036
1750771875.4168181,-1.7297467154994113,-2.4642023745361503,-0.551790218855885,1.5822670437354185,-0.46083318459320566,-2.0306302522680433,-0.046245114001360804,0.22401702924749411,-0.17833143088381687,-0.0022819114170936987,-0.06595922490676319,-0.06599458523732839,2.832594976735948,2.678872121978459,0.2697606585598287,-0.0006769491795027677,-0.013991199708549763,-0.11694496927407708
1750771875.4245367,-1.7297467154994113,-2.4642023745361503,-0.551790218855885,1.5822670437354185,-0.46083318459320566,-2.0306302522680433,-0.046245114001360804,0.22401702924749411,-0.17833143088381687,-0.0022819114170936987,-0.06595922490676319,-0.06599458523732839,2.832594976735948,2.678872121978459,0.2697606585598287,-0.0006769491795027677,-0.013991199708549763,-0.11694496927407708
1750771875.4249077,-1.7299335816530332,-2.463298746368279,-0.5525092337560515,1.5822578470972868,-0.4610990016542411,-2.030896211863608,-0.04718924987000637,0.2277971993778191,-0.1811748613998452,-0.0023163771720750553,-0.06694837267967911,-0.06698427923059531,2.834529155186222,2.6813663555778597,0.2698584895808372,-0.0006742540402297649,-0.013912595558120919,-0.11614853938775621
1750771875.4266653,-1.7300284348028274,-2.4628412615928275,-0.55287300287267,1.58225319717123,-0.4612333911013158,-2.031030673396126,-0.0476642243467276,0.229687612998805,-0.18259396383278093,-0.0023335411951993226,-0.06744083906444086,-0.06747701785898831,2.835511825826533,2.682628026479429,0.2699077360289348,-0.000672893560679286,-0.013872937294209664,-0.11574678636410711
1750771875.4286888,-1.7301242398516141,-2.4623799957675696,-0.5532396084433104,1.5822485129633568,-0.4613687640664068,-2.031166118990564,-0.0481411506108297,0.23157824969191665,-0.18401131416175065,-0.0023506589419639277,-0.06793188931325544,-0.06796833976850672,2.8365049510479614,2.6838993789630874,0.2699571977265777,-0.0006715245584619666,-0.013833044286400411,-0.11534270341218125
1750771875.4306488,-1.7302210007134162,-2.461914948443304,-0.5536090469562547,1.5822437945664978,-0.4615051177089695,-2.031302545805209,-0.04862003909036567,0.233469112519257,-0.18542690490038446,-0.002367730135052686,-0.06842151516573278,-0.06845823669486713,2.8375085812006313,2.685180397054994,0.2700068706344068,-0.0006701470963257338,-0.013792918580729686,-0.11493631223442628
1750771875.432624,-1.7303187213229982,-2.4614461191646764,-0.553981314884954,1.5822390420740358,-0.4616424491720119,-2.031439950981892,-0.049100900100237085,0.23536020457191403,-0.18684072870597135,-0.0023847544994007566,-0.06890970843431764,-0.06894670044665065,2.8385227667306596,2.6864710647082983,0.27005675070267116,-0.0006687612379796359,-0.01375256222897939,-0.11452763458278782
1750771875.4347084,-1.7304174056356407,-2.4609735074701202,-0.5543564086883208,1.5822342555799014,-0.4617807555822395,-2.0315783316461324,-0.0495837438421148,0.23725152897014312,-0.18825277837970203,-0.0024017317622058204,-0.06939646100458204,-0.06943372290558332,2.839547558171891,2.6877713657944895,0.2701068338747507,-0.0006673670475199034,-0.013711977291167217,-0.11411669228681322
1750771875.4366262,-1.7305170576269155,-2.4604971128917996,-0.5547343248110126,1.5822294351785684,-0.46192003405020277,-2.0317176849072878,-0.050068580404384465,0.2391430888635633,-0.18966304686696978,-0.0024186616529460405,-0.06988176483542242,-0.0699192960267778,2.8405830061353288,2.6890812841075427,0.27015711608545023,-0.0006659645895579424,-0.013671165832865817,-0.11370350724052307
1750771875.4386244,-1.7306176812924576,-2.4600169349555503,-0.5551150596837218,1.5822245809650497,-0.46206028167044266,-2.0318580078586983,-0.05055541976208096,0.24103488743133938,-0.19107152725754484,-0.0024355439033435142,-0.07036561195944835,-0.07040341183897256,2.8416291613139637,2.690400803363719,0.2702075932648628,-0.0006645539276718697,-0.013630129930598521,-0.11328810140247413
1750771875.440685,-1.7306176812924576,-2.4600169349555503,-0.5551150596837218,1.5822245809650497,-0.46206028167044266,-2.0318580078586983,-0.05055541976208096,0.24103488743133938,-0.19107152725754484,-0.0024355439033435142,-0.07036561195944835,-0.07040341183897256,2.8416291613139637,2.690400803363719,0.2702075932648628,-0.0006645539276718697,-0.013630129930598521,-0.11328810140247413
1750771875.4426157,-1.7307192806477385,-2.4595329731808193,-0.5554986097234647,1.5822196930348926,-0.46220149552163914,-2.031999297577838,-0.051044271776874275,0.24292692788239964,-0.19247821278588648,-0.002452378247378284,-0.07084799448299309,-0.07088606244477386,2.8426860744628533,2.6917299072079373,0.2702582613342099,-0.0006631351258708491,-0.013588871661184887,-0.1128704967952699
1750771875.4454355,-1.730821859727838,-2.4590452270806065,-0.5558849713338736,1.5822147714841737,-0.46234367266675935,-2.0321415511264567,-0.05153514619703159,0.2448192134555899,-0.19388309683128208,-0.002469164421371578,-0.07132890458654073,-0.07136724002084342,2.843753796406574,2.693068579204502,0.27030911621081616,-0.0006617082504728022,-0.01354739311347907,-0.11245071549014721
1750771875.4469602,-1.7309254225872222,-2.4585536961614034,-0.5562741409054812,1.5822098164094949,-0.4624868101532069,-2.0322847655507346,-0.052028052657424266,0.2467117474198994,-0.19528617291811784,-0.00248590216385798,-0.07180833452473878,-0.07184693681817628,2.8448323780251092,2.694416802849709,0.2703601538044256,-0.0006602733642789702,-0.01350569637668604,-0.11202877963417462
1750771875.4486902,-1.7310299732995107,-2.4580583799231337,-0.556666114816017,1.5822048279079788,-0.4626309050129658,-2.0324289378814253,-0.052523000679530855,0.24860453307462255,-0.19668743471599714,-0.002502591215725076,-0.07228627662685264,-0.07232514516225796,2.845921870251685,2.695774561563356,0.2704113700214555,-0.0006588305339748196,-0.013463783552818387,-0.11160471141286665
1750771875.4508693,-1.7311355159572557,-2.457559277859092,-0.5570608894306934,1.5821998060772637,-0.4627759542627574,-2.0325740651340123,-0.0530199996714625,0.2504975737495489,-0.19808687603991781,-0.0025192313201942867,-0.07276272329678463,-0.07280185745329017,2.8470223240662054,2.697141838693401,0.27046276076331344,-0.0006573798257515403,-0.013421656744421832,-0.1111785330717776
1750771875.4528654,-1.7312420546717089,-2.4570563894558823,-0.5574584611024989,1.5821947510154994,-0.462921954904183,-2.0327201443088523,-0.05351905892799725,0.2523908728051815,-0.1994844908504776,-0.002535822222725415,-0.07323766701330142,-0.07327706616639426,2.848133790491909,2.6985186175238542,0.27051432192582253,-0.0006559213030957245,-0.013379318060448443,-0.11075026690876612
1750771875.454831,-1.7313495935726007,-2.456549714193357,-0.5578588261724882,1.5821896628213423,-0.463068903923876,-2.0328671723913248,-0.05402018763065222,0.2542844336328924,-0.2008802732539758,-0.002552363671170298,-0.07371110033025492,-0.0737507638517837,2.8492563205787067,2.6999048812622344,0.2705660494016258,-0.0006544550338524075,-0.01333676961607367,-0.1103199352649765
1750771875.4568381,-1.7314581368079098,-2.456039251544555,-0.5582619809700748,1.5821845415939508,-0.46321679829365525,-2.033015146351989,-0.05452339484773464,0.25617825965510943,-0.2022742175024444,-0.0025688554156470624,-0.07418301587682768,-0.07422294313499359,2.8503899654144065,2.701300613048127,0.270617939082794,-0.0006529810823789888,-0.013294013533387035,-0.1098875605434706
1750771875.458815,-1.73156768854364,-2.4555250009756384,-0.5586679218133233,1.5821793874329808,-0.4633656349706712,-2.03316406314673,-0.05502868953441984,0.2580723543255266,-0.20366631799394055,-0.0025852972086680085,-0.07465340635761503,-0.07469359671698834,2.8515347761100247,2.702705795959472,0.2706699868530738,-0.0006514995165482528,-0.013251051936790444,-0.10945316516899725
1750771875.4608078,-1.731678252963591,-2.455006961945831,-0.559076645009239,1.5821742004385806,-0.46351541089756054,-2.033313919716907,-0.055536080532861985,0.25996672112926944,-0.2050565692724635,-0.002601688805033582,-0.07512226455280256,-0.07516271737439197,2.852690803791344,2.7041204130031034,0.27072218859861186,-0.0006500104013384782,-0.01320788695568632,-0.10901677162832207
1750771875.4628127,-1.7317898342691347,-2.454485133907355,-0.5594881468540613,1.582168980711387,-0.4636661230025947,-2.0334647129895114,-0.05604557657230156,0.26186136358309536,-0.2064449660281513,-0.002618029961926628,-0.07558958331839061,-0.0756302979596385,2.853858099597383,2.7055444471235246,0.27077454019994074,-0.0006485138044003025,-0.013164520725799763,-0.10857840244432519
1750771875.464817,-1.731902436678988,-2.4539595163053667,-0.5599024236335577,1.5821637283525196,-0.4638177681998341,-2.0336164398773144,-0.05655718626917583,0.2637562852355656,-0.20783150309727727,-0.0026343204388860632,-0.07605535558626243,-0.07609633140110231,2.855036714679328,2.706977881200114,0.27082703753786685,-0.0006470097925845353,-0.01312095538477756,-0.10813808016994754
1750771875.4668117,-1.7320160644289873,-2.453430108577894,-0.5603194716233117,1.582158443463577,-0.46397034338927856,-2.0337690972790217,-0.05707091812727928,0.26565148966723634,-0.20921617546232668,-0.0026505599977677346,-0.07651957436448195,-0.07656081070329407,2.8562267001826034,2.708420698048672,0.270879676490852,-0.0006454984317289255,-0.013077193078654181,-0.10769582740877079
1750771875.4689696,-1.7321307217718669,-2.4528969101557703,-0.56073928708902,1.582153126146631,-0.4641238454570207,-2.033922682079421,-0.05758678053790293,0.2675469804908394,-0.21059897825199217,-0.0026667484028244154,-0.07698223273728716,-0.07702372894696453,2.857428107253209,2.709872880424274,0.270932452937688,-0.000643979789879668,-0.013033235953277458,-0.10725166678593119
1750771875.4707308,-1.7322464129770285,-2.452359920462573,-0.561161866286783,1.5821477765042238,-0.4642782712753961,-2.0340771911495406,-0.058104781779994785,0.2694427613514742,-0.21197990674125755,-0.0026828854206804517,-0.07744332386529142,-0.07748507928927044,2.858640987030732,2.7113344110219946,0.270985362754782,-0.0006424539344279652,-0.012989086160165994,-0.10680562096824632
1750771875.474316,-1.7322464129770285,-2.452359920462573,-0.561161866286783,1.5821477765042238,-0.4642782712753961,-2.0340771911495406,-0.058104781779994785,0.2694427613514742,-0.21197990674125755,-0.0026828854206804517,-0.07744332386529142,-0.07748507928927044,2.858640987030732,2.7113344110219946,0.270985362754782,-0.0006424539344279652,-0.012989086160165994,-0.10680562096824632
1750771875.4762468,-1.7324809141338147,-2.451274564920583,-0.5620153008566442,1.5821369806555072,-0.4645898815855416,-2.034388969515156,-0.05914723331382215,0.2732352079271123,-0.2147361226496529,-0.0027150043730782654,-0.07836077741209477,-0.07840304928116949,2.8611013691650604,2.7142854473578764,0.2710915660123916,-0.0006393808515265172,-0.012900217196418927,-0.10590796454898758
1750771875.4778457,-1.7325997327055767,-2.4507261978820685,-0.5624461486955932,1.5821315346565838,-0.4647470597545862,-2.0345462324852743,-0.05967169960347332,0.2751318810957633,-0.21611140134996656,-0.002730985852764542,-0.07881712653513577,-0.07885965562819172,2.8623489737019137,2.71577491819225,0.2711448512074765,-0.0006378337594299382,-0.0128555023461163,-0.10545639941715378
1750771875.4787135,-1.7327196023794489,-2.450174037192904,-0.5628797452008829,1.5821260567469608,-0.46490514902912317,-2.0347044070746634,-0.060198336720862895,0.2770288592090909,-0.21748478831209614,-0.00274691503547483,-0.07927188182215288,-0.07931466746895849,2.8636082552874607,2.71727366743606,0.271198253287469,-0.0006362797237999139,-0.012810603469651221,-0.10500304003004836
1750771875.4807425,-1.7328405275048278,-2.4496180822393963,-0.5633160865850178,1.582120547031454,-0.46506414621501246,-2.0348634900878384,-0.06072715238624377,0.2789261460767225,-0.21885627954200265,-0.0027627916997885306,-0.07972503681744673,-0.07976807834443463,2.864879264931163,2.718781677494691,0.27125176813333784,-0.0006347188143306553,-0.012765522734046447,-0.10454790917768048
1750771875.4827125,-1.7329625124464343,-2.4490583324001993,-0.5637551690526612,1.58211500561532,-0.46522404810527807,-2.035023478316475,-0.0612581542087972,0.2808237455417701,-0.22022587119183099,-0.0027786156265888393,-0.08017658514241692,-0.08021988187269624,2.8661620536098305,2.7202989307259586,0.2713053916247535,-0.0006331510965745288,-0.012720262311203785,-0.10409102968385832
1750771875.484698,-1.7330855615841019,-2.448494787046247,-0.5641969888009273,1.5821094326042504,-0.4653848514802661,-2.03518436853956,-0.06179134968694332,0.28272166148094446,-0.22159355955954935,-0.00279438659922594,-0.08062652049563712,-0.08067007174897238,2.8674566722327506,2.721825409421414,0.2713591196512273,-0.0006315766406495289,-0.012674824375143725,-0.10363242437425961
1750771875.48669,-1.733209679312547,-2.4479274455406865,-0.5646415420196709,1.5821038281043687,-0.4655465531077949,-2.0353461575235494,-0.0623267462085483,0.2846198978047975,-0.22295934108916593,-0.002810104403448818,-0.08107483665287904,-0.081118641745775,2.868763171684573,2.723361095832734,0.2714129480965411,-0.0006299955148297772,-0.01262921110055827,-0.10317211610600506
1750771875.4887092,-1.733334870041153,-2.447356307238809,-0.5650888248917818,1.5820981922222237,-0.4657091497433141,-2.035508842022521,-0.06286435105126909,0.2865184584578628,-0.22432321237037423,-0.002825768827377627,-0.0815215274672259,-0.08156558571295468,2.870081602770091,2.7249059721523885,0.2714668728542415,-0.0006284077865629343,-0.012583424665337866,-0.10271012774189775
1750771875.4907868,-1.7334611381937464,-2.4467813714879836,-0.5655388335934743,1.5820925250647857,-0.46587263813005375,-2.035672418778331,-0.0634041713828128,0.28841734741883723,-0.2256851701385475,-0.002841379661615092,-0.0819665868692352,-0.08201089757777272,2.8714120162471977,2.7264600205235565,0.2715208898181239,-0.0006268135264870297,-0.012537467251960107,-0.10224648215814064
1750771875.4926717,-1.733588488208384,-2.446202637627587,-0.5659915642945785,1.5820868267394417,-0.46603701499918593,-2.0358368845207657,-0.06394621426127971,0.2903165687007949,-0.22704521127463298,-0.0028569366990794675,-0.08241000886685271,-0.08245457134499062,2.872754462796023,2.7280232230462196,0.2715749948849737,-0.0006252128005306492,-0.012491341040474445,-0.10178120224716432
1750771875.4949791,-1.7337169245371244,-2.4456201049889357,-0.5664470131588324,1.5820810973539903,-0.4662022770699741,-2.0360022359677004,-0.06449048663544615,0.29221612635133376,-0.2284033328049427,-0.0028724397351752385,-0.08285178754552378,-0.08289660109690056,2.8741089930398673,2.729595561767908,0.27162918395766994,-0.0006236056794448595,-0.012445048214070867,-0.10131431090207281
1750771875.497215,-1.7338464516458183,-2.4450337728952154,-0.5669051763441724,1.5820753370166367,-0.46636842104992926,-2.036168469825249,-0.0650369953451426,0.2941160244527503,-0.22975953190100712,-0.0028878885677391503,-0.08329191706832564,-0.08333698099338942,2.8754756575089795,2.7311770186864517,0.2716834529428502,-0.0006219922324742905,-0.01239859095966493,-0.10084583102486384
1750771875.4989042,-1.7338464516458183,-2.4450337728952154,-0.5669051763441724,1.5820753370166367,-0.46636842104992926,-2.036168469825249,-0.0650369953451426,0.2941160244527503,-0.22975953190100712,-0.0028878885677391503,-0.08329191706832564,-0.08333698099338942,2.8754756575089795,2.7311770186864517,0.2716834529428502,-0.0006219922324742905,-0.01239859095966493,-0.10084583102486384
1750771875.5009058,-1.7339770740138851,-2.4444436406614134,-0.567366050003022,1.5820695458359881,-0.4665354436349691,-2.0363355827879266,-0.06558574712157908,0.2960162671222458,-0.23111380587942604,-0.00290328299702676,-0.08373039167596365,-0.08377570527200262,2.876854506662221,2.732767575760335,0.2717377977517278,-0.0006203725285248469,-0.01235197146406518,-0.10037578552755745
1750771875.5027423,-1.7341087961341,-2.443849707594247,-0.5678296302825832,1.582063723921049,-0.46670334150956716,-2.0365035715388,-0.06613674858771355,0.2979168585120933,-0.23246615220169561,-0.0029186228256005927,-0.08416720568674932,-0.08421276824798454,2.8782455908686257,2.7343672149003635,0.27179221430023365,-0.0006187466333199364,-0.012305191913462292,-0.09990419732447664
1750771875.5048063,-1.734241622512374,-2.4432519729920936,-0.5682959133251266,1.5820578713812161,-0.4668721113469143,-2.0366724327496435,-0.06669000625861737,0.2998178028097938,-0.2338165684739487,-0.0029339078586517893,-0.08460235349673731,-0.0846481643142611,2.879648960407306,2.735975917970873,0.2718466985116686,-0.0006171146216683012,-0.012258254497906391,-0.09943108931459375
1750771875.5066893,-1.7343755576675441,-2.442650436144921,-0.5687648952682771,1.5820519883262731,-0.4670417498090682,-2.0368421630810962,-0.06724552654187813,0.30171910423828757,-0.2351650524467954,-0.0029491379036630733,-0.08503582957968095,-0.0850818879415416,2.8810646654567016,2.737593666798173,0.2719012463138417,-0.0006154765589221537,-0.012211161406193518,-0.09895648441825286
1750771875.50876,-1.7345106061311526,-2.442045096334215,-0.5692365722453072,1.582046074866387,-0.46721225354711393,-2.037012759182815,-0.06780331573796439,0.30362076705611674,-0.23651160201513774,-0.002964312770574521,-0.08546762848708432,-0.0855139336783012,2.8824927561053326,2.739220443165378,0.2719558536398685,-0.0006138325150943836,-0.012163914828587606,-0.09848040554099166
1750771875.5109096,-1.7346467724472356,-2.4414359528329084,-0.5697109403854244,1.5820401311121015,-0.46738361920131766,-2.037184217693632,-0.06836338004067029,0.3055227955575922,-0.23785621521781547,-0.002979432271798984,-0.0858977448482497,-0.08594429615079599,2.883933282322368,2.7408562288125746,0.27201051643275076,-0.000612182560648508,-0.012116516956689739,-0.0980028755823196
1750771875.5126367,-1.734784061172113,-2.4408230049053095,-0.5701879958140541,1.5820341571743337,-0.4675558434012794,-2.0373565352417096,-0.06892572553751586,0.3074251940730008,-0.23919889023754168,-0.002994496222128892,-0.08632617337020398,-0.08637297006310025,2.8853862939748978,2.74250100544542,0.272065230637333,-0.0006105267634566087,-0.012068969980026092,-0.0975239174437761
1750771875.5147283,-1.7349224768741722,-2.44020625180703,-0.5706677346531333,1.5820281531643687,-0.4677289227660939,-2.037529708444697,-0.06949035821017412,0.3093279669687442,-0.24053962540044754,-0.003009504438850678,-0.08675290883779245,-0.08679995019707457,2.886851840816232,2.744154754725452,0.27211999221144617,-0.000608865194594126,-0.012021276090767205,-0.09704355400737391
1750771875.5166974,-1.7350620241336578,-2.439585692784913,-0.5711501530213949,1.5820221191938544,-0.46790285390450137,-2.0377037339098836,-0.07005728393492533,0.3112311186475473,-0.24187841917597472,-0.003024456741643882,-0.08717794611363541,-0.08722523141238822,2.8883299724762144,2.745817458281344,0.2721747971158035,-0.0006071979223205502,-0.011973437479860483,-0.09656180815175354
1750771875.518759,-1.735202707542463,-2.4389613270769592,-0.5716352470346511,1.5820160553747966,-0.4680776334150458,-2.037878608234357,-0.07062650848311518,0.3131346535486132,-0.2432152701764731,-0.0030393529526780527,-0.08760128013808871,-0.08764880864649918,2.889820738459016,2.7474890977017923,0.2722296413225089,-0.0006055250176495577,-0.011925456337140419,-0.09607870273974027
1750771875.520714,-1.7353445317039187,-2.438333153912254,-0.5721230128060846,1.582009961819555,-0.4682532578862295,-2.038054328005158,-0.07119803752160744,0.31503857614782727,-0.24455017715703412,-0.0030541928964961536,-0.08802290592929117,-0.08807067691465331,2.891324188145639,2.74916965454535,0.27228452080844606,-0.0006038465483067636,-0.01187733485377927,-0.0955942606240812
1750771875.5227413,-1.735487501232587,-2.437701172510895,-0.5726134464465282,1.5820038386408375,-0.46842972389667015,-2.038230889799433,-0.07177187661325841,0.3169428909579042,-0.24588313901508832,-0.003068976400135523,-0.08844281858312106,-0.08849083130984786,2.892840370784304,2.750859110330942,0.2723394315618238,-0.0006021625854496915,-0.011829075219722427,-0.09510850463697224
1750771875.5272753,-1.7356316207540488,-2.4370653820839165,-0.5731065440647534,1.581997685951695,-0.4686070280152519,-2.0384082901845932,-0.07234803121741192,0.3188476025285876,-0.24721415479015607,-0.0030837032930402454,-0.0888610132731139,-0.08890926700282653,2.8943693354835767,2.752557446548137,0.2723943695778846,-0.0006004731977918784,-0.011780679622598909,-0.09462145759908148
1750771875.5281081,-1.7357768949047045,-2.4364257818332167,-0.5736023017677514,1.581991503865518,-0.4687851668012861,-2.0385865257184728,-0.07292650669040748,0.3207527154468033,-0.2485432236634284,-0.0030983734071289323,-0.08927748525059273,-0.08932597924202418,2.895911131205642,2.7542646446500436,0.27244933086362344,-0.000598778455946017,-0.011732150253710409,-0.0941331423041005
1750771875.5304618,-1.7359233283315607,-2.435782370951482,-0.5741007156610181,1.5819852924960296,-0.4689641368046633,-2.038765592949475,-0.07350730828606208,0.32265823433686674,-0.2498703449575823,-0.0031129865767155806,-0.08969222984434497,-0.08974096335353135,2.8974658067772765,2.755980686065252,0.2725043114314171,-0.0005970784282829633,-0.01168348929525025,-0.09364358152519184
1750771875.5308607,-1.736070925692034,-2.435135148622114,-0.5746017818488358,1.5819790519572827,-0.4691439345660102,-2.0389454884167364,-0.07409044115621678,0.32456416386062553,-0.25119551813627045,-0.0031275426386258463,-0.0901052424609298,-0.09015421474107144,2.8990334108646856,2.7577055521843783,0.2725593073078448,-0.0005953731865517705,-0.011634698938077477,-0.09315279801951638
1750771875.5328252,-1.736219691653738,-2.4344841140191513,-0.5751054964345537,1.581972782363654,-0.4693245566168436,-2.039126208650276,-0.0746759103512305,0.3264705087176793,-0.252518742803951,-0.003142041432051004,-0.09051651858435536,-0.09056572888593302,2.9006139919932834,2.759439224378888,0.2726143145245729,-0.0005936627983058019,-0.011585781363952642,-0.09266081451323649
1750771875.534758,-1.7363696308942904,-2.4338292663071965,-0.5756118555208714,1.581966483829839,-0.4695059994797255,-2.0393077501711563,-0.07526372082056937,0.32837727364550784,-0.2538400187053253,-0.003156482798669557,-0.09092605377610624,-0.09097550134692546,2.902207598510289,2.7611816839808854,0.2726693291287152,-0.0005919473346086558,-0.011536738755411896,-0.09216765370943261
1750771875.536642,-1.7365207481011042,-2.433170604641339,-0.5761208552101174,1.5819601564708479,-0.469688259668418,-2.0394901094916307,-0.07585387741330168,0.3302844634196882,-0.2551593457251309,-0.0031708665825871847,-0.09133384367517806,-0.0913835277602959,2.903814278621361,2.7629329123055943,0.27272434717366906,-0.000590226864774798,-0.011487573295967838,-0.09167333827614199
1750771875.5386086,-1.7366730479711938,-2.432508128167078,-0.5766324916045305,1.5819538004019995,-0.46987133368804024,-2.039673283115306,-0.07644638487870781,0.33219208285404483,-0.25647672388760673,-0.0031851926303393357,-0.09173988399780071,-0.0917898038397005,2.9054340803465792,2.7646928906347683,0.2727793647275641,-0.0005885014582885882,-0.011438287161332257,-0.09117789086324003
1750771875.5407853,-1.7368265352109695,-2.4318418360202485,-0.5771467608065359,1.581947415738918,-0.47005521803521866,-2.0398572675372932,-0.0770412478667995,0.33410013680084005,-0.2577921533561991,-0.0031994607909317427,-0.09214417053763728,-0.09219432537608417,2.907067051553546,2.7664616002303606,0.272834377867158,-0.0005867711857018051,-0.011388882532826472,-0.0906813340741046
1750771875.5426972,-1.736981214536045,-2.43117172732694,-0.5776636589190254,1.5819410025975262,-0.47023990919824765,-2.0400420592443593,-0.07763847092893966,0.3360086301509568,-0.25910563443316753,-0.0032136709157853027,-0.09254669916544532,-0.09259708823763588,2.908713239919889,2.768239022329202,0.27288938268000634,-0.0005850361160785963,-0.011339361582224301,-0.09018369048860847
1750771875.5445898,-1.7371370906710384,-2.430497801203423,-0.578183182045632,1.5819345610940427,-0.4704254036572362,-2.040227654715089,-0.07823805851841349,0.3379175678340614,-0.26041716755908795,-0.0032278228587138266,-0.09294746582916792,-0.09299808836972304,2.9103726929520306,2.7700251381428878,0.2729443752678377,-0.0005832963178997371,-0.011289726483867786,-0.08968498265821243
1750771875.5467093,-1.7372941683493757,-2.42982005675607,-0.5787053262910105,1.5819280913449751,-0.47061169788427026,-2.0404140504200328,-0.07884001499101206,0.3398269548187909,-0.2617267533125078,-0.003241916476067943,-0.09334646655376344,-0.09339732179472987,2.9120454579774466,2.7718199288649163,0.27299935174219186,-0.0005815518636138189,-0.011239979407302357,-0.08918523307402468
1750771875.5487528,-1.7374524523130992,-2.429138493081276,-0.5792300877611085,1.5819215934671165,-0.4707987883435587,-2.040601242821861,-0.07944434460567286,0.3417367961129334,-0.26303439240945287,-0.003255951626526683,-0.09374369744110565,-0.09379478461204194,2.913731582126542,2.773623375665916,0.2730543082283457,-0.0005798028199026833,-0.011190122519259308,-0.08868446421384814
1750771875.551062,-1.7376119473126703,-2.4284531092653814,-0.5797574625634434,1.5819150675775395,-0.4709866714915938,-2.040789228375525,-0.08005105152505496,0.3436470967635827,-0.2643400857029885,-0.0032699281712992266,-0.09413915466999395,-0.09419047299790032,2.915431112354011,2.7754354596939113,0.2731092408640853,-0.0005780492591246436,-0.011140157986759712,-0.08818269850221833
1750771875.5530643,-1.737772658106783,-2.4277639043845936,-0.5802874468073753,1.5819085137935927,-0.4711753437773014,-2.040978003528399,-0.08066013981620793,0.345557861857368,-0.2656438341828634,-0.003283845973909057,-0.09453283449586816,-0.0945843832053062,2.917144095404584,2.777256162087078,0.2731641457971561,-0.0005762912475116047,-0.011090087968787809,-0.08767995832292162
1750771875.5547392,-1.7379345894621663,-2.4270708775049066,-0.5808200366043801,1.5819019322328947,-0.47136480164219563,-2.0411675647204444,-0.08127161345116304,0.34746909652057373,-0.2669456389749215,-0.0032977049003907882,-0.09492473325087725,-0.09497651156392162,2.918870577841924,2.779085463954888,0.2732190191919501,-0.0005745288569544004,-0.011039914626266042,-0.08717626602306103
1750771875.5567496,-1.7380977461534037,-2.4263740276820216,-0.5813552280683218,1.5818953230133297,-0.47155504152052874,-2.0413579083843576,-0.08188547630760946,0.34938080591935106,-0.2682455013406824,-0.003311504819186597,-0.09531484734356527,-0.09536685447992635,2.920610606015324,2.7809233463963876,0.2732738572246413,-0.000572762156344101,-0.010989640111267551,-0.08667164389431233
1750771875.5587451,-1.7382621329627357,-2.4256733539612685,-0.5818930173157204,1.5818886862530426,-0.4717460598394503,-2.041549030945723,-0.08250173216951533,0.35129299525989005,-0.26954342267688536,-0.003325245601186123,-0.09570317325897733,-0.09575540843591042,2.9223642260814464,2.78276979049381,0.27332865608437956,-0.000570991215755357,-0.01093926657885326,-0.08616611418770836
1750771875.560812,-1.7382621329627357,-2.4256733539612685,-0.5818930173157204,1.5818886862530426,-0.4717460598394503,-2.041549030945723,-0.08250173216951533,0.35129299525989005,-0.26954342267688536,-0.003325245601186123,-0.09570317325897733,-0.09575540843591042,2.9223642260814464,2.78276979049381,0.27332865608437956,-0.000570991215755357,-0.01093926657885326,-0.08616611418770836
1750771875.562929,-1.738427754679881,-2.424968855377524,-0.5824334004660283,1.5818820220704342,-0.4719378530191527,-2.0417409288231667,-0.08312038472781706,0.35320566978861295,-0.27083940451503213,-0.003338927119626533,-0.09608970755836414,-0.09614216999076786,2.924131483977822,2.7846247773157726,0.27338341197301896,-0.0005692161024689423,-0.010888796175758763,-0.08565969911204527
1750771875.5648327,-1.738594616101845,-2.4242605309551317,-0.5829763736418903,1.5818753305841562,-0.4721304174730294,-2.041933598428507,-0.08374143758105719,0.3551188347923299,-0.2721334485207948,-0.0033525492502098227,-0.09647444687910042,-0.0965271357795358,2.925912425441605,2.7864882879144073,0.2734381211093619,-0.000567436887066974,-0.010838231046421782,-0.0851524208184675
1750771875.5668485,-1.7387627220327415,-2.4235483797078206,-0.5835219329694201,1.5818686119131067,-0.4723237496078241,-2.042127036166913,-0.08436489423608795,0.35703249559843553,-0.27342555649361777,-0.0033661118710509464,-0.09685738793453787,-0.09691030251326893,2.9277070959841165,2.7883603033303745,0.2734927797231352,-0.0005656536386912469,-0.01078757333113844,-0.08464430140997661
1750771875.5690424,-1.7389320772836037,-2.422832400638625,-0.5840700745784613,1.581861866176425,-0.4725178458237824,-2.0423212384370473,-0.08499075810872636,0.35894665757508043,-0.27471573036613817,-0.0033796148626848922,-0.09723852751389211,-0.09729166697887448,2.9295155409095277,2.790240804592796,0.27354738406071943,-0.0005638664266506962,-0.010736825167021078,-0.08413536293039593
1750771875.5705845,-1.739102686672207,-2.4221125927398015,-0.5846207946028583,1.581855093493487,-0.47271270251480413,-2.042516201631223,-0.0856190325244776,0.36086132613136185,-0.2760039722036902,-0.003393058108014136,-0.09761786248209284,-0.0976712260390097,2.9313378052891776,2.7921297727195515,0.27360193038222813,-0.0005620753188664349,-0.010685988686958331,-0.08362562738350163
1750771875.5727124,-1.739274555022889,-2.4213889549927474,-0.5851740891807156,1.5818482939839003,-0.4729083160685956,-2.042711922135556,-0.08624972071920248,0.36277650671751016,-0.2772902842038649,-0.0034064414923873866,-0.09799538977959289,-0.09804897663189505,2.9331739339810574,2.7940271887210506,0.27365641496033566,-0.0005602803854485692,-0.010635066018462539,-0.0831151167070492
1750771875.5748007,-1.7394476871663693,-2.4206614863679183,-0.5857299544546661,1.5818414677674995,-0.4731046828668175,-2.0429083963301133,-0.08688282583985062,0.3646922048250403,-0.27857466869579,-0.0034197649035422693,-0.09837110642223278,-0.09842491577115065,2.9350239716049678,2.7959330335928354,0.2737108340879418,-0.0005584816948726237,-0.01058405928522817,-0.08260385277954962
1750771875.5775793,-1.7396220879395727,-2.4199301858247453,-0.5862883865721313,1.5818346149643414,-0.47330179928523997,-2.0431056205890634,-0.08751835094515203,0.3666084259869726,-0.2798571281397947,-0.0034330282315997644,-0.0987450095010755,-0.09879904054566133,2.9368879625591893,2.797847288329471,0.2737651840674719,-0.0005566793155296487,-0.010532970606297386,-0.08209185743023897
1750771875.5792558,-1.7396220879395727,-2.4199301858247453,-0.5862883865721313,1.5818346149643414,-0.47330179928523997,-2.0431056205890634,-0.08751835094515203,0.3666084259869726,-0.2798571281397947,-0.0034330282315997644,-0.0987450095010755,-0.09879904054566133,2.9368879625591893,2.797847288329471,0.2737651840674719,-0.0005566793155296487,-0.010532970606297386,-0.08209185743023897
1750771875.5819275,-1.7397977621854555,-2.4191950523115517,-0.5868493816855844,1.5818277356947001,-0.47349966169388846,-2.043303591280827,-0.0881562990063536,0.36852517577800203,-0.2811376651267906,-0.003446231369077423,-0.09911709618226595,-0.09917134811939578,2.938765951001683,2.7997699339159023,0.2738194612187337,-0.0005548733161742229,-0.010481802096751959,-0.08157915242389593
1750771875.5827737,-1.7399747147528268,-2.41845608476547,-0.5874129359528117,1.5818208300790622,-0.4736982664571965,-2.0435023047682312,-0.08879667290794493,0.37044245981466334,-0.28241628237761507,-0.0034593742109059063,-0.09948736370676285,-0.09954183573122861,2.940657980854358,2.801700951328164,0.2738736618801332,-0.0005530637660356904,-0.010430555864119662,-0.08106575946255284
1750771875.5848718,-1.7401529504961815,-2.4177132821123575,-0.5879790455371685,1.581813898238122,-0.47389760993415386,-2.043701757408652,-0.08943947544839682,0.3723602837555422,-0.28369298274263194,-0.0034724566543591095,-0.09985580939028922,-0.09991050069475929,2.942564095797528,2.8036403215419017,0.27392778240122106,-0.0005512507323548834,-0.010379234014536996,-0.08055170018356433
1750771875.586683,-1.7403324742755242,-2.416966643266712,-0.5885477066078417,1.5818069402927772,-0.474097688478456,-2.0439019455541683,-0.09008470934088769,0.37427865330145105,-0.28496776920112177,-0.0034854785991296007,-0.10022243062313134,-0.10027734039815228,2.9444843392754656,2.805588025527142,0.2739818191488664,-0.00054943428458912,-0.010327838648475068,-0.08003699616832287
1750771875.5887501,-1.7405132909562004,-2.416216167131587,-0.5891189153401051,1.5817999563641234,-0.474298498438654,-2.044102865551711,-0.09073237721407597,0.3761975741956098,-0.2862406448606449,-0.003498439947276253,-0.10058722486979169,-0.1006423523039274,2.946418754476982,2.807544044250102,0.2740357685078312,-0.0005476144906657823,-0.010276371856626573,-0.07952166892439824
1750771875.5906622,-1.740695405408732,-2.415461852598508,-0.589692667915573,1.5817929465734497,-0.47450003615830205,-2.0443045137432083,-0.09138248161284596,0.3781170522238398,-0.28751161295655636,-0.0035113406031935667,-0.10095018966900778,-0.10100553394877981,2.948367384346021,2.8095083586758616,0.27408962687650085,-0.0005457914176759945,-0.010224835730217806,-0.07900573989642765
1750771875.592664,-1.7408788225086447,-2.414703698547384,-0.5902689605224616,1.5817859110422343,-0.47470229797610575,-2.0445068864657383,-0.09203502499905515,0.3800370932147422,-0.2887806768513855,-0.0035241804737024406,-0.10131132263350971,-0.10136688294337419,2.9503302715807,2.8114809497675846,0.27414339067088694,-0.0005439651352957811,-0.010173232353644746,-0.07848923045827362
1750771875.594611,-1.7410635471363083,-2.413941703846427,-0.590847789355835,1.5817788498921392,-0.4749052802260687,-2.04470998005167,-0.0926900097523341,0.3819577030398766,-0.2900478400341427,-0.0035369594679244597,-0.10167062144960023,-0.1017263969721562,2.952307458613149,2.81346179848568,0.27419705632642544,-0.0005421357096532583,-0.010121563799469477,-0.07797216191740095
1750771875.5966969,-1.7412495841767663,-2.4131758673520594,-0.5914291506178637,1.581771763245006,-0.4751089792376435,-2.0449137908288204,-0.09334743817082876,0.38387888761398437,-0.29131310611995853,-0.0035496774974040756,-0.10202808387733477,-0.10208407379314346,2.9542989876308994,2.8154508857984117,0.27425062028882297,-0.0005403032103714023,-0.010069832145332216,-0.07745455550962775
1750771875.6004045,-1.7414369385195814,-2.4124061879088337,-0.5920130405180748,1.5817646512228503,-0.4753133913358738,-2.0451183151205905,-0.09400731247201417,0.3858006528951546,-0.2925764788493308,-0.00356233447598103,-0.10238370774992357,-0.10243991123770152,2.9563049005487594,2.8174481926709443,0.2743040790248785,-0.0005384677034144321,-0.010018039452025972,-0.07693643239309002
1750771875.600817,-1.7416256150586689,-2.411632664349341,-0.5925994552735983,1.5817575139478584,-0.4755185128415427,-2.0453235492461213,-0.09466963479345068,0.387723004884996,-0.29383796208745183,-0.0035749303198746255,-0.10273749097382968,-0.10279390721035704,2.9583252390322223,2.8194537000681676,0.27435742902055876,-0.000536629257226378,-0.009966187783106702,-0.07641781366293376
1750771875.6028752,-1.7418156186921419,-2.4108552954941254,-0.5931883911094209,1.5817503515423814,-0.4757243400713209,-2.045529489520434,-0.09533440719359952,0.3896459496288693,-0.29509755982380664,-0.00358746494759995,-0.10308943152833443,-0.10314605968855423,2.9603600444721283,2.8214673889656785,0.27441066677294323,-0.0005347879378202311,-0.009914279189888143,-0.07589872032970836
1750771875.6048112,-1.742006954322151,-2.410074080151597,-0.5937798442586315,1.5817431641289315,-0.47593086933791007,-2.0457361322545777,-0.09600163165260246,0.3915694932160319,-0.2963552761713595,-0.0035999382800852844,-0.1034395274654532,-0.10349636672243505,2.9624093579995714,2.82348924033548,0.27446378880218447,-0.0005329438145821707,-0.009862315721313545,-0.07537917333058107
1750771875.6068568,-1.742006954322151,-2.410074080151597,-0.5937798442586315,1.5817431641289315,-0.47593086933791007,-2.0457361322545777,-0.09600163165260246,0.3915694932160319,-0.2963552761713595,-0.0035999382800852844,-0.1034395274654532,-0.10349636672243505,2.9624093579995714,2.82348924033548,0.27446378880218447,-0.0005329438145821707,-0.009862315721313545,-0.07537917333058107
1750771875.6087492,-1.7421996268547284,-2.409289017117944,-0.5943738109626686,1.581735951830176,-0.4761380969501863,-2.0459434737557745,-0.09667131007310564,0.39349364177987967,-0.2976111153660749,-0.0036123502404970583,-0.10378777690957347,-0.1038448264346363,2.964473220469233,2.825519235163404,0.27451679164191534,-0.0005310969519684267,-0.009810299416126718,-0.07485919353188836
1750771875.6107702,-1.7423936411996364,-2.4085001051770423,-0.5949702874715639,1.5817287147689338,-0.4763460192133495,-2.0461515103275634,-0.09734344428105503,0.39541840149810814,-0.2988650817662442,-0.0036247007543866857,-0.10413417805737091,-0.10419143702002139,2.9665516724677055,2.8275573544362587,0.2745696718447085,-0.0005292474185621293,-0.00975823231070995,-0.07433880171045004
1750771875.612755,-1.7425890022702122,-2.4077073431003684,-0.5955692700441881,1.581721453068171,-0.47655463242906215,-2.046360238269947,-0.09801803602652161,0.39734377859289166,-0.30011717985174363,-0.0036369897496022568,-0.10447872917747154,-0.1045361967454745,2.968644754304032,2.8296035791445204,0.27462242598405295,-0.0005273952805047914,-0.009706116431928348,-0.07381801857327082
1750771875.6147783,-1.7427857149832189,-2.4069107296469094,-0.5961707549484929,1.5817141668509946,-0.47676393289559904,-2.04656965387953,-0.09869508698450545,0.3992697793311332,-0.3013674142236478,-0.0036492171563086108,-0.10482142861024697,-0.10487910394963817,2.970752506016347,2.8316578902980565,0.2746750506444477,-0.0005255406044760222,-0.009653953800877585,-0.07329686473839546
1750771875.6167047,-1.7429837842586942,-2.4061102635630744,-0.596774738461753,1.5817068562406498,-0.4769739169079852,-2.0467797534496697,-0.09937459875577546,0.40119641002460504,-0.3026157896033888,-0.0036613829069600872,-0.10516227476758008,-0.10522015704269878,2.972874967358277,2.833720268903728,0.27472754243389136,-0.0005236834564568301,-0.009601746432053956,-0.0727753607523421
1750771875.61898,-1.7431832150198039,-2.405305943582604,-0.5973812168708044,1.5816995213605143,-0.4771845807581405,-2.0469905332706135,-0.1000565728676896,0.403123677030183,-0.30386231083221327,-0.003673486936348156,-0.1055012661325725,-0.10555935450609408,2.975012177805535,2.835790695987367,0.27477989797592567,-0.0005218239037047075,-0.009549496331712298,-0.07225352706312677
1750771875.6206214,-1.7433840121926965,-2.4044977684264786,-0.5979901864722859,1.581692162334094,-0.477395920735022,-2.0472019896296416,-0.10074101077504345,0.40505158675001357,-0.30510698287044835,-0.0036855291814994868,-0.10583840125938936,-0.10589669489231061,2.977164176545812,2.837869152577578,0.27483211391454543,-0.0005199620106901612,-0.009497205501734734,-0.07173138405112116
1750771875.6226723,-1.743586180706357,-2.40368573680283,-0.5986016435728754,1.5816847792850184,-0.47760793312476757,-2.0474141188112114,-0.10142791386089561,0.406980145631751,-0.30634981079699886,-0.003697509581761599,-0.10617367877286461,-0.10623217682459843,2.979331002486428,2.8399556197231433,0.27488418690808997,-0.0005180978442789248,-0.00944487593288484,-0.07120895200122242
1750771875.6306014,-1.7437897254924684,-2.402869847406849,-0.5992155844895279,1.5816773723370359,-0.47782061421083366,-2.047626917097098,-0.10211728343741239,0.40890936016872004,-0.3075907998085576,-0.003709428078748069,-0.1065070973683622,-0.10656579899671371,2.9815126942467116,2.8420500784781364,0.27493611363709913,-0.000516231469792225,-0.009392509612014734,-0.07068625111317926
1750771875.6309795,-1.7437897254924684,-2.402869847406849,-0.5992155844895279,1.5816773723370359,-0.47782061421083366,-2.047626917097098,-0.10211728343741239,0.40890936016872004,-0.3075907998085576,-0.003709428078748069,-0.1065070973683622,-0.10656579899671371,2.9815126942467116,2.8420500784781364,0.27493611363709913,-0.000516231469792225,-0.009392509612014734,-0.07068625111317926
1750771875.6311786,-1.7442009636213935,-2.4012264900133964,-0.6004509030916214,1.5816624872399125,-0.4782479675931999,-2.0480545060963458,-0.10350342696174751,0.41276978241132395,-0.3100672824588019,-0.0037330791407474036,-0.10716835293756155,-0.10722745918639279,2.9859208282504417,2.846262895117139,0.2750395151090212,-0.0005124923593496283,-0.009287674616051882,-0.06964012318071243
1750771875.6313665,-1.7444086668397851,-2.400399019340775,-0.6010722734644567,1.581655009338823,-0.47846263244427956,-2.048269289361105,-0.10420020318711905,0.4147010033338701,-0.3113027870742146,-0.003744811600311274,-0.10749618765202225,-0.10755549494164351,2.9881473462730384,2.848381215184743,0.27509098330201515,-0.0005106197531566943,-0.0092352098765821,-0.06911673610322178
1750771875.6326683,-1.7446177660815083,-2.399567685545336,-0.6016961130286074,1.5816475080349206,-0.4786779511015151,-2.048484726833255,-0.10489945045995949,0.41663290634588507,-0.31253647472674834,-0.003756481945714259,-0.10782215892936643,-0.10788166641150684,2.9903888816756847,2.8505074512351314,0.27514229213183944,-0.0005087451999280656,-0.009182716250108443,-0.06859316009705878
1750771875.6348212,-1.7448282662896384,-2.398732487256183,-0.6023224181559037,1.581639983452481,-0.4788939198370663,-2.0487008147832544,-0.1056011697507977,0.41856549817217376,-0.3137683511924354,-0.003768090129874254,-0.10814626581332738,-0.10820597263826404,2.992645471608715,2.852641584399482,0.2751934383704388,-0.0005068687647582625,-0.009130195685291881,-0.06806941492220962
1750771875.6368027,-1.7448282662896384,-2.398732487256183,-0.6023224181559037,1.581639983452481,-0.4788939198370663,-2.0487008147832544,-0.1056011697507977,0.41856549817217376,-0.3137683511924354,-0.003768090129874254,-0.10814626581332738,-0.10820597263826404,2.992645471608715,2.852641584399482,0.2751934383704388,-0.0005068687647582625,-0.009130195685291881,-0.06806941492220962
1750771875.6387537,-1.7450401724091282,-2.3978934230889237,-0.6029511852298439,1.581632435715872,-0.4791105349212472,-2.048917549479718,-0.10630536196442646,0.4204987855844578,-0.31499842236119413,-0.0037796361079166342,-0.10846850741650989,-0.10852841273307094,2.994917152924466,2.854783595829134,0.27524441880831857,-0.0005049905113960918,-0.009077650122265385,-0.06754552023846101
1750771875.6408286,-1.7452534893866725,-2.397050491645576,-0.6035824106458172,1.5816248649495486,-0.4793277926226649,-2.0491349271895505,-0.10701202794076013,0.4224327754015847,-0.31622669423613936,-0.003791119837181444,-0.10878888292003734,-0.10884898587566119,2.997203962180428,2.856933466695226,0.27529523025558256,-0.0005031105037847822,-0.009025081491219798,-0.06702149560838555
1750771875.6426241,-1.7454682221705848,-2.396203691514471,-0.6042160908113345,1.5816172712780494,-0.4795456892083587,-2.049352944178084,-0.10772116845573745,0.4243674744897274,-0.3174531729329005,-0.003802541277291959,-0.10910739157326609,-0.10916769131405614,2.999505935620679,2.859091178185018,0.2753458695412616,-0.0005012288078380314,-0.008972491714298881,-0.06649736049910374
1750771875.6446755,-1.7456843757106641,-2.3953530212701613,-0.6048522221462465,1.581609654825991,-0.47976422094393456,-2.049571596709214,-0.10843278422216496,0.42630288976259867,-0.3186778646789568,-0.0038139003900187277,-0.10942403269365063,-0.10948452836430021,3.0018231092005028,2.8612567115074024,0.2753963335133792,-0.0004993454856627056,-0.008919882709851607,-0.06597313429202767
1750771875.6482005,-1.7459019549580752,-2.3944984794733237,-0.6054908010829738,1.5816020157180648,-0.4799833840936998,-2.0497908810455368,-0.10914687589063636,0.4282390281816807,-0.31990077581299453,-0.0038251971393531404,-0.10973880566621444,-0.10979949641014675,3.004155518554764,2.863430047894926,0.2754466190378831,-0.0004974606014408446,-0.008867256381315788,-0.06544883626461068
