mathias31415/primitives_from_planned_trajectory_python/data/saved_trajectories/trajectory_20250624_124935_executed.csv
timestamp,shoulder_lift_joint_pos,elbow_joint_pos,wrist_1_joint_pos,wrist_2_joint_pos,wrist_3_joint_pos,shoulder_pan_joint_pos,shoulder_lift_joint_vel,elbow_joint_vel,wrist_1_joint_vel,wrist_2_joint_vel,wrist_3_joint_vel,shoulder_pan_joint_vel,shoulder_lift_joint_eff,elbow_joint_eff,wrist_1_joint_eff,wrist_2_joint_eff,wrist_3_joint_eff,shoulder_pan_joint_eff
1750762182.6529534,-1.9171691901316832,-2.436304228910136,-0.39230639628747443,1.5818591839639156,-0.47069756277506336,-2.0403984957019246,0.0,0.0,0.0,0.0,0.0,0.0,3.7176755232861254,1.7194996807819487,0.29985050287516996,0.0009127687405800166,0.0,-9.741801922227327e-18
1750762182.6537883,-1.9171691901316832,-2.436304228910136,-0.39230639628747443,1.5818591839639156,-0.47069756277506336,-2.0403984957019246,0.0,0.0,0.0,0.0,0.0,0.0,3.7176755232861254,1.7194996807819487,0.29985050287516996,0.0009127687405800166,0.0,-9.741801922227327e-18
1750762182.6544526,-1.9171691901316832,-2.436304228910136,-0.39230639628747443,1.5818591839639156,-0.47069756277506336,-2.0403984957019246,0.0,0.0,0.0,0.0,0.0,0.0,3.7176755232861254,1.7194996807819487,0.29985050287516996,0.0009127687405800166,0.0,-9.741801922227327e-18
1750762182.6554334,-1.9171691901316832,-2.436304228910136,-0.39230639628747443,1.5818591839639156,-0.47069756277506336,-2.0403984957019246,0.0,0.0,0.0,0.0,0.0,0.0,3.7176755232861254,1.7194996807819487,0.29985050287516996,0.0009127687405800166,0.0,-9.741801922227327e-18
1750762182.657576,-1.9171691901316832,-2.436304228910136,-0.39230639628747443,1.5818591839639156,-0.47069756277506336,-2.0403984957019246,0.0,0.0,0.0,0.0,0.0,0.0,3.7176755232861254,1.7194996807819487,0.29985050287516996,0.0009127687405800166,0.0,-9.741801922227327e-18
1750762182.6590972,-1.9171691901316832,-2.436304228910136,-0.39230639628747443,1.5818591839639156,-0.47069756277506336,-2.0403984957019246,0.0,0.0,0.0,0.0,0.0,0.0,3.7176755232861254,1.7194996807819487,0.29985050287516996,0.0009127687405800166,0.0,-9.741801922227327e-18
1750762182.6614354,-1.9171691901316832,-2.436304228910136,-0.39230639628747443,1.5818591839639156,-0.47069756277506336,-2.0403984957019246,0.0,0.0,0.0,0.0,0.0,0.0,3.7176755232861254,1.7194996807819487,0.29985050287516996,0.0009127687405800166,0.0,-9.741801922227327e-18
1750762182.6629035,-1.9171691901316832,-2.436304228910136,-0.39230639628747443,1.5818591839639156,-0.47069756277506336,-2.0403984957019246,0.0,0.0,0.0,0.0,0.0,0.0,3.7176755232861254,1.7194996807819487,0.29985050287516996,0.0009127687405800166,0.0,-9.741801922227327e-18
1750762182.6651297,-1.9171691901316832,-2.436304228910136,-0.39230639628747443,1.5818591839639156,-0.47069756277506336,-2.0403984957019246,0.0,0.0,0.0,0.0,0.0,0.0,3.7176755232861254,1.7194996807819487,0.29985050287516996,0.0009127687405800166,0.0,-9.741801922227327e-18
1750762182.6672108,-1.9171691901316832,-2.436304228910136,-0.39230639628747443,1.5818591839639156,-0.47069756277506336,-2.0403984957019246,0.0,0.0,0.0,0.0,0.0,0.0,3.7176755232861254,1.7194996807819487,0.29985050287516996,0.0009127687405800166,0.0,-9.741801922227327e-18
1750762182.6692078,-1.9171691901316832,-2.436304228910136,-0.39230639628747443,1.5818591839639156,-0.47069756277506336,-2.0403984957019246,0.0,0.0,0.0,0.0,0.0,0.0,3.7176755232861254,1.7194996807819487,0.29985050287516996,0.0009127687405800166,0.0,-9.741801922227327e-18
1750762182.6710641,-1.9171691901316832,-2.436304228910136,-0.39230639628747443,1.5818591839639156,-0.47069756277506336,-2.0403984957019246,0.0,0.0,0.0,0.0,0.0,0.0,3.7176755232861254,1.7194996807819487,0.29985050287516996,0.0009127687405800166,0.0,-9.741801922227327e-18
1750762182.6732178,-1.91716934475805,-2.436303228910136,-0.3923072437982169,1.5818591617844284,-0.470698195855233,-2.040399129475933,-0.00015462636695212626,0.001,-0.0008475107423157588,-2.2179487051345854e-05,-0.0006330801699906756,-0.0006337740090344133,3.6928785105806528,1.9148183288286438,0.28010630265780184,-0.0010990932367290827,-0.017834068122908366,-0.1923054684374622
1750762182.675089,-1.9171698086371514,-2.436300228910136,-0.39230978633044344,1.5818590952459675,-0.4707000950957436,-2.0404010307979608,-0.0003092527339042525,0.002,-0.0016950214846315175,-4.435897410269171e-05,-0.0012661603399813511,-0.0012675480180688267,3.6928897326015826,1.9148275368484462,0.2801063404740466,-0.0010991184932902748,-0.017834068122899487,-0.19230638850534798
1750762182.6771286,-1.9171698086371514,-2.436300228910136,-0.39230978633044344,1.5818590952459675,-0.4707000950957436,-2.0404010307979608,-0.0003092527339042525,0.002,-0.0016950214846315175,-4.435897410269171e-05,-0.0012661603399813511,-0.0012675480180688267,3.6928897326015826,1.9148275368484462,0.2801063404740466,-0.0010991184932902748,-0.017834068122899487,-0.19230638850534798
1750762182.6815379,-1.9171705817689855,-2.436295228910136,-0.3923140238841549,1.581858984348532,-0.4707032604965935,-2.0404041996680053,-0.00046387910085637874,0.003,-0.002542532226947276,-6.653846115403756e-05,-0.0018992405099720266,-0.0019013220271032398,3.692908435958638,1.9148428835251605,0.28010640350070015,-0.0010991605874922895,-0.017834068122884687,-0.1923079219616201
1750762182.683563,-1.9171716641535541,-2.436288228910136,-0.39231995645935136,1.5818588290921227,-0.4707076920577835,-2.0404086360860685,-0.000618505467808505,0.004,-0.003390042969263035,-8.871794820538342e-05,-0.0025323206799627023,-0.0025350960361376533,3.692934620635096,1.9148643688243379,0.28010649173713065,-0.0010992195192350523,-0.017834068122863977,-0.19231006882097385
1750762182.6865284,-1.9171747566808932,-2.436268228910136,-0.3923369066741982,1.5818583855023818,-0.47072035366118303,-2.0404213115662504,-0.0009277582017127575,0.006,-0.005085064453894552,-0.0001330769223080751,-0.003798481019944053,-0.0038026440542064796,3.693009433845811,1.914925755083419,0.2801067438355322,-0.0010993878947427199,-0.017834068122804792,-0.19231620283709172
1750762182.6892626,-1.9171767668236637,-2.436255228910136,-0.3923479243138477,1.5818580971690501,-0.47072858370339254,-2.0404295506283674,-0.0010823845686648839,0.007,-0.005932575196210311,-0.00015525640935942097,-0.004431561189934729,-0.004436418063240893,3.6930580623131326,1.9149656559055421,0.2801069076949768,-0.0010994973381074917,-0.01783406812276634,-0.19232019005262976
1750762182.6898203,-1.9171790862191678,-2.436240228910136,-0.392360636974983,1.5818577644767442,-0.4707380799059431,-2.040439057238503,-0.00123701093561701,0.008,-0.00678008593852607,-0.00017743589641076683,-0.0050646413599254045,-0.005070192072275307,3.693114171965978,1.9150116950745653,0.28010709675914436,-0.001099623618212762,-0.017834068122721956,-0.19232479078879783
1750762182.6939974,-1.9171817148674064,-2.4362232289101358,-0.3923750446576024,1.5818573874254644,-0.47074884226883285,-2.040449831396656,-0.0013916373025691365,0.009000000000000001,-0.0076275966808418295,-0.0001996153834621127,-0.00569772152991608,-0.00570396608130972,3.6931777627541424,1.9150638724871456,0.2801073110261404,-0.0010997667347583339,-0.017834068122671673,-0.1923300050896701
1750762182.6945052,-1.9171846527683787,-2.4362042289101358,-0.3923911473617059,1.5818569660152104,-0.47076087079206275,-2.040461873102828,-0.0015462636695212628,0.010000000000000002,-0.00847510742315759,-0.00022179487051345856,-0.006330801699906756,-0.006337740090344134,3.6932488346207086,1.9151221880261518,0.2801075504938165,-0.0010999266874040488,-0.01783406812261551,-0.19233583300519913
1750762182.6976807,-1.9171878999220846,-2.436183228910136,-0.3924089450872943,1.5818565002459823,-0.4707741654756319,-2.0404751823570173,-0.0017008900364733892,0.011000000000000003,-0.009322618165473348,-0.00024397435756480444,-0.006963881869897433,-0.006971514099378548,3.6933273875020642,1.9151866415606718,0.28010781515977184,-0.0011001034757696128,-0.017834068122553413,-0.1923422745912061
1750762182.6981447,-1.9171914563285242,-2.436160228910136,-0.39242843783436765,1.5818559901177802,-0.47078872631954205,-2.0404897591592253,-0.0018555164034255156,0.012000000000000004,-0.010170128907789108,-0.00026615384461615033,-0.007596962039888108,-0.007605288108412962,3.693413421327894,1.9152572329460027,0.2801081050213528,-0.0011002970994346828,-0.01783406812248539,-0.19234932990938786
1750762182.6998587,-1.9171953219876983,-2.436135228910136,-0.39244962560292596,1.5818554356306038,-0.47080455332379145,-2.0405056035094518,-0.002010142770377642,0.013000000000000005,-0.011017639650104867,-0.0002883333316674962,-0.008230042209878784,-0.008239062117447375,3.693506936021175,1.9153339620236476,0.2801084200756532,-0.0011005075579388374,-0.01783406812241152,-0.1923569990273078
1750762182.7007952,-1.9171953219876983,-2.436135228910136,-0.39244962560292596,1.5818554356306038,-0.47080455332379145,-2.0405056035094518,-0.002010142770377642,0.013000000000000005,-0.011017639650104867,-0.0002883333316674962,-0.008230042209878784,-0.008239062117447375,3.693506936021175,1.9153339620236476,0.2801084200756532,-0.0011005075579388374,-0.01783406812241152,-0.1923569990273078
1750762182.7029982,-1.917199496899606,-2.436108228910136,-0.3924725083929683,1.5818548367844536,-0.4708216464883819,-2.040522715407695,-0.002164769137329768,0.014000000000000005,-0.011865150392420627,-0.00031051281871884205,-0.00886312237986946,-0.008872836126481789,3.6936079314981645,1.9154168286213187,0.2801087603195132,-0.00110073485078151,-0.01783406812233171,-0.19236528201840153
1750762182.705132,-1.9172039810642474,-2.436079228910136,-0.39249708620449564,1.581854193579329,-0.47084000581331154,-2.040541094853957,-0.0023193955042818946,0.015000000000000006,-0.012712661134736387,-0.0003326923057701879,-0.009496202549860137,-0.009506610135516203,3.693716407668424,1.9155058325529382,0.2801091257495212,-0.001100978977422062,-0.017834068122246083,-0.1923741789619711
1750762182.7077122,-1.9172087744816224,-2.436048228910136,-0.392523359037507,1.5818535060152303,-0.4708596312985813,-2.040560741848237,-0.002474021871234021,0.016000000000000007,-0.013560171877052146,-0.0003548717928215338,-0.010129282719850813,-0.010140384144550617,3.6938323644347855,1.9156009736186193,0.28010951636201176,-0.0011012399372796926,-0.017834068122154465,-0.19238368994318483
1750762182.7105224,-1.9172138771517329,-2.436015228910136,-0.39255132689200334,1.5818527740921577,-0.47088052294419036,-2.040581656390536,-0.0026286482381861474,0.017000000000000008,-0.014407682619367906,-0.0003770512798728797,-0.01076236288984149,-0.01077415815358503,3.693955801693372,1.9157022516046731,0.28010993215306623,-0.0011015177297333972,-0.01783406812205707,-0.19239381505307349
1750762182.7111487,-1.9172192890745752,-2.435980228910136,-0.3925809897679846,1.5818519978101109,-0.4709026807501404,-2.040603838480852,-0.0027832746051382738,0.01800000000000001,-0.015255193361683664,-0.00039923076692422555,-0.011395443059832165,-0.011407932162619445,3.6940867193335665,1.9158096662836197,0.28011037311851406,-0.001101812354122057,-0.017834068121953695,-0.19240455438853227
1750762182.713012,-1.917225010250153,-2.435943228910136,-0.39261234766545083,1.58185117716909,-0.4709261047164297,-2.040627288119186,-0.0029379009720904,0.01900000000000001,-0.016102704103999426,-0.0004214102539755714,-0.01202852322982284,-0.012041706171653859,3.6942251172380467,1.9159232174141447,0.2801108392539302,-0.0011021238097443026,-0.017834068121844505,-0.19241590805231465
1750762182.7149577,-1.9172310406784643,-2.435904228910136,-0.3926454005844011,1.581850312169095,-0.47095079484306,-2.040652005305539,-0.0030925273390425266,0.02000000000000001,-0.016950214846315183,-0.0004435897410269173,-0.012661603399813518,-0.012675480180688273,3.694370995282745,1.9160429047411422,0.28011133055463805,-0.0011024520958585493,-0.017834068121729496,-0.19242787615303353
1750762182.7196472,-1.9172373803595093,-2.435863228910136,-0.39268014852483546,1.581849402810126,-0.47097675113002957,-2.0406779900399084,-0.003247153705994653,0.02100000000000001,-0.017797725588630943,-0.00046576922807826314,-0.013294683569804193,-0.013309254189722687,3.6945243533368592,1.91616872799568,0.28011184701570624,-0.001102797211682956,-0.017834068121608527,-0.19244045880515592
1750762182.720579,-1.9172373803595093,-2.435863228910136,-0.39268014852483546,1.581849402810126,-0.47097675113002957,-2.0406779900399084,-0.003247153705994653,0.02100000000000001,-0.017797725588630943,-0.00046576922807826314,-0.013294683569804193,-0.013309254189722687,3.6945243533368592,1.91616872799568,0.28011184701570624,-0.001102797211682956,-0.017834068121608527,-0.19244045880515592
1750762182.7211833,-1.9172509874798012,-2.435775228910136,-0.3927547294701599,1.5818474510152654,-0.4710324621849882,-2.040733762152704,-0.0035564064398989057,0.023000000000000013,-0.019492747073262463,-0.0005101282021809549,-0.014560843909785546,-0.014576802207791515,3.6948535089164283,1.9164387811425236,0.28011295539793507,-0.0011035379291334984,-0.017834068121349186,-0.19246746825074823
1750762182.7233462,-1.917258254919048,-2.435728228910136,-0.3927945624750482,1.581846408579374,-0.4710622169529781,-2.0407635495311283,-0.003711032806851032,0.024000000000000014,-0.020340257815578223,-0.0005323076892323008,-0.015193924079776221,-0.015210576216825927,3.695029306146563,1.9165830104278407,0.280113547307968,-0.001103933528994416,-0.017834068121210675,-0.19248189530240833
1750762182.7251658,-1.9172658316110285,-2.435679228910136,-0.39283609050142143,1.5818453217845085,-0.4710932378813073,-2.040794604457571,-0.0038656591738031585,0.025000000000000015,-0.02118776855789398,-0.0005544871762836466,-0.015827004249766897,-0.01584435022586034,3.6952125827954543,1.9167333744266963,0.2801141643561057,-0.0011043459550350466,-0.01783406812106638,-0.19249693742185084
1750762182.7273757,-1.9172737175557426,-2.435628228910136,-0.39287931354927963,1.5818441906306688,-0.4711255249699775,-2.0408269269320316,-0.004020285540755285,0.026000000000000016,-0.02203527930020974,-0.0005766666633349925,-0.016460084419757572,-0.016478124234894757,3.6954033386985525,1.9168898728010046,0.2801148065361504,-0.0011047752062718654,-0.017834068120916258,-0.1925125947527828
1750762182.7292526,-1.9172819127531913,-2.435575228910136,-0.3929242316186228,1.581843015117855,-0.47115907821898695,-2.0408605169545107,-0.004174911907707412,0.027000000000000017,-0.0228827900425255,-0.0005988461503863384,-0.01709316458974825,-0.01711189824392917,3.6956015736845376,1.9170525051988212,0.2801154738416508,-0.0011052212816808687,-0.017834068120760417,-0.19252886744474826
1750762182.7309103,-1.9172904172033736,-2.435520228910136,-0.39297084470945,1.5818417952460673,-0.47119389762833563,-2.0408953745250074,-0.004329538274659538,0.028000000000000018,-0.02373030078484126,-0.0006210256374376842,-0.017726244759738927,-0.017745672252963585,3.695807287575312,1.9172212712543573,0.28011616626590286,-0.0011056841801976383,-0.017834068120598564,-0.19254575565313384
1750762182.733096,-1.9172904172033736,-2.435520228910136,-0.39297084470945,1.5818417952460673,-0.47119389762833563,-2.0408953745250074,-0.004329538274659538,0.028000000000000018,-0.02373030078484126,-0.0006210256374376842,-0.017726244759738927,-0.017745672252963585,3.695807287575312,1.9172212712543573,0.28011616626590286,-0.0011056841801976383,-0.017834068120598564,-0.19254575565313384
1750762182.7356064,-1.9172992309062895,-2.435463228910136,-0.39301915282176214,1.5818405310153054,-0.47122998319802534,-2.0409314996435226,-0.0044841646416116645,0.02900000000000002,-0.02457781152715702,-0.0006432051244890302,-0.018359324929729602,-0.018379446261997997,3.696020480185996,1.9173961705879619,0.28011688380194694,-0.0011061639007172027,-0.01783406812043101,-0.1925632595391517
1750762182.7374768,-1.91730835386194,-2.435404228910136,-0.39306915595555836,1.5818392224255693,-0.47126733492805517,-2.0409688923100555,-0.004638791008563791,0.03000000000000002,-0.025425322269472778,-0.000665384611540376,-0.018992405099720278,-0.01901322027103241,3.6962411513249385,1.9175772028061175,0.28011762644257177,-0.0011066604420941013,-0.017834068120257663,-0.19258137926984994
1750762182.739236,-1.917317786070324,-2.4353432289101358,-0.3931208541108395,1.5818378694768591,-0.47130595281842425,-2.041007552524606,-0.004793417375515917,0.03100000000000002,-0.026272833011788538,-0.0006875640985917219,-0.019625485269710953,-0.019646994280066825,3.696469300793676,1.917764367501437,0.2801183941803101,-0.0011071738031422505,-0.01783406812007853,-0.19260011501809898
1750762182.7411044,-1.9173275275314419,-2.435280228910136,-0.39317424728760564,1.581836472169175,-0.47134583686913345,-2.041047480287176,-0.004948043742468044,0.03200000000000002,-0.027120343754104298,-0.0007097435856430678,-0.02025856543970163,-0.020280768289101237,3.6967049283869575,1.9179576642526532,0.2801191870074425,-0.001107703982634928,-0.017834068119893617,-0.19261946696258875
1750762182.743069,-1.9173375782452942,-2.435215228910136,-0.3932293354858567,1.5818350305025166,-0.4713869870801837,-2.041088675597763,-0.00510267010942017,0.03300000000000002,-0.027967854496420058,-0.0007319230726944136,-0.020891645609692307,-0.020914542298135653,3.6969480338927156,1.9181570926246103,0.2801200049159939,-0.001108250979304805,-0.017834068119703037,-0.19263943528783664
1750762182.7449784,-1.91734793821188,-2.435148228910136,-0.3932861187055918,1.5818335444768843,-0.47142940345157225,-2.041131138456368,-0.0052572964763722965,0.03400000000000002,-0.02881536523873582,-0.0007541025597457595,-0.021524725779682983,-0.021548316307170065,3.697198617092079,1.9183626521682715,0.2801208478977367,-0.0011088147918437833,-0.017834068119506503,-0.19266002018416314
1750762182.7467713,-1.9173586074311997,-2.435079228910136,-0.393344596946811,1.5818320140922777,-0.47147308598330184,-2.041174868862992,-0.005411922843324423,0.035000000000000024,-0.029662875981051575,-0.0007762820467971054,-0.02215780594967366,-0.02218209031620448,3.697456677759339,1.9185743424206883,0.2801217159441876,-0.001109395418903092,-0.017834068119304318,-0.19268122184770967
1750762182.7490628,-1.917369585903253,-2.435008228910136,-0.39340477020951603,1.581830439348697,-0.47151803467537157,-2.0412198668176327,-0.005566549210276549,0.036000000000000025,-0.030510386723367335,-0.0007984615338484512,-0.022790886119664334,-0.022815864325238893,3.6977222156619645,1.9187921629050129,0.2801226090466095,-0.0011099928590930677,-0.017834068119096397,-0.1927030404804154
1750762182.7507772,-1.9173808736280407,-2.434935228910136,-0.3934666384937051,1.5818288202461424,-0.47156424952778053,-2.0412661323202927,-0.005721175577228676,0.037000000000000026,-0.03135789746568309,-0.0008206410208997971,-0.02342396628965501,-0.02344963833427331,3.697995230560588,1.9190161131304733,0.28012352719601114,-0.0011106071109832788,-0.01783406811888275,-0.1927254762900297
1750762182.7528288,-1.917392470605562,-2.4348602289101358,-0.39353020179937825,1.5818271567846134,-0.47161173054052963,-2.0413136653709696,-0.005875801944180802,0.03800000000000003,-0.03220540820799885,-0.0008428205079511429,-0.024057046459645688,-0.02408341234330772,3.6982757222089897,1.919246192592387,0.28012447038314614,-0.001111238173102361,-0.017834068118663483,-0.1927485294900907
1750762182.7548404,-1.917404376835817,-2.434783228910136,-0.39359546012653635,1.5818254489641104,-0.47166047771361885,-2.041362465969666,-0.0060304283111329285,0.03900000000000003,-0.03305291895031461,-0.0008649999950024889,-0.024690126629636364,-0.024717186352342137,3.6985636903540873,1.9194824007721292,0.2801254385985138,-0.0011118860439380321,-0.017834068118438316,-0.19277220029993972
1750762182.7617157,-1.9174165923188067,-2.434704228910136,-0.3936624134751794,1.5818236967846333,-0.4717104910470482,-2.04141253411638,-0.006185054678085055,0.04000000000000003,-0.03390042969263037,-0.0008871794820538348,-0.02532320679962704,-0.02535096036137655,3.698859134735945,1.919724737137142,0.28012643183235886,-0.0011125507219369624,-0.017834068118207553,-0.19279648894469595
1750762182.7627563,-1.9174419510429868,-2.434540228910136,-0.3938014052369194,1.581820059348757,-0.4718143161949273,-2.0415164730538606,-0.006494307411989308,0.04200000000000003,-0.03559545117726189,-0.0009315384561565265,-0.02658936713960839,-0.026618508379445377,3.699472451135785,1.920227792222997,0.2801284933151836,-0.0011139304930062432,-0.01783406811772899,-0.19284692066834988
1750762182.764837,-1.9174550942841773,-2.434455228910136,-0.3938734436500164,1.5818181740923576,-0.47186812800937616,-2.0415703438446293,-0.006648933778941434,0.04300000000000003,-0.03644296191957765,-0.0009537179432078724,-0.027222447309599065,-0.02725228238847979,3.6997903225994695,1.9204885098089408,0.2801295615433776,-0.0011146455827645719,-0.017834068117481217,-0.19287306422639447
1750762182.7667484,-1.9174685467781023,-2.434368228910136,-0.3939471770845975,1.581816244476984,-0.47192320598416515,-2.0416254821834148,-0.00680356014589356,0.04400000000000003,-0.03729047266189341,-0.0009758974302592182,-0.027855527479589744,-0.027886056397514205,3.700115669191305,1.9207553533103465,0.2801306547484764,-0.00111537747306202,-0.0178340681172279,-0.19289982657763385
1750762182.7689486,-1.917482308524761,-2.434279228910136,-0.3940226055406635,1.5818142705026366,-0.47197955011929427,-2.0416818880702188,-0.006958186512845687,0.04500000000000003,-0.03813798340420917,-0.0009980769173105642,-0.02848860764958042,-0.028519830406548617,3.7004484906168718,1.9210283221248219,0.280131772919449,-0.001116126162139493,-0.01783406811696875,-0.19292720797605736
1750762182.7707703,-1.9174963795241542,-2.434188228910136,-0.39409972901821444,1.581812252169315,-0.4720371604147635,-2.0417395615050413,-0.007112812879797813,0.046000000000000034,-0.038985494146524934,-0.00102025640436191,-0.029121687819571095,-0.029153604415583033,3.70078878657484,1.9213074156359797,0.28013291604500884,-0.001116891648196606,-0.017834068116704082,-0.19295520868141974
1750762182.7728171,-1.9175107597762802,-2.434095228910136,-0.39417854751725034,1.5818101894770191,-0.4720960368705729,-2.0417985024878815,-0.00726743924674994,0.047000000000000035,-0.03983300488884069,-0.001042435891413256,-0.02975476798956177,-0.029787378424617445,3.701136556756928,1.921592633213434,0.28013408411361396,-0.0011176739293915648,-0.01783406811643381,-0.1929838289592183
1750762182.774817,-1.9175254492811407,-2.434000228910136,-0.3942590610377703,1.5818080824257492,-0.4721561794867215,-2.0418587110187403,-0.007422065613702066,0.048000000000000036,-0.04068051563115645,-0.0010646153784646018,-0.030387848159552446,-0.03042115243365186,3.701491800847927,1.9218839742127747,0.2801352771134655,-0.0011184730038411297,-0.017834068116157942,-0.19301306908070745
1750762182.7766693,-1.9175404480387357,-2.433903228910136,-0.39434126957977433,1.5818059310155053,-0.47221758826321114,-2.0419201870976167,-0.007576691980654192,0.04900000000000004,-0.04152802637347221,-0.0010867948655159476,-0.03102092832954312,-0.031054926442686273,3.701854518525659,1.9221814379755675,0.2801364950325104,-0.0011192888696205077,-0.0178340681158765,-0.19304292932287156
1750762182.7799063,-1.9175557560490635,-2.433804228910136,-0.3944251731432642,1.5818037352462873,-0.47228026320004,-2.0419829307245108,-0.007731318347606319,0.05000000000000004,-0.04237553711578797,-0.0011089743525672935,-0.0316540084995338,-0.03168870045172069,3.7022247094609733,1.9224850238293558,0.2801377378584383,-0.001120121524763386,-0.01783406811558959,-0.19307340996844002
1750762182.7813282,-1.9175557560490635,-2.433804228910136,-0.3944251731432642,1.5818037352462873,-0.47228026320004,-2.0419829307245108,-0.007731318347606319,0.05000000000000004,-0.04237553711578797,-0.0011089743525672935,-0.0316540084995338,-0.03168870045172069,3.7022247094609733,1.9224850238293558,0.2801377378584383,-0.001120121524763386,-0.01783406811558959,-0.19307340996844002
1750762182.7831755,-1.9175872998279218,-2.433600228910136,-0.3945980653346961,1.5817992106309287,-0.47240941155471816,-2.0421122206223536,-0.00804057108151057,0.05200000000000004,-0.04407055860041949,-0.0011533333266699852,-0.03292016883951515,-0.03295624846978951,3.7029875097528824,1.9231105590497832,0.28014029818042335,-0.001121837195065932,-0.01783406811499885,-0.1931362336293151
1750762182.7848501,-1.9176035355964522,-2.433495228910136,-0.39468705396263903,1.5817968817847883,-0.47247588497256743,-2.0421787668933025,-0.008195197448462697,0.05300000000000004,-0.04491806934273525,-0.001175512813721331,-0.03355324900950583,-0.03359002247882393,3.703380118416236,1.9234325070012066,0.2801416156505788,-0.001122720206084427,-0.017834068114695244,-0.1931685772386956
1750762182.7870636,-1.9176200806177155,-2.433388228910136,-0.3947777376120669,1.5817945085796739,-0.47254362455075594,-2.042246580712269,-0.008349823815414823,0.05400000000000004,-0.04576558008505101,-0.001197692300772677,-0.0341863291794965,-0.034223796487858345,3.7037801989506764,1.923760574213175,0.28014295797581473,-0.0011236199981838702,-0.017834068114386134,-0.19320154243959908
1750762182.7888823,-1.9176369348917133,-2.433279228910136,-0.39487011628297974,1.5817920910155852,-0.47261263028928546,-2.042315662079254,-0.00850445018236695,0.05500000000000004,-0.04661309082736677,-0.0012198717878240228,-0.03481940934948718,-0.034857570496892754,3.7041877509920416,1.9240947599428657,0.2801443251425389,-0.0011245365691890143,-0.01783406811407154,-0.193235129543332
1750762182.7907963,-1.9176540984184456,-2.433168228910136,-0.39496418997537663,1.5817896290925226,-0.47268290218815423,-2.0423860109942567,-0.008659076549319076,0.05600000000000004,-0.04746060156968253,-0.0012420512748753687,-0.03545248951947785,-0.03549134450592717,3.704602774169128,1.92443506343336,0.2801457171369023,-0.0011254699168826048,-0.017834068113751475,-0.1932693388669027
1750762182.792773,-1.9176715711979107,-2.433055228910136,-0.3950599586892585,1.5817871228104858,-0.47275444024736313,-2.042457627457278,-0.008813702916271203,0.057000000000000044,-0.04830811231199828,-0.0012642307619267145,-0.03608556968946853,-0.036125118514961585,3.7050252681036624,1.9247814839136266,0.2801471339447986,-0.0011264200390052965,-0.017834068113425958,-0.19330417073299594
1750762182.7953894,-1.9176715711979107,-2.433055228910136,-0.3950599586892585,1.5817871228104858,-0.47275444024736313,-2.042457627457278,-0.008813702916271203,0.057000000000000044,-0.04830811231199828,-0.0012642307619267145,-0.03608556968946853,-0.036125118514961585,3.7050252681036624,1.9247814839136266,0.2801471339447986,-0.0011264200390052965,-0.017834068113425958,-0.19330417073299594
1750762182.7969017,-1.9176893532301102,-2.432940228910136,-0.39515742242462437,1.5817845721694748,-0.47282724446691216,-2.042530511468316,-0.008968329283223329,0.058000000000000045,-0.04915562305431404,-0.0012864102489780604,-0.03671864985945921,-0.036758892523996,3.7054552324103205,1.9251340205984941,0.280148575551864,-0.001127386933255624,-0.017834068113095194,-0.19333962546998906
1750762182.799039,-1.9177074445150435,-2.432823228910136,-0.3952565811814752,1.5817819771694899,-0.4729013148468013,-2.0426046630273733,-0.009122955650175455,0.059000000000000045,-0.0500031337966298,-0.0013085897360294062,-0.03735173002944989,-0.03739266653303041,3.7058926666966916,1.9254926726886592,0.2801500419434784,-0.0011283705972898236,-0.01783406811275862,-0.19337570341192953
1750762182.8010535,-1.9177258450527113,-2.432704228910136,-0.395357434959811,1.5817793378105307,-0.4729766513870297,-2.0426800821344484,-0.009277582017127582,0.060000000000000046,-0.05085064453894556,-0.001330769223080752,-0.03798481019944056,-0.038026440542064825,3.706337570563266,1.9258574393706567,0.2801515331047631,-0.0011293710287219687,-0.01783406811241684,-0.1934124048985434
1750762182.802955,-1.9177445548431118,-2.432583228910136,-0.39545998375963176,1.5817766540925975,-0.47305325408759913,-2.042756768789541,-0.009432208384079708,0.06100000000000005,-0.05169815528126132,-0.001352948710132098,-0.03861789036943124,-0.03866021455109924,3.7067899436034257,1.9262283198168615,0.28015304902058225,-0.0011303882251235996,-0.017834068112069675,-0.1934497302752035
1750762182.8051083,-1.9177635738862469,-2.432460228910136,-0.39556422758093657,1.5817739260156902,-0.4731311229485078,-2.0428347229926533,-0.009586834751031835,0.06200000000000005,-0.05254566602357708,-0.0013751281971834438,-0.03925097053942191,-0.03929398856013366,3.70724978540343,1.926605313185456,0.2801545896755414,-0.0011314221840238742,-0.017834068111717144,-0.19348767989294582
1750762182.8071127,-1.9177829021821164,-2.432335228910136,-0.39567016642372543,1.5817711535798087,-0.4732102579697566,-2.0429139447437823,-0.009741461117983961,0.06300000000000004,-0.053393176765892836,-0.0013973076842347897,-0.03988405070941258,-0.039927762569168065,3.707717095542404,1.9269884186204342,0.28015615505398905,-0.0011324729029093903,-0.017834068111359066,-0.19352625410844745
1750762182.8090048,-1.9178025397307188,-2.432208228910136,-0.39577780028800014,1.5817683367849533,-0.4732906591513455,-2.04299443404293,-0.009896087484936087,0.06400000000000004,-0.054240687508208596,-0.0014194871712861355,-0.04051713087940326,-0.040561536578202474,3.708191873592309,1.9273776352515914,0.2801577451400142,-0.0011335403792241071,-0.01783406811099605,-0.19356545328403119
1750762182.8107333,-1.9178224865320557,-2.432079228910136,-0.3958871291737589,1.5817654756311237,-0.47337232649327365,-2.043076190890095,-0.010050713851888214,0.06500000000000004,-0.055088198250524356,-0.0014416666583374814,-0.04115021104939394,-0.04119531058723689,3.708674119117951,1.9277729621944786,0.2801593599174486,-0.001134624610369311,-0.01783406811062772,-0.19360527778764555
1750762182.8128169,-1.9178427425861262,-2.431948228910136,-0.3959981530810017,1.58176257011832,-0.47345525999554283,-2.0431592152852787,-0.01020534021884034,0.06600000000000004,-0.055935708992840116,-0.0014638461453888273,-0.041783291219384615,-0.041829084596271306,3.7091638316769484,1.9281743985504307,0.28016099936986505,-0.001135725593703401,-0.017834068110253707,-0.19364572799285748
1750762182.8192132,-1.9178633078929312,-2.431815228910136,-0.3961108720097295,1.581759620246542,-0.47353945965815125,-2.04324350722848,-0.010359966585792467,0.06700000000000005,-0.056783219735155877,-0.0014860256324401731,-0.04241637138937529,-0.04246285860530572,3.709661010819718,1.9285819434065172,0.2801626634805767,-0.0011368433265419688,-0.017834068109874618,-0.19368680427885399
1750762182.8196392,-1.91788418245247,-2.431680228910136,-0.3962252859599422,1.58175662601579,-0.4736249254811007,-2.0433290667197,-0.010514592952744593,0.06800000000000005,-0.05763073047747164,-0.001508205119491519,-0.043049451559365966,-0.04309663261434013,3.7101656560894667,1.9289955958355525,0.28016435223263897,-0.001137977806157562,-0.017834068109490276,-0.1937285070304247
1750762182.8210135,-1.9179053662647423,-2.431543228910136,-0.3963413949316399,1.5817535874260642,-0.47371165746438937,-2.0434158937589375,-0.01066921931969672,0.06900000000000005,-0.05847824121978739,-0.0015303846065428648,-0.04368253172935664,-0.043730406623374546,3.7106777670221667,1.9294153548960646,0.28016606560884755,-0.0011391290297797132,-0.0178340681091007,-0.19377083663796574
1750762182.8228784,-1.9179268593297483,-2.431404228910136,-0.3964591989248216,1.5817505044773639,-0.4737996556080173,-2.0435039883461936,-0.010823845686648846,0.07000000000000005,-0.05932575196210315,-0.0015525640935942107,-0.04431561189934732,-0.04436418063240896,3.7111973431465497,1.92984121963229,0.2801678035917382,-0.0011402969945947861,-0.017834068108705914,-0.19381379349744862
1750762182.8249032,-1.9179486616474888,-2.431263228910136,-0.3965786979394883,1.5817473771696897,-0.47388891991198623,-2.0435933504814674,-0.010978472053600972,0.07100000000000005,-0.06017326270441891,-0.0015747435806455566,-0.04494869206933799,-0.04499795464144338,3.711724383984081,1.9302731890741445,0.28016956616358785,-0.0011414816977458322,-0.017834068108305928,-0.19385737801043434
1750762182.8268473,-1.917970773217963,-2.431120228910136,-0.39669989197563904,1.5817442055030413,-0.4739794503762953,-2.043683980164759,-0.011133098420553099,0.07200000000000005,-0.06102077344673467,-0.0015969230676969024,-0.04558177223932867,-0.045631728650477786,3.7122588890489507,1.9307112622372304,0.2801713533064135,-0.0011426831363326173,-0.017834068107900777,-0.193901590584052
1750762182.8288481,-1.9179931940411707,-2.430975228910136,-0.39682278103327473,1.581740989477419,-0.4740712470009436,-2.043775877396069,-0.011287724787505225,0.07300000000000005,-0.06186828418905043,-0.0016191025547482483,-0.04621485240931934,-0.0462655026595122,3.7128008578480505,1.9311554381228044,0.2801731650019723,-0.0011439013074114514,-0.017834068107490473,-0.19394643163100192
1750762182.8307862,-1.918015924117113,-2.430828228910136,-0.39694736511239537,1.5817377290928223,-0.47416430978593205,-2.0438690421753964,-0.011442351154457351,0.07400000000000005,-0.06271579493136618,-0.0016412820417995942,-0.04684793257931002,-0.04689927666854662,3.713350289880956,1.9316057157177522,0.2801750012317607,-0.0011451362079950996,-0.01783406810707504,-0.19399190156952498
1750762182.8329527,-1.918038963445789,-2.4306792289101358,-0.39707364421300095,1.5817344243492517,-0.4742586387312606,-2.0439634745027426,-0.011596977521409478,0.07500000000000005,-0.06356330567368194,-0.00166346152885094,-0.047481012749300694,-0.047533050677581026,3.713907184639919,1.9320620939946074,0.2801768619770149,-0.0011463878350526256,-0.017834068106654503,-0.1940380008234135
1750762182.8357034,-1.9180623120271987,-2.430528228910136,-0.3972016183350906,1.581731075246707,-0.4743542338369293,-2.0440591743781074,-0.011751603888361604,0.07600000000000005,-0.0644108164159977,-0.0016856410159022859,-0.048114092919291376,-0.04816682468661544,3.7144715416098375,1.932524571911495,0.28017874721871117,-0.0011476561855094651,-0.017834068106229076,-0.19408472982200156
1750762182.837001,-1.9180859698613428,-2.430375228910136,-0.3973312874786643,1.5817276817851882,-0.47445109510293815,-2.0441561418014897,-0.01190623025531373,0.07700000000000005,-0.06525832715831346,-0.0017078205029536317,-0.04874717308928205,-0.04880059869564986,3.7150433602682487,1.9329931484121394,0.28018065693756394,-0.0011489412562471267,-0.01783406810579819,-0.19413208900013612
1750762182.8387735,-1.9181099369482197,-2.430220228910136,-0.39746265164372385,1.5817242439646952,-0.4745492225292871,-2.04425437677289,-0.012060856622265857,0.07800000000000006,-0.06610583790062922,-0.0017299999900049778,-0.04938025325927273,-0.049434372704684273,3.715622640085299,1.9334678224258464,0.2801825911140274,-0.0011502430441031998,-0.017834068105362467,-0.19418007879818888
1750762182.8407047,-1.9181342132878312,-2.430063228910136,-0.39759571083026746,1.581720761785228,-0.4746486161159753,-2.0443538792923084,-0.012215482989217983,0.07900000000000006,-0.06695334864294498,-0.0017521794770563237,-0.0500133334292634,-0.05006814671371868,3.7162093805237433,1.9339485928674693,0.280184549728294,-0.0011515615458712073,-0.017834068104921726,-0.19422869966203446
1750762182.8427489,-1.9181587988801763,-2.429904228910136,-0.3977304650382951,1.581717235246787,-0.47474927586300364,-2.0444546493597446,-0.01237010935617011,0.08000000000000006,-0.06780085938526074,-0.0017743589641076695,-0.05064641359925408,-0.0507019207227531,3.7168035810389077,1.93443545863741,0.28018653276029515,-0.0011528967583005602,-0.01783406810447599,-0.1942779520430529
1750762182.844682,-1.9181836937252559,-2.429743228910136,-0.39786691426780774,1.5817136643493717,-0.4748512017703721,-2.0445566869751994,-0.012524735723122236,0.08100000000000006,-0.0686483701275765,-0.0017965384511590154,-0.051279493769244754,-0.051335694731787514,3.717405241078683,1.9349284186215916,0.28018854018969996,-0.0011542486780963662,-0.01783406810402528,-0.19432783639809761
1750762182.8466659,-1.9182088978230691,-2.429580228910136,-0.3980050585188053,1.5817100490929823,-0.4749543938380807,-2.044659992138672,-0.012679362090074362,0.08200000000000006,-0.06949588086989227,-0.0018187179382103613,-0.05191257393923543,-0.05196946874082193,3.718014360083498,1.9354274716914481,0.2801905719959162,-0.001155617301919376,-0.017834068103569627,-0.19437835318950797
1750762182.8486903,-1.918234411173616,-2.429415228910136,-0.3981448977912878,1.5817063894776189,-0.4750588520661294,-2.044764564850162,-0.012833988457026489,0.08300000000000006,-0.07034339161220803,-0.0018408974252617071,-0.052545654109226105,-0.05260324274985634,3.718630937486308,1.9359326167039,0.2801926281580891,-0.0011570026263858467,-0.017834068103109054,-0.19442950288508398
1750762182.8506598,-1.9182602337768975,-2.429248228910136,-0.3982864320852544,1.5817026855032812,-0.4751645764545174,-2.0448704051096716,-0.012988614823978615,0.08400000000000006,-0.07119090235452379,-0.001863076912313053,-0.05317873427921678,-0.053237016758890754,3.7192549727125677,1.9364438525013339,0.2801947086551016,-0.0011584046480675298,-0.017834068102643583,-0.1944812859580926
1750762182.8526406,-1.9182863656329125,-2.429079228910136,-0.3984296614007059,1.5816989371699697,-0.47527156700324635,-2.044977512917198,-0.013143241190930742,0.08500000000000006,-0.07203841309683955,-0.0018852563993643988,-0.053811814449207455,-0.05387079076792517,3.719886465180222,1.9369611779115967,0.2801968134655742,-0.0011598233634913249,-0.01783406810217324,-0.19453370288723185
1750762182.8547087,-1.9183128067416613,-2.428908228910136,-0.3985745857376415,1.581695144477684,-0.4753798237123146,-2.0450858882727427,-0.013297867557882868,0.08600000000000006,-0.0728859238391553,-0.0019074358864157447,-0.05444489461919813,-0.05450456477695958,3.7205254142996673,1.9374845917479622,0.2801989425678642,-0.001161258769139436,-0.017834068101698047,-0.19458675415664192
1750762182.8567743,-1.9183395571031436,-2.428735228910136,-0.398721205096062,1.5816913074264238,-0.4754893465817229,-2.045195531176306,-0.013452493924834994,0.08700000000000006,-0.07373343458147107,-0.0019296153734670906,-0.055077974789188806,-0.055138338785993994,3.721171819473754,1.938014092809123,0.28020109594006576,-0.0011627108614491487,-0.017834068101218035,-0.1946404402558935
1750762182.8586857,-1.9183666167173605,-2.428560228910136,-0.3988695194759675,1.58168742601619,-0.4756001356114714,-2.045306441627887,-0.01360712029178712,0.08800000000000006,-0.07458094532378683,-0.0019517948605184364,-0.05571105495917949,-0.05577211279502841,3.7218256800977554,1.9385496798791608,0.2802032735600101,-0.00116417963681257,-0.01783406810073342,-0.1946947616799568
1750762182.8607683,-1.918393985584311,-2.428383228910136,-0.3990195288773579,1.5816835002469818,-0.47571219080155913,-2.045418619627486,-0.013761746658739247,0.08900000000000007,-0.07542845606610259,-0.0019739743475697823,-0.056344135129170164,-0.056405886804062826,3.7224869955593376,1.939091351727544,0.28020547540526447,-0.0011656650915767815,-0.01783406810024364,-0.19474971892921397
1750762182.8666182,-1.9184216637039953,-2.4282042289101358,-0.3991712333002324,1.5816795301187996,-0.4758255121519879,-2.045532065175103,-0.013916373025691374,0.09000000000000007,-0.07627596680841835,-0.0019961538346211284,-0.05697721529916084,-0.057039660813097234,3.723155765238553,1.9396391071090913,0.28020770145313234,-0.0011671672220435025,-0.017834068099749318,-0.19480531250943256
1750762182.8669329,-1.918449651076414,-2.4280232289101358,-0.39932463274459096,1.5816755156316433,-0.47594009966275586,-2.045646778270738,-0.0140709993926435,0.09100000000000007,-0.0771234775507341,-0.002018333321672474,-0.057610295469151515,-0.05767343482213165,3.7238319885078233,1.940192944763957,0.2802099516806532,-0.001168686024469096,-0.017834068099250276,-0.19486154293177047
1750762182.8687468,-1.9184779477015663,-2.427840228910136,-0.39947972721043534,1.581671456785513,-0.47605595333386486,-2.0457627589143916,-0.014225625759595626,0.09200000000000007,-0.07797098829304987,-0.00204051280872382,-0.05824337563914219,-0.058307208831166066,3.7245156647318924,1.94075286341762,0.2802122260646018,-0.0011702214950643796,-0.01783406809874654,-0.19491841071273844
1750762182.8708649,-1.9185065535794523,-2.427655228910136,-0.3996365166977638,1.5816673535804084,-0.4761730731653131,-2.0458800071060637,-0.014380252126547753,0.09300000000000007,-0.07881849903536563,-0.0020626922957751657,-0.058876455809132866,-0.05894098284020048,3.7252067932678345,1.9413188617808539,0.2802145245814887,-0.0011717736299945109,-0.017834068098238145,-0.19497591637421424
1750762182.8728356,-1.918535468710072,-2.427468228910136,-0.3997950012065763,1.5816632060163298,-0.4762914591571006,-2.0459985228457525,-0.01453487849349988,0.09400000000000007,-0.07966600977768137,-0.002084871782826512,-0.05950953597912354,-0.05957475684923489,3.725905373465012,1.9418909385497092,0.28021684720756,-0.0011733424253789059,-0.01783406809772511,-0.1950340604434151
1750762182.8748095,-1.918535468710072,-2.427468228910136,-0.3997950012065763,1.5816632060163298,-0.4762914591571006,-2.0459985228457525,-0.01453487849349988,0.09400000000000007,-0.07966600977768137,-0.002084871782826512,-0.05950953597912354,-0.05957475684923489,3.725905373465012,1.9418909385497092,0.28021684720756,-0.0011733424253789059,-0.01783406809772511,-0.1950340604434151
1750762182.8767977,-1.9185646930934261,-2.427279228910136,-0.39995518073687464,1.5816590140932771,-0.4764111113092291,-2.04611830613346,-0.014689504860452006,0.09500000000000007,-0.08051352051999713,-0.0021070512698778575,-0.06014261614911422,-0.060208530858269306,3.7266114046650682,1.942469092405488,0.2802191939187945,-0.0011749278772910656,-0.017834068097207466,-0.1950928434529006
1750762182.878753,-1.918594226729514,-2.427088228910136,-0.40011705528865615,1.5816547778112504,-0.4765320296216977,-2.0462393569691857,-0.014844131227404132,0.09600000000000007,-0.0813610312623129,-0.0021292307569292035,-0.06077569631910489,-0.06084230486730372,3.7273248862018873,1.9430533220147372,0.2802215646909083,-0.001176529981758477,-0.017834068096685245,-0.19515226594053825
1750762182.8808055,-1.9186240696183354,-2.4268952289101358,-0.4002806248619235,1.5816504971702494,-0.4766542140945056,-2.0463616753529292,-0.014998757594356258,0.09700000000000007,-0.08220854200462865,-0.002151410243980549,-0.06140877648909557,-0.06147607887633813,3.728045817401591,1.943643626029219,0.28022395949935064,-0.0011781487347624373,-0.017834068096158468,-0.19521232844950903
1750762182.8826737,-1.9186542217598914,-2.426700228910136,-0.4004458894566749,1.5816461721702744,-0.4767776647276536,-2.0464852612846904,-0.015153383961308385,0.09800000000000007,-0.08305605274694441,-0.0021735897310318953,-0.06204185665908624,-0.062109852885372546,3.7287741975825024,1.9442400030858755,0.2802263783193042,-0.0011797841322380717,-0.01783406809562717,-0.1952730315283009
1750762182.8847523,-1.918684683154181,-2.426503228910136,-0.4006128490729113,1.5816418028113253,-0.4769023815211417,-2.046610114764471,-0.015308010328260511,0.09900000000000007,-0.08390356348926017,-0.002195769218083241,-0.06267493682907692,-0.06274362689440696,3.729510026055129,1.9448424518068377,0.2802288211256863,-0.0011814361700739216,-0.017834068095091377,-0.19533437573066947
1750762182.8874092,-1.9187154538012043,-2.4263042289101358,-0.4007815037106317,1.5816373890934021,-0.47702836447497,-2.0467362357922685,-0.015462636695212638,0.10000000000000007,-0.08475107423157593,-0.002217948705134587,-0.0633080169990676,-0.06337740090344138,3.730253302122138,1.9454509707993863,0.28023128789314783,-0.0011831048441121456,-0.017834068094551316,-0.19539636161565097
1750762182.8886926,-1.9187465337009622,-2.426103228910136,-0.40095185336983796,1.5816329310165047,-0.4771556135891384,-2.0468636243680844,-0.015617263062164764,0.10100000000000008,-0.0855985849738917,-0.0022401281921859326,-0.06394109716905827,-0.0640111749124758,3.7310040250783314,1.9460655586559161,0.2802337785960719,-0.0011847901501481244,-0.017834068094006228,-0.19545898974753995
1750762182.8905694,-1.9187779228534527,-2.425900228910136,-0.4011238980505274,1.5816284285806335,-0.477284128863646,-2.046992280491919,-0.01577188942911689,0.10200000000000008,-0.08644609571620746,-0.0022623076792372787,-0.06457417733904895,-0.06464494892151021,3.7317621942106216,1.946686213953951,0.2802362932085758,-0.001186492083930475,-0.01783406809345752,-0.19552226069587506
1750762182.892635,-1.9188096212586778,-2.425695228910136,-0.40129763775270266,1.5816238817857877,-0.47741391029849467,-2.04712220416377,-0.015926515796069015,0.10300000000000008,-0.08729360645852322,-0.0022844871662886243,-0.06520725750903962,-0.06527872293054461,3.7325278087980145,1.9473129352560796,0.2802388317045079,-0.0011882106411608257,-0.01783406809290365,-0.195586175035425
1750762182.8947506,-1.9188416289166375,-2.425488228910136,-0.401473072476362,1.5816192906319682,-0.47754495789368256,-2.047253395383641,-0.01608114216302114,0.10400000000000008,-0.08814111720083898,-0.0023066666533399704,-0.0658403376790303,-0.06591249693957903,3.7333008681115856,1.9479457211099656,0.2802413940574507,-0.0011899458174938285,-0.01783406809234622,-0.19565073334619545
1750762182.8967135,-1.9188739458273307,-2.425279228910136,-0.4016502022215054,1.5816146551191745,-0.4776772716492106,-2.0473858541515284,-0.016235768529973268,0.10500000000000008,-0.08898862794315474,-0.002328846140391316,-0.06647341784902099,-0.06654627094861344,3.7340813714144327,1.9485845700483109,0.2802439802407176,-0.0011916976085367026,-0.017834068091784082,-0.19571593621337152
1750762182.898635,-1.9189065719907568,-2.425068228910136,-0.4018290269881346,1.5816099752474067,-0.47781085156507874,-2.0475195804674353,-0.016390394896925394,0.10600000000000008,-0.0898361386854705,-0.002351025627442662,-0.06710649801901165,-0.06718004495764786,3.734869317961677,1.949229480588834,0.28024659022735393,-0.0011934660098495218,-0.01783406809121727,-0.19578178422735046
1750762182.9006116,-1.9189395074069182,-2.424855228910136,-0.4020095467762479,1.5816052510166647,-0.477945697641287,-2.047654574331359,-0.01654502126387752,0.10700000000000008,-0.09068364942778626,-0.0023732051144940082,-0.06773957818900234,-0.06781381896668227,3.735664707000444,1.94988045123424,0.2802492239901367,-0.0011952510169447013,-0.017834068090646985,-0.19584827798370388
1750762182.90263,-1.9189727520758133,-2.424640228910136,-0.40219176158584524,1.5816004824269487,-0.47808180987783455,-2.047790835743302,-0.016699647630829647,0.10800000000000008,-0.09153116017010202,-0.002395384601545354,-0.068372658358993,-0.06844759297571669,3.736467537769807,1.9505374804722213,0.2802518815015741,-0.0011970526252870614,-0.0178340680900717,-0.19591541808316845
1750762182.904697,-1.9190063059974412,-2.424423228910136,-0.4023756714169284,1.5815956694782585,-0.4782191882747222,-2.047928364703262,-0.016854273997781773,0.10900000000000008,-0.09237867091241778,-0.0024175640885967,-0.06900573852898369,-0.0690813669847511,3.7372778095007773,1.9512005667754047,0.2802545627339051,-0.0011988708302936803,-0.01783406808949301,-0.19598320513163522
1750762182.9066308,-1.9190401691718044,-2.4242042289101358,-0.4025612762694948,1.5815908121705944,-0.4783578328319509,-2.0480671612112413,-0.0170089003647339,0.11000000000000008,-0.09322618165473354,-0.0024397435756480456,-0.06963881869897436,-0.06971514099378551,3.7380955214163034,1.9518697086013412,0.2802572676590989,-0.001200705627333531,-0.017834068088909378,-0.19605163974012618
1750762182.9086158,-1.9190743415989004,-2.423983228910136,-0.402748576143547,1.581585910503956,-0.4784977435495188,-2.0482072252672374,-0.017163526731686026,0.11100000000000008,-0.0940736923970493,-0.0024619230626993917,-0.07027189886896504,-0.07034891500281992,3.738920672731193,1.9525449043924892,0.28025999624885584,-0.0012025570117277903,-0.0178340680883224,-0.1961207225248082
1750762182.9106448,-1.9191088232787301,-2.423760228910136,-0.40293757103908323,1.5815809644783434,-0.47863892042742684,-2.048348556871252,-0.017318153098638153,0.11200000000000009,-0.09492120313936506,-0.0024841025497507373,-0.0709049790389557,-0.07098268901185434,3.739753262652135,1.9532261525761785,0.28026274847460514,-0.0012044249787490817,-0.017834068087730554,-0.19619045410692776
1750762182.9133494,-1.9191436142112952,-2.423535228910136,-0.40312826095610443,1.581575974093757,-0.4787813634656741,-2.0484911560232852,-0.01747277946559028,0.11300000000000009,-0.09576871388168082,-0.0025062820368020834,-0.07153805920894639,-0.07161646302088875,3.740593290377655,1.9539134515645808,0.28026552430750634,-0.0012063095236218321,-0.017834068087135425,-0.19626083511284775
1750762182.9158435,-1.9191436142112952,-2.423535228910136,-0.40312826095610443,1.581575974093757,-0.4787813634656741,-2.0484911560232852,-0.01747277946559028,0.11300000000000009,-0.09576871388168082,-0.0025062820368020834,-0.07153805920894639,-0.07161646302088875,3.740593290377655,1.9539134515645808,0.28026552430750634,-0.0012063095236218321,-0.017834068087135425,-0.19626083511284775
1750762182.9168434,-1.919178714396593,-2.4233082289101358,-0.4033206458946097,1.5815709393501962,-0.47892507266426243,-2.048635022723335,-0.017627405832542405,0.11400000000000009,-0.09661622462399656,-0.002528461523853429,-0.07217113937893706,-0.07225023702992317,3.741440755098078,1.954606799754718,0.28026832371844895,-0.0012082106415218753,-0.017834068086535492,-0.1963318661740047
1750762182.918847,-1.9192141238346245,-2.423079228910136,-0.4035147258546008,1.5815658602476614,-0.47907004802319,-2.0487801569714046,-0.01778203219949453,0.11500000000000009,-0.09746373536631232,-0.002550641010904775,-0.07280421954892774,-0.07288401103895759,3.74229565599551,1.955306195528392,0.28027114667804853,-0.0012101283275764013,-0.017834068085932353,-0.19640354792690234
1750762182.9209397,-1.9192498425253905,-2.422848228910136,-0.40371050083607507,1.5815607367861526,-0.47921628954245765,-2.0489265587674916,-0.017936658566446658,0.11600000000000009,-0.09831124610862808,-0.0025728204979561207,-0.07343729971891842,-0.073517785047992,3.7431579922438356,1.956011637252192,0.28027399315665336,-0.0012120625768636847,-0.01783406808532486,-0.19647588101309574
1750762182.9226983,-1.919285870468891,-2.422615228910136,-0.4039079708390352,1.5815555689656697,-0.47936379722206546,-2.0490742281115963,-0.018091284933398784,0.11700000000000009,-0.09915875685094384,-0.002594999985007467,-0.07407037988890909,-0.07415155905702642,3.744027763008643,1.9567231232774533,0.28027686312433747,-0.0012140133844130972,-0.017834068084713058,-0.19654886607917618
1750762182.924806,-1.9193222076651244,-2.422380228910136,-0.40410713586347935,1.5815503567862126,-0.4795125710620134,-2.0492231650037196,-0.01824591130035091,0.11800000000000009,-0.1000062675932596,-0.0026171794720588125,-0.07470346005889977,-0.07478533306606082,3.7449049674472294,1.9574406519402532,0.28027975655090387,-0.0012159807452047525,-0.017834068084098143,-0.1966225037767509
1750762182.9266853,-1.9193588541140922,-2.422143228910136,-0.4043079959094076,1.5815451002477814,-0.47966261106230146,-2.0493733694438614,-0.018400537667303037,0.11900000000000009,-0.10085377833557536,-0.0026393589591101585,-0.07533654022889044,-0.07541910707509523,3.7457896047085746,1.9581642215613475,0.2802826734058828,-0.0012179646541696397,-0.017834068083478597,-0.19669679476245233
1750762182.9287279,-1.9193958098157937,-2.421904228910136,-0.40451055097682165,1.5815397993503761,-0.47981391722292877,-2.04952484143202,-0.018555164034255164,0.12000000000000009,-0.10170128907789112,-0.002661538446161504,-0.07596962039888112,-0.07605288108412965,3.7466816739332915,1.9588938304461858,0.2802856136585322,-0.0012199651061890156,-0.017834068082856012,-0.19677173969787448
1750762182.9308152,-1.9194330747702288,-2.421663228910136,-0.4047148010657198,1.5815344540939968,-0.4799664895438971,-2.049677580968197,-0.01870979040120729,0.1210000000000001,-0.10254879982020688,-0.0026837179332128503,-0.07660270056887179,-0.07668665509316407,3.7475811742536145,1.959629476884859,0.2802885772778369,-0.001221982096094732,-0.01783406808222886,-0.19684733924960549
1750762182.9331443,-1.9194330747702288,-2.421663228910136,-0.4047148010657198,1.5815344540939968,-0.4799664895438971,-2.049677580968197,-0.01870979040120729,0.1210000000000001,-0.10254879982020688,-0.0026837179332128503,-0.07660270056887179,-0.07668665509316407,3.7475811742536145,1.959629476884859,0.2802885772778369,-0.001221982096094732,-0.01783406808222886,-0.19684733924960549
1750762182.9349844,-1.9195085324373018,-2.421175228910136,-0.40512838630797,1.5815236305043157,-0.48027543266685235,-2.049986862684606,-0.019019043135111543,0.1230000000000001,-0.1042438213048384,-0.002728076907315542,-0.07786886090885314,-0.0779542031112329,3.749402464667948,1.9611188755071611,0.28029457449098477,-0.0012260656686431026,-0.01783406808096414,-0.19700050489310586
1750762182.9367888,-1.9195467251499387,-2.420928228910136,-0.4053377214613212,1.581518152171014,-0.4804318034688402,-2.050143404864838,-0.01917366950206367,0.1240000000000001,-0.10509133204715417,-0.0027502563943668876,-0.07850194107884383,-0.07858797712026731,3.7503242529842575,1.9618726241939881,0.28029760802143006,-0.0012281322406996879,-0.017834068080326632,-0.19707807234277386
1750762182.9387763,-1.9195852271153102,-2.420679228910136,-0.4055487516361582,1.5815126294787383,-0.48058944043116725,-2.0503012145930875,-0.019328295869015796,0.12500000000000008,-0.10593884278946991,-0.0027724358814182333,-0.0791350212488345,-0.07922175112930172,3.7512534688407264,1.9626324034409812,0.2803006647917341,-0.0012302153294701372,-0.017834068079684712,-0.19715629712451097
1750762182.940747,-1.9196240383334153,-2.420428228910136,-0.4057614768324793,1.5815070624274883,-0.48074834355383533,-2.0504602918693546,-0.019482922235967922,0.12600000000000008,-0.10678635353178567,-0.0027946153684695794,-0.07976810141882516,-0.07985552513833613,3.7521901113272396,1.9633982114610924,0.2803037447695109,-0.0012323149295357491,-0.01783406807903958,-0.19723517992954884
1750762182.942712,-1.919663158804254,-2.420175228910136,-0.40597589705028536,1.5815014510172645,-0.48090851283684266,-2.0506206366936404,-0.01963754860292005,0.12700000000000009,-0.10763386427410143,-0.002816794855520925,-0.08040118158881585,-0.08048929914737055,3.753134179525136,1.964170046451743,0.28030684792210153,-0.0012344310354269325,-0.01783406807839127,-0.1973147214539709
1750762182.9448428,-1.9197025885278265,-2.419920228910136,-0.40619201228957547,1.5814957952480664,-0.481069948280191,-2.0507822490659446,-0.019792174969872175,0.12800000000000009,-0.10848137501641719,-0.002838974342572271,-0.08103426175880651,-0.08112307315640495,3.7540856725071676,1.964947906594833,0.28030997421657033,-0.0012365636416235629,-0.017834068077738654,-0.1973949223987359
1750762182.9467425,-1.9197423275041334,-2.419663228910136,-0.4064098225503514,1.581490095119894,-0.4812326498838786,-2.0509451289862657,-0.0199468013368243,0.1290000000000001,-0.10932888575873295,-0.0028611538296236167,-0.0816673419287972,-0.08175684716543936,3.7550445893374675,1.9657317900566817,0.28031312361970595,-0.0012387127425545173,-0.01783406807708333,-0.19747578346966146
1750762182.9487395,-1.919782375733174,-2.419404228910136,-0.4066293278326105,1.5814843506327478,-0.4813966176479054,-2.051109276454606,-0.020101427703776428,0.1300000000000001,-0.11017639650104871,-0.002883333316674963,-0.08230042209878788,-0.08239062117447378,3.7560109290715262,1.9665216949880295,0.28031629609802144,-0.0012408783325974229,-0.017834068076424164,-0.19755730537736485
1750762182.9507265,-1.9198227332149482,-2.419143228910136,-0.40685052813635547,1.5814785617866274,-0.48156185157227327,-2.0512746914709643,-0.020256054070728554,0.1310000000000001,-0.11102390724336447,-0.0029055128037263084,-0.08293350226877855,-0.0830243951835082,3.7569846907561484,1.9673176195239863,0.2803194916177533,-0.0012430604060787074,-0.017834068075761194,-0.1976394888372934
1750762182.9527586,-1.919863399949457,-2.418880228910136,-0.4070734234615845,1.5814727285815329,-0.48172835165698125,-2.05144137403534,-0.02041068043768068,0.1320000000000001,-0.11187141798568023,-0.0029276922907776545,-0.08356658243876923,-0.08365816919254261,3.7579658734294425,1.9681195617840077,0.2803227101448606,-0.0012452589572733337,-0.017834068075095633,-0.19772233456968324
1750762182.9548087,-1.9199043759366994,-2.418615228910136,-0.40729801380829755,1.5814668510174643,-0.48189611790202846,-2.0516093241477344,-0.020565306804632807,0.1330000000000001,-0.11271892872799599,-0.002949871777829,-0.0841996626087599,-0.08429194320157703,3.758954476120773,1.9689275198718834,0.28032595164502644,-0.0012474739804045369,-0.017834068074425957,-0.19780584329954737
1750762182.9567375,-1.9199456611766754,-2.418348228910136,-0.40752429917649646,1.5814609290944215,-0.4820651503074158,-2.0517785418081464,-0.020719933171584933,0.1340000000000001,-0.11356643947031175,-0.0029720512648803462,-0.08483274277875058,-0.08492571721061144,3.7599504978507348,1.9697414918756886,0.2803292160836553,-0.0012497054696438414,-0.017834068073753765,-0.19789001575665732
1750762182.9636075,-1.919987255669386,-2.418079228910136,-0.40775227956617943,1.5814549628124048,-0.4822354488731433,-2.051949027016576,-0.02087455953853706,0.1350000000000001,-0.11441395021262751,-0.0029942307519316923,-0.08546582294874125,-0.08555949121964584,3.760953937631125,1.970561475867761,0.2803325034258745,-0.001251953419110593,-0.017834068073077535,-0.1979748526755217
1750762182.9640129,-1.9200291594148293,-2.417808228910136,-0.40798195497734646,1.581448952171414,-0.4824070135992109,-2.052120779773025,-0.021029185905489186,0.1360000000000001,-0.11526146095494327,-0.003016410238983038,-0.08609890311873193,-0.08619326522868026,3.761964794464896,1.9713874699046774,0.2803358136365327,-0.001254217822872185,-0.01783406807239887,-0.19806035479538983
1750762182.9642622,-1.9200291594148293,-2.417808228910136,-0.40798195497734646,1.581448952171414,-0.4824070135992109,-2.052120779773025,-0.021029185905489186,0.1360000000000001,-0.11526146095494327,-0.003016410238983038,-0.08609890311873193,-0.08619326522868026,3.761964794464896,1.9713874699046774,0.2803358136365327,-0.001254217822872185,-0.01783406807239887,-0.19806035479538983
1750762182.9646661,-1.9200713724130072,-2.417535228910136,-0.40821332540999933,1.581442897171449,-0.48257984448561864,-2.052293800077491,-0.021183812272441312,0.1370000000000001,-0.11610897169725902,-0.003038589726034384,-0.0867319832887226,-0.08682703923771468,3.762983067346155,1.9722194720272164,0.2803391466802002,-0.0012564986749434438,-0.017834068071716246,-0.19814652286019016
1750762182.966849,-1.9201138946639196,-2.417260228910136,-0.40844639086413537,1.5814367978125097,-0.4827539415323656,-2.0524680879299755,-0.02133843863939344,0.1380000000000001,-0.11695648243957478,-0.0030607692130857297,-0.08736506345871328,-0.08746081324674909,3.764008755260102,1.9730574802603345,0.2803425025211672,-0.0012587959692867206,-0.017834068071031273,-0.1982333576185558
1750762182.9688497,-1.9201567261675656,-2.416983228910136,-0.40868115133975724,1.5814306540945966,-0.4829293047394536,-2.0526436433304784,-0.021493065006345565,0.1390000000000001,-0.11780399318189054,-0.0030829487001370758,-0.08799814362870395,-0.08809458725578351,3.7650418571830033,1.973901492613135,0.2803458811234464,-0.0012611096998116438,-0.01783406807034242,-0.1983208598237854
1750762182.9709291,-1.9201998669239444,-2.416704228910136,-0.4089176068368632,1.5814244660177093,-0.48310593410688085,-2.052820466278999,-0.02164769137329769,0.1400000000000001,-0.1186515039242063,-0.0031051281871884214,-0.08863122379869463,-0.08872836126481792,3.7660823720821672,1.9747515070788417,0.2803492824507697,-0.0012634398603749044,-0.017834068069651297,-0.1984090302338278
1750762182.9726732,-1.9202433169330586,-2.416423228910136,-0.40915575735545406,1.5814182335818479,-0.4832838296346482,-2.052998556775538,-0.021802317740249818,0.1410000000000001,-0.11949901466652206,-0.0031273076742397675,-0.08926430396868532,-0.08936213527385234,3.7671302989159154,1.9756075216347515,0.2803527064665882,-0.00126578644478013,-0.01783406806895677,-0.19849786961126323
1750762182.9748077,-1.9202870761949056,-2.416140228910136,-0.409395602895529,1.5814119567870122,-0.4834629913227557,-2.053177914820095,-0.021956944107201944,0.1420000000000001,-0.12034652540883782,-0.003149487161291113,-0.08989738413867598,-0.08999590928288675,3.768185636633532,1.9764695342422405,0.28035615313407386,-0.0012681494467775974,-0.01783406806825888,-0.19858737872328613
1750762182.9766812,-1.920331144709487,-2.415855228910136,-0.4096371434570898,1.5814056356332027,-0.48364341917120246,-2.0533585404126686,-0.02211157047415407,0.1430000000000001,-0.12119403615115358,-0.003171666648342459,-0.09053046430866667,-0.09062968329192116,3.7692483841752495,1.977337542846689,0.28035962241611656,-0.0012705288600641164,-0.017834068067558845,-0.19867755834168005
1750762182.9800222,-1.9203755224768022,-2.415568228910136,-0.40988037904013375,1.581399270120419,-0.4838251131799902,-2.0535404335532625,-0.022266196841106197,0.1440000000000001,-0.12204154689346934,-0.003193846135393805,-0.09116354447865734,-0.09126345730095557,3.770318540472195,1.9782115453774793,0.28036311427532545,-0.0012729246782829232,-0.01783406806685514,-0.19876840924282332
1750762182.9808278,-1.9204202094968519,-2.415279228910136,-0.41012530964466354,1.581392860248661,-0.4840080733491172,-2.0537235942418732,-0.022420823208058323,0.1450000000000001,-0.1228890576357851,-0.003216025622445151,-0.09179662464864802,-0.09189723130998999,3.7713961044463793,1.979091539747962,0.2803666286740275,-0.0012753368950232551,-0.017834068066149376,-0.19885993220762138
1750762182.9829087,-1.9204652057696343,-2.414988228910136,-0.4103719352706774,1.581386406017929,-0.48419229967858435,-2.0539080224785025,-0.02257544957501045,0.1460000000000001,-0.12373656837810086,-0.0032382051094964966,-0.09242970481863869,-0.0925310053190244,3.772481075010642,1.979977523855426,0.2803701655742683,-0.001277765503820356,-0.017834068065440026,-0.19895212802153628
1750762182.9848468,-1.9205105112951522,-2.4146952289101358,-0.4106202559181753,1.581379907428223,-0.4843777921683916,-2.0540937182631493,-0.022730075941962576,0.1470000000000001,-0.12458407912041662,-0.0032603845965478427,-0.09306278498862937,-0.09316477932805882,3.7735734510686383,1.9808694955810415,0.2803737249378101,-0.0012802104981552319,-0.017834068064728703,-0.1990449974745421
1750762182.9867594,-1.9205561260734028,-2.414400228910136,-0.41087027158715905,1.581373364479543,-0.484564550818539,-2.054280681595815,-0.022884702308914703,0.1480000000000001,-0.12543158986273237,-0.0032825640835991883,-0.09369586515862004,-0.09379855333709324,3.7746732315147775,1.9817674527898739,0.2803773067261332,-0.0012826718714544244,-0.01783406806401388,-0.1991385413611097
1750762182.9887798,-1.920602050104387,-2.414103228910136,-0.41112198227762686,1.5813667771718887,-0.4847525756290265,-2.054468912476498,-0.02303932867586683,0.1490000000000001,-0.12627910060504813,-0.0033047435706505344,-0.09432894532861072,-0.09443232734612765,3.7757804152342125,1.9826713933308113,0.2803809109004325,-0.0012851496170898779,-0.01783406806329717,-0.19923276048018995
1750762182.9908164,-1.9206482833881058,-2.413804228910136,-0.41137538798957873,1.5813601455052604,-0.4849418665998533,-2.0546584109051995,-0.023193955042818955,0.1500000000000001,-0.1271266113473639,-0.00332692305770188,-0.09496202549860139,-0.09506610135516205,3.7768950011028055,1.9835813150365527,0.28038453742162206,-0.0012876437283785881,-0.017834068062577056,-0.19932765563518415
1750762182.9928305,-1.9206948259245582,-2.413503228910136,-0.41163048872301644,1.5813534694796578,-0.48513242373102106,-2.054849176881918,-0.023348581409771082,0.1510000000000001,-0.12797412208967965,-0.003349102544753226,-0.09559510566859207,-0.09569987536419647,3.7780169879870673,1.9844972157235758,0.28038818625033035,-0.0012901541985827559,-0.017834068061855134,-0.19942322763395187
1750762182.9948485,-1.9207416777137452,-2.413200228910136,-0.4118872844779382,1.5813467490950812,-0.4853242470225281,-2.0550412104066558,-0.023503207776723208,0.1520000000000001,-0.1288216328319954,-0.0033712820318045717,-0.09622818583858275,-0.09633364937323088,3.7791463747441503,1.9854190931920952,0.28039185734690053,-0.001292681020909024,-0.017834068061130286,-0.19951947728874136
1750762182.996787,-1.9207888387556658,-2.412895228910136,-0.41214577525434404,1.5813399843515306,-0.4855173364743752,-2.0552345114794113,-0.023657834143675335,0.1530000000000001,-0.12966914357431117,-0.003393461518855918,-0.09686126600857342,-0.0969674233822653,3.7802831602217917,1.9863469452260425,0.2803955506713924,-0.001295224188508837,-0.01783406806040256,-0.1996164054162162
1750762182.9988244,-1.92083630905032,-2.412588228910136,-0.4124059610522348,1.5813331752490059,-0.4857116920865625,-2.0554290801001844,-0.02381246051062746,0.1540000000000001,-0.13051665431662693,-0.0034156410059072635,-0.0974943461785641,-0.09760119739129972,3.781427343258293,1.987280769593021,0.2803992661835792,-0.0012977836944778691,-0.01783406805967316,-0.1997140128374114
1750762183.0008388,-1.9208840885977079,-2.412279228910136,-0.41266784187161054,1.5813263217875069,-0.48590731385908903,-2.055624916268976,-0.023967086877579587,0.1550000000000001,-0.1313641650589427,-0.0034378204929586095,-0.09812742634855477,-0.09823497140033413,3.7825789226824793,1.9882205640442834,0.280403003842949,-0.0013003595318560655,-0.017834068058940583,-0.19981230037771794
1750762183.0028014,-1.9209321773978303,-2.411968228910136,-0.4129314177124712,1.581319423967034,-0.48610420179195657,-2.0558220199857864,-0.024121713244531714,0.1560000000000001,-0.13221167580125845,-0.0034599999800099556,-0.09876050651854545,-0.09886874540936855,3.783737897313663,1.9891663263146884,0.2804067636087032,-0.0013029516936271797,-0.017834068058206427,-0.19991126886686103
1750762183.0050528,-1.9209805754506863,-2.411655228910136,-0.41319668857481595,1.581312481787587,-0.48630235588516335,-2.0560203912506143,-0.02427633961148384,0.1570000000000001,-0.1330591865435742,-0.0034821794670613013,-0.09939358668853612,-0.09950251941840295,3.7849042659615977,1.990118054122679,0.2804105454397568,-0.0013055601727187858,-0.01783406805746918,-0.2000109191388746
1750762183.0106468,-1.9209805754506863,-2.411655228910136,-0.41319668857481595,1.581312481787587,-0.48630235588516335,-2.0560203912506143,-0.02427633961148384,0.1570000000000001,-0.1330591865435742,-0.0034821794670613013,-0.09939358668853612,-0.09950251941840295,3.7849042659615977,1.990118054122679,0.2804105454397568,-0.0013055601727187858,-0.01783406805746918,-0.2000109191388746
1750762183.0110588,-1.921029282756276,-2.4113402289101358,-0.41346365445864475,1.5813054952491659,-0.48650177613871026,-2.05622003006346,-0.024430965978435967,0.1580000000000001,-0.13390669728588997,-0.0035043589541126473,-0.1000266668585268,-0.10013629342743736,3.7860780274264574,1.9910757451702419,0.2804143492947382,-0.0013081849620020978,-0.01783406805673045,-0.20011125203210317
1750762183.0113194,-1.9210782993145994,-2.411023228910136,-0.4137323153639594,1.5812984643517705,-0.4867024625525973,-2.056420936424324,-0.024585592345388093,0.1590000000000001,-0.13475420802820573,-0.003526538441163993,-0.10065974702851747,-0.10077006743647178,3.7872591804987876,1.9920393971428714,0.2804181751319873,-0.001310826054291418,-0.017834068055988726,-0.20021226838913406
1750762183.012768,-1.9211276251256582,-2.410704228910136,-0.4140026712907581,1.581291389095401,-0.4869044151268245,-2.0566231103332058,-0.02474021871234022,0.16000000000000011,-0.1356017187705215,-0.003548717928215339,-0.10129282719850816,-0.1014038414455062,3.7884477239594845,1.9930090077095375,0.280422022909557,-0.0013134834423443504,-0.01783406805524561,-0.20031396905682233
1750762183.01477,-1.9211772601894488,-2.410383228910136,-0.4142747222390408,1.5812842694800575,-0.4871076338613918,-2.056826551790106,-0.024894845079292346,0.16100000000000012,-0.13644922951283725,-0.0035708974152666847,-0.10192590736849882,-0.10203761545454061,3.789643656579726,1.9939845745226734,0.2804258925852115,-0.0013161571188612894,-0.01783406805449959,-0.20041635488624585
1750762183.0166957,-1.9212272045059748,-2.410060228910136,-0.4145484682088094,1.58127710550574,-0.4873121187562983,-2.057031260795023,-0.025049471446244472,0.16200000000000012,-0.137296740255153,-0.003593076902318031,-0.10255898753848951,-0.10267138946357503,3.7908469771209745,1.9949660952180925,0.2804297841164258,-0.001318847076485415,-0.01783406805375228,-0.20051942673268672
1750762183.018716,-1.9212774580752345,-2.409735228910136,-0.41482390920006207,1.5812698971724484,-0.4875178698115459,-2.0572372373479597,-0.0252040978131966,0.16300000000000012,-0.13814425099746877,-0.0036152563893693764,-0.10319206770848018,-0.10330516347260944,3.7920576843349063,1.9959535674150037,0.28043369746038677,-0.0013215533078022846,-0.01783406805300216,-0.20062318545561178
1750762183.0208037,-1.9213280208972279,-2.4094082289101357,-0.4151010452127988,1.5812626444801825,-0.4877248870271327,-2.057444481448915,-0.025358724180148725,0.16400000000000012,-0.13899176173978453,-0.0036374358764207225,-0.10382514787847086,-0.10393893748164386,3.7932757769633856,1.9969469887159517,0.28043763257399035,-0.0013242758053398317,-0.01783406805225084,-0.20072763191864873
1750762183.0227458,-1.9213788929719549,-2.409079228910136,-0.41537987624702133,1.5812553474289426,-0.4879331704030596,-2.0576529930978866,-0.02551335054710085,0.16500000000000012,-0.1398392724821003,-0.003659615363472068,-0.10445822804846154,-0.10457271149067826,3.794501253738433,1.9979463567067832,0.2804415894138434,-0.0013270145615678624,-0.017834068051497197,-0.2008327669895578
1750762183.0257685,-1.9214300742994155,-2.408748228910136,-0.41566040230272705,1.5812480060187286,-0.4881427199393267,-2.057862772294877,-0.025667976914052978,0.16600000000000012,-0.14068678322441605,-0.0036817948505234142,-0.10509130821845221,-0.10520648549971268,3.7957341133821756,1.9989516689566194,0.2804455679362617,-0.0013297695688982518,-0.017834068050741284,-0.20093859154023588
1750762183.0268297,-1.9214815648796115,-2.408415228910136,-0.4159426233799186,1.5812406202495406,-0.488353535635933,-2.058073819039885,-0.025822603281005104,0.16700000000000012,-0.1415342939667318,-0.00370397433757476,-0.10572438838844289,-0.10584025950874709,3.796974354606819,1.9999629230178069,0.2804495680972699,-0.0013325408196841891,-0.017834068049984324,-0.20104510644664347
1750762183.0287342,-1.9215333647125403,-2.4080802289101357,-0.4162265394785942,1.5812331901213783,-0.4885656174928803,-2.0582861333329117,-0.02597722964795723,0.16800000000000012,-0.14238180470904757,-0.003726153824626106,-0.10635746855843356,-0.10647403351778151,3.798221976114595,2.0009801164259153,0.2804535898526019,-0.001335328306220491,-0.017834068049224796,-0.20115231258883032
1750762183.030708,-1.9215854737982028,-2.407743228910136,-0.4165121505987548,1.581225715634242,-0.48877896551016686,-2.058499715173957,-0.026131856014909357,0.16900000000000012,-0.14322931545136333,-0.0037483333116774516,-0.10699054872842424,-0.10710780752681592,3.79947697659773,2.0020032466996556,0.28045763315769884,-0.0013381320207429671,-0.017834068048464314,-0.20126021085088983
1750762183.032781,-1.9216378921365997,-2.407404228910136,-0.4167994567404003,1.5812181967881316,-0.48899357968779356,-2.0587145645630187,-0.026286482381861483,0.17000000000000012,-0.1440768261936791,-0.0037705127987287977,-0.10762362889841491,-0.10774158153585034,3.800739354738417,2.003032311340879,0.28046169796771026,-0.001340951955428484,-0.017834068047701365,-0.2013688021209382
1750762183.0348473,-1.9216906197277304,-2.407063228910136,-0.4170884579035299,1.5812106335830471,-0.4892094600257604,-2.0589306815001,-0.02644110874881361,0.17100000000000012,-0.14492433693599485,-0.0037926922857801433,-0.1082567090684056,-0.10837535554488475,3.80200910920875,2.004067307834527,0.28046578423749274,-0.0013437881023945194,-0.01783406804693757,-0.20147808729109276
1750762183.0367932,-1.9217436565715946,-2.406720228910136,-0.4173791540881435,1.5812030260189884,-0.48942660652406733,-2.059148065985198,-0.026595735115765736,0.17200000000000013,-0.1457718476783106,-0.0038148717728314894,-0.10888978923839626,-0.10900912955391916,3.8032862386707027,2.0051082336485977,0.28046989192160904,-0.001346640453699127,-0.017834068046171405,-0.20158806725744347
1750762183.038939,-1.9217970026681934,-2.406375228910136,-0.417671545294243,1.581195374095956,-0.4896450191827144,-2.0593667180183157,-0.026750361482717862,0.17300000000000013,-0.14661935842062637,-0.003837051259882835,-0.10952286940838694,-0.10964290356295357,3.804570741776099,2.0061550862341115,0.28047402097432905,-0.0013495090013405913,-0.017834068045404494,-0.20169874292005105
1750762183.0408564,-1.9218506580175259,-2.406028228910136,-0.41796563152182653,1.581187677813949,-0.48986469800170074,-2.05958663759945,-0.02690498784966999,0.17400000000000013,-0.14746686916294213,-0.003859230746934181,-0.11015594957837761,-0.11027667757198799,3.8058626171665324,2.0072078630250716,0.2804781713496279,-0.0013523937372572114,-0.017834068044635318,-0.20181011518287845
1750762183.042836,-1.921904622619592,-2.405679228910136,-0.4182614127708941,1.581179937172968,-0.4900856429810281,-2.059807824728603,-0.027059614216622115,0.17500000000000013,-0.1483143799052579,-0.003881410233985527,-0.1107890297483683,-0.1109104515810224,3.807161863473366,2.0082665614384294,0.2804823430011864,-0.0013552946533270918,-0.017834068043865496,-0.2019221849538118
1750762183.0448246,-1.9219588964743926,-2.405328228910136,-0.41855888904144756,1.581172152173013,-0.49030785412069466,-2.0600302794057743,-0.02721424058357424,0.17600000000000013,-0.14916189064757365,-0.003903589721036873,-0.11142210991835898,-0.11154422559005682,3.808468479317681,2.0093311788740422,0.2804865358823898,-0.0013582117413678777,-0.017834068043093905,-0.20203495314461448
1750762183.0468144,-1.922013479581926,-2.404975228910136,-0.41885806033348505,1.581164322814084,-0.4905313314207014,-2.0602540016309643,-0.027368866950526368,0.17700000000000013,-0.1500094013898894,-0.0039257692080882185,-0.11205519008834965,-0.11217799959909124,3.8097824633102175,2.0104017127146543,0.28049074994632855,-0.0013611449931366533,-0.0178340680423206,-0.20214842067090502
1750762183.0488343,-1.9220683719421938,-2.4046202289101357,-0.4191589266470066,1.5811564490961807,-0.4907560748810482,-2.060478991404171,-0.027523493317478494,0.17800000000000013,-0.15085691213220517,-0.003947948695139565,-0.11268827025834033,-0.11281177360812565,3.8111038140513624,2.011478160325828,0.28049498514579635,-0.0013640944003295247,-0.0178340680415468,-0.2022625884521358
1750762183.0547175,-1.9220683719421938,-2.4046202289101357,-0.4191589266470066,1.5811564490961807,-0.4907560748810482,-2.060478991404171,-0.027523493317478494,0.17800000000000013,-0.15085691213220517,-0.003947948695139565,-0.11268827025834033,-0.11281177360812565,3.8111038140513624,2.011478160325828,0.28049498514579635,-0.0013640944003295247,-0.0178340680415468,-0.2022625884521358
1750762183.0551412,-1.9221790844209323,-2.403904228910136,-0.41976574433850544,1.5811405685834519,-0.4912093602827614,-2.06093277359464,-0.027832746051382747,0.18000000000000013,-0.1525519336168367,-0.003992307669242257,-0.11395443059832168,-0.11407932162619447,3.8137686101288937,2.013648786236105,0.2805035187610117,-0.001370041647466139,-0.01783406803999481,-0.20249302847622846
1750762183.0567443,-1.922234904539402,-2.4035432289101357,-0.42007169571648095,1.5811325617886265,-0.49143790222412775,-2.0611615660119007,-0.027987372418334874,0.18100000000000013,-0.15339944435915245,-0.004014487156293602,-0.11458751076831235,-0.11471309563522888,3.8151120526138254,2.0147429591801993,0.2805078170808631,-0.0013730394704955184,-0.017834068039216725,-0.20260930257692897
1750762183.0587995,-1.9222910339106054,-2.403180228910136,-0.4203793421159414,1.5811245106348268,-0.49166771032583423,-2.06139162597718,-0.028141998785287,0.18200000000000013,-0.1542469551014682,-0.004036666643344948,-0.11522059093830303,-0.1153468696442633,3.816462856144362,2.015843035184754,0.2805121363444495,-0.0013760534151199032,-0.01783406803843836,-0.20272628064819265
1750762183.060682,-1.9223474725345433,-2.402815228910136,-0.4206886835368868,1.5811164151220531,-0.49189878458788083,-2.0616229534904775,-0.028296625152239126,0.18300000000000013,-0.15509446584378397,-0.004058846130396294,-0.1158536711082937,-0.11598064365329772,3.817821019268421,2.016949011528955,0.2805164765030773,-0.0013790834727273138,-0.017834068037658208,-0.20284396362825602
1750762183.0626435,-1.9224042204112148,-2.402448228910136,-0.4209997199793172,1.5811082752503052,-0.49213112501026757,-2.0618555485517938,-0.028451251519191253,0.18400000000000014,-0.15594197658609973,-0.00408102561744764,-0.11648675127828438,-0.11661441766233213,3.8191865405232908,2.018060885474603,0.28052083750775464,-0.0013821296346435855,-0.017834068036877888,-0.20296235245903282
1750762183.064616,-1.92246127754062,-2.402079228910136,-0.4213124514432316,1.5811000910195832,-0.49236473159299443,-2.0620894111611268,-0.02860587788614338,0.18500000000000014,-0.1567894873284155,-0.004103205104498985,-0.11711983144827505,-0.11724819167136655,3.8205594184356,2.019178654266063,0.28052521930918967,-0.0013851918921319025,-0.01783406803609588,-0.20308144808609493
1750762183.0667262,-1.9225186439227588,-2.401708228910136,-0.4216268779286301,1.5810918624298873,-0.49259960433606054,-2.062324541318479,-0.028760504253095506,0.18600000000000014,-0.15763699807073125,-0.0041253845915503315,-0.11775291161826573,-0.11788196568040096,3.82193965152127,2.0203023151302335,0.28052962185779085,-0.0013882702363927446,-0.017834068035313816,-0.2032012514586408
1750762183.0705662,-1.9225763195576322,-2.4013352289101357,-0.4219429994355144,1.581083589481217,-0.49283574323946766,-2.0625609390238484,-0.028915130620047632,0.18700000000000014,-0.158484508813047,-0.0041475640786016775,-0.11838599178825641,-0.11851573968943536,3.8233272382854775,2.0214318652765075,0.28053404510366703,-0.0013913646585634325,-0.017834068034530567,-0.203321763529467
1750762183.0710464,-1.9226343044452392,-2.4009602289101357,-0.42226081596388276,1.5810752721735728,-0.493073148303214,-2.062798604277237,-0.02906975698699976,0.18800000000000014,-0.15933201955536275,-0.004169743565653024,-0.11901907195824708,-0.11914951369846978,3.8247221772225997,2.0225673018967267,0.28053848899662304,-0.0013944751497181075,-0.0178340680337462,-0.20344298525496626
1750762183.0727618,-1.9226925985855798,-2.400583228910136,-0.4225803275137361,1.5810669105069544,-0.4933118195273005,-2.0630375370786425,-0.029224383353951885,0.18900000000000014,-0.1601795302976785,-0.004191923052704369,-0.11965215212823777,-0.1197832877075042,3.8261244668161787,2.0237086221651546,0.28054295348616687,-0.0013976017008672193,-0.01783406803296193,-0.20356491759505094
1750762183.0748138,-1.922751201978655,-2.4002042289101357,-0.42290153408507347,1.5810585044813619,-0.49355175691172715,-2.0632777374280664,-0.02937900972090401,0.19000000000000014,-0.16102704103999427,-0.004214102539755715,-0.12028523229822843,-0.12041706171653861,3.827534105538884,2.024855823238424,0.28054743852150194,-0.0014007443029575976,-0.01783406803217626,-0.20368756151317616
1750762183.0767636,-1.9228101146244638,-2.3998232289101358,-0.4232244356778958,1.5810500540967953,-0.493792960456493,-2.063519205325509,-0.029533636087856138,0.19100000000000014,-0.16187455178231003,-0.004236282026807061,-0.12091831246821912,-0.12105083572557303,3.8289510918524465,2.0260089022555077,0.2805519440515298,-0.0014039029468718672,-0.0178340680313908,-0.20381091797628764
1750762183.0787911,-1.9228693365230063,-2.399440228910136,-0.4235490322922022,1.5810415593532547,-0.4940354301615999,-2.063761940770969,-0.029688262454808264,0.19200000000000014,-0.1627220625246258,-0.004258461513858407,-0.12155139263820978,-0.12168460973460744,3.8303754242076398,2.0271678563376705,0.28055647002484924,-0.0014070776234284626,-0.017834068030604056,-0.20393498795480283
1750762183.0807743,-1.9229288676742833,-2.399055228910136,-0.42387532392799443,1.5810330202507399,-0.494279166027046,-2.064005943764448,-0.02984288882176039,0.19300000000000014,-0.16356957326694155,-0.004280641000909752,-0.12218447280820047,-0.12231838374364186,3.831807101044225,2.0283326825884362,0.28056101638975584,-0.0014102683233812418,-0.017834068029817636,-0.20405977242257659
1750762183.0827956,-1.922988708078293,-2.398668228910136,-0.4242033105852707,1.5810244367892512,-0.4945241680528323,-2.064251214305944,-0.029997515188712517,0.19400000000000014,-0.1644170840092573,-0.004302820487961098,-0.12281755297819114,-0.12295215775267626,3.833246120790891,2.0295033780935428,0.28056558309424084,-0.001413475037419279,-0.01783406802903004,-0.20418527235687578
1750762183.0847712,-1.9230488577350382,-2.398279228910136,-0.4245329922640311,1.5810158089687882,-0.49477043623895867,-2.064497752395458,-0.030152141555664643,0.19500000000000015,-0.16526459475157307,-0.004324999975012444,-0.12345063314818182,-0.12358593176171068,3.834692481865242,2.0306799399208972,0.28057017008599167,-0.0014166977561666494,-0.01783406802824289,-0.2043114887383729
1750762183.0868738,-1.9231093166445161,-2.3978882289101358,-0.4248643689642764,1.581007136789351,-0.4950179705854252,-2.0647455580329908,-0.03030676792261677,0.19600000000000015,-0.16611210549388883,-0.0043471794620637905,-0.12408371331817249,-0.12421970577074509,3.83614618267372,2.031862365120556,0.2805747773123906,-0.0014199364701819922,-0.017834068027454672,-0.20443842255107142
1750762183.0889113,-1.9231700848067286,-2.397495228910136,-0.4251974406860066,1.58099842025094,-0.49526677109223183,-2.064994631218541,-0.030461394289568896,0.19700000000000015,-0.1669596162362046,-0.004369358949115137,-0.12471679348816317,-0.12485347977977951,3.8376072216115795,2.0330506507246526,0.2805794047205144,-0.001423191169958449,-0.017834068026667017,-0.20456607478232214
1750762183.0908506,-1.9232311622216747,-2.3971002289101357,-0.4255322074292218,1.5809896593535546,-0.4955168377593777,-2.0652449719521098,-0.030616020656521022,0.19800000000000015,-0.16780712697852035,-0.004391538436166482,-0.12534987365815384,-0.12548725378881392,3.8390755970628314,2.0342447937473884,0.28058405225713423,-0.0014264618459233567,-0.017834068025878416,-0.20469444642277712
1750762183.0926514,-1.9232925488893544,-2.3967032289101358,-0.4258686691939211,1.5809808540971952,-0.49576817058686373,-2.065496580233696,-0.03077064702347315,0.19900000000000015,-0.1686546377208361,-0.004413717923217828,-0.12598295382814453,-0.12612102779784834,3.8405513074002053,2.0354447911849665,0.2805887198687147,-0.0014297484884380155,-0.01783406802509088,-0.20482353846636045
1750762183.099485,-1.9233542448097687,-2.396304228910136,-0.4262068259801044,1.5809720044818618,-0.49602076957469077,-2.065749456063301,-0.030925273390425275,0.20000000000000015,-0.16950214846315187,-0.004435897410269174,-0.1266160339981352,-0.12675480180688276,3.8420343509851,2.0366506400155666,0.28059340750141365,-0.0014330510877972533,-0.017834068024301732,-0.2049533519102437
1750762183.0998812,-1.9233542448097687,-2.396304228910136,-0.4262068259801044,1.5809720044818618,-0.49602076957469077,-2.065749456063301,-0.030925273390425275,0.20000000000000015,-0.16950214846315187,-0.004435897410269174,-0.1266160339981352,-0.12675480180688276,3.8420343509851,2.0366506400155666,0.28059340750141365,-0.0014330510877972533,-0.017834068024301732,-0.2049533519102437
1750762183.1007802,-1.9235411880874134,-2.3950952289101357,-0.42723146646756494,1.5809451894820166,-0.4967861635002091,-2.066515688840224,-0.03138915249128165,0.20300000000000015,-0.17204468069009915,-0.004502435871423211,-0.12851527450810724,-0.128656123833986,3.846527464667911,2.0403032643759746,0.28060758998318225,-0.0014430545288910482,-0.017834068021937727,-0.20534713066348484
1750762183.1028466,-1.923604121018763,-2.394688228910136,-0.42757640333968716,1.5809361624307867,-0.49704382712939577,-2.0667736348619012,-0.03154377885823378,0.20400000000000015,-0.1728921914324149,-0.004524615358474557,-0.1291483546780979,-0.12928989784302042,3.8480398246285854,2.041532488198407,0.28061235715577443,-0.0014464208572417335,-0.017834068021148987,-0.2054798397441858
1750762183.104846,-1.9236673632028465,-2.394279228910136,-0.42792303523329434,1.5809270910205828,-0.4973027569189217,-2.0670328484315963,-0.031698405225185904,0.20500000000000015,-0.17373970217473067,-0.0045467948455259035,-0.12978143484808857,-0.1299236718520548,3.8495595094721606,2.042767548032865,0.28061714407565136,-0.001449803092907151,-0.017834068020361277,-0.2056132752587095
1750762183.1067672,-1.9237309146396635,-2.393868228910136,-0.42827136214838646,1.5809179752514047,-0.4975629528687877,-2.067293329549309,-0.03185303159213803,0.20600000000000016,-0.17458721291704643,-0.004568974332577249,-0.13041451501807924,-0.13055744586108922,3.851086517491058,2.044008440748469,0.2806219506871178,-0.0014532012257787998,-0.017834068019573882,-0.20574743822312203
1750762183.108635,-1.923794775329215,-2.393455228910136,-0.42862138408496264,1.5809088151232524,-0.4978244149789939,-2.0675550782150403,-0.032007657959090156,0.20700000000000016,-0.1754347236593622,-0.004591153819628595,-0.13104759518806994,-0.13119121987012364,3.8526208469660506,2.0452551631960305,0.2806267769341689,-0.0014566152456796644,-0.017834068018787643,-0.20588232965647296
1750762183.1106017,-1.9238589452715003,-2.393040228910136,-0.4289731010430238,1.5808996106361262,-0.4980871432495402,-2.067818094428789,-0.03216228432604228,0.20800000000000016,-0.17628223440167795,-0.004613333306679941,-0.1316806753580606,-0.13182499387915805,3.854162496166192,2.0465077122079927,0.2806316227604877,-0.001460045142364382,-0.01783406801800027,-0.2060179505808616
1750762183.1127417,-1.923923424466519,-2.392623228910136,-0.42932651302256897,1.5808903617900256,-0.4983511376804257,-2.0680823781905566,-0.03231691069299441,0.20900000000000016,-0.1771297451439937,-0.004635512793731287,-0.13231375552805127,-0.13245876788819247,3.855711463348783,2.047766084598383,0.280636488109446,-0.001463490905518906,-0.01783406801721418,-0.20615430202135882
1750762183.116711,-1.9239882129142725,-2.3922042289101357,-0.4296816200235991,1.5808810685849513,-0.4986163982716523,-2.0683479295003426,-0.032471537059946536,0.21000000000000016,-0.17797725588630947,-0.004657692280782632,-0.13294683569804197,-0.13309254189722688,3.857267746759322,2.049030277162786,0.28064137292410335,-0.0014669525247600719,-0.017834068016429422,-0.20629138500598615
1750762183.1171105,-1.9239882129142725,-2.3922042289101357,-0.4296816200235991,1.5808810685849513,-0.4986163982716523,-2.0683479295003426,-0.032471537059946536,0.21000000000000016,-0.17797725588630947,-0.004657692280782632,-0.13294683569804197,-0.13309254189722688,3.857267746759322,2.049030277162786,0.28064137292410335,-0.0014669525247600719,-0.017834068016429422,-0.20629138500598615
1750762183.1188653,-1.9240533106147586,-2.391783228910136,-0.4300384220461142,1.5808717310209026,-0.49888292502321807,-2.0686147483581454,-0.03262616342689866,0.21100000000000016,-0.17882476662862523,-0.004679871767833978,-0.13357991586803264,-0.1337263159062613,3.8588313446314495,2.0503002866782962,0.2806462771472065,-0.0014704299896355993,-0.017834068015643724,-0.2064292005656835
1750762183.1207762,-1.9241187175679793,-2.391360228910136,-0.43039691909011424,1.58086234909788,-0.499150717935124,-2.0688828347639667,-0.03278078979385079,0.21200000000000016,-0.179672277370941,-0.004702051254885324,-0.1342129960380233,-0.13436008991529572,3.86040225518691,2.0515761099034564,0.28065120072118926,-0.0014739232896234468,-0.01783406801485949,-0.20656774973428318
1750762183.1231112,-1.9241844337739344,-2.390935228910136,-0.43075711115559834,1.580852922815883,-0.49941977700737006,-2.0691521887178066,-0.032935416160802915,0.21300000000000016,-0.18051978811325675,-0.00472423074193667,-0.13484607620801398,-0.13499386392433013,3.8619804766354964,2.0528577435782407,0.280656143588171,-0.001477432414131869,-0.017834068014076,-0.20670703354847275
1750762183.124832,-1.9242504592326224,-2.390508228910136,-0.4311189982425674,1.5808434521749122,-0.49969010223995625,-2.069422810219665,-0.03309004252775504,0.21400000000000016,-0.1813672988555725,-0.0047464102289880164,-0.13547915637800467,-0.13562763793336455,3.863566007174991,2.0541451844240015,0.2806611056899574,-0.0014809573524989267,-0.0178340680132941,-0.20684705304776893
1750762183.126786,-1.9243167939440458,-2.390079228910136,-0.4314825803510205,1.5808339371749671,-0.49996169363288256,-2.06969469926954,-0.03324466889470717,0.21500000000000016,-0.18221480959788827,-0.004768589716039362,-0.13611223654799534,-0.13626141194239896,3.8651588449911474,2.0554384291434085,0.2806660869680389,-0.0014844980939923375,-0.017834068012511507,-0.20698780927448376
1750762183.128721,-1.9243834379082019,-2.389648228910136,-0.43184785748095855,1.580824377816048,-0.5002345511861481,-2.069967855867434,-0.033399295261659294,0.21600000000000016,-0.18306232034020403,-0.004790769203090708,-0.136745316717986,-0.13689518595143338,3.866758988257596,2.0567374744204368,0.2806710873635902,-0.0014880546278091872,-0.017834068011730632,-0.207129303273693
1750762183.130789,-1.9244503911250916,-2.389215228910136,-0.43221482963238156,1.5808147740981546,-0.5005086748997547,-2.070242280013346,-0.03355392162861142,0.21700000000000016,-0.1839098310825198,-0.004812948690142054,-0.13737839688797668,-0.1375289599604678,3.868366435135832,2.0580423169202953,0.28067610681747057,-0.001491626943075501,-0.01783406801095075,-0.2072715360932066
1750762183.1327047,-1.924517653594716,-2.388780228910136,-0.4325834968052886,1.5808051260212874,-0.5007840647737005,-2.070517971707276,-0.03370854799556355,0.21800000000000017,-0.18475734182483555,-0.0048351281771934,-0.13801147705796737,-0.1381627339695022,3.8699811837751543,2.059352953289392,0.2806811452702224,-0.001495215028846109,-0.01783406801017272,-0.20741450878353374
1750762183.1346924,-1.9245852253170739,-2.388343228910136,-0.43295385899968064,1.580795433585446,-0.5010607208079865,-2.0707949309492246,-0.03386317436251567,0.21900000000000017,-0.1856048525671513,-0.004857307664244745,-0.13864455722795804,-0.13879650797853663,3.8716032323125997,2.0606693801552924,0.2806862026620707,-0.0014988188741043476,-0.017834068009394247,-0.2075582223978531
1750762183.1368213,-1.9246531062921663,-2.387904228910136,-0.4333259162155576,1.5807856967906304,-0.5013386430026117,-2.0710731577391908,-0.0340178007294678,0.22000000000000017,-0.18645236330946707,-0.004879487151296091,-0.1392776373979487,-0.13943028198757101,3.873232578872925,2.0619915941266767,0.28069127893292367,-0.001502438467761732,-0.01783406800861775,-0.20770267799197034
1750762183.138837,-1.9247212965199925,-2.387463228910136,-0.43369966845291863,1.5807759156368408,-0.5016178313575779,-2.0713526520771746,-0.034172427096419926,0.22100000000000017,-0.18729987405178283,-0.004901666638347437,-0.1399107175679394,-0.14006405599660543,3.874869221568514,2.0633195917932845,0.2806963740223704,-0.00150607379865781,-0.01783406800784329,-0.20784787662433274
1750762183.140718,-1.9247897960005513,-2.387020228910136,-0.4340751157117646,1.580766090124077,-0.5018982858728842,-2.071633413963177,-0.03432705346337205,0.22200000000000017,-0.1881473847940986,-0.004923846125398783,-0.14054379773793008,-0.14069783000563985,3.876513158499364,2.0646533697258853,0.2807014878696818,-0.0015097248555594933,-0.017834068007068587,-0.20799381935590114
1750762183.1466758,-1.9248586047338456,-2.386575228910136,-0.43445225799209464,1.580756220252339,-0.5021800065485298,-2.071915443397197,-0.03448167983032418,0.22300000000000017,-0.18899489553641435,-0.0049460256124501285,-0.14117687790792074,-0.14133160401467426,3.8781643877530194,2.0659929244762067,0.28070662041380895,-0.0015133916271611965,-0.017834068006296055,-0.20814050725021455
1750762183.1470861,-1.9249971499586351,-2.385679228910136,-0.43521162761720955,1.5807363474319411,-0.5027472463808413,-2.0724833049092917,-0.03479093256422843,0.22500000000000017,-0.19068991702104587,-0.004990384586552821,-0.1424430382479021,-0.1425991520327431,3.88148871551633,2.0686893505415926,0.2807169413467163,-0.001520772268877339,-0.017834068004756204,-0.20843612279368276
1750762183.1487455,-1.9250668864501304,-2.385228228910136,-0.43559385496199443,1.580726344483281,-0.5030327655375073,-2.0727691369873664,-0.03494555893118056,0.22600000000000017,-0.19153742776336163,-0.005012564073604167,-0.14307611841789278,-0.1432329260417775,3.8831618101383443,2.070046214864608,0.2807221296117977,-0.0015244861160145949,-0.01783406800398745,-0.2085850525822877
1750762183.1508117,-1.9251369321943592,-2.384775228910136,-0.43597777732826337,1.5807162971756468,-0.5033195508545134,-2.073056236613459,-0.035100185298132684,0.22700000000000017,-0.1923849385056774,-0.005034743560655512,-0.14370919858788345,-0.14386670005081192,3.8848421893077685,2.0714088420211545,0.2807273363262956,-0.001528215631897039,-0.01783406800322113,-0.20873473181247032
1750762183.1527436,-1.9252072871913226,-2.384320228910136,-0.43636339471601726,1.5807062055090384,-0.5036076023318588,-2.07334460378757,-0.03525481166508481,0.22800000000000017,-0.19323244924799313,-0.005056923047706858,-0.14434227875787412,-0.14450047405984634,3.8865298510491133,2.0727772284671664,0.2807325614275571,-0.0015319608048514476,-0.017834068002456533,-0.20888516155995182
1750762183.154726,-1.9252072871913226,-2.384320228910136,-0.43636339471601726,1.5807062055090384,-0.5036076023318588,-2.07334460378757,-0.03525481166508481,0.22800000000000017,-0.19323244924799313,-0.005056923047706858,-0.14434227875787412,-0.14450047405984634,3.8865298510491133,2.0727772284671664,0.2807325614275571,-0.0015319608048514476,-0.017834068002456533,-0.20888516155995182
1750762183.156735,-1.9252779514410197,-2.383863228910136,-0.4367507071252552,1.580696069483456,-0.5038969199695442,-2.0736342385096984,-0.03540943803203694,0.22900000000000018,-0.1940799599903089,-0.005079102534758204,-0.1449753589278648,-0.14513424806888076,3.888224793374116,2.0741513706392833,0.28073780485260347,-0.0015357216231300518,-0.017834068001694504,-0.2090363429027896
1750762183.158682,-1.9253489249434512,-2.383404228910136,-0.4371397145559781,1.5806858890988993,-0.5041875037675698,-2.0739251407798456,-0.03556406439898906,0.23000000000000018,-0.19492747073262465,-0.00510128202180955,-0.14560843909785548,-0.14576802207791517,3.889927014281706,2.075531264954795,0.28074306653813735,-0.0015394980749104895,-0.01783406800093277,-0.20918827692134412
1750762183.160611,-1.9254202076986155,-2.3829432289101358,-0.43753041700818596,1.5806756643553688,-0.5044793537259356,-2.0742173105980104,-0.03571869076594119,0.23100000000000018,-0.1957749814749404,-0.005123461508860895,-0.14624151926784615,-0.1464017960869496,3.891636511757932,2.0769169078116088,0.28074834642053426,-0.0015432901482952852,-0.017834068000173738,-0.20934096469824376
1750762183.162577,-1.9254917997065144,-2.382480228910136,-0.43792281448187786,1.580665395252864,-0.5047724698446414,-2.074510747964193,-0.035873317132893316,0.23200000000000018,-0.19662249221725617,-0.0051456409959122415,-0.14687459943783684,-0.147035570095984,3.8933532837759337,2.0783082955881795,0.28075364443584566,-0.0015470978313118318,-0.017834067999417478,-0.2094944073183515
1750762183.1645913,-1.925563700967147,-2.3820152289101357,-0.4383169069770547,1.5806550817913851,-0.5050668521236874,-2.074805452878394,-0.03602794349984544,0.23300000000000018,-0.19747000295957193,-0.005167820482963588,-0.1475076796078275,-0.14766934410501842,3.895077328295869,2.0797054246434965,0.28075896051979915,-0.0015509211119117117,-0.017834067998661718,-0.20964860586872805
1750762183.1677155,-1.925635911480514,-2.3815482289101357,-0.4387126944937165,1.580644723970932,-0.5053625005630726,-2.0751014253406126,-0.03618256986679757,0.23400000000000018,-0.1983175137018877,-0.005189999970014934,-0.14814075977781818,-0.14830311811405283,3.8968086432648663,2.081108291316999,0.28076429460779534,-0.0015547599779707347,-0.01783406799790887,-0.2098035614385992
1750762183.1687822,-1.9257084312466146,-2.381079228910136,-0.4391101770318624,1.580634321791505,-0.505659415162798,-2.07539866535085,-0.036337196233749695,0.23500000000000018,-0.19916502444420345,-0.00521217945706628,-0.14877383994780885,-0.14893689212308722,3.8985472266169716,2.0825168919285635,0.2807696466349096,-0.0015586144172883632,-0.017834067997158216,-0.2099592751193081
1750762183.1707397,-1.925781260265449,-2.380608228910136,-0.4395093545914932,1.5806238752531039,-0.5059575959228644,-2.0756971729091056,-0.03649182260070182,0.23600000000000018,-0.2000125351865192,-0.005234358944117625,-0.14940692011779955,-0.14957066613212164,3.900293076273098,2.0839312227784337,0.28077501653589026,-0.0015624844175878504,-0.017834067996410612,-0.21011574800433153
1750762183.1728487,-1.925854398537017,-2.380135228910136,-0.4399102271726081,1.5806133843557286,-0.50625704284327,-2.075996948015378,-0.03664644896765395,0.23700000000000018,-0.20086004592883497,-0.005256538431168971,-0.15004000028779022,-0.15020444014115605,3.902046190140964,2.085351280147184,0.28078040424515843,-0.0015663699665152942,-0.017834067995663783,-0.21027298118914367
1750762183.174776,-1.9259278460613194,-2.379660228910136,-0.4403127947752079,1.580602849099379,-0.5065577559240149,-2.07629799066967,-0.036801075334606075,0.23800000000000018,-0.20170755667115073,-0.005278717918220317,-0.15067308045778088,-0.15083821415019047,3.9038065661150476,2.086777060295662,0.28078580969680683,-0.0015702710516398188,-0.017834067994920145,-0.21043097577128023
1750762183.1769083,-1.9260016028383555,-2.379183228910136,-0.4407170573992927,1.5805922694840557,-0.5068597351651007,-2.076600300871979,-0.0369557017015582,0.23900000000000018,-0.2025550674134665,-0.005300897405271663,-0.15130616062777155,-0.15147198815922489,3.905574202076522,2.088208559464956,0.2807912328246003,-0.0015741876604531005,-0.017834067994178984,-0.21058973285025281
1750762183.1787758,-1.9260756688681262,-2.378704228910136,-0.4411230150448624,1.580581645509758,-0.5071629805665268,-2.076903878622307,-0.03711032806851033,0.24000000000000019,-0.20340257815578225,-0.005323076892323008,-0.15193924079776225,-0.1521057621682593,3.9073490958932138,2.0896457738763305,0.28079667356197385,-0.0015781197803691057,-0.017834067993441154,-0.21074925352752238
1750762183.1808288,-1.9261500441506296,-2.378223228910136,-0.4415306677119162,1.5805709771764864,-0.507467492128292,-2.077208723920652,-0.037264954435462454,0.2410000000000002,-0.204250088898098,-0.0053452563793743545,-0.15257232096775292,-0.15273953617729372,3.9091312454195286,2.091088699731201,0.28080213184203395,-0.001582067398723805,-0.017834067992704383,-0.21090953890646227
1750762183.1828144,-1.9262247286858676,-2.377740228910136,-0.4419400154004549,1.5805602644842405,-0.5077732698503974,-2.0775148367670155,-0.03741958080241458,0.2420000000000002,-0.20509759964041377,-0.0053674358664257005,-0.15320540113774359,-0.15337331018632813,3.910920648496422,2.0925373332110504,0.2808076075975553,-0.0015860305027747019,-0.01783406799197108,-0.21107059009232082
1750762183.1847184,-1.9262997224738392,-2.377255228910136,-0.4423510581104777,1.5805495074330207,-0.5080803137328429,-2.0778222171613976,-0.037574207169366707,0.2430000000000002,-0.20594511038272953,-0.005389615353477047,-0.15383848130773428,-0.15400708419536255,3.912717302951319,2.093991670477417,0.28081310076098326,-0.001590009079700683,-0.017834067991241324,-0.21123240819218733
