mathias31415/primitives_from_planned_trajectory_python/data/saved_trajectories/trajectory_20250618_170911_executed.csv
timestamp,shoulder_lift_joint_pos,elbow_joint_pos,wrist_1_joint_pos,wrist_2_joint_pos,wrist_3_joint_pos,shoulder_pan_joint_pos,shoulder_lift_joint_vel,elbow_joint_vel,wrist_1_joint_vel,wrist_2_joint_vel,wrist_3_joint_vel,shoulder_pan_joint_vel,shoulder_lift_joint_eff,elbow_joint_eff,wrist_1_joint_eff,wrist_2_joint_eff,wrist_3_joint_eff,shoulder_pan_joint_eff
1750259361.054852,-1.5685015165380118,1.854007571613849,-1.8287778328700837,-1.593091785367335,-1.4732698000167925,0.09781911989171636,0.0,0.0,0.0,0.0,0.0,0.0,-3.4082552490251765,-4.1296478596763455,-0.30038905548816325,-0.0018397565471351155,0.0,1.4880451939816938e-17
1750259361.0552819,-1.5685015165380118,1.854007571613849,-1.8287778328700837,-1.593091785367335,-1.4732698000167925,0.09781911989171636,0.0,0.0,0.0,0.0,0.0,0.0,-3.4082552490251765,-4.1296478596763455,-0.30038905548816325,-0.0018397565471351155,0.0,1.4880451939816938e-17
1750259361.0555682,-1.5685015165380118,1.854007571613849,-1.8287778328700837,-1.593091785367335,-1.4732698000167925,0.09781911989171636,0.0,0.0,0.0,0.0,0.0,0.0,-3.4082552490251765,-4.1296478596763455,-0.30038905548816325,-0.0018397565471351155,0.0,1.4880451939816938e-17
1750259361.055834,-1.5685015165380118,1.854007571613849,-1.8287778328700837,-1.593091785367335,-1.4732698000167925,0.09781911989171636,0.0,0.0,0.0,0.0,0.0,0.0,-3.4082552490251765,-4.1296478596763455,-0.30038905548816325,-0.0018397565471351155,0.0,1.4880451939816938e-17
1750259361.0561333,-1.5685015165380118,1.854007571613849,-1.8287778328700837,-1.593091785367335,-1.4732698000167925,0.09781911989171636,0.0,0.0,0.0,0.0,0.0,0.0,-3.4082552490251765,-4.1296478596763455,-0.30038905548816325,-0.0018397565471351155,0.0,1.4880451939816938e-17
1750259361.0563996,-1.5685015165380118,1.854007571613849,-1.8287778328700837,-1.593091785367335,-1.4732698000167925,0.09781911989171636,0.0,0.0,0.0,0.0,0.0,0.0,-3.4082552490251765,-4.1296478596763455,-0.30038905548816325,-0.0018397565471351155,0.0,1.4880451939816938e-17
1750259361.0605822,-1.5685015165380118,1.854007571613849,-1.8287778328700837,-1.593091785367335,-1.4732698000167925,0.09781911989171636,0.0,0.0,0.0,0.0,0.0,0.0,-3.4082552490251765,-4.1296478596763455,-0.30038905548816325,-0.0018397565471351155,0.0,1.4880451939816938e-17
1750259361.060856,-1.5685015165380118,1.854007571613849,-1.8287778328700837,-1.593091785367335,-1.4732698000167925,0.09781911989171636,0.0,0.0,0.0,0.0,0.0,0.0,-3.4082552490251765,-4.1296478596763455,-0.30038905548816325,-0.0018397565471351155,0.0,1.4880451939816938e-17
1750259361.0611956,-1.5685015165380118,1.854007571613849,-1.8287778328700837,-1.593091785367335,-1.4732698000167925,0.09781911989171636,0.0,0.0,0.0,0.0,0.0,0.0,-3.4082552490251765,-4.1296478596763455,-0.30038905548816325,-0.0018397565471351155,0.0,1.4880451939816938e-17
1750259361.063294,-1.5685015165380118,1.854007571613849,-1.8287778328700837,-1.593091785367335,-1.4732698000167925,0.09781911989171636,0.0,0.0,0.0,0.0,0.0,0.0,-3.4082552490251765,-4.1296478596763455,-0.30038905548816325,-0.0018397565471351155,0.0,1.4880451939816938e-17
1750259361.0653667,-1.5685015165380118,1.854007571613849,-1.8287778328700837,-1.593091785367335,-1.4732698000167925,0.09781911989171636,0.0,0.0,0.0,0.0,0.0,0.0,-3.4082552490251765,-4.1296478596763455,-0.30038905548816325,-0.0018397565471351155,0.0,1.4880451939816938e-17
1750259361.0672987,-1.5685015165380118,1.854007571613849,-1.8287778328700837,-1.593091785367335,-1.4732698000167925,0.09781911989171636,0.0,0.0,0.0,0.0,0.0,0.0,-3.4082552490251765,-4.1296478596763455,-0.30038905548816325,-0.0018397565471351155,0.0,1.4880451939816938e-17
1750259361.069468,-1.5685015165380118,1.854007571613849,-1.8287778328700837,-1.593091785367335,-1.4732698000167925,0.09781911989171636,0.0,0.0,0.0,0.0,0.0,0.0,-3.4082552490251765,-4.1296478596763455,-0.30038905548816325,-0.0018397565471351155,0.0,1.4880451939816938e-17
1750259361.0718594,-1.568500954119231,1.85400606533067,-1.8287769114532004,-1.593091804784816,-1.473270640434281,0.09781827953436148,0.0005624197558673703,-0.0015062842045667467,0.0009214169428658815,-1.9417450269451028e-05,-0.0008404167741613379,-0.0008403566398374324,-3.212139463983022,-4.421615771461214,-0.28535350963690387,-0.004781510813035385,-0.02367481379487522,-0.34920511408014526
1750259361.07333,-1.5684992668511875,1.8540015464688264,-1.828774147201834,-1.593091863036891,-1.473273161678173,0.09781575847087744,0.0011248512123256205,-0.0030125807155787,0.0018428346035716618,-3.883453252215267e-05,-0.0016808249741377592,-0.0016807046990601378,-3.212149808873716,-4.421619780639756,-0.285353486020661,-0.004781510836166532,-0.023674572257284195,-0.3492035555682738
1750259361.0755033,-1.5684964546987814,1.853994014991399,-1.8287695401138286,-1.5930919601224556,-1.4732773637227456,0.09781155672700599,0.001687306069779878,-0.004518901839563913,0.0027642537002356576,-5.8250878747283496e-05,-0.0025212160258723465,-0.002521035597172582,-3.21216556417527,-4.421627003719958,-0.2853534503558317,-0.004781499432291841,-0.023674089185735842,-0.34920006622122224
1750259361.0775511,-1.5684925176035076,1.853983470836855,-1.8287630901855962,-1.59309209603967,-1.4732832465251287,0.09780567434564967,0.0022497960282668403,-0.006025259883204494,0.0036856749514871485,-7.766612095597425e-05,-0.0033615813555380224,-0.003361340753919953,-3.212186730319457,-4.42163744059381,-0.28535340262694175,-0.004781476601818401,-0.023673364586704656,-0.3491946461000182
1750259361.079389,-1.5684874554834671,1.8539699139190484,-1.828754797412107,-1.5930922707859576,-1.4732908100253042,0.09779811138687117,0.0028123327872333435,-0.007531667153410171,0.00460709907680065,-9.707989118038212e-05,-0.004201912389665534,-0.004201611589405412,-3.212213307944767,-4.421651091116515,-0.2853533428090917,-0.004781442345079041,-0.023672398470270688,-0.34918729529322745
1750259361.0826359,-1.5684812682333593,1.853953344127219,-1.8287446617868932,-1.5930924843580083,-1.473300054146108,0.09778886792789251,0.003374928045415322,-0.009038135957422061,0.00552852679668569,-0.00011649182149254174,-0.005042200555268088,-0.005041839524210971,-3.2122452978501386,-4.421667955105381,-0.28535327087183077,-0.004781396662904656,-0.023671190850025062,-0.3491780139226835
1750259361.083509,-1.568473955724488,1.8539337613259912,-1.828732683302043,-1.593092736751772,-1.473310978793231,0.09777794406309401,0.003937593500589121,-0.010544678602876775,0.006449958833098786,-0.00013590154399498321,-0.005882437279950629,-0.0058820159795169805,-3.2122827010533035,-4.42168803234048,-0.28535318677305416,-0.0047813395558166305,-0.023669741742637175,-0.3491668021373657
1750259361.0858076,-1.5684655178047615,1.8539111653553744,-1.8287188619482002,-1.5930930279624667,-1.473323583855219,0.09776533990401287,0.004500340849407957,-0.01205130739785948,0.007371395909467998,-0.00015530869085847413,-0.0067226139920405804,-0.006722132377223697,-3.212325518750559,-4.421711322558408,-0.28535309046989726,-0.0047812710253769125,-0.023668051168459468,-0.3491536601178751
1750259361.0874074,-1.568455954298697,1.853885556030761,-1.8287031977145611,-1.5930933579845732,-1.473337869203477,0.09775105557934172,0.005063181787214045,-0.013558034651039073,0.008292838751253553,-0.0001747128942993405,-0.00756272212070829,-0.00756218014006691,-3.2123737523316716,-4.421737825467205,-0.2853529819036224,-0.0047811910724468425,-0.023666119151237643,-0.34913858807329734
1750259361.0893738,-1.5684452650074237,1.8538569331429253,-1.828685690588867,-1.5930937268118361,-1.4733538346922668,0.09773509123492674,0.0056261280078497185,-0.015064872671682359,0.009214288085947282,-0.0001941137866179034,-0.00840275309605313,-0.008402150691740775,-3.2124274033744697,-4.421767540725195,-0.2853528610152698,-0.004781099698950558,-0.023663945717142157,-0.3491215862435311
1750259361.0913496,-1.5684334497086825,1.8538252964580226,-1.8286663405574028,-1.5930941344372673,-1.473371480158713,0.0977174470337657,0.006189191203485408,-0.016571833769803875,0.010135744643587524,-0.00021351100017144968,-0.009242698349270634,-0.009242035457020127,-3.212486473643677,-4.421800467964613,-0.2853527277314269,-0.004780996906006647,-0.023661530897052547,-0.34910265490022585
1750259361.093451,-1.5684205081568336,1.8537906457175872,-1.8286451476049894,-1.5930945808531396,-1.4733908054228042,0.09769812315600564,0.006752383064404628,-0.018078930256178117,0.011057209156812861,-0.0002329041674188428,-0.010082549312744757,-0.010081825861872418,-3.2125509651048674,-4.42183660676934,-0.28535258197700236,-0.004780882695942971,-0.023658874724446964,-0.3490817943406492
1750259361.0954528,-1.568406440082856,1.8537529806385313,-1.8286221117149815,-1.593095066050994,-1.4734118102873932,0.09767711979894034,0.007315715278843413,-0.01958617444247374,0.011978682361301594,-0.0002522929209069798,-0.010922297420183432,-0.010921513333587147,-3.2126208799038247,-4.421875956693365,-0.28535242366446917,-0.004780757070685734,-0.02365597723662244,-0.3490590048969134
1750259361.0974216,-1.5683912451943582,1.8537123009131424,-1.8285972328692575,-1.593095590021635,-1.4734344945382034,0.0976544371770076,0.007879199532773974,-0.021093578641297087,0.012900164995959546,-0.0002716768932833253,-0.011761934106708585,-0.011761089300887878,-3.212696220389342,-4.421918517248111,-0.285352252700923,-0.004780620032455448,-0.023652838473411267,-0.34903428692676536
1750259361.099424,-1.5683749231755764,1.8536686062090821,-1.8285705110482162,-1.5930961527551348,-1.4734588579438306,0.09763007552178624,0.008442847509757701,-0.022601155166270315,0.013821657803105885,-0.0002910557173146786,-0.012601450809011136,-0.01260054519405542,-3.212776989081273,-4.421964287903732,-0.28535206898795523,-0.004780471583974113,-0.02364945847901289,-0.34900764082080926
1750259361.1016116,-1.5683574736873833,1.8536218961693836,-1.8285419462307662,-1.593096754240828,-1.4734849002557429,0.09760403508199286,0.009006670890737364,-0.02410891633216923,0.01474316152901545,-0.00031042902587945784,-0.013440838965446511,-0.013439872445048455,-3.2128631887029004,-4.422013268104681,-0.2853518724120361,-0.004780311727705198,-0.023645837300316757,-0.34897906699923803
1750259361.1034567,-1.5683388963672922,1.853572170412449,-1.82851153839432,-1.5930973944673168,-1.4735126212082887,0.09757631612347836,0.00957068135384712,-0.025616874454919898,0.015664676923842682,-0.0003297964519858253,-0.014280090016161867,-0.014279062487624419,-3.2129548221652455,-4.422065457242578,-0.285351662861505,-0.004780140466588968,-0.023641974987796497,-0.3489485659120932
1750259361.1053562,-1.5683191908294631,1.853519428532048,-1.8284792875147886,-1.5930980734224693,-1.473542020518698,0.09754691892922424,0.010134890574230422,-0.02712504185174374,0.016586204742154532,-0.00034915762878417507,-0.015119195403224773,-0.015118106757455604,-3.213051892570847,-4.42212085468255,-0.28535144020972614,-0.004779957803870434,-0.02363787159555088,-0.3489161380384091
1750259361.1072938,-1.5682983566647088,1.8534636700973137,-1.828445193566564,-1.5930987910934213,-1.4735730978870887,0.0975158437993386,0.010699310223865437,-0.028633430841207654,0.017507745743084606,-0.00036851218956349374,-0.015958146570739618,-0.01595699669225363,-3.213154403204791,-4.422179459745041,-0.2853512043254329,-0.004779763742659682,-0.023633527180957882,-0.34888178388918023
1750259361.1093874,-1.5682763934405024,1.8534048946527413,-1.8284092565225185,-1.593099547466573,-1.4736058529964655,0.09748309105105203,0.01126395197137262,-0.030142053743312826,0.018429300690580287,-0.0003878597677736347,-0.016796934964929545,-0.016795723731885228,-3.213262357546333,-4.422241271715388,-0.2853509550704902,-0.0047795582866497505,-0.023628941803702976,-0.3488455040036563
1750259361.111416,-1.568253300700981,1.8533431017181843,-1.8283714763539907,-1.5931003425275936,-1.4736402855127313,0.0974486610187131,0.011828827481829408,-0.03165092287959289,0.019350870353803035,-0.00040719999701758884,-0.017635552034332168,-0.01763427931849813,-3.213375759264581,-4.4223062898435055,-0.2853506922953077,-0.004779341439286854,-0.023624115528986155,-0.3488072989532947
1750259361.1135306,-1.5682290779669588,1.8532782907888514,-1.8283318530307762,-1.5931011762614178,-1.473676395084687,0.09741255405378374,0.012393948416583226,-0.03316005057315915,0.020272455507207843,-0.0004265325110829671,-0.018473989229847946,-0.018472654896635327,-3.213494612217825,-4.422374513335515,-0.28535041584796483,-0.004779113204857259,-0.02361904842336918,-0.34876716933723895
1750259361.1154268,-1.5682037247359268,1.8532104613353035,-1.8282903865211155,-1.5931020486522502,-1.4737141813440369,0.09737477052483423,0.012959326433087401,-0.034669449148827886,0.021194056931004093,-0.0004458569439248207,-0.019312238004906772,-0.019310841913360882,-3.2136189204455876,-4.422445941366047,-0.28535012556339767,-0.004778873587130009,-0.023613740558107207,-0.348725115787775
1750259361.1178155,-1.5682037247359268,1.8532104613353035,-1.8282903865211155,-1.5931020486522502,-1.4737141813440369,0.09737477052483423,0.012959326433087401,-0.034669449148827886,0.021194056931004093,-0.0004458569439248207,-0.019312238004906772,-0.019310841913360882,-3.2136189204455876,-4.422445941366047,-0.28535012556339767,-0.004778873587130009,-0.023613740558107207,-0.348725115787775
1750259361.119573,-1.5681772404820693,1.8531396128034503,-1.8282470767916816,-1.593102959683562,-1.4737536439053969,0.09733531081753816,0.01352497318468313,-0.036179130933172286,0.022115675411327057,-0.0004651729296896146,-0.020150289815563084,-0.020148831818376196,-3.213748688191692,-4.422520573069473,-0.2853498212717608,-0.004778622590506436,-0.023608192007134467,-0.34868113896432773
1750259361.1284487,-1.568120876686102,1.852988856165187,-1.8281549275322888,-1.5931048975978541,-1.4738375963071828,0.09725136449608425,0.014657119485013066,-0.03919939344350745,0.02395896671719668,-0.000503778097578821,-0.02182576838175558,-0.02182418610600011,-3.2140246201007976,-4.422679443841906,-0.28534916995132015,-0.004778086479069492,-0.02359637316143764,-0.3485874182920429
1750259361.1295302,-1.5680278338361013,1.8527400628503707,-1.828002878570306,-1.5931080938176407,-1.4739760865582117,0.0971128843009618,0.01635764552693288,-0.04373221954925937,0.02672405162389233,-0.0005616133618142166,-0.024337295564048397,-0.024335525607275532,-3.214479581012712,-4.422941753745958,-0.2853480832236112,-0.004777197089993632,-0.02357684179855757,-0.3484324309957561
1750259361.131586,-1.5679945510988116,1.8526510868318316,-1.827948508733086,-1.5931092363037997,-1.474025597882175,0.09706337657980307,0.016925149157334774,-0.04524385955317811,0.027645789318030568,-0.0005808709938486938,-0.02517398632797147,-0.025172153448740804,-3.214642205303949,-4.423035587206452,-0.2853476908875908,-0.004776877922165835,-0.02356985088013733,-0.3483769301064767
1750259361.133446,-1.5679601330060189,1.8525590871657904,-1.8278922953978682,-1.593110417294282,-1.4740767823323981,0.09701219585842008,0.017493002966400394,-0.04675586910831776,0.028567549760372065,-0.0006001176238319694,-0.02601042040366199,-0.02600852441043134,-3.214810324023927,-4.423132617232637,-0.2853472831376392,-0.0047765474114331,-0.023562619889549132,-0.34831951141808415
1750259361.135608,-1.5679245788457505,1.8524640631008016,-1.8278342385183164,-1.593111636766718,-1.4741296393869856,0.09695934265909782,0.018061218568202645,-0.04826826055842121,0.02948933379421409,-0.0006193528877226114,-0.02684658927258583,-0.026844629967504696,-3.2149839429008513,-4.423232842657481,-0.2853468597427785,-0.004776205563567662,-0.023555148929098792,-0.3482601758345922
1750259361.1374178,-1.5679245788457505,1.8524640631008016,-1.8278342385183164,-1.593111636766718,-1.4741296393869856,0.09695934265909782,0.018061218568202645,-0.04826826055842121,0.02948933379421409,-0.0006193528877226114,-0.02684658927258583,-0.026844629967504696,-3.2149839429008513,-4.423232842657481,-0.2853468597427785,-0.004776205563567662,-0.023555148929098792,-0.3482601758345922
1750259361.1392741,-1.5678878878828115,1.8523660138607292,-1.827774338046396,-1.5931128946980122,-1.4741841685070076,0.09690481752116728,0.018629807571092945,-0.04978104624977587,0.030411142271237215,-0.0006385764217497977,-0.027682484419899313,-0.02768046159884672,-3.215163067858857,-4.42333626228145,-0.2853464204630459,-0.004775852384868985,-0.023547438102747086,-0.3481989242910039
1750259361.1412902,-1.567850059358797,1.8522649386447423,-1.8277125939323629,-1.593114191064343,-1.4742403691365098,0.09684862100099784,0.019198781577524394,-0.051294238531303916,0.031332976051810894,-0.0006577878624071017,-0.02851809733458868,-0.028516010787190675,-3.2153477050076984,-4.423442874867879,-0.2853459650497066,-0.0047754878814117285,-0.023539487518383855,-0.3481357577520858
1750259361.1434605,-1.5678110924921018,1.8521608366273095,-1.8276490061247408,-1.5931155258411582,-1.4742982407025194,0.09679075367198946,0.01976815218386774,-0.052807849754613514,0.03225483600509792,-0.0006769868464819788,-0.02935341950962856,-0.02935126901923486,-3.215537860644693,-4.423552679137024,-0.28534549325096287,-0.004775112060060318,-0.023531297288364016,-0.3480706772114261
1750259361.1454425,-1.5677709864779352,1.852053706958193,-1.8275835745703084,-1.5931168990031823,-1.4743577826150531,0.09673121612456465,0.020337930980241697,-0.05432189227413836,0.03317672300954777,-0.0006961730110450796,-0.030188442442046222,-0.030186227785773893,-3.2157335412512933,-4.423665673780592,-0.285345004801058,-0.004774724927360952,-0.023522867526850982,-0.34800368369741225
1750259361.1482267,-1.567729740488332,1.8519435487624438,-1.8275162992140768,-1.5931183105244138,-1.4744189942671264,0.09667000896616011,0.020908129550334328,-0.055836378447191345,0.03409863795301391,-0.0007153459934646718,-0.031023157633084237,-0.031020878581811972,-3.2159347534940355,-4.423781857447026,-0.2853444994307586,-0.004774326490206838,-0.023514198352591605,-0.3479347782657476
1750259361.149382,-1.5676873536721665,1.851830361140395,-1.8274471799992726,-1.5931197603781264,-1.474481875034762,0.09660713282121826,0.02147875947123063,-0.057351320634075796,0.035020581733028855,-0.0007345054314251585,-0.03185755658831803,-0.03185521290668569,-3.216141504224546,-4.423901228752458,-0.2853439768631764,-0.00477391675598324,-0.023505289887643856,-0.3478639620036019
1750259361.151452,-1.5676438251551659,1.851714143167656,-1.8273762168673162,-1.5931212485368684,-1.474546424276996,0.09654258833117838,0.022049832313229566,-0.05886673119816314,0.035942555257157574,-0.0007536509629194247,-0.03269163081771905,-0.03268922226418881,-3.2163538004813383,-4.424023786272967,-0.28534343681110663,-0.0047734957318229035,-0.0234961422558446,-0.3477912360295199
1750259361.153645,-1.5675991540399234,1.8515948938951066,-1.8273034097578025,-1.593122774972466,-1.4746126413358915,0.0964763761544676,0.022621359639678887,-0.060382622505990836,0.03686455944317266,-0.0007727822262704491,-0.03352537183588496,-0.03352289816269317,-3.2165716494840946,-4.4241495285496875,-0.28534287898249966,-0.004773063425433111,-0.023486755587516207,-0.3477166014930173
1750259361.1552923,-1.5675533394059133,1.8514726123488898,-1.8272287586084826,-1.5931243396560202,-1.4746805255365452,0.09640849696649165,0.02319335300679628,-0.06189900692737188,0.03778659521945034,-0.0007918988601251796,-0.03435877116207768,-0.034356232115268684,-3.2167950586397347,-4.424278454090116,-0.28534230307401337,-0.004772619844299674,-0.0234771300140528,-0.34764005957349176
1750259361.157399,-1.5675063803095028,1.8513472975304062,-1.8271522633552388,-1.5931259425579123,-1.4747500761870942,0.0963389514596253,0.023765823963496482,-0.06341589683544775,0.038708663525077486,-0.0008110005034857801,-0.03519182032036014,-0.03518921563980826,-3.2170240355367805,-4.424410561357923,-0.2853417087790819,-0.0047721649967670254,-0.02346726567069935,-0.34756161148219106
1750259361.1592665,-1.567458275783972,1.851218948416306,-1.8270739239320637,-1.5931275836478003,-1.4748212925787332,0.09626774034320264,0.024338784051209962,-0.06493330460681407,0.03963076531021503,-0.0008300867956917335,-0.03602451083971415,-0.03602184025914769,-3.217258587953698,-4.424545848787543,-0.28534109578103384,-0.0047716988906228944,-0.023457162696022636,-0.3474812584601808
1750259361.1613462,-1.567409024839522,1.8510875639584834,-1.8269937402710372,-1.593129262894621,-1.4748941739857173,0.096194864343507,0.024912244803743,-0.06645124262163211,0.040552901536447514,-0.0008491573764484657,-0.03685683425421155,-0.03685409750118974,-3.2174987238371053,-4.424684314776929,-0.28534046375300187,-0.004771221534434698,-0.023446821233411127,-0.34739900178154787
1750259361.1634464,-1.567358626463296,1.8509531430840682,-1.8269117123023086,-1.5931309802665918,-1.4749687196653731,0.09612032420376078,0.025486217747063486,-0.0679697232636736,0.041475073176841334,-0.0008682118858317617,-0.03768878210307054,-0.037685978899025425,-3.2177444513354407,-4.424825957682932,-0.2853398123666189,-0.004770732936853862,-0.023436241427838445,-0.34731484274903063
1750259361.1653934,-1.5673070796193942,1.8508156846954191,-1.8268278399540643,-1.59313273573121,-1.4750449288581144,0.09604412068411487,0.026060714399157022,-0.06948875892045771,0.04239728121642591,-0.0008872499642807711,-0.03852034593083227,-0.038517475991058654,-3.217995778768236,-4.424970775830638,-0.28533914127965265,-0.0047702331062959465,-0.023425423429254615,-0.3472287826983793
1750259361.1674025,-1.567254383248887,1.8506751876701157,-1.8267421231525116,-1.5931345292552557,-1.4751228007874486,0.09596625456163796,0.026635746269862325,-0.07100836198332941,0.043319526652307025,-0.0009062712526315904,-0.039351517287420604,-0.03934858032112642,-3.2182527146345263,-4.425118767506198,-0.2853384501466548,-0.004769722052088274,-0.02341436738929189,-0.3471408229957744
1750259361.1692607,-1.5672005362698345,1.8505316508609515,-1.8266545618218508,-1.5931363608047882,-1.4752023346599872,0.09588672663030552,0.027211324860683953,-0.07252854484758015,0.044241810494070936,-0.0009252753921074839,-0.04018228772834294,-0.04017928343862213,-3.2185152676251794,-4.425269930965403,-0.28533773861082173,-0.004769199783240825,-0.023403073465240665,-0.3470509650380539
1750259361.1713958,-1.5671455375773018,1.850385073095925,-1.82656515588425,-1.5931382303451525,-1.4752835296654592,0.09580553770098858,0.027787461664644544,-0.0740493199125253,0.04516413376395506,-0.0009442620243312178,-0.041012648814753035,-0.04100957689862216,-3.2187834466013405,-4.425424264422536,-0.2853370063102436,-0.004768666309084157,-0.023391541816160544,-0.3469592102553747
1750259361.1732683,-1.567089386043377,1.8502354531782321,-1.82647390525982,-1.593140137840976,-1.475366384976721,0.09572268860144223,0.028364168166089478,-0.07557069958159585,0.04608649749710761,-0.0009632307913395777,-0.04184259211357657,-0.04183945226200319,-3.2190572606188694,-4.42558176605726,-0.2853362528757631,-0.004768121639308221,-0.02337977260464808,-0.3468655601058523
1750259361.175271,-1.5670320805171887,1.8500827898862575,-1.8263808098665884,-1.5931420832561694,-1.4754508997497702,0.0956381801762939,0.02894145584056074,-0.0770926962624816,0.04700890274198221,-0.0009821813355850755,-0.0426721091976853,-0.04266890109557041,-3.2193367188966877,-4.425742434018128,-0.28533547792688624,-0.004767565783624326,-0.02336776599820673,-0.3467700160826379
1750259361.1774285,-1.566973619824922,1.8499270819735665,-1.8262858696204702,-1.593144066553931,-1.4755370731237543,0.09555201328703138,0.029519336154606692,-0.07861532236719333,0.0479313505604782,-0.0010011132999468524,-0.04350119164596838,-0.043497914972179814,-3.2196218308440994,-4.425906266413153,-0.2853346810791095,-0.004766998752012535,-0.023355522166348362,-0.34667257970869697
1750259361.1793013,-1.5669140027698383,1.8497683281688955,-1.8261890844352466,-1.593146087696745,-1.4756249042209868,0.09546418881199059,0.03009782056562051,-0.08013859031219399,0.048853842028292044,-0.0010200263277353487,-0.04432983104347104,-0.04432648547085993,-3.219912606050563,-4.426073261320403,-0.2853338619380544,-0.0047664205545420385,-0.02334304128249161,-0.34657325253804505
1750259361.1845598,-1.5668532281322953,1.8496065271761437,-1.8260904542225314,-1.5931481466463806,-1.4757143921469549,0.09537470764634313,0.03067692052166718,-0.08166251251845635,0.04977637823506825,-0.0010389200627167357,-0.04515801898151262,-0.04515460417693509,-3.220209054286752,-4.4262434167744775,-0.28533302010480843,-0.004765831201937433,-0.023330323523379964,-0.3464720361554918
1750259361.1856577,-1.5668532281322953,1.8496065271761437,-1.8260904542225314,-1.5931481466463806,-1.4757143921469549,0.09537470764634313,0.03067692052166718,-0.08166251251845635,0.04977637823506825,-0.0010389200627167357,-0.04515801898151262,-0.04515460417693509,-3.220209054286752,-4.4262434167744775,-0.28533302010480843,-0.004765831201937433,-0.023330323523379964,-0.3464720361554918
1750259361.1876223,-1.5667282011168417,1.8492737783177524,-1.8258876583500845,-1.5931523778096413,-1.4758983348230146,0.09519077890801635,0.03183701281366228,-0.08471236942212486,0.051621589296235344,-0.0010766482315392445,-0.0468130068767123,-0.046809452584813636,-3.220819009779727,-4.426593201319179,-0.2853312667108606,-0.004764619072860789,-0.02330417810608742,-0.34626394226421114
1750259361.189541,-1.5666639461852867,1.8491028277356405,-1.825783492502497,-1.5931545499432502,-1.475992787700081,0.09509633320974283,0.03241802799772581,-0.08623832898517107,0.05254426640259419,-0.0010954819551950888,-0.047639790049045304,-0.047636165489871804,-3.221132537469661,-4.426772826312565,-0.2853303543114072,-0.00476399631840029,-0.02329075081878847,-0.34615706808411056
1750259361.1914353,-1.5665985285640236,1.8489288245324833,-1.8256774812516454,-1.5931567597236533,-1.476088893659858,0.09500023456964755,0.03299970442277152,-0.08776499254102405,0.05346699275253303,-0.0011142949656740096,-0.048466088192536096,-0.04846239300908909,-3.2214517790264847,-4.4269556036704065,-0.2853294175344059,-0.004763362452033801,-0.02327708739934948,-0.3460483113565389
1750259361.193377,-1.5665319469191683,1.848751767287851,-1.8255696244978825,-1.5931590071090689,-1.4761866517239142,0.09490248396688471,0.033582053487889486,-0.0892923725349714,0.05438976950993324,-0.0011330869090764696,-0.04929189293176891,-0.049288126761140444,-3.2217767451093695,-4.427141531251853,-0.2853284559428435,-0.004762717485183555,-0.023263188041738526,-0.345937673824716
1750259361.1952453,-1.5664641998940523,1.848571654556418,-1.8254599221392152,-1.593161292057009,-1.4762860608970705,0.0948030823973641,0.034165086581893656,-0.09082048141751595,0.055312597854384596,-0.001151857432004247,-0.050117195898372144,-0.05011335837174393,-3.2221074465531774,-4.427330606894559,-0.2853274690879325,-0.004762061429646277,-0.023249052944392293,-0.3458251572656106
1750259361.197247,-1.5663952861092358,1.8483884848679517,-1.825348374071277,-1.593163614524281,-1.4763871201674181,0.09470203087373692,0.03474881508319387,-0.09234933164444716,0.056235478981353414,-0.0011706061815587028,-0.050941988731113025,-0.05093807947378714,-3.2224438943521365,-4.427522828391049,-0.28532645651558014,-0.004761394297131658,-0.02323468230841357,-0.34571076348969465
1750259361.1994596,-1.5663252041625357,1.8482022567273033,-1.8252349801872931,-1.5931659744669844,-1.4764898285063364,0.09459933042538135,0.03533325035959469,-0.09387893567698254,0.05715841410256039,-0.0011893328053425415,-0.05176626307602949,-0.05176228170745121,-3.222786099700374,-4.427718193509773,-0.2853254177614417,-0.004760716099361551,-0.023220076338620596,-0.34559449433745926
1750259361.201274,-1.566253952629042,1.8480129686143958,-1.8251197403780512,-1.593168371840517,-1.4765941848684996,0.09449498209838779,0.035918403768184386,-0.09540930598186793,0.05808140444618495,-0.001208036951490269,-0.05259001058657838,-0.05258595672033343,-3.22313407394508,-4.427916699978564,-0.28532435235494347,-0.004760026848878952,-0.02320523524400689,-0.3454763516823112
1750259361.2055967,-1.5661815300611437,1.8478206189842128,-1.8250026545318647,-1.5931708065995718,-1.4767001881918995,0.09438898695554393,0.036504286655143804,-0.09694045503146885,0.05900445125706641,-0.001226718268658546,-0.053413222923710056,-0.05340909616757574,-3.2234878286252755,-4.428118345490632,-0.2853232598199579,-0.004759326557923284,-0.023190159235666214,-0.34535633742940947
1750259361.2063215,-1.5661815300611437,1.8478206189842128,-1.8250026545318647,-1.5931708065995718,-1.4767001881918995,0.09438898695554393,0.036504286655143804,-0.09694045503146885,0.05900445125706641,-0.001226718268658546,-0.053413222923710056,-0.05340909616757574,-3.2234878286252755,-4.428118345490632,-0.2853232598199579,-0.004759326557923284,-0.023190159235666214,-0.34535633742940947
1750259361.207665,-1.566033165918296,1.8474267288671926,-1.8247629442693372,-1.5931757880895088,-1.4769171313910379,0.09417206055685094,0.03767828619363434,-0.10000513928328496,0.060850719345479566,-0.0012640110133852161,-0.055058008759992554,-0.05505373502418071,-3.224212726257474,-4.428531044267411,-0.2853209914079115,-0.004757892905439301,-0.023159303345255962,-0.3451107019180063
1750259361.2094002,-1.5659572213348039,1.8472251851655237,-1.824640319616953,-1.5931783347262725,-1.4770280690594682,0.09406113150992543,0.03826642548176689,-0.1015386994595515,0.06177394319892983,-0.0012826217409697054,-0.055879565619839686,-0.0558752177826763,-3.224583893136809,-4.428742092757106,-0.28531981453512084,-0.004757159569516321,-0.023143523904865633,-0.34498508463257516
1750259361.211375,-1.5658800996998679,1.8470205735168925,-1.8245158484554622,-1.5931809185603196,-1.4771406492745491,0.09394856006496514,0.03885533952117812,-0.10307308832885867,0.06269722867196834,-0.001301208239656804,-0.05670055402791104,-0.056696131674047995,-3.2249608883003598,-4.428956270739248,-0.28531860854268254,-0.0047564152449363585,-0.02312751043439801,-0.3448576036963823
1750259361.2133906,-1.565801799452692,1.8468128922514115,-1.824389530660297,-1.5931835395428458,-1.4772548708910787,0.09383434736801098,0.039445039601391334,-0.10460831839357118,0.06362057709716046,-0.0013197701608661694,-0.05752096568466116,-0.0575164683930429,-3.2253437241340825,-4.4291735757419595,-0.28531737291460396,-0.004755659944838195,-0.023111263163049255,-0.3447282611789112
1750259361.2156854,-1.5657223190099163,1.8466021396741823,-1.8242613661042046,-1.5931861976243464,-1.4773707327472598,0.09371849458170603,0.04003553700014899,-0.10614440216243808,0.06454398982553074,-0.0013383071566046333,-0.05834079229886059,-0.058336219642703684,-3.2257324132051335,-4.429394005265899,-0.2853161071235178,-0.004754893683076089,-0.02309478232508466,-0.344597059179587
1750259361.2173543,-1.565641656765635,1.8463883140652824,-1.8241313546572133,-1.5931888927546236,-1.4774882336647241,0.09360100288527891,0.040626842983279295,-0.10768135215067215,0.0654674682266412,-0.0013568188794568904,-0.059160025587643564,-0.05915537713450244,-3.22612696824314,-4.429617556769908,-0.28531481063957487,-0.004754116473219799,-0.02307806815611121,-0.3444639998335584
1750259361.2196507,-1.5655598110914237,1.8461714136797522,-1.823999496186591,-1.5931916248827847,-1.477607372448544,0.09348187347452674,0.04121896880454375,-0.1092191808801125,0.06639101368901204,-0.0013753049826069714,-0.05997865727670539,-0.059973932588461,-3.2265274021543937,-4.429844227687953,-0.2853134829211597,-0.004753328329398202,-0.023061120897297897,-0.34432908530623446
1750259361.2213929,-1.565476780336363,1.8459514367475822,-1.8238657905568125,-1.5931943939572433,-1.4777281478872535,0.09336110756179798,0.0418119257055041,-0.11075790087932025,0.06731462762027537,-0.0013937651198417853,-0.06079667910040428,-0.060791877733281915,-3.226933728008221,-4.430074015414928,-0.2853121234220579,-0.004752529265813937,-0.023043940792681177,-0.34419231779767046
1750259361.2232876,-1.5653925628270624,1.8457283814736984,-1.8237302376295137,-1.5931971999257222,-1.4778505587528636,0.09323870637597487,0.042405724915391775,-0.11229752468374064,0.06823831144752421,-0.0014121989455607243,-0.06161408280186704,-0.06160920430647255,-3.2273459590399334,-4.430306917319396,-0.2853107315862649,-0.004751719296899203,-0.023026528089275237,-0.34405369954040155
1750259361.225367,-1.565307156867684,1.845502246037949,-1.82359283726346,-1.5932000427352548,-1.477974603800881,0.09311467116245573,0.04300037765094392,-0.11383806483579466,0.06916206661753034,-0.0014306061147873266,-0.062430860133113074,-0.06242590405447382,-3.2277641086624183,-4.430542930732119,-0.2853093068514406,-0.004750898437385969,-0.023008883037587247,-0.34391323279937136
1750259361.2274144,-1.5652205607399718,1.8452730285950907,-1.8234535893145036,-1.593202922332181,-1.478100281770323,0.09298900318313694,0.04359589511629126,-0.11537953388506804,0.07008589459713709,-0.0014489862831619266,-0.06324700285522515,-0.06324196873278812,-3.2281881904469754,-4.430782052961398,-0.285307848644269,-0.004750066701761204,-0.02299100589293524,-0.343770919874189
1750259361.2294178,-1.5651327727032713,1.845040727274773,-1.823312493635541,-1.5932058386621577,-1.4782275913837424,0.09286170371639474,0.044192288502806806,-0.1169219443883547,0.07100979687328196,-0.0014673391069743962,-0.0640625027384651,-0.0640573901061068,-3.2286182181335663,-4.43102428126751,-0.28530635639035073,-0.004749224105407852,-0.022972896913896673,-0.3436267630966485
1750259361.2316868,-1.5650437909945607,1.8448053401815252,-1.823169550076475,-1.5932087916701505,-1.478356531347237,0.09273277405706667,0.0447895689889816,-0.11846530890989754,0.07193377495359277,-0.0014856642431526667,-0.06487735156235976,-0.06487215994843654,-3.2290542056292852,-4.431269612899004,-0.2853048294988259,-0.004748370663342765,-0.022954556361469158,-0.34348076483224876
1750259361.2334554,-1.5650437909945607,1.8448053401815252,-1.823169550076475,-1.5932087916701505,-1.478356531347237,0.09273277405706667,0.0447895689889816,-0.11846530890989754,0.07193377495359277,-0.0014856642431526667,-0.06487735156235976,-0.06487215994843654,-3.2290542056292852,-4.431269612899004,-0.2853048294988259,-0.004748370663342765,-0.022954556361469158,-0.34348076483224876
1750259361.235794,-1.5649536138284716,1.8445668653947402,-1.8230247584841726,-1.5932117813004432,-1.4784871003504776,0.09260221551643286,0.04538774774029069,-0.12000964002143488,0.07285783036635393,-0.001503961349277151,-0.06569154111585943,-0.06568627004322873,-3.229496167001745,-4.431518045056007,-0.28530326737933837,-0.004747506390959834,-0.02293598450111526,-0.3433329274799863
1750259361.2377758,-1.5648622393973213,1.84432530096866,-1.8228781187024223,-1.5932148074966328,-1.4786192970667198,0.09247002942219695,0.045986835909052795,-0.12155495030239308,0.07378196466099102,-0.0015222300835951495,-0.06650506319748489,-0.06649971218350705,-3.2299441164903473,-4.431769574918579,-0.2853016694280345,-0.004746631304027738,-0.02291718160243856,-0.3431832534720524
1750259361.2460673,-1.5644847320887596,1.8433281070750591,-1.822273074446624,-1.5932272767884559,-1.4791643339534648,0.09192503663704318,0.048392505337673995,-0.12774623498495635,0.07747932239811653,-0.0015950144913316306,-0.06975231311670244,-0.06974663740216824,-3.231796085983832,-4.432806613831597,-0.2852949070128449,-0.00474302312961104,-0.02283966512607454,-0.34256624070954594
1750259361.246566,-1.5643873434377653,1.8430710643847414,-1.822117191263759,-1.5932304849442511,-1.4793046487604755,0.09178473326381231,0.04899630740935003,-0.12929663008248812,0.07840387509897989,-0.0016131362640313814,-0.07056237515971218,-0.07055661700925203,-3.2322741952601466,-4.43307358876839,-0.2852931206106329,-0.004742094210838787,-0.022819711195040334,-0.3424074210888957
1750259361.246903,-1.5643873434377653,1.8430710643847414,-1.822117191263759,-1.5932304849442511,-1.4793046487604755,0.09178473326381231,0.04899630740935003,-0.12929663008248812,0.07840387509897989,-0.0016131362640313814,-0.07056237515971218,-0.07055661700925203,-3.2322741952601466,-4.43307358876839,-0.2852931206106329,-0.004742094210838787,-0.022819711195040334,-0.3424074210888957
1750259361.247239,-1.5643873434377653,1.8430710643847414,-1.822117191263759,-1.5932304849442511,-1.4793046487604755,0.09178473326381231,0.04899630740935003,-0.12929663008248812,0.07840387509897989,-0.0016131362640313814,-0.07056237515971218,-0.07055661700925203,-3.2322741952601466,-4.43307358876839,-0.2852931206106329,-0.004742094210838787,-0.022819711195040334,-0.3424074210888957
1750259361.2475584,-1.5643873434377653,1.8430710643847414,-1.822117191263759,-1.5932304849442511,-1.4793046487604755,0.09178473326381231,0.04899630740935003,-0.12929663008248812,0.07840387509897989,-0.0016131362640313814,-0.07056237515971218,-0.07055661700925203,-3.2322741952601466,-4.43307358876839,-0.2852931206106329,-0.004742094210838787,-0.022819711195040334,-0.3424074210888957
1750259361.249242,-1.5642887462084234,1.8428109198515195,-1.8219594588871377,-1.5932337293132397,-1.479446582976455,0.09164281064699849,0.04960108552912836,-0.13084807999487194,0.07932851643544374,-0.0016312276287577994,-0.0713717207295913,-0.07136587962818013,-3.232758381474027,-4.433343643814923,-0.2852912946075152,-0.0047411545755510695,-0.02279952791511642,-0.3422467801149089
1750259361.2513745,-1.564188938437579,1.8425476713531275,-1.8217998771377903,-1.5932370098342696,-1.4795901351603247,0.09149927022871615,0.05020685075375548,-0.13240059735920962,0.0802532481119614,-0.0016492882486180205,-0.07218034169527959,-0.07217441712258654,-3.2332486599813253,-4.433616775938981,-0.28528942834384613,-0.004740204240553844,-0.022779115580595935,-0.34208432045859605
1750259361.2532015,-1.5640879181399763,1.8422813167420176,-1.8216384458333126,-1.593240326445514,-1.4797353038547527,0.09135411346734187,0.05081361412582039,-0.13395419482139795,0.08117807185613866,-0.0016673177874496734,-0.07298822993632018,-0.07298222136670823,-3.2337450463107067,-4.433892982068034,-0.28528752115817585,-0.004739243223140923,-0.022758474490178326,-0.34192004482236793
1750259361.2551205,-1.5639856833082915,1.8420118538453403,-1.8214751647878202,-1.593243679084475,-1.47988208758618,0.09120734183749307,0.051421386673651856,-0.13550888503632552,0.08210298941910188,-0.0016853159098238933,-0.07379537734292065,-0.07378928424551705,-3.234247556144324,-4.434172259107743,-0.2852855723787669,-0.004738271540664045,-0.022737604944284458,-0.3417539559445449
1750259361.2572217,-1.563882231913155,1.841739280464928,-1.8213100338119075,-1.5932470676879857,-1.4800304848648356,0.09105895683000634,0.05203017941121547,-0.13706468066800864,0.08302800257571995,-0.001703282281062859,-0.074601775816172,-0.07459559765484805,-3.2347562053140697,-4.4344546039295025,-0.28528358132732684,-0.004737289210934626,-0.022716507249504095,-0.34158605659761115
1750259361.2591414,-1.563777561903187,1.841463594377275,-1.82114305271259,-1.593250492192209,-1.4801804941847632,0.09090895995191565,0.052640003337978226,-0.13862159438976168,0.08395311312494273,-0.0017212165672340484,-0.07540741726808475,-0.07540115350153144,-3.2352710098194493,-4.434740013380279,-0.28528154731614086,-0.004736296251571536,-0.02269518171344276,-0.3414163495883267
1750259361.261388,-1.5636716712050198,1.8411847933335204,-1.8209742212932643,-1.593253952532642,-1.4803321140238417,0.09075735272643022,0.05325086943881416,-0.1401796388843365,0.0848783228900059,-0.0017391184351698745,-0.07621229362180688,-0.07620594370352118,-3.235791985805722,-4.435028484272843,-0.2852794696514152,-0.004735292680713339,-0.0226736286498471,-0.3412448377579936
1750259361.2633462,-1.5635645577233346,1.8409028750594276,-1.8208035393536548,-1.593257448644116,-1.4804853428438074,0.0906041366929121,0.05386278868387832,-0.14173882684411332,0.08580363371879982,-0.001756987552468367,-0.07701639681170824,-0.07700996019002661,-3.2363191495823878,-4.435320013398913,-0.28527734762914875,-0.004734278516488379,-0.022651848374840758,-0.34107152398245505
1750259361.2652578,-1.5634562193408845,1.8406178372553659,-1.8206310066897649,-1.5932609804607978,-1.4806401790902761,0.0904493134068536,0.05447577202851942,-0.14329917097120748,0.08672904748394082,-0.0017748235875119551,-0.07781971878350277,-0.07781319490164189,-3.236852517599292,-4.435614597509193,-0.2852751805428682,-0.004733253777520725,-0.02262984120799024,-0.3408964111724319
1750259361.2672617,-1.5633466539185275,1.84032967759629,-1.82045662309383,-1.5932645479161902,-1.4807966211927672,0.09029288443985428,0.05508983041314772,-0.14486068397767876,0.0876545660832363,-0.0017926262094631893,-0.0786222514943951,-0.07861563979047877,-3.2373921064742155,-4.435912233337,-0.2852729676732291,-0.004732218482285464,-0.022607607472991845,-0.34071950227328834
1750259361.2692204,-1.5632358592952542,1.840038393731721,-1.820280388354261,-1.59326815094314,-1.4809546675647258,0.09013485137959791,0.05570497476315343,-0.14642337858569712,0.08858019143993648,-0.0018103950882775108,-0.07942398691323793,-0.07941728682029921,-3.2379379329656013,-4.436212917585521,-0.2852707082935493,-0.004731172649591802,-0.02258514749797632,-0.34054080026684547
1750259361.271275,-1.5631238332882234,1.839743983285725,-1.8201023022555995,-1.593271789473829,-1.4811143166035459,0.08997521582982897,0.05632121598878502,-0.14798726752769603,0.0895059255029367,-0.0018281298947126212,-0.08022491702057952,-0.08021812796663978,-3.23849001399216,-4.436516646929476,-0.2852684016715001,-0.004730116298463839,-0.022562461612409813,-0.34036030816652274
1750259361.2732637,-1.563010573692786,1.8394464438568927,-1.8199223645784626,-1.5932754634397845,-1.481275566690595,0.08981397941032894,0.056938564985068676,-0.14955236354651905,0.09043177024700944,-0.0018458303003393518,-0.08102503380890388,-0.0810181552169518,-3.239048366610851,-4.436823418009074,-0.2852660470677826,-0.004729049448224481,-0.02253955015252803,-0.3401780290247977
1750259361.2753773,-1.563010573692786,1.8394464438568927,-1.8199223645784626,-1.5932754634397845,-1.481275566690595,0.08981397941032894,0.056938564985068676,-0.14955236354651905,0.09043177024700944,-0.0018458303003393518,-0.08102503380890388,-0.0810181552169518,-3.239048366610851,-4.436823418009074,-0.2852660470677826,-0.004729049448224481,-0.02253955015252803,-0.3401780290247977
1750259361.2774603,-1.5628960782825168,1.839145773018319,-1.819740575099491,-1.5932791727718776,-1.4814384161912386,0.08965114375689241,0.0575570326316931,-0.1511186793956411,0.09135772767323311,-0.0018634959775406328,-0.08182432928270246,-0.08181736057072797,-3.2396130080393375,-4.437133227448379,-0.285263643731285,-0.004727972118122284,-0.022516413456583114,-0.33999396592704123
1750259361.2793899,-1.5627803448092488,1.8388419683175807,-1.819556933591297,-1.593282917400325,-1.4816028634548601,0.08948671052130285,0.05817662979289858,-0.1526862278392942,0.09228379980910514,-0.001881126599536678,-0.08262279545856681,-0.08261573603963271,-3.240183955648066,-4.4374460718363915,-0.285261190907533,-0.004726884328086656,-0.022493051865439245,-0.33980812199258437
1750259361.2814891,-1.5626633710031026,1.8385350272767156,-1.8193714398224126,-1.5932866972546886,-1.4817689068148923,0.08932068137130805,0.05879736731743062,-0.15425502165270308,0.09320998870897138,-0.0018987218403620396,-0.08342042436542368,-0.08341327364764102,-3.240761226934393,-4.43776194774236,-0.28525868782979613,-0.004725786097376981,-0.022469465726583537,-0.33962050038093256
1750259361.2835991,-1.5625451545725149,1.8382249473921994,-1.8191840935572312,-1.5932905122638825,-1.4819365445888364,0.08915305799059552,0.05941925603839365,-0.15582507362216722,0.09413629645406796,-0.0019162813749158695,-0.08421720804457287,-0.0842099654311633,-3.241344839563074,-4.438080851694543,-0.2852561337299244,-0.004724677446633824,-0.02244565538856778,-0.33943110428172707
1750259361.2854128,-1.562425693204272,1.8379117261349245,-1.8189948945559609,-1.5932943623561684,-1.4821057750782884,0.08898384207876732,0.06004230677318997,-0.15739639654535784,0.09506272515309966,-0.001933804878934251,-0.08501313854985681,-0.08500580343918247,-3.2419348113369795,-4.438402780215266,-0.285253527823803,-0.004723558395690432,-0.022421621204722453,-0.3392399369237181
1750259361.2874472,-1.5623049845635446,1.8375953609501763,-1.8188038425745603,-1.5932982474591615,-1.4822765965689637,0.0888130353513149,0.06066653032340715,-0.15896900323138483,0.0959892769422005,-0.0019512920290187163,-0.08580820794782508,-0.08580077973338462,-3.2425311602084856,-4.438727729779874,-0.2852508693278943,-0.0047224289651537086,-0.022397363533012322,-0.33904700156909173
1750259361.2892814,-1.5621830262939111,1.83727584925761,-1.8186109373646895,-1.593302167499833,-1.482449007330727,0.08864063953959356,0.061291937474776334,-0.16054290650107697,0.09691595398545458,-0.001968742502625978,-0.08660240831779499,-0.08659488638829255,-3.2431339042574963,-4.4390556968524315,-0.28524815744406523,-0.004721289175308098,-0.022372882733108314,-0.3388523015183879
1750259361.2917197,-1.5620598160173973,1.8369531884512278,-1.8184161786736546,-1.593306122404507,-1.4826230056176115,0.08846665639079652,0.06191853899701955,-0.16211811918711103,0.09784275847503147,-0.0019861559781032623,-0.08739573175203902,-0.08738811549139724,-3.2437430617370597,-4.439386677866327,-0.2852453913704944,-0.004720139047412318,-0.02234817916996147,-0.3386558401045124
1750259361.2934387,-1.5620598160173973,1.8369531884512278,-1.8184161786736546,-1.593306122404507,-1.4826230056176115,0.08846665639079652,0.06191853899701955,-0.16211811918711103,0.09784275847503147,-0.0019861559781032623,-0.08739573175203902,-0.08738811549139724,-3.2437430617370597,-4.439386677866327,-0.2852453913704944,-0.004720139047412318,-0.02234817916996147,-0.3386558401045124
1750259361.2954383,-1.5618096298242472,1.8362984089446126,-1.8180210998151853,-1.5933141365079528,-1.4829757577038931,0.08811393514978186,0.06317536815272008,-0.16527252419933727,0.09969675870403015,-0.0020208706524357666,-0.08897971624792417,-0.0889719094578114,-3.244980690615059,-4.440057667314343,-0.2852396934029532,-0.0047178078607347925,-0.022298105230759774,-0.33825764670988917
1750259361.2976615,-1.5618096298242472,1.8362984089446126,-1.8180210998151853,-1.5933141365079528,-1.4829757577038931,0.08811393514978186,0.06317536815272008,-0.16527252419933727,0.09969675870403015,-0.0020208706524357666,-0.08897971624792417,-0.0889719094578114,-3.244980690615059,-4.440057667314343,-0.2852396934029532,-0.0047178078607347925,-0.022298105230759774,-0.33825764670988917
1750259361.299458,-1.5616826490441724,1.8359662849038991,-1.8178207791200673,-1.5933181955561704,-1.4831545079324524,0.08793520063090482,0.06380561724503703,-0.16685174225191715,0.10062395897089325,-0.002038171212414472,-0.08977036155999057,-0.08976245856214964,-3.2456091992036136,-4.440397668490602,-0.28523675986352115,-0.004716626844785902,-0.022272735601663686,-0.3380559215772068
1750259361.3012583,-1.5615544065304077,1.835631001068359,-1.8176186038883007,-1.5933222891672854,-1.4833348385445095,0.08775488592157983,0.06443710362579999,-0.168432321173968,0.10155129573941131,-0.0020554334965238166,-0.09056009843747809,-0.09055209859701109,-3.2462441955720367,-4.440740669082602,-0.28523376884492413,-0.004715435575709393,-0.022247144705636844,-0.3378524487823691
1750259361.303305,-1.561424899797684,1.8352925547033605,-1.8174145738445509,-1.5933264172644286,-1.4835167477153526,0.0875729928477938,0.06506983798367502,-0.170014273860368,0.10247877134650017,-0.0020726571875949048,-0.09134891903933695,-0.09134082171673473,-3.2468856986590975,-4.441086665402142,-0.28523071950328027,-0.004714234075304452,-0.022221332924701437,-0.3376472318405244
1750259361.3051949,-1.561294126339373,1.8349509430484694,-1.8172086887087788,-1.5933305797700967,-1.4837002336045986,0.08738952325121119,0.06570383099086595,-0.17159761321900782,0.10340638815878936,-0.0020898419693879075,-0.0921368155382704,-0.09212862008942892,-3.247533727549936,-4.441435653731296,-0.2852276109902353,-0.004713022365740268,-0.02219530064628371,-0.33744027430216306
1750259361.3072834,-1.5611620836275169,1.8346061633174224,-1.8170009481961822,-1.5933347766061559,-1.4838852943562273,0.08720447898914636,0.06633909330307171,-0.17318235217100164,0.10433414857296493,-0.0021069875265772448,-0.0929237801208483,-0.09291548589711153,-3.2481883014522546,-4.441787630326402,-0.28522444244740053,-0.004711800468747016,-0.022169048261011362,-0.3372315797575999
1750259361.309257,-1.5610287691128644,1.8342582126981004,-1.8167913520171348,-1.5933390076938432,-1.4840719280986043,0.08701786193453566,0.06697563555941105,-0.17476850365091923,0.10526205501601955,-0.002124093544792928,-0.09370980498766963,-0.09370141133583486,-3.248849439715616,-4.442142591427295,-0.2852212130096613,-0.0047105684071806694,-0.02214257616408901,-0.3370211518301954
1750259361.3111482,-1.560894180224902,1.8339070883525017,-1.8165798998771274,-1.593343272953767,-1.4842601329445104,0.08682967397590913,0.0676134683823487,-0.17635608060694305,0.10619010994546903,-0.0021411597106086736,-0.0944948823534399,-0.09448638861582628,-3.249517161823979,-4.44250053324008,-0.285217921805341,-0.004709326203542629,-0.022115884752901743,-0.33680899418166776
1750259361.3131557,-1.5607583143718866,1.8335527874167141,-1.8163665914767035,-1.593347572305909,-1.4844499069911699,0.0866399170173621,0.06825260237764445,-0.1779450960011436,0.10711831584981724,-0.0021581857115435,-0.09527900444716617,-0.09527040996162221,-3.2501914873924216,-4.442861451959209,-0.28521456794979533,-0.004708073880348861,-0.022088974430329176,-0.33659511051107666
1750259361.3151228,-1.5606211689408829,1.8331953070008877,-1.8161514265113992,-1.5933519056696284,-1.4846412483202798,0.08644859297852639,0.06889304813426061,-0.17953556280961921,0.10804667524859668,-0.0021751712360870558,-0.096062163512261,-0.09605346761220268,-3.250872436179709,-4.443225343745234,-0.2852111505570924,-0.004706811460807914,-0.022061845602179695,-0.3363795045527333
1750259361.3171368,-1.5604827412977933,1.832834644189206,-1.8159344046716797,-1.5933562729636623,-1.4848341549980386,0.08625570379454134,0.06953481622434543,-0.18112749402276285,0.10897519069276063,-0.0021921159736953484,-0.09684435180667816,-0.09683555382112574,-3.2515600280582273,-4.443592204742305,-0.2852076687301351,-0.004705538967974273,-0.02203449867808243,-0.33616218007966037
1750259361.3196483,-1.5603430287873934,1.8324707960398572,-1.8157155256428767,-1.5933606741061261,-1.4850286250751745,0.08606125141602443,0.07017791720315715,-0.18272090264547236,0.10990386476500029,-0.0022090196148017733,-0.09762556160304932,-0.09761666085666167,-3.2522542830393615,-4.443962031071816,-0.2852041215627912,-0.004704256425185271,-0.0220069340715193,-0.3359431409007563
1750259361.3213956,-1.5602020287333627,1.832103759585005,-1.8154947891051254,-1.5933651090145178,-1.4852246565869764,0.08586523780904182,0.07082236160898996,-0.1843158016973374,0.11083270007990816,-0.002225881850827411,-0.09840578518883386,-0.09839678100193174,-3.252955221271564,-4.444334818828651,-0.2852005081442708,-0.004702963856053066,-0.021979152200192177,-0.3357223908624728
1750259361.3233302,-1.5600597384383246,1.831733531830759,-1.8152721947332982,-1.5933695776057206,-1.4854222475533234,0.08566766495507844,0.07146815996314097,-0.18591220421289859,0.11176169928432841,-0.002242702374184572,-0.09918501486641153,-0.09917590655504055,-3.253662863024553,-4.444710564091379,-0.28519682755390763,-0.004701661284253499,-0.021951153484411498,-0.33549993384828786
1750259361.3253655,-1.559916155183875,1.8313601097571448,-1.8150477421969429,-1.5933740797960017,-1.4856213959787148,0.08546853485100792,0.07211532276986828,-0.18751012324185456,0.11269086505761387,-0.0022594808782893817,-0.09996324295330068,-0.09995402982921095,-3.2543772286900126,-4.445089262912129,-0.2851930788634772,-0.004700348733789287,-0.02192293835063812,-0.33527577377897394
1750259361.3273063,-1.5597712762306184,1.830983490318073,-1.8148214311602144,-1.5933786155010168,-1.4858220998522977,0.0852678495090622,0.0727638605163219,-0.18910957184929292,0.11362020011190409,-0.0022762170575698266,-0.10074046178219023,-0.10073114315292282,-3.255098338796651,-4.44547091132453,-0.285189261137043,-0.004699026228874304,-0.021894507226230393,-0.3350499146130542
1750259361.3292844,-1.559625098818202,1.8306036704413087,-1.8145932612818116,-1.5933831846358117,-1.4860243571479037,0.08506561095680092,0.07341378367251074,-0.19071056311592138,0.11454970719239296,-0.002292910607460642,-0.10151666370114805,-0.10150723887004895,-3.2558262139924112,-4.445855505340172,-0.28518537343096423,-0.004697693793547242,-0.02186586054441898,-0.33482236034701235
1750259361.3312767,-1.559477620165353,1.8302206470284392,-1.8143632322149088,-1.5933877871148248,-1.4862281658240715,0.08486182123708043,0.07406510269125867,-0.19231311013831331,0.11547938907766346,-0.0023095612244305487,-0.10229184107373562,-0.10228230933998737,-3.2565608750505546,-4.446243040952069,-0.2851814147921027,-0.004696351452586083,-0.021836998741664226,-0.3345931150135968
1750259361.333267,-1.5593288374699048,1.8298344169548435,-1.814131343607091,-1.5933924228518865,-1.4864335238240862,0.08465648240802268,0.07471782800816273,-0.1939172260290969,0.11640924857980453,-0.002326168605973912,-0.1030659862791276,-0.10305634693780037,-3.2573023428652723,-4.4466335141239295,-0.2851773842637639,-0.004694999230509179,-0.021807922257793343,-0.3343621826839941
1750259361.3352568,-1.5591787479088417,1.8294449770696584,-1.8138975951002818,-1.5933970917602238,-1.4866404290760062,0.0844495965429837,0.07537197004154235,-0.1955229239172581,0.1173392885448895,-0.0023427324506339834,-0.1038390917122956,-0.10382934405435128,-3.2580506384629033,-4.447026920813093,-0.2851732808760943,-0.004693637152474735,-0.021778631537813502,-0.3341295674671946
1750259361.337293,-1.5590273486383275,1.8290523241957461,-1.8136619863306827,-1.5934017937524638,-1.4868488794926948,0.08424116573052189,0.07602753919243817,-0.19713021694834246,0.1182695118531216,-0.0023592524579938916,-0.10461114978409584,-0.10460129309643972,-3.258805782971125,-4.447423256945772,-0.2851691036545907,-0.0046922652433496834,-0.021749127029197173,-0.3338952735107452
1750259361.3393822,-1.558874636793738,1.8286564551296618,-1.8134245169286984,-1.5934065287406316,-1.4870588729718524,0.08403119207436598,0.07668454584454043,-0.19873911828469357,0.11919992141912765,-0.0023757283286970823,-0.10538215292139164,-0.10537218648693643,-3.2595677976561395,-4.447822518430918,-0.2851648516166159,-0.004690883528553814,-0.021719409182870228,-0.33365930499790986
1750259361.3414686,-1.5587206094897033,1.828257366641618,-1.8131851865188686,-1.5934112966361553,-1.4872704073960525,0.08381967769338279,0.07734300036417374,-0.20034964110573777,0.12013052019231509,-0.002392159764443602,-0.10615209356726696,-0.10614201666492618,-3.2603367038973836,-4.44822470116443,-0.2851605237695179,-0.004689492033391733,-0.021689478455774288,-0.33342166615312785
1750259361.343331,-1.558565263820137,1.8278550554754516,-1.8129439947198023,-1.593416097349868,-1.4874834806327666,0.08360662472154465,0.07800291310027933,-0.2019617986081968,0.12106131115704498,-0.0024085464680133474,-0.10692096418110954,-0.1069107760858371,-3.261112523184583,-4.4486298010145955,-0.2851561191153895,-0.004688090783781972,-0.02165933530719121,-0.3331823612363918
1750259361.345295,-1.5584085968582695,1.8274495183485884,-1.8127009411441009,-1.5934209307920089,-1.4876980905344057,0.08339203530789654,0.07866429438438725,-0.20357560400635616,0.12199229733296672,-0.0024248881432549765,-0.10768875723872204,-0.1076784572215832,-3.2618952771256726,-4.449037813834165,-0.28515163664688814,-0.004686679805315787,-0.02162898019953458,-0.33294139454792104
1750259361.35212,-1.5582506056566903,1.827040751952008,-1.8124560253982933,-1.593425796872225,-1.4879142349383452,0.08317591161652306,0.07932715453055574,-0.20519107053231309,0.12292348177527888,-0.0024411844951120368,-0.10845546523251672,-0.10844505256069673,-3.262684987462326,-4.449448735459644,-0.2851470753495022,-0.0046852591242926385,-0.021598413600702315,-0.3326987704229356
1750259361.3525605,-1.5580912872473753,1.8266287529502074,-1.8122092470827624,-1.5934306954995776,-1.4881319116669651,0.08295825582651498,0.0799915038354298,-0.20680821143626107,0.12385486757504288,-0.0024574352296116374,-0.10922108067165442,-0.10921055460847287,-3.263481676012375,-4.449862561706946,-0.28514243419934543,-0.004683828766680119,-0.02156763598250833,-0.33245449324115456
1750259361.3531797,-1.5579306386417233,1.8262135179811656,-1.811960605791671,-1.5934356265825365,-1.488351118527679,0.0827390701319356,0.080657352578141,-0.20842703998670553,0.1247864578593737,-0.002473640053894443,-0.1099855960820744,-0.10997495588709567,-3.2642853647451835,-4.45027928837284,-0.28513771216743555,-0.004682388759246669,-0.02153664781760357,-0.332208567412904
1750259361.355287,-1.5577686568305955,1.8257950436563053,-1.8117101011128929,-1.5934405900289912,-1.488571853312969,0.08251835674178687,0.08132471102033596,-0.21004756947078349,0.12571825579186677,-0.0024897986761983925,-0.11074900400680707,-0.1107382489357886,-3.265096075722958,-4.450698911243208,-0.2851329082126226,-0.004680939128306778,-0.021505449587454577,-0.3319609973940146
1750259361.3572927,-1.557605338784346,1.8253733265604564,-1.8114577326279386,-1.5934455857462462,-1.488794113800422,0.08229611787997514,0.08199358940616604,-0.21166981319447745,0.12665026457269293,-0.002505910805884852,-0.11151129700593693,-0.11150042631094009,-3.2659138311148115,-4.45112142607607,-0.28512802129075204,-0.004679479900860547,-0.02147404177247795,-0.33171178767428366
1750259361.3592887,-1.5574406814528574,1.8249483632518178,-1.8112034999118798,-1.5934506136410267,-1.4890178977527606,0.08207235578527668,0.08266399796227052,-0.21329378448293582,0.12758248743907424,-0.002521976153434086,-0.11227246765687475,-0.11226148058625089,-3.2667386532050506,-4.451546828622481,-0.2851230503443889,-0.004678011103782234,-0.02144242486076181,-0.3314609427857702
1750259361.361276,-1.557274681765577,1.8245201502619186,-1.8109474025332766,-1.5934556736194798,-1.4892432029178808,0.08184707271130294,0.08333594689775901,-0.21491949668071075,0.12851492766537165,-0.0025379944304601064,-0.113032508554419,-0.11302140435286535,-3.267570564390184,-4.451975114611875,-0.28511799431362944,-0.004676532764327337,-0.02141059934212265,-0.33120846729637365
1750259361.363288,-1.5571073366315513,1.8240886840955794,-1.8106894400541043,-1.593460765587177,-1.4894700270288839,0.08162027092646554,0.08400944640422676,-0.21654696315205843,0.12944758856353714,-0.002553965349713914,-0.11379141231089869,-0.11378019021951358,-3.268409587164347,-4.452406279758708,-0.28511285212547877,-0.004675044909829642,-0.021378565710401382,-0.330954365815298
1750259361.3652973,-1.5571073366315513,1.8240886840955794,-1.8106894400541043,-1.593460765587177,-1.4894700270288839,0.08162027092646554,0.08400944640422676,-0.21654696315205843,0.12944758856353714,-0.002553965349713914,-0.11379141231089869,-0.11378019021951358,-3.268409587164347,-4.452406279758708,-0.28511285212547877,-0.004675044909829642,-0.021378565710401382,-0.330954365815298
1750259361.367332,-1.5569386429394632,1.8236539612308722,-1.810429612029676,-1.5934658894491163,-1.4896983678041167,0.08139195271394091,0.0846845066557359,-0.21817619728119148,0.13038047348323462,-0.0025698886250928713,-0.1145491715563505,-0.114537830812645,-3.269255744135101,-4.452840319758666,-0.2851076227036199,-0.004673547567854596,-0.02134632446442915,-0.3306986429882848
1750259361.369295,-1.556768597557661,1.8232159781190802,-1.810167918008566,-1.593471045109725,-1.4899282229472002,0.08116212037163477,0.08536113780885342,-0.2198072124726242,0.13131358581232128,-0.0025857639716471057,-0.11530577893862355,-0.11529431877657097,-3.270109057999667,-4.4532772302999835,-0.2851023049580495,-0.004672040766138652,-0.021313876105988182,-0.3304413035035889
1750259361.3713608,-1.5565971973342005,1.8227747311846572,-1.8099043575325364,-1.5934762324728613,-1.4901595901470728,0.08093077621214624,0.08603935000259362,-0.22144002215136946,0.13224692897689444,-0.0026015911055879996,-0.11606122712353979,-0.11604964677359944,-3.2709695515838026,-4.453717007043816,-0.2850968977973688,-0.00467052453262749,-0.02128122114137875,-0.33018235208435126
1750259361.373214,-1.5564244390968751,1.8223302168251863,-1.809638930136459,-1.593481451441817,-1.4903924670780189,0.0806979225627317,0.08671915335849091,-0.22307463976331432,0.13318050644174198,-0.0026173697442997673,-0.11681550879499025,-0.11680380748417488,-3.271837247788165,-4.454159645647435,-0.28509140011744794,-0.004668998895577802,-0.02124836007961247,-0.3299217934966698
1750259361.3751824,-1.5562503196532553,1.8218824314113375,-1.809371635348235,-1.5934867019193204,-1.4906268513997105,0.0804635617652684,0.08740055798056151,-0.22471107877545515,0.13411432171056517,-0.0026330996063317702,-0.11756861665511562,-0.11755679360701653,-3.2727121696338455,-4.454605141745556,-0.2850858108076759,-0.004667463883003379,-0.02121529343478815,-0.3296596325435879
1750259361.3772733,-1.5560748357907173,1.8214313712868258,-1.8091024726887195,-1.593491983807537,-1.4908627407572448,0.08022769617621772,0.0880835739553643,-0.22634935267623876,0.13504837832630748,-0.002648780411420316,-0.11832054342445356,-0.11830859785925663,-3.2735943402207246,-4.455053490963376,-0.2850801287480826,-0.00466591952351584,-0.021182021725155382,-0.3293958740696755
1750259361.3791487,-1.555897984276486,1.8209770327683672,-1.8088314416716438,-1.5934972970080752,-1.491100132781174,0.07999032816658833,0.08876821135196075,-0.2279894749758277,0.1359826798713261,-0.0026644118805011366,-0.11907128184202331,-0.11905921297657758,-3.274483782772821,-4.455504688911088,-0.2850743528141006,-0.0046643658460592055,-0.021148545471345294,-0.3291305229560712
1750259361.381278,-1.5557197618576604,1.8205194121456356,-1.8085585418035341,-1.593502641421983,-1.4913390250875498,0.07975146012189879,0.08945448022200087,-0.22963145920643324,0.136917229967825,-0.002679993735692025,-0.11982082466549025,-0.11980863171335161,-3.2753805205786013,-4.455958731183292,-0.2850684818683146,-0.004662802879057979,-0.021114865198625262,-0.32886358412658995
1750259361.3831143,-1.5555401652612586,1.8200585056812182,-1.8082837725836312,-1.593508016949757,-1.4915794152779576,0.07951109444214018,0.09014239059966789,-0.23127531892259487,0.13785203227800694,-0.002695525700324536,-0.12056916467133671,-0.12055684684278081,-3.276284577059374,-4.456415613364428,-0.28506251476957056,-0.004661230651828184,-0.02108098143707596,-0.32859506254206716
1750259361.3850813,-1.5553591911942455,1.8195943096105704,-1.8080071335038115,-1.5935134234913404,-1.4918213009395531,0.07926923354173815,0.09083195250179224,-0.23292106770153448,0.13878709050449237,-0.0027110074989361056,-0.12131629465497126,-0.12130385115703375,-3.277195975688661,-4.456875331025236,-0.285056450364268,-0.004659649193428573,-0.021046894719855207,-0.3283249632059888
1750259361.3871405,-1.555176836343569,1.8191268201419706,-1.807728624048508,-1.5935188609461264,-1.4920646796451047,0.07902587984951501,0.09152317592780067,-0.23456871914340416,0.13972240839039515,-0.002726438857290498,-0.12206220743084378,-0.12204963746738218,-3.2781147400684634,-4.457337879719018,-0.285050287496953,-0.004658058533477028,-0.021012605583362865,-0.32805329115738513
1750259361.3892808,-1.5549930973761965,1.818656033456473,-1.8074482436946218,-1.5935243292129613,-1.4923095489530267,0.07878103580865124,0.09221607085980055,-0.23621828687169122,0.14065798971990587,-0.0027418195023679853,-0.12280689583261147,-0.12279419860434596,-3.2790408938704,-4.457803254998023,-0.28504402499555115,-0.004656458701305962,-0.020978114568674888,-0.32778005147995465
1750259361.3911319,-1.554807970939149,1.8181819457078618,-1.8071659919114493,-1.593529828190146,-1.4925559064074205,0.07853470387664697,0.09291064726258638,-0.23786978453345126,0.14159383831825692,-0.002757149162392983,-0.12355035271330579,-0.12353752741782402,-3.279974460865393,-4.45827145238868,-0.28503766168879924,-0.004654849726992695,-0.02094342222157191,-0.32750524929286956
1750259361.3931658,-1.554621453659534,1.8177045530226033,-1.806881868160593,-1.5935353577754405,-1.4928037495381137,0.07828688652528303,0.09360691508371037,-0.2395232257997284,0.14252995805230897,-0.0027724275668184954,-0.12429257094540179,-0.12427961677724196,-3.2809154649018666,-4.458742467420963,-0.2850311963889813,-0.004653231640174988,-0.020908529089784227,-0.3272288897603303
1750259361.3951674,-1.5544335421445812,1.817223851499797,-1.806595871895878,-1.5935409178660631,-1.493053075860698,0.07803758624058171,0.09430488425347287,-0.24117862436577953,0.14346635283055859,-0.002787654446356086,-0.12503354342102774,-0.12502045957168031,-3.2818639299344587,-4.459216295597751,-0.28502462790791344,-0.00465160447129479,-0.020873435726950853,-0.32695097808007695
1750259361.400956,-1.5544335421445812,1.817223851499797,-1.806595871895878,-1.5935409178660631,-1.493053075860698,0.07803758624058171,0.09430488425347287,-0.24117862436577953,0.14346635283055859,-0.002787654446356086,-0.12503354342102774,-0.12502045957168031,-3.2818639299344587,-4.459216295597751,-0.28502462790791344,-0.00465160447129479,-0.020873435726950853,-0.32695097808007695
1750259361.401396,-1.5542442329816781,1.8167398372111274,-1.8063080025632745,-1.5935465083586973,-1.4933038828765675,0.07778680552276741,0.09500456468502405,-0.2428359939515183,0.1444030266036887,-0.002802829532959968,-0.12577326305204467,-0.12576004871002408,-3.2828198799817168,-4.459692932427903,-0.28501795504202343,-0.0046499682503501555,-0.020838142688949478,-0.3266715194968621
1750259361.4032376,-1.5540535227384025,1.816252506200815,-1.8060182596008065,-1.5935521291494883,-1.4935561680729634,0.07753454688622685,0.09570596627436767,-0.24449534830175512,0.14533998336463352,-0.002817952559853246,-0.12651172277022454,-0.1264983771210932,-3.2837833391623095,-4.4601723733944025,-0.2850111765855724,-0.004648323008042725,-0.020802650536677403,-0.32639051929021273
1750259361.4051611,-1.5538614079625557,1.8157618544855645,-1.8057266424384686,-1.593557780134053,-1.4938099289230076,0.07728081285946901,0.0964090989004423,-0.24615670118660965,0.14627722714901623,-0.002833023261525611,-0.12724891552737344,-0.12723543775378818,-3.2847543316672674,-4.4606546139819905,-0.28500429132064004,-0.004646668775008813,-0.020766959834502396,-0.32610798278409636
1750259361.407184,-1.5536678851822012,1.8152678780545155,-1.8054331504981427,-1.5935634612074754,-1.4940651628857466,0.07702560598508493,0.09711397242515118,-0.24782006640181362,0.14721476203535022,-0.0028480413737431085,-0.1279848342954742,-0.12797122357722124,-3.285732881778725,-4.461139649659453,-0.2849972980234625,-0.004645005582120838,-0.02073107115081009,-0.3258239153386152
1750259361.4091477,-1.553472950905693,1.8147705728691899,-1.805137783193512,-1.5935691722643126,-1.4943218674061916,0.07676892881970704,0.09782059669345138,-0.24948545776909625,0.14815259214542975,-0.0028630066335471674,-0.1287194720668198,-0.12870572758086482,-3.286719013844921,-4.461627475890386,-0.28499019545912196,-0.004643333460230729,-0.02069498505774443,-0.32553832235941244
1750259361.4111738,-1.5532766016217128,1.8142699348634397,-1.8048405399299696,-1.5935749131985997,-1.4945800399153573,0.0765107839339684,0.09852898153336917,-0.2511528891364842,0.14909072164447024,-0.002877918779279644,-0.12945282185414958,-0.1294389427746815,-3.2877127523125753,-4.462118088123637,-0.2849829823887643,-0.004641652440861577,-0.020658702131284557,-0.32525120928710566
1750259361.413142,-1.5530788337993036,1.8137659599433946,-1.8045414201045364,-1.5935806839038467,-1.4948396778303072,0.07625117391246153,0.09923913675611191,-0.25282237437871785,0.15002915474153297,-0.002892777550567563,-0.130184876690822,-0.13017086218926777,-3.288714121685468,-4.462611481806854,-0.28497565756146653,-0.004639962555094854,-0.020622222952278887,-0.32496258160690283
1750259361.4161308,-1.552879643887903,1.8132586439874077,-1.80424042310577,-1.5935864842730467,-1.495100778554189,0.07599010135369696,0.0999510721561125,-0.2544939273975921,0.15096789568981148,-0.0029075826883453023,-0.1309156296309028,-0.13090147887599352,-3.2897231465530234,-4.463107652377317,-0.284968219718135,-0.004638263834628361,-0.020585548104059097,-0.32467244484375873
1750259361.417279,-1.5526790283173755,1.812747982846001,-1.8039375483136784,-1.5935923141986725,-1.4953633394762829,0.07572756887006167,0.10066479751109814,-0.2561675621222861,0.15190694878677535,-0.0029223339348579333,-0.1316450737493129,-0.13163078590713617,-3.2907398515783686,-4.463606595258377,-0.2849606675954716,-0.0046365563112226536,-0.020548678174118984,-0.32438080456128837
1750259361.4192398,-1.5524769834980479,1.8122339723418106,-1.80363279509963,-1.593598173572687,-1.4956273579720358,0.075463579087777,0.10138032258217503,-0.2578432925097885,0.152846318374661,-0.0029370310336658983,-0.13237320214203138,-0.13235877637602583,-3.2917642614952785,-4.464108305875637,-0.28495299991639444,-0.0046348400167724015,-0.020511613755678275,-0.32408766636683894
1750259361.4214776,-1.5522735058207395,1.8117166082695304,-1.803326162826262,-1.5936040622865386,-1.4958928314031112,0.07519813464685647,0.10209765711390602,-0.25952113254524634,0.15378600884063928,-0.002951673729648947,-0.13310000792611845,-0.1330854433971792,-3.2927964011080455,-4.464612779643589,-0.284945215399004,-0.004633114983252287,-0.02047435544259527,-0.323793035906579
1750259361.4231398,-1.5520685916567984,1.8111958863958557,-1.8030176508473943,-1.593609980231168,-1.496159757117426,0.07493123820106329,0.10281681083437762,-0.2612010962423344,0.15472602461715232,-0.0029662617690188724,-0.13382548423997176,-0.1338107801064414,-3.2938362952968667,-4.465120011969254,-0.28493731275176915,-0.004631381242991402,-0.020436903835954704,-0.32349691886800086
1750259361.425142,-1.5518622373581348,1.8106718024594255,-1.8027072585079358,-1.5936159272970087,-1.4964281324491973,0.07466289241786751,0.10353779345530915,-0.26288319764365503,0.15566637018219281,-0.0029807948993290784,-0.13454962424339126,-0.13453477966112,-3.2948839689998612,-4.465629998255302,-0.28492929067522743,-0.004629638828560804,-0.020399259538665906,-0.32319932097881177
1750259361.4271176,-1.5516544392572467,1.8101443521707643,-1.802394985143792,-1.5936219033739922,-1.4966979547189805,0.074393099978403,0.1042606146721328,-0.26456745082111455,0.1566070500596325,-0.002995272869464443,-0.13527242111772686,-0.13525743524013284,-3.295939447224783,-4.466142733896921,-0.2849211478604781,-0.004627887772250302,-0.020361423157797855,-0.3229002480106328
1750259361.4291608,-1.551445193667262,1.8096135312122232,-1.8020808300817768,-1.5936279083515466,-1.4969692212337167,0.07412186357742408,0.10498528416406076,-0.26625386987631133,0.15754806881944466,-0.0030096954296740387,-0.13599386806606673,-0.13597874004413532,-3.297002755057977,-4.466658214286801,-0.28491288299259787,-0.004626128107236958,-0.020323395305724728,-0.3225997057708934
1750259361.4311419,-1.551234496881965,1.80907933523792,-1.8017647926395162,-1.593633942118605,-1.4972419292867762,0.07384918592326187,0.10571181159423405,-0.2679424689409615,0.15848943107815078,-0.0030240623315446755,-0.13671395831331276,-0.13669868729567058,-3.298073917623794,-4.467176434812566,-0.28490449474358026,-0.00462435986595559,-0.02028517659694634,-0.3222977001145969
1750259361.4332626,-1.551022345175828,1.8085417598736788,-1.8014468721253571,-1.5936400045636026,-1.497516076158,0.07357506973778043,0.10644020660976614,-0.26963326217723277,0.15943114149886145,-0.0030383733280469143,-0.13743268510633258,-0.1374172702392957,-3.2991529601336707,-4.467697390850879,-0.28489598178445047,-0.0046225830821052605,-0.02024676765024363,-0.3219942369307556
1750259361.4351482,-1.5508087348040478,1.8080008007169686,-1.801127067838273,-1.5936460955744831,-1.4977916591137443,0.07329951775633256,0.10717047884188895,-0.27132626377824115,0.16037320479189446,-0.0030526281735036857,-0.13815004171413914,-0.13813448214173252,-3.3002399078430065,-4.468221077787668,-0.2848873427687487,-0.004620797788507986,-0.02020816908945842,-0.3216893221562849
1750259361.4373066,-1.550593662002572,1.8074564533368405,-1.8008053790677705,-1.5936522150387002,-1.4980686754069268,0.07302253272771536,0.10790263790603735,-0.2730214879683773,0.1613156257148163,-0.0030668266236230715,-0.1388660214279655,-0.13885031629199582,-3.3013347860727937,-4.468747490991357,-0.28487857634855995,-0.00461900401887565,-0.020169381540538052,-0.3213829617641969
1750259361.4392173,-1.5503771229881353,1.8069087132738655,-1.8004818050937912,-1.593658362843219,-1.4983471222770692,0.07274411741412548,0.10863669340196627,-0.27471894900378246,0.1622584090729377,-0.0030809684354883883,-0.13958061756148066,-0.1395647660015387,-3.302437620201773,-4.469276625838807,-0.28486968116217065,-0.004617201806642906,-0.020130405635510138,-0.32107516177195256
1750259361.4411597,-1.550159113958287,1.8063575760400703,-1.80015634518662,-1.5936645388745223,-1.4986269969503434,0.0724642745911141,0.10937265491387328,-0.2764186611727119,0.16320155971939201,-0.003095053367577831,-0.14029382345086144,-0.14027782460438837,-3.3035484356574316,-4.469808477693112,-0.2848606558453533,-0.004615391185781664,-0.020091242008427896,-0.3207659282375599
1750259361.4431455,-1.5499396310914229,1.8058030371188725,-1.7998289986067881,-1.5936707430186097,-1.4989082966396161,0.07218300704754166,0.11011053201049356,-0.278120638795995,0.16414508255564084,-0.0031090811797601183,-0.14100563245492673,-0.14098948545728174,-3.3046672579350096,-4.47034304192373,-0.28485149901974494,-0.004613572190118675,-0.020051891297124185,-0.3204552672585231
1750259361.4505405,-1.5499396310914229,1.8058030371188725,-1.7998289986067881,-1.5936707430186097,-1.4989082966396161,0.07218300704754166,0.11011053201049356,-0.278120638795995,0.16414508255564084,-0.0031090811797601183,-0.14100563245492673,-0.14098948545728174,-3.3046672579350096,-4.47034304192373,-0.28485149901974494,-0.004613572190118675,-0.020051891297124185,-0.3204552672585231
1750259361.4512272,-1.5492723009660603,1.8041189646345204,-1.798835631288263,-1.5936895229804104,-1.4997607177334729,0.07133068418074263,0.11233575226701975,-0.2832403080978619,0.1669779339478867,-0.003150819516616228,-0.14313261208675623,-0.1431160154271897,-3.3080720213114563,-4.471962962519514,-0.28482322559872714,-0.004608065296562233,-0.01993272310830565,-0.31951478127301486
1750259361.4533632,-1.5490468841531175,1.8035507732233942,-1.79850073042459,-1.5936958384261004,-1.5000476893509038,0.07104374590811516,0.11308138708540438,-0.28495149141331966,0.16792299553352394,-0.003164616475987626,-0.14383876759629163,-0.143822019306713,-3.30922312674835,-4.472508329893145,-0.2848135288033747,-0.004606213144778952,-0.01989263052701723,-0.31919847233934845
1750259361.455571,-1.548819974108918,1.802979157110493,-1.798163939041176,-1.5937021814074486,-1.5003360718506933,0.0707553970572634,0.11382898510495569,-0.28666501229093644,0.16886845455062047,-0.003178355135944747,-0.14454349335961614,-0.14452659256547867,-3.310382367192854,-4.473056386457661,-0.2848036934886169,-0.004604352790431417,-0.019852354113659453,-0.3188807670787542
1750259361.4573355,-1.548591566897577,1.8024041116061729,-1.797825256337969,-1.593708551807624,-1.5006258623668423,0.07046564049593693,0.1145785558044555,-0.28838088525611444,0.16981431619657406,-0.0031920352648585008,-0.14524678287448553,-0.14522972869939363,-3.3115497684170667,-4.473607127578057,-0.28479371822466426,-0.004602484268529447,-0.019811894529978582,-0.31856167184105
1750259361.4592943,-1.5483616585642697,1.8018256319917036,-1.7974846815044732,-1.5937149495093337,-1.500917058020372,0.07017447910486979,0.1153301086481559,-0.2900991248698968,0.17076058571911337,-0.003205656632536425,-0.14594862966226269,-0.1459314212280383,-3.3127253562503665,-4.4741605486150515,-0.2847836015761482,-0.004600607614119117,-0.019771252440993578,-0.31824119301413156
1750259361.4613361,-1.5481302451352548,1.801243713519197,-1.7971422137196438,-1.5937213743948266,-1.5012096559193697,0.06988191577773314,0.11608365308597998,-0.2918197457294754,0.1717072684167258,-0.0032192190102336604,-0.14664902726811638,-0.14663166369480743,-3.3139091565402126,-4.474716644934393,-0.2847733420953884,-0.004598722862556285,-0.01973042851732496,-0.31791933703128666
1750259361.4633367,-1.5478973226179056,1.8006583514115335,-1.7967978521517907,-1.593727826345896,-1.5015036531590358,0.06958795342108738,0.11683919855362904,-0.29354276246862815,0.17265436963887662,-0.0032327221706552906,-0.14734796926110721,-0.14733044966704387,-3.3151011951951608,-4.475275411902522,-0.2847629383286999,-0.0045968300492437745,-0.01968942343201319,-0.3175961103642032
1750259361.4654,-1.5476628870007394,1.8000695408622895,-1.7964515959584721,-1.5937343052438813,-1.5017990468217342,0.06929259495433417,0.11759675447276834,-0.2952681897582162,0.17360189478640117,-0.0032461658879578566,-0.14804544923431123,-0.14802777273617881,-3.3163014981486088,-4.475836844889819,-0.28475238881113535,-0.0045949292096244924,-0.019648237861580223,-0.31727151952886884
1750259361.4673934,-1.5474269342534415,1.7994772770356622,-1.7961034442863948,-1.5937408109696705,-1.5020958339770374,0.0689958433096681,0.1183563302511751,-0.29699604230663645,0.1745498493117296,-0.0032595499377662137,-0.14874146080503034,-0.14872362651786655,-3.3175100913755085,-4.476400939265903,-0.2847416920713504,-0.004593020379605251,-0.019606872488477426,-0.31694557108162125
1750259361.46951,-1.5471894603268987,1.7988815550663937,-1.795753396271305,-1.593747343403705,-1.5023940116817798,0.06869770143202812,0.11911793528290919,-0.29872633486033273,0.17549823871929385,-0.0032728740971677403,-0.14943599761485435,-0.1494180046521219,-3.3187270008843455,-4.476967690408429,-0.2847308466265321,-0.004591103594919377,-0.0195653279969025,-0.31661827162123335
1750259361.4716616,-1.5469504611532203,1.7982823700596948,-1.7954014510378924,-1.5937539024259841,-1.5026935769801,0.0683981722790487,0.11988157894849322,-0.3004590822042615,0.17644706856575276,-0.003286138144733525,-0.15012905332982165,-0.1501109008034547,-3.319952252709844,-4.477537093693265,-0.2847198509872884,-0.0045891788918877114,-0.019523605075579868,-0.3162896277879367
1750259361.4733987,-1.5469504611532203,1.7982823700596948,-1.7954014510378924,-1.5937539024259841,-1.5026935769801,0.0683981722790487,0.11988157894849322,-0.3004590822042615,0.17644706856575276,-0.003286138144733525,-0.15012905332982165,-0.1501109008034547,-3.319952252709844,-4.477537093693265,-0.2847198509872884,-0.0045891788918877114,-0.019523605075579868,-0.3162896277879367
1750259361.4754026,-1.5467099326457703,1.7976797170911678,-1.7950476076996775,-1.5937604879160627,-1.502994526903496,0.06809725882101063,0.12064727061507113,-0.30219429916240864,0.1773963444604,-0.0032993418605011806,-0.15082062164057763,-0.1508023086610083,-3.321185872926698,-4.478109144506263,-0.2847087036528536,-0.004587246306337468,-0.01948170441769651,-0.31595964626407824
1750259361.477254,-1.54646787069919,1.7970735912067275,-1.794691865358912,-1.5937670997530589,-1.5032968584708692,0.06779496404079172,0.12141501963661049,-0.303932000598278,0.1783460720654271,-0.0033124850260055757,-0.15151069626247704,-0.15149222193869252,-3.3224278876262052,-4.478683838233347,-0.28469740311475356,-0.004585305874952977,-0.01943962671932327,-0.3156283337737387
1750259361.4792416,-1.546224271189427,1.7964639874225214,-1.7943342231064667,-1.5937737378156553,-1.5036005686885794,0.06749129093381703,0.12218483535405181,-0.3056722014153914,0.1792962570962221,-0.0033255674242654446,-0.1521992709357415,-0.15218063437532448,-3.3236783229434272,-4.479261170268164,-0.28468594785629736,-0.004583357634042272,-0.01939737268096843,-0.31529569708336125
1750259361.4812963,-1.545979129973757,1.79585090072485,-1.7939746800217309,-1.5937804019821016,-1.5039056545504899,0.06718624250800903,0.12295672709553425,-0.30741491655782427,0.18024690532178114,-0.0033385888398003317,-0.15288633942556876,-0.15286753973475647,-3.324937205021202,-4.479841136010421,-0.2846743363488653,-0.004581401620363769,-0.019354943006215958,-0.3149617430000837
1750259361.4835346,-1.5457324428908175,1.795234326070084,-1.7936132351725025,-1.593787092130217,-1.5042121130380188,0.06687982178373728,0.12373070417655098,-0.3091601610106868,0.18119802256488832,-0.0033515490586347413,-0.15357189552231437,-0.15355293180601765,-3.326204560042147,-4.48042373086328,-0.2846625670589111,-0.0045794378708041835,-0.019312338403771726,-0.31462647837376345
1750259361.4854767,-1.5454842057606228,1.7946142583845832,-1.7932498876148761,-1.5937938081373968,-1.5045199411201935,0.066572031793768,0.1245067759001857,-0.31090794980067726,0.18214961470258198,-0.003364447868293657,-0.15425593304156948,-0.1542368044034493,-3.327480414191794,-4.481008950237614,-0.2846506384393635,-0.00457746642211193,-0.01926955958452848,-0.3142899100980348
1750259361.4874618,-1.5452344143845949,1.7939906925646114,-1.7928846363931417,-1.5938005498806103,-1.5048291357536936,0.06626287558321334,0.12528495155728472,-0.3126582979966214,0.18310168766644982,-0.0033772850578245523,-0.15493844582435992,-0.15491915136683232,-3.328764793691646,-4.48159678955728,-0.2846385489351846,-0.004575487311636021,-0.01922660726499085,-0.3139520451045931
1750259361.4892862,-1.544983064545585,1.7933636234762527,-1.7925174805396695,-1.5938073172364078,-1.50513969388291,0.06595235620948028,0.1260652404266634,-0.31441122070995703,0.18405424744282925,-0.0033900604177871407,-0.15561942773722118,-0.15559996656153072,-3.3300577247769234,-4.482187244243652,-0.2846262969853151,-0.004573500576448134,-0.01918348216377346,-0.31361289037035167
1750259361.4913042,-1.5447301520079009,1.7927330459553246,-1.7921484190748025,-1.593814110080923,-1.505451612439991,0.06564047674221944,0.1268476517753308,-0.3161667330953299,0.18500730007331784,-0.00340277374027206,-0.15629887267235787,-0.15627924387862083,-3.3313592336951747,-4.482780309735349,-0.2846138810143391,-0.004571506254130743,-0.019140185003984157,-0.3132724529130841
1750259361.4932377,-1.5444756725173274,1.792098954807292,-1.7917774510067437,-1.5938209282898734,-1.5057648883448929,0.06532724026327343,0.1276321948586943,-0.31792485035109125,0.18596085165491882,-0.003415424818901978,-0.15697677454777414,-0.15695697723502294,-3.332669346710533,-4.483375981471506,-0.28460129944258256,-0.004569504382282103,-0.019096716512404018,-0.31293073979104175
1750259361.4952128,-1.5442196218011475,1.7914613448071792,-1.7914045753314474,-1.5938277717385656,-1.5060795185054374,0.06501264986662503,0.1284188789207904,-0.3196855877199039,0.18691490834056668,-0.003428013448820559,-0.15765312730742873,-0.1576331605736458,-3.333988090096269,-4.483974254909356,-0.28458855067557787,-0.004567494998208754,-0.019053077420181933,-0.3125877581092334
1750259361.501563,-1.5439619955681696,1.7908202106994797,-1.791029791032507,-1.5938346403019006,-1.5063954998173585,0.06469670865834518,0.12920771319448632,-0.32144896048926286,0.18786947633929602,-0.0034405394267318997,-0.15832792492132622,-0.1583077878635073,-3.335315490145984,-4.484575125511273,-0.28457563311411926,-0.004565478140300048,-0.019009268461038675,-0.31224351500883907
1750259361.502143,-1.5434419992947994,1.789527348986104,-1.7902744924355734,-1.593848452270068,-1.5070315034181494,0.06406078629130074,0.13079186925377886,-0.32498367360723335,0.18978017139511547,-0.0034654026210374175,-0.1596728307230994,-0.15965235030439476,-3.337996365412977,-4.485784640109141,-0.28454928515303407,-0.004561422154153906,-0.01892114389993555,-0.31155127334000127
1750259361.502479,-1.5434419992947994,1.789527348986104,-1.7902744924355734,-1.593848452270068,-1.5070315034181494,0.06406078629130074,0.13079186925377886,-0.32498367360723335,0.18978017139511547,-0.0034654026210374175,-0.1596728307230994,-0.15965235030439476,-3.337996365412977,-4.485784640109141,-0.28454928515303407,-0.004561422154153906,-0.01892114389993555,-0.31155127334000127
1750259361.503207,-1.543179620579835,1.7888756107159476,-1.789893976041939,-1.5938553954226862,-1.5073515194385294,0.06374081140464588,0.13158720945142213,-0.32675504476017,0.19073631115409603,-0.0034777394385734736,-0.1603429269825369,-0.1603222735252309,-3.339349893242386,-4.486393275084832,-0.2845358515047203,-0.004559383102301888,-0.018876829784783132,-0.31120328926937796
1750259361.5054321,-1.542915648998969,1.7882203270090575,-1.7895115468331468,-1.5938623631855222,-1.5076728740734104,0.06341949825047291,0.132384736685247,-0.32852911292349,0.19169298763073972,-0.0034900128063965925,-0.16101144423965993,-0.16099061683719165,-3.340712182946533,-4.487004489186359,-0.28452224256072073,-0.004557336729359881,-0.018832348778700374,-0.3108540727773602
1750259361.5073352,-1.542650080168949,1.787561492455901,-1.7891272037292758,-1.5938693554314813,-1.5079955641588878,0.06309684999450248,0.13318446013586335,-0.330305893617497,0.1926502073198628,-0.0035022225289843686,-0.16167837659679649,-0.16165737434186117,-3.342083260839731,-4.487618277929243,-0.2845084566756776,-0.004555283073681459,-0.01878770163328924,-0.310503631216328
1750259361.5092068,-1.5423829096881674,1.7868991016158557,-1.7887409456373575,-1.5938763720330789,-1.508319586519283,0.06277286981422517,0.13398638897418133,-0.3320854024108722,0.19360797677463648,-0.003514368412389396,-0.16234371818318938,-0.1623225401677332,-3.3434631532275687,-4.488234636853848,-0.2844944921863293,-0.004553222174047857,-0.018742889106749296,-0.31015197198305533
1750259361.511141,-1.5421141331366854,1.786233149017114,-1.78835277145126,-1.5938834128624428,-1.50864493796721,0.06244756089884756,0.1347905323616466,-0.33386765492120213,0.19456630260663818,-0.0035264502642327372,-0.1630074631550342,-0.162986108470346,-3.3448518864192,-4.488853561502329,-0.2844803474278477,-0.004551154069058133,-0.018697911958348128,-0.3097991025165004
1750259361.5132012,-1.5418437460762533,1.7855636291565826,-1.7879626800515673,-1.5938904777913203,-1.508971615303616,0.062120926449238,0.13559689945050202,-0.33565266681562644,0.1955251914863616,-0.0035384678937315215,-0.16366960569569106,-0.163648073432406,-3.3462494867212893,-4.48947504743765,-0.2844660207210211,-0.004549078798073883,-0.01865277095331974,-0.3094450302949751
1750259361.515216,-1.5415717440503203,1.784890536499785,-1.7875706703054641,-1.5938975666910764,-1.509299615317845,0.06179296967787215,0.13640549938408336,-0.3374404538114577,0.19648465014353436,-0.0035504211116788643,-0.16433014001574195,-0.16430842926392336,-3.3476559804192485,-4.490099090235408,-0.28445151037745675,-0.004546996399890955,-0.01860746685851306,-0.30908976284180006
1750259361.517188,-1.5412981225840632,1.7842138654807582,-1.7871767410666166,-1.5939046794327005,-1.5096289347876901,0.06146369380877823,0.13721634129704605,-0.33923103167680296,0.19744468536744744,-0.003562309730464512,-0.1649890603531836,-0.16496717020234075,-3.349071393812541,-4.490725685491021,-0.2844368146998054,-0.004544906913888828,-0.01856200044620975,-0.30873330771990576
1750259361.5193145,-1.5410228771843952,1.7835336105019528,-1.7867808911750513,-1.5939118158868082,-1.5099595704794453,0.06113310207748204,0.13802943431568457,-0.3410244162311694,0.19840530400726647,-0.0035741335640748573,-0.16564636097351626,-0.1656242905126642,-3.350495753166096,-4.491354828805776,-0.2844219319812999,-0.004542810379441683,-0.0185163724911944,-0.30837567253611053
1750259361.5218184,-1.5410228771843952,1.7835336105019528,-1.7867808911750513,-1.5939118158868082,-1.5099595704794453,0.06113310207748204,0.13802943431568457,-0.3410244162311694,0.19840530400726647,-0.0035741335640748573,-0.16564636097351626,-0.1656242905126642,-3.350495753166096,-4.491354828805776,-0.2844219319812999,-0.004542810379441683,-0.0185163724911944,-0.30837567253611053
1750259361.5234766,-1.5407460033399847,1.7828497659341276,-1.7863831194570379,-1.5939189759236445,-1.5102915191479678,0.060801197730951696,0.13884478755819404,-0.342820623346155,0.19936651297252256,-0.0035858924280916535,-0.16630203616987957,-0.166279784487592,-3.351929084745955,-4.491986515810225,-0.28440686050174235,-0.004540706835884492,-0.018470583772075163,-0.30801686493834285
1750259361.5256143,-1.5404674965212726,1.782162326116246,-1.7859834247249653,-1.593926159413086,-1.510624777536723,0.06046798402754212,0.13966241013494962,-0.34461966894603224,0.20032831923325636,-0.0035975861397164644,-0.1669560802632009,-0.16693364644764205,-3.3533714148033806,-4.492620742141105,-0.2843915985366214,-0.004538596323239833,-0.018424635071643526,-0.3076568926152244
1750259361.527428,-1.540187352180487,1.7814712853553696,-1.7855818057772215,-1.5939333662246469,-1.5109593423778502,0.06013346423693926,0.14048231114882218,-0.34642156900846793,0.20129072982063942,-0.00360921451774284,-0.16760848760232677,-0.16758587074128647,-3.3548227695643273,-4.493257503462795,-0.2843761443438395,-0.004536478880749718,-0.01837852717638933,-0.3072957633006931
1750259361.529514,-1.5399055657516554,1.7807766379265504,-1.7851782613980713,-1.5939405962274815,-1.5112952103922135,0.05979764164010407,0.1413044996954549,-0.3482263395651117,0.2022537518270309,-0.0036207773825948694,-0.16825925256410645,-0.1682364517450728,-3.3562831752426674,-4.493896795447331,-0.2843604961796413,-0.004534354548732995,-0.018332260875160666,-0.306933484766782
1750259361.5312865,-1.5396221326506234,1.7800783780727232,-1.7847727903575326,-1.5939478492903838,-1.511632378289458,0.05946051952921624,0.14212898486356834,-0.3500339967023204,0.20321739240658515,-0.0036322745563130312,-0.16890836955356284,-0.1688853838637529,-3.357752658033021,-4.494538613795797,-0.2843446522831828,-0.004532223367105347,-0.0182858369616165,-0.3065700648280358
1750259361.5332506,-1.5393370482750655,1.779376500004594,-1.784365391411253,-1.593955125281795,-1.5119708427680685,0.0591221012076176,0.14295577573529308,-0.3518445565618203,0.204181658775518,-0.0036437058625545826,-0.1695558330040148,-0.16953266153041996,-3.3592312440934666,-4.495182954224511,-0.2843286108858997,-0.0045300853758168174,-0.01823925623286445,-0.306205511345419
1750259361.5352442,-1.5390503080044962,1.7786709979005302,-1.7839560633003861,-1.5939624240698054,-1.5123106005154217,0.0587823899897554,0.14378488138644435,-0.3536580353413498,0.20514655821240743,-0.0036550711266171835,-0.17020163737717442,-0.17017827920662237,-3.3607189595739886,-4.495829812465727,-0.28431237021070405,-0.004527940615452691,-0.018192519488749205,-0.3058398322149508
1750259361.537254,-1.5387619072002865,1.7779618659064467,-1.7835448047514655,-1.5939697455221573,-1.5126516482078518,0.0584413892011252,0.14461631088686935,-0.3554744492954124,0.20611209805871253,-0.0036663701754196614,-0.1708457771633336,-0.17082223138249822,-3.3622158305866092,-4.496479184282358,-0.28429592846596063,-0.004525789126070017,-0.01814562753437528,-0.3054730353788125
1750259361.5392425,-1.5384718412056726,1.777249098135692,-1.783131614476277,-1.5939770895062493,-1.5129939825106966,0.058099102178213596,0.14545007330075954,-0.3572938147359313,0.20707828571902417,-0.003677602837529533,-0.1714882468814089,-0.17146451257690073,-3.363721883216952,-4.4971310654516135,-0.28427928385277346,-0.004523630948507387,-0.018098581176107065,-0.3051051288200702
1750259361.5412817,-1.5381801053457682,1.7765326886689332,-1.782716491171736,-1.593984455889137,-1.513337600078363,0.057755532268440664,0.14628617768697852,-0.3591161480329526,0.20804512866143557,-0.0036887689431491385,-0.17212904107915014,-0.17210511733752062,-3.365237143519672,-4.49778545177246,-0.2842624345617254,-0.004521466123196005,-0.01805138122618772,-0.304736120562052
1750259361.5433657,-1.5378866949275736,1.775812631554038,-1.7822994335197562,-1.5939918445375385,-1.5136824975543828,0.057410682830102144,0.1471246330994113,-0.3609414656153932,0.20901263441799278,-0.0036998683241266203,-0.1727681543331904,-0.17274404024101797,-3.3667616375105136,-4.498442339072382,-0.2842453787707461,-0.004519294690899289,-0.018004028498267315,-0.3043660186731015
1750259361.5452616,-1.537591605239987,1.7750889208059568,-1.781880440187125,-1.593999255317839,-1.5140286715714701,0.057064557232311394,0.14796544858728186,-0.36276978397171616,0.20998081058498194,-0.0037109008139676286,-0.17340558124924935,-0.17338127589313992,-3.3682953911778006,-4.49910172319521,-0.2842281146494763,-0.0045171166926931666,-0.017956523811725317,-0.30399483125932547
1750259361.5472302,-1.5372948315538117,1.7743615504066037,-1.7814595098253703,-1.5940066880960906,-1.5143761187515778,0.05671715885494108,0.14880863319552334,-0.3646011196507019,0.21094966482339786,-0.003721866247825704,-0.17404131646217466,-0.17401681892884752,-3.369838430462306,-4.49976360001499,-0.2842106403543572,-0.004514932169385807,-0.01790886798710645,-0.3036225664705501
1750259361.5515568,-1.5369963691217645,1.7736305143047335,-1.7810366410706342,-1.5940141427380174,-1.5147248357059588,0.05636849108856463,0.14965419596510862,-0.36643548926216124,0.21191920485926882,-0.003732764462510712,-0.17467535463612036,-0.17465066401244314,-3.37139078127329,-4.5004279654279555,-0.2841929540326472,-0.004512741162037082,-0.017861061849979824,-0.30324923249862334
1750259361.5536056,-1.5369963691217645,1.7736305143047335,-1.7810366410706342,-1.5940141427380174,-1.5147248357059588,0.05636849108856463,0.14965419596510862,-0.36643548926216124,0.21191920485926882,-0.003732764462510712,-0.17467535463612036,-0.17465066401244314,-3.37139078127329,-4.5004279654279555,-0.2841929540326472,-0.004512741162037082,-0.017861061849979824,-0.30324923249862334
1750259361.5539687,-1.5366962131784847,1.7728958064158202,-1.780611832543542,-1.5940216191090197,-1.515074819035224,0.05601855733439742,0.15050214593341593,-0.3682729094776773,0.2128894384839964,-0.0037435952965024777,-0.1753076904646806,-0.1752828058376906,-3.3729524694733484,-4.5010948153546195,-0.2841750538219425,-0.004510543712086572,-0.017813106229684204,-0.3028748375760251
1750259361.5551453,-1.5363943589405418,1.772157420621932,-1.7801850828490693,-1.594029117074177,-1.515426065329402,0.055667361004237755,0.1513524921345932,-0.37011339703137647,0.21386037355488255,-0.003754358589939318,-0.1759383186709575,-0.17591323912793622,-3.3745235208800604,-4.501764145743739,-0.28415693784480445,-0.004508339860641574,-0.017765001957468492,-0.3024993899760856
1750259361.5571783,-1.536090801606437,1.7714153507716055,-1.779756390576411,-1.594036636498247,-1.5157785711679947,0.055314905520407534,0.152205243599939,-0.3719569687206773,0.2148320179953624,-0.003765054184639411,-0.17656723400772914,-0.17654195863623412,-3.37610396125766,-4.502435952568494,-0.2841386042172466,-0.004506129649428618,-0.01771674986931339,-0.30212289801528974
1750259361.5591369,-1.535785536356613,1.7706695906797192,-1.7793257542988492,-1.594044177245678,-1.5161323331200407,0.054961194315692755,0.153060409358247,-0.37380364140706424,0.21580437979547962,-0.0037756819240861907,-0.1771944312575486,-0.17716895914547037,-3.377693816336008,-4.503110231832564,-0.2841200510419462,-0.004503913119766882,-0.017668350803990547,-0.30174537005111085
1750259361.5611162,-1.535478558353458,1.7699201341273632,-1.7788931725736186,-1.5940517391806033,-1.5164873477441745,0.054606230833283705,0.15391799843620826,-0.37565343201686857,0.21677746701228154,-0.00378624165344293,-0.1778199052328854,-0.17779423546847792,-3.3792931117825598,-4.503786979565836,-0.2841012764102063,-0.004501690313373392,-0.017619805604255738,-0.3013668144808643
1750259361.5632055,-1.5351698627413057,1.7691669748617096,-1.7784586439417733,-1.5940593221668493,-1.5168436115886834,0.05425001852671496,0.15477801985880227,-0.37750635754204864,0.21775128777016317,-0.003796733219558776,-0.17844365077623017,-0.17841778244816137,-3.3809018732081055,-4.504466191825513,-0.28408227840355843,-0.004499461272150931,-0.01757111511581366,-0.3009872397449248
1750259361.5651302,-1.5348594446464432,1.7684101065958806,-1.778022166928051,-1.5940669260679385,-1.5172011211915724,0.05389256085980511,0.15564048264966257,-0.37936243504099976,0.21872585026133587,-0.003807156470961362,-0.17906566276020175,-0.17903959495761979,-3.3825201261814235,-4.505147864703635,-0.28406305509050467,-0.004497226037802909,-0.017522280187385296,-0.3006066543248498
1750259361.5672479,-1.5345472991771132,1.767649523008814,-1.7775837400407344,-1.5940745507470906,-1.5175598730806197,0.053533861306596264,0.15650539583149436,-0.3812216816393316,0.21970116274613857,-0.003817511257877431,-0.1796859360877157,-0.17965966790025734,-3.384147896201462,-4.505831994314991,-0.2840436045304149,-0.004494984652595731,-0.01747330167243932,-0.30022506674064514
1750259361.5698624,-1.5345472991771132,1.767649523008814,-1.7775837400407344,-1.5940745507470906,-1.5175598730806197,0.053533861306596264,0.15650539583149436,-0.3812216816393316,0.21970116274613857,-0.003817511257877431,-0.1796859360877157,-0.17965966790025734,-3.384147896201462,-4.505831994314991,-0.2840436045304149,-0.004494984652595731,-0.01747330167243932,-0.30022506674064514
1750259361.5714219,-1.534233421423509,1.7668852177451293,-1.777143361771519,-1.5940821960672285,-1.5179198637734403,0.053173923351293305,0.15737276842649764,-0.3830841145307258,0.22067723355356783,-0.003827797432214668,-0.18030446569206057,-0.1802779962099149,-3.385785208699099,-4.5065185768119775,-0.2840239247677267,-0.0044927371583165,-0.01742418042659376,-0.29984248555921617
1750259361.5732725,-1.533917806457783,1.766117184414989,-1.7767010305953743,-1.5940898618909802,-1.5182810897775472,0.05281275048820291,0.15824260945672544,-0.3849497509777236,0.2216540710815662,-0.0038380148475846356,-0.18092124653702038,-0.18089457485097699,-3.3874320890669822,-4.507207608377589,-0.28400401383898766,-0.004490483597379278,-0.01737491730891339,-0.29945891938188846
1750259361.5753417,-1.5336004493340436,1.7653454165939613,-1.7762567449704019,-1.5940975480806827,-1.5186435475904112,0.05245034622167233,0.15911492794454515,-0.38681860831256365,0.22263168379749643,-0.0038481633592912026,-0.1815362736169901,-0.18150939881849884,-3.3890885626088645,-4.507899085222933,-0.2839838697668626,-0.00448822401189412,-0.017325513181720154,-0.2990743768563131
1750259361.577491,-1.5332813450883513,1.7645699078228798,-1.775810503337702,-1.5941052544983858,-1.5190072336995222,0.05208671406602795,0.15998973291304808,-0.38869070393802513,0.2236100802384997,-0.0038582428243536518,-0.18214954195713423,-0.18212246313831543,-3.3907546545682474,-4.50859300359472,-0.2839634905640965,-0.00448595844461236,-0.01727596891180208,-0.298688866667505
1750259361.579321,-1.5329604887387216,1.7637906516077009,-1.775362304121228,-1.5941129810058552,-1.5193721445824497,0.051721857545513616,0.16086703338646535,-0.3905660553282918,0.22458926901199727,-0.003868253101483929,-0.18276104661345535,-0.18273376286716492,-3.392430390125263,-4.509289359777151,-0.28394287422932707,-0.004483686937660105,-0.01722628536787684,-0.29830239754340976
1750259361.5812318,-1.5326378752851184,1.7630076414193607,-1.774912145727649,-1.5941207274645741,-1.51973827670691,0.05135578019422868,0.1617468383906272,-0.39244468002980654,0.22556925879607984,-0.0038781940511074375,-0.18337078267293108,-0.18334329309280217,-3.3941157943748173,-4.509988150085447,-0.28392201874993733,-0.0044814095337521375,-0.017176463422521843,-0.2979149782528275
1750259361.583159,-1.5323134997094527,1.7622208706936293,-1.7744600265462056,-1.5941284937357496,-1.520105626530822,0.050988485556065874,0.1626291569533809,-0.3943265956621228,0.22655005833986544,-0.0038880655353657435,-0.18397874525360156,-0.1839510489341141,-3.3958108923476704,-4.510689370869423,-0.2839009221033012,-0.004479126275686004,-0.017126503950777753,-0.2975266176042592
