mathias31415/primitives_from_planned_trajectory_python/data/saved_trajectories/trajectory_20250624_120435_executed.csv
timestamp,shoulder_lift_joint_pos,elbow_joint_pos,wrist_1_joint_pos,wrist_2_joint_pos,wrist_3_joint_pos,shoulder_pan_joint_pos,shoulder_lift_joint_vel,elbow_joint_vel,wrist_1_joint_vel,wrist_2_joint_vel,wrist_3_joint_vel,shoulder_pan_joint_vel,shoulder_lift_joint_eff,elbow_joint_eff,wrist_1_joint_eff,wrist_2_joint_eff,wrist_3_joint_eff,shoulder_pan_joint_eff
1750759507.9302063,-1.8838400000000002,-2.1614310000000003,-0.6983610000000002,1.587006,-0.3102090000000004,-1.8800239999999997,0.0,0.0,0.0,0.0,0.0,0.0,4.374208312743468,2.7792526436020544,0.3000489059361654,0.001337481257564203,0.0,2.4361122849930523e-16
1750759507.932415,-1.8838400000000002,-2.1614310000000003,-0.6983610000000002,1.587006,-0.3102090000000004,-1.8800239999999997,0.0,0.0,0.0,0.0,0.0,0.0,4.374208312743468,2.7792526436020544,0.3000489059361654,0.001337481257564203,0.0,2.4361122849930523e-16
1750759507.933177,-1.8838400000000002,-2.1614310000000003,-0.6983610000000002,1.587006,-0.3102090000000004,-1.8800239999999997,0.0,0.0,0.0,0.0,0.0,0.0,4.374208312743468,2.7792526436020544,0.3000489059361654,0.001337481257564203,0.0,2.4361122849930523e-16
1750759507.9339883,-1.8838400000000002,-2.1614310000000003,-0.6983610000000002,1.587006,-0.3102090000000004,-1.8800239999999997,0.0,0.0,0.0,0.0,0.0,0.0,4.374208312743468,2.7792526436020544,0.3000489059361654,0.001337481257564203,0.0,2.4361122849930523e-16
1750759507.9345865,-1.8838400000000002,-2.1614310000000003,-0.6983610000000002,1.587006,-0.3102090000000004,-1.8800239999999997,0.0,0.0,0.0,0.0,0.0,0.0,4.374208312743468,2.7792526436020544,0.3000489059361654,0.001337481257564203,0.0,2.4361122849930523e-16
1750759507.9353163,-1.8838400000000002,-2.1614310000000003,-0.6983610000000002,1.587006,-0.3102090000000004,-1.8800239999999997,0.0,0.0,0.0,0.0,0.0,0.0,4.374208312743468,2.7792526436020544,0.3000489059361654,0.001337481257564203,0.0,2.4361122849930523e-16
1750759507.9360971,-1.8838400000000002,-2.1614310000000003,-0.6983610000000002,1.587006,-0.3102090000000004,-1.8800239999999997,0.0,0.0,0.0,0.0,0.0,0.0,4.374208312743468,2.7792526436020544,0.3000489059361654,0.001337481257564203,0.0,2.4361122849930523e-16
1750759507.9369633,-1.8838400000000002,-2.1614310000000003,-0.6983610000000002,1.587006,-0.3102090000000004,-1.8800239999999997,0.0,0.0,0.0,0.0,0.0,0.0,4.374208312743468,2.7792526436020544,0.3000489059361654,0.001337481257564203,0.0,2.4361122849930523e-16
1750759507.937697,-1.8838400000000002,-2.1614310000000003,-0.6983610000000002,1.587006,-0.3102090000000004,-1.8800239999999997,0.0,0.0,0.0,0.0,0.0,0.0,4.374208312743468,2.7792526436020544,0.3000489059361654,0.001337481257564203,0.0,2.4361122849930523e-16
1750759507.9382865,-1.8838400000000002,-2.1614310000000003,-0.6983610000000002,1.587006,-0.3102090000000004,-1.8800239999999997,0.0,0.0,0.0,0.0,0.0,0.0,4.374208312743468,2.7792526436020544,0.3000489059361654,0.001337481257564203,0.0,2.4361122849930523e-16
1750759507.9389932,-1.8838400000000002,-2.1614310000000003,-0.6983610000000002,1.587006,-0.3102090000000004,-1.8800239999999997,0.0,0.0,0.0,0.0,0.0,0.0,4.374208312743468,2.7792526436020544,0.3000489059361654,0.001337481257564203,0.0,2.4361122849930523e-16
1750759507.9398804,-1.8838400000000002,-2.1614310000000003,-0.6983610000000002,1.587006,-0.3102090000000004,-1.8800239999999997,0.0,0.0,0.0,0.0,0.0,0.0,4.374208312743468,2.7792526436020544,0.3000489059361654,0.001337481257564203,0.0,2.4361122849930523e-16
1750759507.9404662,-1.8838400000000002,-2.1614310000000003,-0.6983610000000002,1.587006,-0.3102090000000004,-1.8800239999999997,0.0,0.0,0.0,0.0,0.0,0.0,4.374208312743468,2.7792526436020544,0.3000489059361654,0.001337481257564203,0.0,2.4361122849930523e-16
1750759507.9410248,-1.8838400000000002,-2.1614310000000003,-0.6983610000000002,1.587006,-0.3102090000000004,-1.8800239999999997,0.0,0.0,0.0,0.0,0.0,0.0,4.374208312743468,2.7792526436020544,0.3000489059361654,0.001337481257564203,0.0,2.4361122849930523e-16
1750759507.941515,-1.8838400000000002,-2.1614310000000003,-0.6983610000000002,1.587006,-0.3102090000000004,-1.8800239999999997,0.0,0.0,0.0,0.0,0.0,0.0,4.374208312743468,2.7792526436020544,0.3000489059361654,0.001337481257564203,0.0,2.4361122849930523e-16
1750759507.9417782,-1.8838400000000002,-2.1614310000000003,-0.6983610000000002,1.587006,-0.3102090000000004,-1.8800239999999997,0.0,0.0,0.0,0.0,0.0,0.0,4.374208312743468,2.7792526436020544,0.3000489059361654,0.001337481257564203,0.0,2.4361122849930523e-16
1750759507.9427192,-1.8838400000000002,-2.1614310000000003,-0.6983610000000002,1.587006,-0.3102090000000004,-1.8800239999999997,0.0,0.0,0.0,0.0,0.0,0.0,4.374208312743468,2.7792526436020544,0.3000489059361654,0.001337481257564203,0.0,2.4361122849930523e-16
1750759507.9467018,-1.8838400000000002,-2.1614310000000003,-0.6983610000000002,1.587006,-0.3102090000000004,-1.8800239999999997,0.0,0.0,0.0,0.0,0.0,0.0,4.374208312743468,2.7792526436020544,0.3000489059361654,0.001337481257564203,0.0,2.4361122849930523e-16
1750759507.9482787,-1.8838400000000002,-2.1614310000000003,-0.6983610000000002,1.587006,-0.3102090000000004,-1.8800239999999997,0.0,0.0,0.0,0.0,0.0,0.0,4.374208312743468,2.7792526436020544,0.3000489059361654,0.001337481257564203,0.0,2.4361122849930523e-16
1750759507.9492962,-1.8838400000000002,-2.1614310000000003,-0.6983610000000002,1.587006,-0.3102090000000004,-1.8800239999999997,0.0,0.0,0.0,0.0,0.0,0.0,4.374208312743468,2.7792526436020544,0.3000489059361654,0.001337481257564203,0.0,2.4361122849930523e-16
1750759507.951213,-1.8838400000000002,-2.1614310000000003,-0.6983610000000002,1.587006,-0.3102090000000004,-1.8800239999999997,0.0,0.0,0.0,0.0,0.0,0.0,4.374208312743468,2.7792526436020544,0.3000489059361654,0.001337481257564203,0.0,2.4361122849930523e-16
1750759507.952971,-1.8838400000000002,-2.1614310000000003,-0.6983610000000002,1.587006,-0.3102090000000004,-1.8800239999999997,0.0,0.0,0.0,0.0,0.0,0.0,4.374208312743468,2.7792526436020544,0.3000489059361654,0.001337481257564203,0.0,2.4361122849930523e-16
1750759507.9556253,-1.8838400000000002,-2.1614310000000003,-0.6983610000000002,1.587006,-0.3102090000000004,-1.8800239999999997,0.0,0.0,0.0,0.0,0.0,0.0,4.374208312743468,2.7792526436020544,0.3000489059361654,0.001337481257564203,0.0,2.4361122849930523e-16
1750759507.957352,-1.8838400000000002,-2.1614310000000003,-0.6983610000000002,1.587006,-0.3102090000000004,-1.8800239999999997,0.0,0.0,0.0,0.0,0.0,0.0,4.374208312743468,2.7792526436020544,0.3000489059361654,0.001337481257564203,0.0,2.4361122849930523e-16
1750759507.9599168,-1.8838400000000002,-2.1614310000000003,-0.6983610000000002,1.587006,-0.3102090000000004,-1.8800239999999997,0.0,0.0,0.0,0.0,0.0,0.0,4.374208312743468,2.7792526436020544,0.3000489059361654,0.001337481257564203,0.0,2.4361122849930523e-16
1750759507.9617321,-1.8838400000000002,-2.1614310000000003,-0.6983610000000002,1.587006,-0.3102090000000004,-1.8800239999999997,0.0,0.0,0.0,0.0,0.0,0.0,4.374208312743468,2.7792526436020544,0.3000489059361654,0.001337481257564203,0.0,2.4361122849930523e-16
1750759507.9632406,-1.8838400000000002,-2.1614310000000003,-0.6983610000000002,1.587006,-0.3102090000000004,-1.8800239999999997,0.0,0.0,0.0,0.0,0.0,0.0,4.374208312743468,2.7792526436020544,0.3000489059361654,0.001337481257564203,0.0,2.4361122849930523e-16
1750759507.9675395,-1.8838400000000002,-2.1614310000000003,-0.6983610000000002,1.587006,-0.3102090000000004,-1.8800239999999997,0.0,0.0,0.0,0.0,0.0,0.0,4.374208312743468,2.7792526436020544,0.3000489059361654,0.001337481257564203,0.0,2.4361122849930523e-16
1750759507.969118,-1.8838400000000002,-2.1614310000000003,-0.6983610000000002,1.587006,-0.3102090000000004,-1.8800239999999997,0.0,0.0,0.0,0.0,0.0,0.0,4.374208312743468,2.7792526436020544,0.3000489059361654,0.001337481257564203,0.0,2.4361122849930523e-16
1750759507.9713502,-1.8838400000000002,-2.1614310000000003,-0.6983610000000002,1.587006,-0.3102090000000004,-1.8800239999999997,0.0,0.0,0.0,0.0,0.0,0.0,4.374208312743468,2.7792526436020544,0.3000489059361654,0.001337481257564203,0.0,2.4361122849930523e-16
1750759507.973143,-1.8838400000000002,-2.1614310000000003,-0.6983610000000002,1.587006,-0.3102090000000004,-1.8800239999999997,0.0,0.0,0.0,0.0,0.0,0.0,4.374208312743468,2.7792526436020544,0.3000489059361654,0.001337481257564203,0.0,2.4361122849930523e-16
1750759507.9752958,-1.8838400000000002,-2.1614310000000003,-0.6983610000000002,1.587006,-0.3102090000000004,-1.8800239999999997,0.0,0.0,0.0,0.0,0.0,0.0,4.374208312743468,2.7792526436020544,0.3000489059361654,0.001337481257564203,0.0,2.4361122849930523e-16
1750759507.9771461,-1.8838400000000002,-2.1614310000000003,-0.6983610000000002,1.587006,-0.3102090000000004,-1.8800239999999997,0.0,0.0,0.0,0.0,0.0,0.0,4.374208312743468,2.7792526436020544,0.3000489059361654,0.001337481257564203,0.0,2.4361122849930523e-16
1750759507.979177,-1.8838400000000002,-2.1614310000000003,-0.6983610000000002,1.587006,-0.3102090000000004,-1.8800239999999997,0.0,0.0,0.0,0.0,0.0,0.0,4.374208312743468,2.7792526436020544,0.3000489059361654,0.001337481257564203,0.0,2.4361122849930523e-16
1750759507.9811306,-1.8838400000000002,-2.1614310000000003,-0.6983610000000002,1.587006,-0.3102090000000004,-1.8800239999999997,0.0,0.0,0.0,0.0,0.0,0.0,4.374208312743468,2.7792526436020544,0.3000489059361654,0.001337481257564203,0.0,2.4361122849930523e-16
1750759507.9836287,-1.8838400000000002,-2.1614310000000003,-0.6983610000000002,1.587006,-0.3102090000000004,-1.8800239999999997,0.0,0.0,0.0,0.0,0.0,0.0,4.374208312743468,2.7792526436020544,0.3000489059361654,0.001337481257564203,0.0,2.4361122849930523e-16
1750759507.9851742,-1.8838400000000002,-2.1614310000000003,-0.6983610000000002,1.587006,-0.3102090000000004,-1.8800239999999997,0.0,0.0,0.0,0.0,0.0,0.0,4.374208312743468,2.7792526436020544,0.3000489059361654,0.001337481257564203,0.0,2.4361122849930523e-16
1750759507.9871328,-1.8838400000000002,-2.1614310000000003,-0.6983610000000002,1.587006,-0.3102090000000004,-1.8800239999999997,0.0,0.0,0.0,0.0,0.0,0.0,4.374208312743468,2.7792526436020544,0.3000489059361654,0.001337481257564203,0.0,2.4361122849930523e-16
1750759507.989701,-1.8838400000000002,-2.1614310000000003,-0.6983610000000002,1.587006,-0.3102090000000004,-1.8800239999999997,0.0,0.0,0.0,0.0,0.0,0.0,4.374208312743468,2.7792526436020544,0.3000489059361654,0.001337481257564203,0.0,2.4361122849930523e-16
1750759507.991,-1.8838400000000002,-2.1614310000000003,-0.6983610000000002,1.587006,-0.3102090000000004,-1.8800239999999997,0.0,0.0,0.0,0.0,0.0,0.0,4.374208312743468,2.7792526436020544,0.3000489059361654,0.001337481257564203,0.0,2.4361122849930523e-16
1750759507.993235,-1.8838400000000002,-2.1614310000000003,-0.6983610000000002,1.587006,-0.3102090000000004,-1.8800239999999997,0.0,0.0,0.0,0.0,0.0,0.0,4.374208312743468,2.7792526436020544,0.3000489059361654,0.001337481257564203,0.0,2.4361122849930523e-16
1750759507.995475,-1.8838400000000002,-2.1614310000000003,-0.6983610000000002,1.587006,-0.3102090000000004,-1.8800239999999997,0.0,0.0,0.0,0.0,0.0,0.0,4.374208312743468,2.7792526436020544,0.3000489059361654,0.001337481257564203,0.0,2.4361122849930523e-16
1750759507.998082,-1.8838400000000002,-2.1614310000000003,-0.6983610000000002,1.587006,-0.3102090000000004,-1.8800239999999997,0.0,0.0,0.0,0.0,0.0,0.0,4.374208312743468,2.7792526436020544,0.3000489059361654,0.001337481257564203,0.0,2.4361122849930523e-16
1750759508.0014367,-1.8838400000000002,-2.1614310000000003,-0.6983610000000002,1.587006,-0.3102090000000004,-1.8800239999999997,0.0,0.0,0.0,0.0,0.0,0.0,4.374208312743468,2.7792526436020544,0.3000489059361654,0.001337481257564203,0.0,2.4361122849930523e-16
1750759508.0021503,-1.8838400000000002,-2.1614310000000003,-0.6983610000000002,1.587006,-0.3102090000000004,-1.8800239999999997,0.0,0.0,0.0,0.0,0.0,0.0,4.374208312743468,2.7792526436020544,0.3000489059361654,0.001337481257564203,0.0,2.4361122849930523e-16
1750759508.00362,-1.8838400000000002,-2.1614310000000003,-0.6983610000000002,1.587006,-0.3102090000000004,-1.8800239999999997,0.0,0.0,0.0,0.0,0.0,0.0,4.374208312743468,2.7792526436020544,0.3000489059361654,0.001337481257564203,0.0,2.4361122849930523e-16
1750759508.005383,-1.8838400000000002,-2.1614310000000003,-0.6983610000000002,1.587006,-0.3102090000000004,-1.8800239999999997,0.0,0.0,0.0,0.0,0.0,0.0,4.374208312743468,2.7792526436020544,0.3000489059361654,0.001337481257564203,0.0,2.4361122849930523e-16
1750759508.0079255,-1.8838400000000002,-2.1614310000000003,-0.6983610000000002,1.587006,-0.3102090000000004,-1.8800239999999997,0.0,0.0,0.0,0.0,0.0,0.0,4.374208312743468,2.7792526436020544,0.3000489059361654,0.001337481257564203,0.0,2.4361122849930523e-16
1750759508.0090804,-1.8838400000000002,-2.1614310000000003,-0.6983610000000002,1.587006,-0.3102090000000004,-1.8800239999999997,0.0,0.0,0.0,0.0,0.0,0.0,4.374208312743468,2.7792526436020544,0.3000489059361654,0.001337481257564203,0.0,2.4361122849930523e-16
1750759508.0111427,-1.8838400000000002,-2.1614310000000003,-0.6983610000000002,1.587006,-0.3102090000000004,-1.8800239999999997,0.0,0.0,0.0,0.0,0.0,0.0,4.374208312743468,2.7792526436020544,0.3000489059361654,0.001337481257564203,0.0,2.4361122849930523e-16
1750759508.0130794,-1.8838400000000002,-2.1614310000000003,-0.6983610000000002,1.587006,-0.3102090000000004,-1.8800239999999997,0.0,0.0,0.0,0.0,0.0,0.0,4.374208312743468,2.7792526436020544,0.3000489059361654,0.001337481257564203,0.0,2.4361122849930523e-16
1750759508.0151045,-1.8838400000000002,-2.1614310000000003,-0.6983610000000002,1.587006,-0.3102090000000004,-1.8800239999999997,0.0,0.0,0.0,0.0,0.0,0.0,4.374208312743468,2.7792526436020544,0.3000489059361654,0.001337481257564203,0.0,2.4361122849930523e-16
1750759508.017333,-1.8838400000000002,-2.1614310000000003,-0.6983610000000002,1.587006,-0.3102090000000004,-1.8800239999999997,0.0,0.0,0.0,0.0,0.0,0.0,4.374208312743468,2.7792526436020544,0.3000489059361654,0.001337481257564203,0.0,2.4361122849930523e-16
1750759508.0191631,-1.8838400000000002,-2.1614310000000003,-0.6983610000000002,1.587006,-0.3102090000000004,-1.8800239999999997,0.0,0.0,0.0,0.0,0.0,0.0,4.374208312743468,2.7792526436020544,0.3000489059361654,0.001337481257564203,0.0,2.4361122849930523e-16
1750759508.0209649,-1.8838400000000002,-2.1614310000000003,-0.6983610000000002,1.587006,-0.3102090000000004,-1.8800239999999997,0.0,0.0,0.0,0.0,0.0,0.0,4.374208312743468,2.7792526436020544,0.3000489059361654,0.001337481257564203,0.0,2.4361122849930523e-16
1750759508.0229154,-1.8838400000000002,-2.1614310000000003,-0.6983610000000002,1.587006,-0.3102090000000004,-1.8800239999999997,0.0,0.0,0.0,0.0,0.0,0.0,4.374208312743468,2.7792526436020544,0.3000489059361654,0.001337481257564203,0.0,2.4361122849930523e-16
1750759508.026712,-1.8838400000000002,-2.1614310000000003,-0.6983610000000002,1.587006,-0.3102090000000004,-1.8800239999999997,0.0,0.0,0.0,0.0,0.0,0.0,4.374208312743468,2.7792526436020544,0.3000489059361654,0.001337481257564203,0.0,2.4361122849930523e-16
1750759508.0274303,-1.8838400000000002,-2.1614310000000003,-0.6983610000000002,1.587006,-0.3102090000000004,-1.8800239999999997,0.0,0.0,0.0,0.0,0.0,0.0,4.374208312743468,2.7792526436020544,0.3000489059361654,0.001337481257564203,0.0,2.4361122849930523e-16
1750759508.0293744,-1.8838400000000002,-2.1614310000000003,-0.6983610000000002,1.587006,-0.3102090000000004,-1.8800239999999997,0.0,0.0,0.0,0.0,0.0,0.0,4.374208312743468,2.7792526436020544,0.3000489059361654,0.001337481257564203,0.0,2.4361122849930523e-16
1750759508.0314364,-1.8838400000000002,-2.1614310000000003,-0.6983610000000002,1.587006,-0.3102090000000004,-1.8800239999999997,0.0,0.0,0.0,0.0,0.0,0.0,4.374208312743468,2.7792526436020544,0.3000489059361654,0.001337481257564203,0.0,2.4361122849930523e-16
1750759508.0334935,-1.8838400000000002,-2.1614310000000003,-0.6983610000000002,1.587006,-0.3102090000000004,-1.8800239999999997,0.0,0.0,0.0,0.0,0.0,0.0,4.374208312743468,2.7792526436020544,0.3000489059361654,0.001337481257564203,0.0,2.4361122849930523e-16
1750759508.035214,-1.8838400000000002,-2.1614310000000003,-0.6983610000000002,1.587006,-0.3102090000000004,-1.8800239999999997,0.0,0.0,0.0,0.0,0.0,0.0,4.374208312743468,2.7792526436020544,0.3000489059361654,0.001337481257564203,0.0,2.4361122849930523e-16
1750759508.0370646,-1.8838400000000002,-2.1614310000000003,-0.6983610000000002,1.587006,-0.3102090000000004,-1.8800239999999997,0.0,0.0,0.0,0.0,0.0,0.0,4.374208312743468,2.7792526436020544,0.3000489059361654,0.001337481257564203,0.0,2.4361122849930523e-16
1750759508.038912,-1.8838400000000002,-2.1614310000000003,-0.6983610000000002,1.587006,-0.3102090000000004,-1.8800239999999997,0.0,0.0,0.0,0.0,0.0,0.0,4.374208312743468,2.7792526436020544,0.3000489059361654,0.001337481257564203,0.0,2.4361122849930523e-16
1750759508.0409772,-1.8838400000000002,-2.1614310000000003,-0.6983610000000002,1.587006,-0.3102090000000004,-1.8800239999999997,0.0,0.0,0.0,0.0,0.0,0.0,4.374208312743468,2.7792526436020544,0.3000489059361654,0.001337481257564203,0.0,2.4361122849930523e-16
1750759508.043279,-1.8838400000000002,-2.1614310000000003,-0.6983610000000002,1.587006,-0.3102090000000004,-1.8800239999999997,0.0,0.0,0.0,0.0,0.0,0.0,4.374208312743468,2.7792526436020544,0.3000489059361654,0.001337481257564203,0.0,2.4361122849930523e-16
1750759508.0451584,-1.8838400000000002,-2.1614310000000003,-0.6983610000000002,1.587006,-0.3102090000000004,-1.8800239999999997,0.0,0.0,0.0,0.0,0.0,0.0,4.374208312743468,2.7792526436020544,0.3000489059361654,0.001337481257564203,0.0,2.4361122849930523e-16
1750759508.0469785,-1.8838400000000002,-2.1614310000000003,-0.6983610000000002,1.587006,-0.3102090000000004,-1.8800239999999997,0.0,0.0,0.0,0.0,0.0,0.0,4.374208312743468,2.7792526436020544,0.3000489059361654,0.001337481257564203,0.0,2.4361122849930523e-16
1750759508.049013,-1.8838400000000002,-2.1614310000000003,-0.6983610000000002,1.587006,-0.3102090000000004,-1.8800239999999997,0.0,0.0,0.0,0.0,0.0,0.0,4.374208312743468,2.7792526436020544,0.3000489059361654,0.001337481257564203,0.0,2.4361122849930523e-16
1750759508.051053,-1.8838400000000002,-2.1614310000000003,-0.6983610000000002,1.587006,-0.3102090000000004,-1.8800239999999997,0.0,0.0,0.0,0.0,0.0,0.0,4.374208312743468,2.7792526436020544,0.3000489059361654,0.001337481257564203,0.0,2.4361122849930523e-16
1750759508.0529459,-1.8838400000000002,-2.1614310000000003,-0.6983610000000002,1.587006,-0.3102090000000004,-1.8800239999999997,0.0,0.0,0.0,0.0,0.0,0.0,4.374208312743468,2.7792526436020544,0.3000489059361654,0.001337481257564203,0.0,2.4361122849930523e-16
1750759508.055285,-1.8838400000000002,-2.1614310000000003,-0.6983610000000002,1.587006,-0.3102090000000004,-1.8800239999999997,0.0,0.0,0.0,0.0,0.0,0.0,4.374208312743468,2.7792526436020544,0.3000489059361654,0.001337481257564203,0.0,2.4361122849930523e-16
1750759508.0569377,-1.8838400000000002,-2.1614310000000003,-0.6983610000000002,1.587006,-0.3102090000000004,-1.8800239999999997,0.0,0.0,0.0,0.0,0.0,0.0,4.374208312743468,2.7792526436020544,0.3000489059361654,0.001337481257564203,0.0,2.4361122849930523e-16
1750759508.059156,-1.8838400000000002,-2.1614310000000003,-0.6983610000000002,1.587006,-0.3102090000000004,-1.8800239999999997,0.0,0.0,0.0,0.0,0.0,0.0,4.374208312743468,2.7792526436020544,0.3000489059361654,0.001337481257564203,0.0,2.4361122849930523e-16
1750759508.0645359,-1.8838400000000002,-2.1614310000000003,-0.6983610000000002,1.587006,-0.3102090000000004,-1.8800239999999997,0.0,0.0,0.0,0.0,0.0,0.0,4.374208312743468,2.7792526436020544,0.3000489059361654,0.001337481257564203,0.0,2.4361122849930523e-16
1750759508.067165,-1.8838400000000002,-2.1614310000000003,-0.6983610000000002,1.587006,-0.3102090000000004,-1.8800239999999997,0.0,0.0,0.0,0.0,0.0,0.0,4.374208312743468,2.7792526436020544,0.3000489059361654,0.001337481257564203,0.0,2.4361122849930523e-16
1750759508.0677726,-1.8838400000000002,-2.1614310000000003,-0.6983610000000002,1.587006,-0.3102090000000004,-1.8800239999999997,0.0,0.0,0.0,0.0,0.0,0.0,4.374208312743468,2.7792526436020544,0.3000489059361654,0.001337481257564203,0.0,2.4361122849930523e-16
1750759508.0691535,-1.8838400000000002,-2.1614310000000003,-0.6983610000000002,1.587006,-0.3102090000000004,-1.8800239999999997,0.0,0.0,0.0,0.0,0.0,0.0,4.374208312743468,2.7792526436020544,0.3000489059361654,0.001337481257564203,0.0,2.4361122849930523e-16
1750759508.071276,-1.8838400000000002,-2.1614310000000003,-0.6983610000000002,1.587006,-0.3102090000000004,-1.8800239999999997,0.0,0.0,0.0,0.0,0.0,0.0,4.374208312743468,2.7792526436020544,0.3000489059361654,0.001337481257564203,0.0,2.4361122849930523e-16
1750759508.0729322,-1.8838400000000002,-2.1614310000000003,-0.6983610000000002,1.587006,-0.3102090000000004,-1.8800239999999997,0.0,0.0,0.0,0.0,0.0,0.0,4.374208312743468,2.7792526436020544,0.3000489059361654,0.001337481257564203,0.0,2.4361122849930523e-16
1750759508.07494,-1.8838400000000002,-2.1614310000000003,-0.6983610000000002,1.587006,-0.3102090000000004,-1.8800239999999997,0.0,0.0,0.0,0.0,0.0,0.0,4.374208312743468,2.7792526436020544,0.3000489059361654,0.001337481257564203,0.0,2.4361122849930523e-16
1750759508.0770786,-1.8838400000000002,-2.1614310000000003,-0.6983610000000002,1.587006,-0.3102090000000004,-1.8800239999999997,0.0,0.0,0.0,0.0,0.0,0.0,4.374208312743468,2.7792526436020544,0.3000489059361654,0.001337481257564203,0.0,2.4361122849930523e-16
1750759508.0787032,-1.8838400000000002,-2.1614310000000003,-0.6983610000000002,1.587006,-0.3102090000000004,-1.8800239999999997,0.0,0.0,0.0,0.0,0.0,0.0,4.374208312743468,2.7792526436020544,0.3000489059361654,0.001337481257564203,0.0,2.4361122849930523e-16
1750759508.0811634,-1.8838400000000002,-2.1614310000000003,-0.6983610000000002,1.587006,-0.3102090000000004,-1.8800239999999997,0.0,0.0,0.0,0.0,0.0,0.0,4.374208312743468,2.7792526436020544,0.3000489059361654,0.001337481257564203,0.0,2.4361122849930523e-16
1750759508.0847464,-1.8838400000000002,-2.1614310000000003,-0.6983610000000002,1.587006,-0.3102090000000004,-1.8800239999999997,0.0,0.0,0.0,0.0,0.0,0.0,4.374208312743468,2.7792526436020544,0.3000489059361654,0.001337481257564203,0.0,2.4361122849930523e-16
1750759508.085394,-1.8838400000000002,-2.1614310000000003,-0.6983610000000002,1.587006,-0.3102090000000004,-1.8800239999999997,0.0,0.0,0.0,0.0,0.0,0.0,4.374208312743468,2.7792526436020544,0.3000489059361654,0.001337481257564203,0.0,2.4361122849930523e-16
1750759508.0872285,-1.8838400000000002,-2.1614310000000003,-0.6983610000000002,1.587006,-0.3102090000000004,-1.8800239999999997,0.0,0.0,0.0,0.0,0.0,0.0,4.374208312743468,2.7792526436020544,0.3000489059361654,0.001337481257564203,0.0,2.4361122849930523e-16
1750759508.088917,-1.8838400000000002,-2.1614310000000003,-0.6983610000000002,1.587006,-0.3102090000000004,-1.8800239999999997,0.0,0.0,0.0,0.0,0.0,0.0,4.374208312743468,2.7792526436020544,0.3000489059361654,0.001337481257564203,0.0,2.4361122849930523e-16
1750759508.0908835,-1.8838400000000002,-2.1614310000000003,-0.6983610000000002,1.587006,-0.3102090000000004,-1.8800239999999997,0.0,0.0,0.0,0.0,0.0,0.0,4.374208312743468,2.7792526436020544,0.3000489059361654,0.001337481257564203,0.0,2.4361122849930523e-16
1750759508.0929258,-1.8838400000000002,-2.1614310000000003,-0.6983610000000002,1.587006,-0.3102090000000004,-1.8800239999999997,0.0,0.0,0.0,0.0,0.0,0.0,4.374208312743468,2.7792526436020544,0.3000489059361654,0.001337481257564203,0.0,2.4361122849930523e-16
1750759508.0948362,-1.8838400000000002,-2.1614310000000003,-0.6983610000000002,1.587006,-0.3102090000000004,-1.8800239999999997,0.0,0.0,0.0,0.0,0.0,0.0,4.374208312743468,2.7792526436020544,0.3000489059361654,0.001337481257564203,0.0,2.4361122849930523e-16
1750759508.0974486,-1.8838400000000002,-2.1614310000000003,-0.6983610000000002,1.587006,-0.3102090000000004,-1.8800239999999997,0.0,0.0,0.0,0.0,0.0,0.0,4.374208312743468,2.7792526436020544,0.3000489059361654,0.001337481257564203,0.0,2.4361122849930523e-16
1750759508.0993476,-1.8838400000000002,-2.1614310000000003,-0.6983610000000002,1.587006,-0.3102090000000004,-1.8800239999999997,0.0,0.0,0.0,0.0,0.0,0.0,4.374208312743468,2.7792526436020544,0.3000489059361654,0.001337481257564203,0.0,2.4361122849930523e-16
1750759508.1009104,-1.8838400000000002,-2.1614310000000003,-0.6983610000000002,1.587006,-0.3102090000000004,-1.8800239999999997,0.0,0.0,0.0,0.0,0.0,0.0,4.374208312743468,2.7792526436020544,0.3000489059361654,0.001337481257564203,0.0,2.4361122849930523e-16
1750759508.1028507,-1.8838400000000002,-2.1614310000000003,-0.6983610000000002,1.587006,-0.3102090000000004,-1.8800239999999997,0.0,0.0,0.0,0.0,0.0,0.0,4.374208312743468,2.7792526436020544,0.3000489059361654,0.001337481257564203,0.0,2.4361122849930523e-16
1750759508.1049051,-1.8838400000000002,-2.1614310000000003,-0.6983610000000002,1.587006,-0.3102090000000004,-1.8800239999999997,0.0,0.0,0.0,0.0,0.0,0.0,4.374208312743468,2.7792526436020544,0.3000489059361654,0.001337481257564203,0.0,2.4361122849930523e-16
1750759508.1069288,-1.8838400000000002,-2.1614310000000003,-0.6983610000000002,1.587006,-0.3102090000000004,-1.8800239999999997,0.0,0.0,0.0,0.0,0.0,0.0,4.374208312743468,2.7792526436020544,0.3000489059361654,0.001337481257564203,0.0,2.4361122849930523e-16
1750759508.1088233,-1.8838400000000002,-2.1614310000000003,-0.6983610000000002,1.587006,-0.3102090000000004,-1.8800239999999997,0.0,0.0,0.0,0.0,0.0,0.0,4.374208312743468,2.7792526436020544,0.3000489059361654,0.001337481257564203,0.0,2.4361122849930523e-16
1750759508.1108487,-1.8838400000000002,-2.1614310000000003,-0.6983610000000002,1.587006,-0.3102090000000004,-1.8800239999999997,0.0,0.0,0.0,0.0,0.0,0.0,4.374208312743468,2.7792526436020544,0.3000489059361654,0.001337481257564203,0.0,2.4361122849930523e-16
1750759508.1128182,-1.8838400000000002,-2.1614310000000003,-0.6983610000000002,1.587006,-0.3102090000000004,-1.8800239999999997,0.0,0.0,0.0,0.0,0.0,0.0,4.374208312743468,2.7792526436020544,0.3000489059361654,0.001337481257564203,0.0,2.4361122849930523e-16
1750759508.1154773,-1.8838400000000002,-2.1614310000000003,-0.6983610000000002,1.587006,-0.3102090000000004,-1.8800239999999997,0.0,0.0,0.0,0.0,0.0,0.0,4.374208312743468,2.7792526436020544,0.3000489059361654,0.001337481257564203,0.0,2.4361122849930523e-16
1750759508.1231232,-1.8838400000000002,-2.1614310000000003,-0.6983610000000002,1.587006,-0.3102090000000004,-1.8800239999999997,0.0,0.0,0.0,0.0,0.0,0.0,4.374208312743468,2.7792526436020544,0.3000489059361654,0.001337481257564203,0.0,2.4361122849930523e-16
1750759508.1248596,-1.8838400000000002,-2.1614310000000003,-0.6983610000000002,1.587006,-0.3102090000000004,-1.8800239999999997,0.0,0.0,0.0,0.0,0.0,0.0,4.374208312743468,2.7792526436020544,0.3000489059361654,0.001337481257564203,0.0,2.4361122849930523e-16
1750759508.1252856,-1.8838400000000002,-2.1614310000000003,-0.6983610000000002,1.587006,-0.3102090000000004,-1.8800239999999997,0.0,0.0,0.0,0.0,0.0,0.0,4.374208312743468,2.7792526436020544,0.3000489059361654,0.001337481257564203,0.0,2.4361122849930523e-16
1750759508.1255631,-1.8838400000000002,-2.1614310000000003,-0.6983610000000002,1.587006,-0.3102090000000004,-1.8800239999999997,0.0,0.0,0.0,0.0,0.0,0.0,4.374208312743468,2.7792526436020544,0.3000489059361654,0.001337481257564203,0.0,2.4361122849930523e-16
1750759508.127077,-1.8838400000000002,-2.1614310000000003,-0.6983610000000002,1.587006,-0.3102090000000004,-1.8800239999999997,0.0,0.0,0.0,0.0,0.0,0.0,4.374208312743468,2.7792526436020544,0.3000489059361654,0.001337481257564203,0.0,2.4361122849930523e-16
1750759508.1289136,-1.8838400000000002,-2.1614310000000003,-0.6983610000000002,1.587006,-0.3102090000000004,-1.8800239999999997,0.0,0.0,0.0,0.0,0.0,0.0,4.374208312743468,2.7792526436020544,0.3000489059361654,0.001337481257564203,0.0,2.4361122849930523e-16
1750759508.130839,-1.8838400000000002,-2.1614310000000003,-0.6983610000000002,1.587006,-0.3102090000000004,-1.8800239999999997,0.0,0.0,0.0,0.0,0.0,0.0,4.374208312743468,2.7792526436020544,0.3000489059361654,0.001337481257564203,0.0,2.4361122849930523e-16
1750759508.1329455,-1.8838400000000002,-2.1614310000000003,-0.6983610000000002,1.587006,-0.3102090000000004,-1.8800239999999997,0.0,0.0,0.0,0.0,0.0,0.0,4.374208312743468,2.7792526436020544,0.3000489059361654,0.001337481257564203,0.0,2.4361122849930523e-16
1750759508.1349003,-1.8838400000000002,-2.1614310000000003,-0.6983610000000002,1.587006,-0.3102090000000004,-1.8800239999999997,0.0,0.0,0.0,0.0,0.0,0.0,4.374208312743468,2.7792526436020544,0.3000489059361654,0.001337481257564203,0.0,2.4361122849930523e-16
1750759508.139091,-1.8838400000000002,-2.1614310000000003,-0.6983610000000002,1.587006,-0.3102090000000004,-1.8800239999999997,0.0,0.0,0.0,0.0,0.0,0.0,4.374208312743468,2.7792526436020544,0.3000489059361654,0.001337481257564203,0.0,2.4361122849930523e-16
1750759508.1394799,-1.8838400000000002,-2.1614310000000003,-0.6983610000000002,1.587006,-0.3102090000000004,-1.8800239999999997,0.0,0.0,0.0,0.0,0.0,0.0,4.374208312743468,2.7792526436020544,0.3000489059361654,0.001337481257564203,0.0,2.4361122849930523e-16
1750759508.141126,-1.8838400000000002,-2.1614310000000003,-0.6983610000000002,1.587006,-0.3102090000000004,-1.8800239999999997,0.0,0.0,0.0,0.0,0.0,0.0,4.374208312743468,2.7792526436020544,0.3000489059361654,0.001337481257564203,0.0,2.4361122849930523e-16
1750759508.143127,-1.8838400000000002,-2.1614310000000003,-0.6983610000000002,1.587006,-0.3102090000000004,-1.8800239999999997,0.0,0.0,0.0,0.0,0.0,0.0,4.374208312743468,2.7792526436020544,0.3000489059361654,0.001337481257564203,0.0,2.4361122849930523e-16
1750759508.145063,-1.8838400000000002,-2.1614310000000003,-0.6983610000000002,1.587006,-0.3102090000000004,-1.8800239999999997,0.0,0.0,0.0,0.0,0.0,0.0,4.374208312743468,2.7792526436020544,0.3000489059361654,0.001337481257564203,0.0,2.4361122849930523e-16
1750759508.1468732,-1.8838400000000002,-2.1614310000000003,-0.6983610000000002,1.587006,-0.3102090000000004,-1.8800239999999997,0.0,0.0,0.0,0.0,0.0,0.0,4.374208312743468,2.7792526436020544,0.3000489059361654,0.001337481257564203,0.0,2.4361122849930523e-16
1750759508.1488624,-1.8838400000000002,-2.1614310000000003,-0.6983610000000002,1.587006,-0.3102090000000004,-1.8800239999999997,0.0,0.0,0.0,0.0,0.0,0.0,4.374208312743468,2.7792526436020544,0.3000489059361654,0.001337481257564203,0.0,2.4361122849930523e-16
1750759508.1509366,-1.8838400000000002,-2.1614310000000003,-0.6983610000000002,1.587006,-0.3102090000000004,-1.8800239999999997,0.0,0.0,0.0,0.0,0.0,0.0,4.374208312743468,2.7792526436020544,0.3000489059361654,0.001337481257564203,0.0,2.4361122849930523e-16
1750759508.1527925,-1.8838400000000002,-2.1614310000000003,-0.6983610000000002,1.587006,-0.3102090000000004,-1.8800239999999997,0.0,0.0,0.0,0.0,0.0,0.0,4.374208312743468,2.7792526436020544,0.3000489059361654,0.001337481257564203,0.0,2.4361122849930523e-16
1750759508.1549947,-1.8838400000000002,-2.1614310000000003,-0.6983610000000002,1.587006,-0.3102090000000004,-1.8800239999999997,0.0,0.0,0.0,0.0,0.0,0.0,4.374208312743468,2.7792526436020544,0.3000489059361654,0.001337481257564203,0.0,2.4361122849930523e-16
1750759508.156847,-1.8838400000000002,-2.1614310000000003,-0.6983610000000002,1.587006,-0.3102090000000004,-1.8800239999999997,0.0,0.0,0.0,0.0,0.0,0.0,4.374208312743468,2.7792526436020544,0.3000489059361654,0.001337481257564203,0.0,2.4361122849930523e-16
1750759508.1588502,-1.8838400000000002,-2.1614310000000003,-0.6983610000000002,1.587006,-0.3102090000000004,-1.8800239999999997,0.0,0.0,0.0,0.0,0.0,0.0,4.374208312743468,2.7792526436020544,0.3000489059361654,0.001337481257564203,0.0,2.4361122849930523e-16
1750759508.1610453,-1.8838400000000002,-2.1614310000000003,-0.6983610000000002,1.587006,-0.3102090000000004,-1.8800239999999997,0.0,0.0,0.0,0.0,0.0,0.0,4.374208312743468,2.7792526436020544,0.3000489059361654,0.001337481257564203,0.0,2.4361122849930523e-16
1750759508.1629086,-1.8838400000000002,-2.1614310000000003,-0.6983610000000002,1.587006,-0.3102090000000004,-1.8800239999999997,0.0,0.0,0.0,0.0,0.0,0.0,4.374208312743468,2.7792526436020544,0.3000489059361654,0.001337481257564203,0.0,2.4361122849930523e-16
1750759508.1648517,-1.8838400000000002,-2.1614310000000003,-0.6983610000000002,1.587006,-0.3102090000000004,-1.8800239999999997,0.0,0.0,0.0,0.0,0.0,0.0,4.374208312743468,2.7792526436020544,0.3000489059361654,0.001337481257564203,0.0,2.4361122849930523e-16
1750759508.166765,-1.8838400000000002,-2.1614310000000003,-0.6983610000000002,1.587006,-0.3102090000000004,-1.8800239999999997,0.0,0.0,0.0,0.0,0.0,0.0,4.374208312743468,2.7792526436020544,0.3000489059361654,0.001337481257564203,0.0,2.4361122849930523e-16
1750759508.1714585,-1.8838400000000002,-2.1614310000000003,-0.6983610000000002,1.587006,-0.3102090000000004,-1.8800239999999997,0.0,0.0,0.0,0.0,0.0,0.0,4.374208312743468,2.7792526436020544,0.3000489059361654,0.001337481257564203,0.0,2.4361122849930523e-16
1750759508.174006,-1.8838400000000002,-2.1614310000000003,-0.6983610000000002,1.587006,-0.3102090000000004,-1.8800239999999997,0.0,0.0,0.0,0.0,0.0,0.0,4.374208312743468,2.7792526436020544,0.3000489059361654,0.001337481257564203,0.0,2.4361122849930523e-16
1750759508.1747925,-1.8838400000000002,-2.1614310000000003,-0.6983610000000002,1.587006,-0.3102090000000004,-1.8800239999999997,0.0,0.0,0.0,0.0,0.0,0.0,4.374208312743468,2.7792526436020544,0.3000489059361654,0.001337481257564203,0.0,2.4361122849930523e-16
1750759508.1772523,-1.8838400000000002,-2.1614310000000003,-0.6983610000000002,1.587006,-0.3102090000000004,-1.8800239999999997,0.0,0.0,0.0,0.0,0.0,0.0,4.374208312743468,2.7792526436020544,0.3000489059361654,0.001337481257564203,0.0,2.4361122849930523e-16
1750759508.178922,-1.8838400000000002,-2.1614310000000003,-0.6983610000000002,1.587006,-0.3102090000000004,-1.8800239999999997,0.0,0.0,0.0,0.0,0.0,0.0,4.374208312743468,2.7792526436020544,0.3000489059361654,0.001337481257564203,0.0,2.4361122849930523e-16
1750759508.1809905,-1.8838400000000002,-2.1614310000000003,-0.6983610000000002,1.587006,-0.3102090000000004,-1.8800239999999997,0.0,0.0,0.0,0.0,0.0,0.0,4.374208312743468,2.7792526436020544,0.3000489059361654,0.001337481257564203,0.0,2.4361122849930523e-16
1750759508.1827066,-1.8838400000000002,-2.1614310000000003,-0.6983610000000002,1.587006,-0.3102090000000004,-1.8800239999999997,0.0,0.0,0.0,0.0,0.0,0.0,4.374208312743468,2.7792526436020544,0.3000489059361654,0.001337481257564203,0.0,2.4361122849930523e-16
1750759508.1849961,-1.8838400000000002,-2.1614310000000003,-0.6983610000000002,1.587006,-0.3102090000000004,-1.8800239999999997,0.0,0.0,0.0,0.0,0.0,0.0,4.374208312743468,2.7792526436020544,0.3000489059361654,0.001337481257564203,0.0,2.4361122849930523e-16
1750759508.1868064,-1.8838400000000002,-2.1614310000000003,-0.6983610000000002,1.587006,-0.3102090000000004,-1.8800239999999997,0.0,0.0,0.0,0.0,0.0,0.0,4.374208312743468,2.7792526436020544,0.3000489059361654,0.001337481257564203,0.0,2.4361122849930523e-16
1750759508.188641,-1.8838400000000002,-2.1614310000000003,-0.6983610000000002,1.587006,-0.3102090000000004,-1.8800239999999997,0.0,0.0,0.0,0.0,0.0,0.0,4.374208312743468,2.7792526436020544,0.3000489059361654,0.001337481257564203,0.0,2.4361122849930523e-16
1750759508.190836,-1.8838400000000002,-2.1614310000000003,-0.6983610000000002,1.587006,-0.3102090000000004,-1.8800239999999997,0.0,0.0,0.0,0.0,0.0,0.0,4.374208312743468,2.7792526436020544,0.3000489059361654,0.001337481257564203,0.0,2.4361122849930523e-16
1750759508.1933377,-1.8838400000000002,-2.1614310000000003,-0.6983610000000002,1.587006,-0.3102090000000004,-1.8800239999999997,0.0,0.0,0.0,0.0,0.0,0.0,4.374208312743468,2.7792526436020544,0.3000489059361654,0.001337481257564203,0.0,2.4361122849930523e-16
1750759508.1947818,-1.8838400000000002,-2.1614310000000003,-0.6983610000000002,1.587006,-0.3102090000000004,-1.8800239999999997,0.0,0.0,0.0,0.0,0.0,0.0,4.374208312743468,2.7792526436020544,0.3000489059361654,0.001337481257564203,0.0,2.4361122849930523e-16
1750759508.1967418,-1.8838400000000002,-2.1614310000000003,-0.6983610000000002,1.587006,-0.3102090000000004,-1.8800239999999997,0.0,0.0,0.0,0.0,0.0,0.0,4.374208312743468,2.7792526436020544,0.3000489059361654,0.001337481257564203,0.0,2.4361122849930523e-16
1750759508.1989274,-1.8838400000000002,-2.1614310000000003,-0.6983610000000002,1.587006,-0.3102090000000004,-1.8800239999999997,0.0,0.0,0.0,0.0,0.0,0.0,4.374208312743468,2.7792526436020544,0.3000489059361654,0.001337481257564203,0.0,2.4361122849930523e-16
1750759508.2007465,-1.8838400000000002,-2.1614310000000003,-0.6983610000000002,1.587006,-0.3102090000000004,-1.8800239999999997,0.0,0.0,0.0,0.0,0.0,0.0,4.374208312743468,2.7792526436020544,0.3000489059361654,0.001337481257564203,0.0,2.4361122849930523e-16
1750759508.2027187,-1.8838400000000002,-2.1614310000000003,-0.6983610000000002,1.587006,-0.3102090000000004,-1.8800239999999997,0.0,0.0,0.0,0.0,0.0,0.0,4.374208312743468,2.7792526436020544,0.3000489059361654,0.001337481257564203,0.0,2.4361122849930523e-16
1750759508.20471,-1.8838400000000002,-2.1614310000000003,-0.6983610000000002,1.587006,-0.3102090000000004,-1.8800239999999997,0.0,0.0,0.0,0.0,0.0,0.0,4.374208312743468,2.7792526436020544,0.3000489059361654,0.001337481257564203,0.0,2.4361122849930523e-16
1750759508.2071526,-1.8838400000000002,-2.1614310000000003,-0.6983610000000002,1.587006,-0.3102090000000004,-1.8800239999999997,0.0,0.0,0.0,0.0,0.0,0.0,4.374208312743468,2.7792526436020544,0.3000489059361654,0.001337481257564203,0.0,2.4361122849930523e-16
1750759508.208926,-1.8838400000000002,-2.1614310000000003,-0.6983610000000002,1.587006,-0.3102090000000004,-1.8800239999999997,0.0,0.0,0.0,0.0,0.0,0.0,4.374208312743468,2.7792526436020544,0.3000489059361654,0.001337481257564203,0.0,2.4361122849930523e-16
1750759508.210659,-1.8838400000000002,-2.1614310000000003,-0.6983610000000002,1.587006,-0.3102090000000004,-1.8800239999999997,0.0,0.0,0.0,0.0,0.0,0.0,4.374208312743468,2.7792526436020544,0.3000489059361654,0.001337481257564203,0.0,2.4361122849930523e-16
1750759508.212704,-1.8838400000000002,-2.1614310000000003,-0.6983610000000002,1.587006,-0.3102090000000004,-1.8800239999999997,0.0,0.0,0.0,0.0,0.0,0.0,4.374208312743468,2.7792526436020544,0.3000489059361654,0.001337481257564203,0.0,2.4361122849930523e-16
1750759508.214839,-1.8838400000000002,-2.1614310000000003,-0.6983610000000002,1.587006,-0.3102090000000004,-1.8800239999999997,0.0,0.0,0.0,0.0,0.0,0.0,4.374208312743468,2.7792526436020544,0.3000489059361654,0.001337481257564203,0.0,2.4361122849930523e-16
1750759508.2166455,-1.8838400000000002,-2.1614310000000003,-0.6983610000000002,1.587006,-0.3102090000000004,-1.8800239999999997,0.0,0.0,0.0,0.0,0.0,0.0,4.374208312743468,2.7792526436020544,0.3000489059361654,0.001337481257564203,0.0,2.4361122849930523e-16
1750759508.2191956,-1.8838400000000002,-2.1614310000000003,-0.6983610000000002,1.587006,-0.3102090000000004,-1.8800239999999997,0.0,0.0,0.0,0.0,0.0,0.0,4.374208312743468,2.7792526436020544,0.3000489059361654,0.001337481257564203,0.0,2.4361122849930523e-16
1750759508.2242746,-1.8838400000000002,-2.1614310000000003,-0.6983610000000002,1.587006,-0.3102090000000004,-1.8800239999999997,0.0,0.0,0.0,0.0,0.0,0.0,4.374208312743468,2.7792526436020544,0.3000489059361654,0.001337481257564203,0.0,2.4361122849930523e-16
1750759508.2247841,-1.8838400000000002,-2.1614310000000003,-0.6983610000000002,1.587006,-0.3102090000000004,-1.8800239999999997,0.0,0.0,0.0,0.0,0.0,0.0,4.374208312743468,2.7792526436020544,0.3000489059361654,0.001337481257564203,0.0,2.4361122849930523e-16
1750759508.2250996,-1.8838400000000002,-2.1614310000000003,-0.6983610000000002,1.587006,-0.3102090000000004,-1.8800239999999997,0.0,0.0,0.0,0.0,0.0,0.0,4.374208312743468,2.7792526436020544,0.3000489059361654,0.001337481257564203,0.0,2.4361122849930523e-16
1750759508.2271388,-1.8838400000000002,-2.1614310000000003,-0.6983610000000002,1.587006,-0.3102090000000004,-1.8800239999999997,0.0,0.0,0.0,0.0,0.0,0.0,4.374208312743468,2.7792526436020544,0.3000489059361654,0.001337481257564203,0.0,2.4361122849930523e-16
1750759508.228938,-1.8838400000000002,-2.1614310000000003,-0.6983610000000002,1.587006,-0.3102090000000004,-1.8800239999999997,0.0,0.0,0.0,0.0,0.0,0.0,4.374208312743468,2.7792526436020544,0.3000489059361654,0.001337481257564203,0.0,2.4361122849930523e-16
1750759508.23091,-1.8838400000000002,-2.1614310000000003,-0.6983610000000002,1.587006,-0.3102090000000004,-1.8800239999999997,0.0,0.0,0.0,0.0,0.0,0.0,4.374208312743468,2.7792526436020544,0.3000489059361654,0.001337481257564203,0.0,2.4361122849930523e-16
1750759508.2328148,-1.8838400000000002,-2.1614310000000003,-0.6983610000000002,1.587006,-0.3102090000000004,-1.8800239999999997,0.0,0.0,0.0,0.0,0.0,0.0,4.374208312743468,2.7792526436020544,0.3000489059361654,0.001337481257564203,0.0,2.4361122849930523e-16
1750759508.2349074,-1.8838400000000002,-2.1614310000000003,-0.6983610000000002,1.587006,-0.3102090000000004,-1.8800239999999997,0.0,0.0,0.0,0.0,0.0,0.0,4.374208312743468,2.7792526436020544,0.3000489059361654,0.001337481257564203,0.0,2.4361122849930523e-16
1750759508.2380714,-1.8838400000000002,-2.1614310000000003,-0.6983610000000002,1.587006,-0.3102090000000004,-1.8800239999999997,0.0,0.0,0.0,0.0,0.0,0.0,4.374208312743468,2.7792526436020544,0.3000489059361654,0.001337481257564203,0.0,2.4361122849930523e-16
1750759508.2393022,-1.8838400000000002,-2.1614310000000003,-0.6983610000000002,1.587006,-0.3102090000000004,-1.8800239999999997,0.0,0.0,0.0,0.0,0.0,0.0,4.374208312743468,2.7792526436020544,0.3000489059361654,0.001337481257564203,0.0,2.4361122849930523e-16
1750759508.2412596,-1.8838400000000002,-2.1614310000000003,-0.6983610000000002,1.587006,-0.3102090000000004,-1.8800239999999997,0.0,0.0,0.0,0.0,0.0,0.0,4.374208312743468,2.7792526436020544,0.3000489059361654,0.001337481257564203,0.0,2.4361122849930523e-16
1750759508.2428439,-1.8838400000000002,-2.1614310000000003,-0.6983610000000002,1.587006,-0.3102090000000004,-1.8800239999999997,0.0,0.0,0.0,0.0,0.0,0.0,4.374208312743468,2.7792526436020544,0.3000489059361654,0.001337481257564203,0.0,2.4361122849930523e-16
1750759508.2446752,-1.8838400000000002,-2.1614310000000003,-0.6983610000000002,1.587006,-0.3102090000000004,-1.8800239999999997,0.0,0.0,0.0,0.0,0.0,0.0,4.374208312743468,2.7792526436020544,0.3000489059361654,0.001337481257564203,0.0,2.4361122849930523e-16
1750759508.2469492,-1.8838400000000002,-2.1614310000000003,-0.6983610000000002,1.587006,-0.3102090000000004,-1.8800239999999997,0.0,0.0,0.0,0.0,0.0,0.0,4.374208312743468,2.7792526436020544,0.3000489059361654,0.001337481257564203,0.0,2.4361122849930523e-16
1750759508.2491174,-1.8838400000000002,-2.1614310000000003,-0.6983610000000002,1.587006,-0.3102090000000004,-1.8800239999999997,0.0,0.0,0.0,0.0,0.0,0.0,4.374208312743468,2.7792526436020544,0.3000489059361654,0.001337481257564203,0.0,2.4361122849930523e-16
1750759508.2506611,-1.8838400000000002,-2.1614310000000003,-0.6983610000000002,1.587006,-0.3102090000000004,-1.8800239999999997,0.0,0.0,0.0,0.0,0.0,0.0,4.374208312743468,2.7792526436020544,0.3000489059361654,0.001337481257564203,0.0,2.4361122849930523e-16
1750759508.2526307,-1.8838400000000002,-2.1614310000000003,-0.6983610000000002,1.587006,-0.3102090000000004,-1.8800239999999997,0.0,0.0,0.0,0.0,0.0,0.0,4.374208312743468,2.7792526436020544,0.3000489059361654,0.001337481257564203,0.0,2.4361122849930523e-16
1750759508.2547092,-1.8838400000000002,-2.1614310000000003,-0.6983610000000002,1.587006,-0.3102090000000004,-1.8800239999999997,0.0,0.0,0.0,0.0,0.0,0.0,4.374208312743468,2.7792526436020544,0.3000489059361654,0.001337481257564203,0.0,2.4361122849930523e-16
1750759508.2566721,-1.8838400000000002,-2.1614310000000003,-0.6983610000000002,1.587006,-0.3102090000000004,-1.8800239999999997,0.0,0.0,0.0,0.0,0.0,0.0,4.374208312743468,2.7792526436020544,0.3000489059361654,0.001337481257564203,0.0,2.4361122849930523e-16
1750759508.258905,-1.8838400000000002,-2.1614310000000003,-0.6983610000000002,1.587006,-0.3102090000000004,-1.8800239999999997,0.0,0.0,0.0,0.0,0.0,0.0,4.374208312743468,2.7792526436020544,0.3000489059361654,0.001337481257564203,0.0,2.4361122849930523e-16
1750759508.260691,-1.8838400000000002,-2.1614310000000003,-0.6983610000000002,1.587006,-0.3102090000000004,-1.8800239999999997,0.0,0.0,0.0,0.0,0.0,0.0,4.374208312743468,2.7792526436020544,0.3000489059361654,0.001337481257564203,0.0,2.4361122849930523e-16
1750759508.262649,-1.8838402342927871,-2.161430312263623,-0.6983614599014043,1.5870059658441136,-0.3102099994745249,-1.8800249999999998,-0.00023429278647039547,0.0006877363774017991,-0.00045990140426326194,-3.415588635907883e-05,-0.000999474524825239,-0.001,4.328753021346539,2.8937422695860766,0.28963598880841784,-0.00237784938613639,-0.02815552056539544,-0.3635097541776657
1750759508.2647638,-1.8838409371711462,-2.1614282490544907,-0.6983628396056174,1.5870058633764546,-0.3102129978981001,-1.8800279999999994,-0.00046858557294079093,0.0013754727548035983,-0.0009198028085265239,-6.831177271815767e-05,-0.001998949049650478,-0.002,4.328761440880673,2.8937458679838697,0.2896359733124264,-0.0023778749182704726,-0.02815552056537684,-0.3635109386483554
1750759508.2731838,-1.8838421086350783,-2.161424810372604,-0.6983651391126386,1.5870056925970226,-0.31021799527072424,-1.8800329999999992,-0.0007028783594111865,0.0020632091322053975,-0.0013797042127897858,-0.0001024676590772365,-0.002998423574475717,-0.003,4.328775473431376,2.8937518653013226,0.28963594748557,-0.002377917471764775,-0.028155520565345843,-0.36351291277102804
1750759508.2735665,-1.8838421086350783,-2.161424810372604,-0.6983651391126386,1.5870056925970226,-0.31021799527072424,-1.8800329999999992,-0.0007028783594111865,0.0020632091322053975,-0.0013797042127897858,-0.0001024676590772365,-0.002998423574475717,-0.003,4.328775473431376,2.8937518653013226,0.28963594748557,-0.002377917471764775,-0.028155520565345843,-0.36351291277102804
1750759508.274863,-1.8838514803465376,-2.161397300917508,-0.6983835351688095,1.5870043263615683,-0.31025797425171664,-1.8800729999999994,-0.0016400495052927683,0.004814154641812595,-0.0032193098298428334,-0.00023909120451355182,-0.006996321673776673,-0.007,4.328887733558656,2.8937998432920558,0.2896357408615512,-0.0023782578969055927,-0.028155520565097965,-0.36352870597093395
1750759508.2767715,-1.8838549947383338,-2.1613869848718466,-0.6983904336898732,1.587003814023273,-0.3102729663695891,-1.8800879999999998,-0.0018743422917631637,0.005501891019214393,-0.0036792112341060956,-0.00027324709087263066,-0.007995796198601912,-0.008,4.328929830978801,2.893817834787011,0.2896356633733421,-0.0023783855550438557,-0.028155520565005046,-0.36353462852105217
1750759508.2787344,-1.883858977715704,-2.161375293353431,-0.698398252013746,1.587003233373205,-0.31028995743651144,-1.8801049999999995,-0.0021086350782335596,0.0061896273966161935,-0.004139112638369358,-0.00030740297723170953,-0.008995270723427153,-0.009000000000000001,4.328977541304167,2.8938382249820678,0.28963557555060077,-0.002378530233416882,-0.028155520564899814,-0.3635413408105573
1750759508.2808595,-1.8838634292786471,-2.16136222636226,-0.6984069901404268,1.587002584411364,-0.3103089474524827,-1.8801239999999995,-0.002342927864703955,0.006877363774017993,-0.00459901404263262,-0.0003415588635907884,-0.009994745248252392,-0.010000000000000002,4.329030864503209,2.893861013815028,0.28963547739228823,-0.002378691931705794,-0.028155520564782134,-0.3635488428642098
1750759508.2827265,-1.8838683494271633,-2.161347783898335,-0.6984166480699159,1.5870018671377504,-0.3103299364175047,-1.8801449999999997,-0.002577220651174351,0.0075651001514197925,-0.005058915446895883,-0.00037571474994986726,-0.010994219773077633,-0.011000000000000003,4.329089800540661,2.8938862012163655,0.28963536889724323,-0.002378870649554156,-0.028155520564652207,-0.3635571347096829
1750759508.2846293,-1.8838737381612516,-2.1613319659616543,-0.698427225802214,1.5870010815523643,-0.3103529243315748,-1.8801679999999994,-0.0028115134376447467,0.008252836528821592,-0.005518816851159145,-0.00040987063630894613,-0.011993694297902872,-0.012000000000000004,4.329154349377545,2.8939137871092435,0.2896352500641824,-0.0023790663865680055,-0.028155520564509855,-0.36356621637755976
1750759508.2875059,-1.8838737381612516,-2.1613319659616543,-0.698427225802214,1.5870010815523643,-0.3103529243315748,-1.8801679999999994,-0.0028115134376447467,0.008252836528821592,-0.005518816851159145,-0.00040987063630894613,-0.011993694297902872,-0.012000000000000004,4.329154349377545,2.8939137871092435,0.2896352500641824,-0.0023790663865680055,-0.028155520564509855,-0.36356621637755976
1750759508.2887754,-1.8838795954809138,-2.1613147725522195,-0.698438723337321,1.5870002276552053,-0.3103779111946956,-1.8801930000000002,-0.003045806224115142,0.008940572906223392,-0.005978718255422407,-0.000444026522668025,-0.012993168822728112,-0.013000000000000005,4.329224510971179,2.8939437714094938,0.28963512089169946,-0.002379279142315892,-0.028155520564355278,-0.3635760879013345
1750759508.290652,-1.883885921386148,-2.1612962036700294,-0.6984511406752354,1.5869993054462734,-0.31040489700686624,-1.8802199999999996,-0.003280099010585538,0.009628309283625193,-0.006438619659685669,-0.00047818240902710386,-0.013992643347553351,-0.014000000000000005,4.3293002852751545,2.8939761540256477,0.2896349813782668,-0.0023795089163288013,-0.028155520564188307,-0.3635867493174107
1750759508.2927635,-1.8838927158769563,-2.161276259315085,-0.6984644778159597,1.586998314925569,-0.31043388176808584,-1.8802489999999992,-0.003514391797055934,0.010316045661026991,-0.0068985210639489316,-0.0005123382953861827,-0.014992117872378592,-0.015000000000000006,4.329381672239363,2.8940109348589043,0.2896348315222338,-0.002379755708100134,-0.02815552056400914,-0.36359820066510035
1750759508.2949917,-1.8838999789533366,-2.1612549394873852,-0.6984787347594921,1.586997256093092,-0.3104648654783553,-1.88028,-0.003748684583526329,0.011003782038428792,-0.007358422468212195,-0.0005464941817452615,-0.01599159239720383,-0.016000000000000007,4.32946867180997,2.8940481138031617,0.28963467132182813,-0.002380019517085804,-0.02815552056381761,-0.3636104419866241
1750759508.2966993,-1.88390771061529,-2.161232244186931,-0.6984939115058326,1.5869961289488421,-0.31049784813767456,-1.8803129999999992,-0.003982977369996725,0.011691518415830592,-0.007818323872475457,-0.0005806500681043405,-0.01699106692202907,-0.017000000000000008,4.329561283929432,2.8940876907449877,0.2896345007751551,-0.0023803003427041772,-0.028155520563613874,-0.36362347332710954
1750759508.2987585,-1.8839159108628163,-2.1612081734137227,-0.6985100080549813,1.5869949334928195,-0.3105328297460437,-1.8803479999999997,-0.004217270156467121,0.01237925479323239,-0.008278225276738719,-0.0006148059544634193,-0.017990541446854313,-0.01800000000000001,4.32965950853649,2.8941296655636397,0.2896343198801975,-0.0023805981843360116,-0.028155520563397998,-0.36363729473459055
1750759508.3006194,-1.8839245796959165,-2.161182727167758,-0.698527024406939,1.5869936697250242,-0.31056981030346265,-1.8803849999999995,-0.004451562942937516,0.01306699117063419,-0.008738126681001981,-0.0006489618408224982,-0.018990015971679552,-0.01900000000000001,4.329763345566182,2.894174038131061,0.28963412863481625,-0.002380913041324551,-0.028155520563169712,-0.3636519062600074
1750759508.302661,-1.883933717114588,-2.1611559054490392,-0.6985449605617058,1.5869923376454562,-0.31060878980993056,-1.8804239999999997,-0.004685855729407912,0.013754727548035991,-0.009198028085265243,-0.000683117727181577,-0.01998949049650479,-0.02000000000000001,4.329872794949799,2.8942208083118817,0.28963392703675006,-0.0023812449129754372,-0.028155520562929328,-0.3636673079572027
1750759508.3046381,-1.8839433231188334,-2.161127708257566,-0.6985638165192807,1.5869909372541156,-0.3106497682654483,-1.8804649999999992,-0.004920148515878308,0.01444246392543779,-0.009657929489528505,-0.0007172736135406559,-0.02098896502133003,-0.02100000000000001,4.329987856614947,2.8942699759634016,0.2896337150836148,-0.002381593798556769,-0.02815552056267678,-0.3636834998829244
1750759508.3066175,-1.8839533977086518,-2.1610981355933383,-0.6985835922796637,1.5869894685510022,-0.3106927456700159,-1.8805079999999998,-0.005154441302348703,0.01513020030283959,-0.010117830893791768,-0.0007514294998997347,-0.021988439546155272,-0.022000000000000013,4.330108530485503,2.894321540935621,0.28963349277290484,-0.0023819596972990383,-0.028155520562412176,-0.36370048209682165
1750759508.3087,-1.8839639408840432,-2.1610671874563554,-0.6986042878428558,1.586987931536116,-0.31073772202363337,-1.880553,-0.005388734088819099,0.01581793668024139,-0.01057773229805503,-0.0007855853862588136,-0.02298791407098051,-0.023000000000000013,4.330234816481624,2.8943755030712217,0.2896332601019921,-0.0023823426083951927,-0.02815552056213525,-0.363718254661445
1750759508.310576,-1.8839749526450067,-2.1610348638466164,-0.698625903208856,1.586986326209457,-0.31078469732629976,-1.8805999999999994,-0.005623026875289495,0.01650567305764319,-0.011037633702318294,-0.0008197412726178925,-0.02398738859580575,-0.024000000000000014,4.330366714519753,2.894431862205577,0.2896330170681259,-0.0023827425310005397,-0.028155520561846333,-0.3637368176422444
1750759508.312709,-1.8839864329915441,-2.1610011647641247,-0.6986484383776652,1.5869846525710254,-0.310833671578016,-1.880649,-0.0058573196617598905,0.01719340943504499,-0.011497535106581556,-0.0008538971589769713,-0.02498686312063099,-0.025000000000000015,4.330504224512619,2.8944906181667256,0.28963276366843377,-0.0023831594642327843,-0.02815552056154534,-0.3637561711075687
1750759508.3191085,-1.8839864329915441,-2.1610011647641247,-0.6986484383776652,1.5869846525710254,-0.310833671578016,-1.880649,-0.0058573196617598905,0.01719340943504499,-0.011497535106581556,-0.0008538971589769713,-0.02498686312063099,-0.025000000000000015,4.330504224512619,2.8944906181667256,0.28963276366843377,-0.0023831594642327843,-0.02815552056154534,-0.3637561711075687
1750759508.3194182,-1.884010799441337,-2.160929640180875,-0.6986962681237081,1.586981100358844,-0.310937616928598,-1.8807529999999995,-0.006325905234700682,0.01856888218984859,-0.01241733791510808,-0.000922208931695129,-0.02698581217028147,-0.027000000000000017,4.330796079994847,2.8946153198450855,0.2896322257594703,-0.0023840443588608404,-0.028155520560907255,-0.3637972497796691
1750759508.3207448,-1.8840236855445927,-2.1608918146801175,-0.6987215627009427,1.5869792217850944,-0.31099258802746377,-1.880808,-0.006560198021171078,0.01925661856725039,-0.012877239319371342,-0.0009563648180542079,-0.02798528669510671,-0.028000000000000018,4.3309504252910624,2.8946812651818346,0.28963194124384267,-0.0023845123183040087,-0.02815552056057022,-0.36381897513762207
1750759508.3227623,-1.8840370402334221,-2.1608526137066058,-0.6987477770809853,1.5869772748995719,-0.3110495580753785,-1.880865,-0.006794490807641473,0.019944354944652187,-0.013337140723634604,-0.0009905207044132868,-0.02898476121993195,-0.02900000000000002,4.33111038215571,2.894749606584468,0.28963164634967625,-0.002384997284468803,-0.02815552056022123,-0.3638414912824508
1750759508.3247745,-1.8840508635078237,-2.1608120372603388,-0.6987749112638371,1.5869752597022768,-0.31110852707234304,-1.8809239999999994,-0.0070287835941118685,0.02063209132205399,-0.013797042127897867,-0.0010246765907723657,-0.02998423574475719,-0.03000000000000002,4.3312759504829135,2.894820343844487,0.28963134107348754,-0.0023854992562847826,-0.028155520559860425,-0.3638647982969735
1750759508.32673,-1.8840651553677983,-2.1607700853413174,-0.6988029652494969,1.5869731761932089,-0.31116949501835744,-1.880985,-0.007263076380582265,0.021319827699455788,-0.014256943532161129,-0.0010588324771314446,-0.03098371026958243,-0.03100000000000002,4.331447130163069,2.8948934767460623,0.2896310254116706,-0.002386018232643906,-0.028155520559487533,-0.3638888962668997
1750759508.3287086,-1.8840799158133459,-2.160726757949541,-0.6988319390379658,1.5869710243723683,-0.3112324619134217,-1.8810479999999998,-0.00749736916705266,0.022007564076857587,-0.014716844936424391,-0.0010929883634905233,-0.03198318479440767,-0.03200000000000002,4.33162392108286,2.894969005066075,0.2896306993604972,-0.0023865542124004236,-0.02815552055910289,-0.3639137852808253
1750759508.3308086,-1.8840951448444665,-2.16068205508501,-0.6988618326292428,1.586968804239755,-0.3112974277575349,-1.8811129999999991,-0.007731661953523056,0.02269530045425939,-0.015176746340687653,-0.0011271442498496022,-0.03298265931923291,-0.03300000000000002,4.331806323125232,2.8950469285740796,0.289630362916117,-0.0023871071943709406,-0.02815552055870643,-0.36393946543023237
1750759508.33399,-1.8841108424611601,-2.1606359767477237,-0.6988926460233289,1.5869665157953687,-0.3113643925506988,-1.8811799999999996,-0.007965954739993451,0.023383036831661187,-0.015636647744950917,-0.0011613001362086811,-0.03398213384405815,-0.03400000000000002,4.331994336169418,2.895127247032332,0.28963001607455746,-0.0023876771773343694,-0.02815552055829819,-0.36396593680948763
1750759508.3346548,-1.8841270086634267,-2.160588522937683,-0.6989243792202231,1.58696415903921,-0.3114333562929117,-1.8812489999999995,-0.008200247526463847,0.024070773209062986,-0.016096549149214177,-0.00119545602256776,-0.034981608368883386,-0.035000000000000024,4.332187960090913,2.8952099601957717,0.2896296588317236,-0.0023882641600318864,-0.028155520557878212,-0.36399319951583925
1750759508.3366892,-1.8841436434512655,-2.160539693654888,-0.6989570322199254,1.5869617339712785,-0.3115043189841735,-1.8813199999999997,-0.008434540312934244,0.024758509586464788,-0.01655645055347744,-0.0012296119089268388,-0.03598108289370863,-0.036000000000000025,4.332387194761495,2.895295067812043,0.28962929118339853,-0.0023888681411670235,-0.028155520557446728,-0.3640212536494161
1750759508.339039,-1.8841607468246782,-2.160489488899337,-0.6989906050224368,1.5869592405915742,-0.3115772806244861,-1.8813929999999992,-0.008668833099404638,0.025446245963866587,-0.0170163519577407,-0.0012637677952859177,-0.03698055741853387,-0.037000000000000026,4.33259204004922,2.8953825696214714,0.28962891312524347,-0.0023894891194055712,-0.02815552055700319,-0.3640500993132262
1750759508.3406699,-1.884178318783663,-2.1604379086710317,-0.6990250976277563,1.5869566789000975,-0.3116522412138476,-1.881468,-0.008903125885875034,0.026133982341268385,-0.017476253362003966,-0.0012979236816449966,-0.03798003194335911,-0.03800000000000003,4.3328024958183935,2.8954724653570802,0.28962852465279626,-0.002390127093375539,-0.028155520556548234,-0.36407973661315135
1750759508.3427138,-1.8841963593282216,-2.160384952969972,-0.6990605100358849,1.5869540488968477,-0.31172920075225985,-1.881545,-0.00913741867234543,0.026821718718670187,-0.01793615476626723,-0.0013320795680040753,-0.03897950646818435,-0.03900000000000003,4.333018561929614,2.895564754744585,0.28962812576147373,-0.002390782061667292,-0.028155520556081698,-0.3641101656579494
1750759508.3447304,-1.8842148684583524,-2.1603306217961578,-0.6990968422468216,1.5869513505818253,-0.31180815923972105,-1.8816239999999995,-0.009371711458815825,0.027509455096071986,-0.01839605617053049,-0.0013662354543631542,-0.03997898099300959,-0.04000000000000003,4.333240238239736,2.8956594375023976,0.2896277164465702,-0.0023914540228333445,-0.02815552055560363,-0.36414138655924955
1750759508.34687,-1.884233846174057,-2.1602749151495875,-0.6991340942605664,1.5869485839550304,-0.3118891166762321,-1.8817050000000002,-0.009606004245286221,0.028197191473473784,-0.018855957574793754,-0.0014003913407222332,-0.04097845551783483,-0.04100000000000003,4.333467524601893,2.895756513341628,0.2896272967032573,-0.002392142975388485,-0.028155520555114076,-0.3641733994315516
1750759508.34881,-1.884253292475334,-2.1602178330302637,-0.6991722660771202,1.5869457490164625,-0.3119720730617921,-1.8817880000000002,-0.009840297031756618,0.028884927850875586,-0.019315858979057014,-0.001434547227081312,-0.04197793004266007,-0.04200000000000003,4.333700420865471,2.8958559819660787,0.2896268665265851,-0.002392848917809734,-0.02815552055461308,-0.3642062043922206
1750759508.3507836,-1.8842732073621837,-2.160159375438184,-0.6992113576964831,1.5869428457661219,-0.3120570283964019,-1.8818729999999997,-0.010074589818227012,0.029572664228277385,-0.019775760383320278,-0.0014687031134403908,-0.04297740456748531,-0.04300000000000003,4.333938926876144,2.895957843072255,0.2896264259114812,-0.002393571848536274,-0.028155520554100883,-0.36423980156148933
1750759508.3528843,-1.8842935908346066,-2.1600995423733504,-0.6992513691186542,1.5869398742040088,-0.3121439826800625,-1.8819599999999994,-0.010308882604697409,0.030260400605679184,-0.02023566178758354,-0.0015028589997994697,-0.04397687909231055,-0.04400000000000003,4.334183042475824,2.8960620963493473,0.289625974852751,-0.0023943117659694976,-0.028155520553576955,-0.3642741910624505
1750759508.354768,-1.8843144428926024,-2.160038333835762,-0.6992923003436333,1.586936834330123,-0.3122329359127711,-1.8820489999999994,-0.010543175391167805,0.030948136983080986,-0.020695563191846802,-0.0015370148861585486,-0.04497635361713579,-0.04500000000000003,4.334432767502715,2.8961687414792636,0.2896255133450777,-0.0023950686684729933,-0.028155520553041925,-0.3643093730210588
1750759508.3569098,-1.8843357635361713,-2.159975749825418,-0.6993341513714215,1.586933726144464,-0.3123238880945305,-1.8821399999999997,-0.0107774681776382,0.031635873360482784,-0.021155464596110063,-0.0015711707725176275,-0.04597582814196103,-0.046000000000000034,4.334688101791268,2.896277778136595,0.2896250413830226,-0.0023958425543725,-0.02815552055249565,-0.36434534756612574
1750759508.3586566,-1.8843575527653131,-2.1599117903423197,-0.6993769222020179,1.5869305496470327,-0.3124168392253397,-1.8822329999999994,-0.011011760964108596,0.03232360973788458,-0.021615366000373327,-0.0016053266588767063,-0.04697530266678627,-0.047000000000000035,4.334949045172199,2.8963892059886427,0.28962455896102435,-0.0023966334219558505,-0.028155520551938183,-0.3643821148293187
1750759508.361167,-1.884379810580028,-2.1598464553864662,-0.6994206128354232,1.5869273048378285,-0.31251178930519785,-1.8823279999999993,-0.011246053750578992,0.03301134611528638,-0.022075267404636587,-0.0016394825452357852,-0.04797477719161151,-0.048000000000000036,4.3352155974724855,2.896503024695405,0.28962406607339997,-0.0023974412694731093,-0.02815552055136957,-0.3644196749451572
1750759508.3628776,-1.884402536980316,-2.1597797449578584,-0.6994652232716358,1.5869239917168518,-0.31260873833410585,-1.8824249999999996,-0.011480346537049387,0.03369908249268819,-0.02253516880889985,-0.001673638431594864,-0.04897425171643675,-0.04900000000000004,4.3354877585153595,2.8966192339095804,0.2896235627143434,-0.002398266095136338,-0.028155520550789875,-0.36445802805100863
1750759508.370532,-1.884402536980316,-2.1597797449578584,-0.6994652232716358,1.5869239917168518,-0.31260873833410585,-1.8824249999999996,-0.011480346537049387,0.03369908249268819,-0.02253516880889985,-0.001673638431594864,-0.04897425171643675,-0.04900000000000004,4.3354877585153595,2.8966192339095804,0.2896235627143434,-0.002398266095136338,-0.028155520550789875,-0.36445802805100863
1750759508.3708699,-1.8844735276946158,-2.159571360835506,-0.6996045733971279,1.586913642483285,-0.312911579115128,-1.8827280000000002,-0.012183224896460574,0.03576229162489358,-0.02391487302168964,-0.0017761060906721006,-0.05197267529091247,-0.05200000000000004,4.336337892275767,2.8969822010141772,0.2896219897486976,-0.002400842422554677,-0.028155520548984837,-0.3645778467250231
1750759508.372829,-1.8844981284371958,-2.159499148515879,-0.6996528630445757,1.5869100561152172,-0.3130165239402345,-1.8828329999999998,-0.01241751768293097,0.03645002800229538,-0.0243747744259529,-0.0018102619770311796,-0.05297214981573771,-0.05300000000000004,4.336632486446523,2.8971079686391037,0.2896214444434166,-0.002401735142164888,-0.028155520548361363,-0.3646193732215153
1750759508.374818,-1.8845231977653478,-2.1594255607234967,-0.6997020724948317,1.5869064014353769,-0.3131234677143908,-1.8829399999999996,-0.012651810469401364,0.03713776437969718,-0.024834675830216164,-0.0018444178633902583,-0.05397162434056295,-0.05400000000000004,4.336932688419899,2.897236124925523,0.2896208886358442,-0.002402644830412835,-0.028155520547727093,-0.3646616934375134
1750759508.3766723,-1.8845487356790729,-2.15935059745836,-0.6997522017478968,1.5869026784437636,-0.313232410437597,-1.8830489999999998,-0.01288610325587176,0.037825500757098986,-0.025294577234479424,-0.0018785737497493372,-0.05497109886538819,-0.05500000000000004,4.337238497996665,2.8973666694823637,0.28962032231944224,-0.002403571485283036,-0.02815552054708208,-0.364704807527424
1750759508.3786495,-1.884574742178371,-2.159274258720468,-0.6998032508037699,1.5868988871403777,-0.3133433521098521,-1.8831600000000002,-0.013120396042342157,0.038513237134500784,-0.025754478638742688,-0.001912729636108416,-0.05597057339021343,-0.05600000000000004,4.337549914973839,2.8974996019112673,0.2896197454875497,-0.0024045151047219155,-0.0281555205464264,-0.36474871564848305
1750759508.3809266,-1.884601217263242,-2.159196544509822,-0.6998552196624512,1.5868950275252192,-0.31345629273115794,-1.883273,-0.013354688828812552,0.03920097351190258,-0.02621438004300595,-0.001946885522467495,-0.056970047915038666,-0.057000000000000044,4.337866939144685,2.8976349218065858,0.2896191581333843,-0.0024054756866379147,-0.028155520545760104,-0.3647934179607537
1750759508.3827312,-1.884628160933687,-2.1591174548264203,-0.6999081083239416,1.586891099598288,-0.31357123230151274,-1.883388,-0.013588981615282948,0.03988870988930438,-0.026674281447269212,-0.001981041408826574,-0.057969522439863905,-0.058000000000000045,4.33818957029872,2.8977726287553827,0.2896185602500409,-0.002406453228901433,-0.028155520545083263,-0.364838914627121
1750759508.3847508,-1.8846555731897041,-2.1590369896702644,-0.6999619167882409,1.586887103359584,-0.3136881708209174,-1.8835049999999995,-0.013823274401753344,0.04057644626670618,-0.027134182851532476,-0.0020151972951856527,-0.05896899696468915,-0.059000000000000045,4.338517808221697,2.8979127223374355,0.2896179518304928,-0.0024074477293447956,-0.028155520544396136,-0.36488520581328837
1750759508.3871067,-1.8846555731897041,-2.1590369896702644,-0.6999619167882409,1.586887103359584,-0.3136881708209174,-1.8835049999999995,-0.013823274401753344,0.04057644626670618,-0.027134182851532476,-0.0020151972951856527,-0.05896899696468915,-0.059000000000000045,4.338517808221697,2.8979127223374355,0.2896179518304928,-0.0024074477293447956,-0.028155520544396136,-0.36488520581328837
1750759508.3891766,-1.8846834540312933,-2.158955149041354,-0.7000166450553476,1.5868830388091073,-0.313807108289371,-1.8836239999999993,-0.014057567188223739,0.04126418264410798,-0.027594084255795737,-0.0020493531815447314,-0.05996847148951439,-0.060000000000000046,4.338851652695616,2.898055202125232,0.28961733286759095,-0.002408459185762273,-0.0281555205436982,-0.36493229168777763
1750759508.390732,-1.8847118034584565,-2.1588719329396877,-0.7000722931252641,1.5868789059468578,-0.3139280447068753,-1.8837449999999993,-0.014291859974694135,0.041951919021509784,-0.028053985660059,-0.0020835090679038105,-0.06096794601433963,-0.06100000000000005,4.339191103498738,2.898200067683978,0.2896167033540638,-0.0024094875959100493,-0.028155520542990115,-0.3649801724219219
1750759508.3927372,-1.8847406214711926,-2.158787341365268,-0.7001288609979879,1.5868747047728355,-0.3140509800734286,-1.8838679999999997,-0.014526152761164531,0.04263965539891158,-0.02851388706432226,-0.002117664954262889,-0.06196742053916487,-0.06200000000000005,4.339536160405537,2.8983473185715822,0.2896160632825185,-0.0024105329575061026,-0.02815552054227175,-0.36502884818986414
1750759508.3947098,-1.8847699080695008,-2.1587013743180927,-0.7001863486735207,1.5868704352870406,-0.3141759143890317,-1.8839930000000003,-0.014760445547634924,0.043327391776313375,-0.02897378846858552,-0.002151820840621968,-0.0629668950639901,-0.06300000000000004,4.339886823186742,2.898496954338687,0.2896154126454392,-0.002411595268230351,-0.02815552054154298,-0.36507831916854955
1750759508.3967142,-1.884799663253383,-2.1586140317981624,-0.7002447561518625,1.586866097489473,-0.31430284765368466,-1.8841199999999994,-0.01499473833410532,0.04401512815371517,-0.029433689872848782,-0.0021859767269810466,-0.06396636958881534,-0.06400000000000004,4.3402430916093255,2.8986489745286423,0.28961475143518833,-0.0024126745257245807,-0.028155520540804474,-0.36512858553773747
1750759508.398765,-1.8848298870228373,-2.1585253138054776,-0.7003040834330125,1.5868616913801328,-0.31443177986738746,-1.8842489999999996,-0.015229031120575717,0.04470286453111698,-0.029893591277112046,-0.0022201326133401257,-0.06496584411364058,-0.06500000000000004,4.34060496543648,2.8988033786775214,0.2896140796440065,-0.0024137707275922967,-0.0281555205400557,-0.36517964747996867
1750759508.4007714,-1.8848605793778654,-2.1584352203400385,-0.7003643305169707,1.5868572169590198,-0.3145627110301392,-1.8843800000000002,-0.015463323907046111,0.04539060090851878,-0.030353492681375306,-0.0022542884996992044,-0.06596531863846582,-0.06600000000000004,4.340972444427652,2.8989601663141054,0.2896133972640117,-0.0024148838713988377,-0.028155520539296937,-0.36523150518059044
1750759508.403224,-1.8848917403184657,-2.158343751401844,-0.7004254974037378,1.586852674226134,-0.3146956411419408,-1.884513,-0.01569761669351651,0.046078337285920576,-0.03081339408563857,-0.002288444386058283,-0.06696479316329106,-0.06700000000000005,4.341345528338499,2.899119336959919,0.28961270428720004,-0.0024160139546713913,-0.02815552053852826,-0.36528415882773757
1750759508.4050043,-1.884923369844639,-2.1582509069908946,-0.7004875840933131,1.5868480631814756,-0.31483057020279226,-1.8846479999999994,-0.015931909479986902,0.046766073663322374,-0.031273295489901834,-0.0023226002724173623,-0.0679642676881163,-0.06800000000000005,4.341724216920933,2.8992808901291918,0.28961200070544585,-0.002417160974898803,-0.02815552053774974,-0.36533760861233217
1750759508.4068568,-1.8849554679563862,-2.1581566871071907,-0.7005505905856975,1.5868433838250444,-0.31496749821269354,-1.884785,-0.016166202266457298,0.04745381004072417,-0.031733196894165094,-0.002356756158776441,-0.06896374221294153,-0.06900000000000005,4.3421085099230785,2.899444825328877,0.2896112865105007,-0.002418324929531684,-0.028155520536961458,-0.3653918547280808
1750759508.4089322,-1.884988034986617,-2.1580610907735105,-0.7006145175343734,1.5868386361083087,-0.31510642659182064,-1.8849240014209228,-0.016401239458510488,0.04814373152790753,-0.03219455951566084,-0.002391020564234443,-0.0699663923156908,-0.07000317724720566,4.342354288505378,2.899974688364344,0.28957748344440154,-0.002431334569433596,-0.0282449775931457,-0.36660402471452636
1750759508.410855,-1.8850210750685052,-2.1579641058574426,-0.7006793730524752,1.5868338194287368,-0.31524737297197447,-1.8850650219038378,-0.01663938666376783,0.04884278207120371,-0.0326620268802471,-0.0024257383458924776,-0.07098230949966343,-0.07101962854963068,4.342147818741433,2.9016621306462063,0.2894385508561945,-0.0024819565728011984,-0.028618715560469486,-0.3714946015778202
1750759508.4127913,-1.8850545946931065,-2.157865713305302,-0.7007451698815013,1.5868289328400658,-0.31539036504350904,-1.8852080891536538,-0.01688077362826496,0.049551342524102156,-0.0331358536703769,-0.0024609284179084165,-0.07201204725179311,-0.07204990768513811,4.341922258323146,2.9034149483546816,0.2892938342039805,-0.002534671498863416,-0.029008045433666946,-0.37658870783451626
1750759508.4148839,-1.8850886002887597,-2.1577658942474978,-0.7008119206398407,1.5868239754051758,-0.31553543022923325,-1.8853532306075964,-0.017125349212467864,0.0502692627730564,-0.033615939502503106,-0.002496583325024043,-0.07305538741485407,-0.07309379638180716,4.34171272057167,2.905144807659052,0.2891513704313785,-0.0025866058286018972,-0.029391229747245267,-0.38160521494004135
1750759508.4170356,-1.8851230981817633,-2.1576646301139704,-0.7008796377455848,1.5868189462018234,-0.3156825955166598,-1.8855004732673635,-0.01737306251519329,0.05099639340416783,-0.034102184460945546,-0.0025326956467286977,-0.07411211284840592,-0.07415107738503687,4.341519237827069,2.9068518514622514,0.289011148654687,-0.0026377636723274142,-0.029768297144377644,-0.38654451017957536
1750759508.425524,-1.885229607387263,-2.1573519860219523,-0.701088708343307,1.5868034189802278,-0.31613695537750974,-1.8859550720084197,-0.018134523297932945,0.053231563946176924,-0.035596881955373014,-0.002643703415483584,-0.07736044461938227,-0.07740111694787934,4.341035424257855,2.911837511479272,0.28860382649739075,-0.0027866193053633914,-0.030863084268800092,-0.40090299297274173
1750759508.4278579,-1.885266135708525,-2.1572447618264867,-0.7011604110463381,1.5867980937756687,-0.31629278231208424,-1.8861109808691472,-0.01839428322993039,0.05399405595988803,-0.03610677361961798,-0.002681571885388886,-0.07846856006619968,-0.07850981497774048,4.340906459898032,2.9134547125079617,0.28847246391445763,-0.0028347121926274284,-0.031215970431852494,-0.40553730735122856
1750759508.4282124,-1.885266135708525,-2.1572447618264867,-0.7011604110463381,1.5867980937756687,-0.31629278231208424,-1.8861109808691472,-0.01839428322993039,0.05399405595988803,-0.03610677361961798,-0.002681571885388886,-0.07846856006619968,-0.07850981497774048,4.340906459898032,2.9134547125079617,0.28847246391445763,-0.0028347121926274284,-0.031215970431852494,-0.40553730735122856
1750759508.4285562,-1.885266135708525,-2.1572447618264867,-0.7011604110463381,1.5867980937756687,-0.31629278231208424,-1.8861109808691472,-0.01839428322993039,0.05399405595988803,-0.03610677361961798,-0.002681571885388886,-0.07846856006619968,-0.07850981497774048,4.340906459898032,2.9134547125079617,0.28847246391445763,-0.0028347121926274284,-0.031215970431852494,-0.40553730735122856
1750759508.4288986,-1.8853031864447027,-2.1571360041489243,-0.7012331392154865,1.5867926924121316,-0.31645083782763184,-1.8862691194825034,-0.018656929949794995,0.054765021780981055,-0.03662233184978279,-0.002719861188543266,-0.07958899033308553,-0.07963083430095615,4.340793693455096,2.915049805308716,0.2883432889459516,-0.0028820490563899607,-0.03156288289431247,-0.4100963414302922
1750759508.4308558,-1.8853407653198628,-2.1570256961869836,-0.7013069040866977,1.5867872140551678,-0.3166111463425816,-1.886429512279756,-0.01892241398644788,0.05554431619344449,-0.037143459537389074,-0.002758564112921403,-0.08072152438031126,-0.08076396376684479,4.340697149747822,2.916622929972668,0.288216290724289,-0.0029286339694698025,-0.031903850299350535,-0.4145804804166785
1750759508.4328034,-1.8853788779593659,-2.156913821428116,-0.7013817167021701,1.586781657884718,-0.316773731854302,-1.8865921832708885,-0.019190686107160904,0.05633179468091472,-0.03767006004182541,-0.0027976734812455327,-0.08186595218493362,-0.08190899324204474,4.340616852339709,2.9181742261634707,0.28809145838520644,-0.0029744709975395188,-0.032238901290137977,-0.4189901091061752
1750759508.4348369,-1.8854175298903462,-2.1568003636481032,-0.7014575879112845,1.5867760230950427,-0.31693861794113243,-1.886757156046631,-0.01946169731755665,0.05712731342667592,-0.03820203719034736,-0.0028371821509854474,-0.08302206474079467,-0.08306571361051428,4.340552823538972,2.919703833128294,0.28796878106792206,-0.0030195641988916906,-0.032568064509845715,-0.4233256118667942
1750759508.4367402,-1.8854567265421869,-2.1566853069096634,-0.7015345283715471,1.5867703088946523,-0.31710582776441676,-1.8869244537805034,-0.019735398861608442,0.05793072931366018,-0.03873929527807742,-0.0028770830143584956,-0.08418965405852177,-0.08423391677353151,4.340505084398695,2.921211889708617,0.2878482479153017,-0.0030639176242127013,-0.032891368601644294,-0.4275873726224212
1750759508.438717,-1.8854964732469979,-2.1565686355610483,-0.7016125485495213,1.586764514506239,-0.3172753840705367,-1.8870940992308451,-0.02001174222164033,0.0587418999244474,-0.03928173906800509,-0.002917368998329583,-0.08536851316552761,-0.0854133956496945,4.340473654717171,2.9226985343507335,0.2877298480740121,-0.003107535316365454,-0.033208842208705035,-0.4317757748371606
1750759508.4407551,-1.8855367752400927,-2.156450334234644,-0.7016916587217636,1.586758639166605,-0.3174473091929455,-1.8872661147428458,-0.0202906791183271,0.05956068354126537,-0.039829273790986795,-0.0029580330646111707,-0.08655843610601016,-0.08660394417492118,4.340458553038416,2.9241639051160195,0.2876135706946757,-0.0031504213101793887,-0.03352051397419851,-0.43589120150012167
1750759508.4434566,-1.8855776376604627,-2.156330387845573,-0.7017718689757624,1.5867526821265954,-0.3176216250542012,-1.8874405222505901,-0.020572161510694263,0.060386939145989686,-0.04038180514574595,-0.0029990682096632765,-0.08775921794095275,-0.08780535730244937,4.340459796652819,2.925608139690941,0.2874994049320151,-0.003192579632248841,-0.033826412541296855,-0.4399340351108358
1750759508.4447505,-1.8856190655512588,-2.156208781590296,-0.701853189210869,1.586746642651027,-0.3177983531680013,-1.8876173432790821,-0.020856141596118073,0.06122052642014385,-0.040939239298872936,-0.003040467464693476,-0.08897065474812395,-0.08901743100283681,4.340477401598012,2.927031375396824,0.2873873399449976,-0.0032340143007391583,-0.03412656655316949,-0.44390465766520076
1750759508.4466646,-1.8856610638602618,-2.156085500945208,-0.7019356291392365,1.58674052001862,-0.3179775146412158,-1.8877965989462862,-0.021142571810325504,0.06206130574489917,-0.04150148288482508,-0.003082223895656899,-0.09019254362207768,-0.09023996226396111,4.340511382659837,2.928433749199367,0.2872773648969729,-0.0032747293252003424,-0.03442100465298819,-0.4478034506419477
1750759508.4488618,-1.885703637440363,-2.1559605316652437,-0.7020191982867541,1.5867343135219276,-0.31815913017591946,-1.8879783099651588,-0.021431404827394265,0.06290913820107484,-0.0420684430059267,-0.003124330603256234,-0.09142468267415318,-0.0914727490910198,4.340561753373544,2.9298153977179453,0.28716946895580564,-0.003314728706388565,-0.03470975548392434,-0.4516307949896523
1750759508.4512343,-1.8857467910500425,-2.1558338597824775,-0.7021039059939866,1.5867280224672664,-0.31834322007142735,-1.8881624966456858,-0.021722593559752805,0.0637638855691379,-0.04264002723236905,-0.0031667807229417244,-0.09266687103247498,-0.09271559050653029,4.34062852602509,2.9311764572346024,0.28706364129400475,-0.003354016436095237,-0.034992847689148183,-0.45538707111427534
1750759508.452832,-1.8857905293538408,-2.1557054716047217,-0.7021897614171024,1.5867216461746483,-0.31852980422632715,-1.888349178896915,-0.022016091158180293,0.06462541032920321,-0.04321614360221038,-0.003209567424911171,-0.09391890884195292,-0.09396828655032989,4.340711711652635,2.9325170637029236,0.2869598710888478,-0.003392596496983043,-0.03527030991183154,-0.4590726588671919
1750759508.4548666,-1.8858348569228403,-2.155575353714129,-0.7022767735288173,1.5867151839777094,-0.3187189021405148,-1.888538376228988,-0.02231185101180664,0.06549357566103355,-0.04379670062137586,-0.0032526839141099302,-0.09518059726428214,-0.09523063827957581,4.3408113200481795,2.9338373527565715,0.286858147522503,-0.0034304728624302053,-0.03554217079514467,-0.4626879375337912
1750759508.4566596,-1.8858797782351377,-2.1554434929657926,-0.7023649511193266,1.5867086352236415,-0.31891053291722304,-1.8887301077551832,-0.022609826748112485,0.06636824544403949,-0.044381607263657696,-0.0032961234302309158,-0.09645173847794312,-0.09650244776874516,4.340927359759335,2.935137459717654,0.2867584597821409,-0.003467649496381145,-0.035808458982259414,-0.4662332858225072
1750759508.4586816,-1.8859252976763266,-2.1553098764863474,-0.7024543027972383,1.5867019992731217,-0.3191047152650617,-1.8889243921939425,-0.022909972232929197,0.06724928425727948,-0.04497077297071498,-0.0033398792477145976,-0.09773213567820163,-0.09778351810963493,4.3410598380912955,2.9364175196048343,0.28666079706005176,-0.003504130353204964,-0.03606920311634646,-0.46970908185440746
1750759508.4607852,-1.885971419539966,-2.1551744916725735,-0.7025448369905147,1.5866952755002444,-0.3193014675000452,-1.8891212478709072,-0.023212241570438878,0.06813655737945984,-0.045564107652073825,-0.003383944675749001,-0.09902159307710877,-0.09907365341136201,4.341208761108897,2.937677667141268,0.2865651485537483,-0.0035399193775604238,-0.03632443184057768,-0.4731157031532225
1750759508.4629765,-1.8860181480280662,-2.155037326189987,-0.7026365619474042,1.5866884632924498,-0.319500807547632,-1.8893206927209567,-0.02351658910317436,0.06902993078893468,-0.046161521685127285,-0.00342831305826971,-0.10031991590350088,-0.1003726588003632,4.341374133638886,2.938918036762255,0.2864715034660721,-0.003575020504268672,-0.03657417379812223,-0.4764535266359049
1750759508.4649231,-1.8860654872515576,-2.1548983679714553,-0.7027294857373763,1.5866815620504564,-0.31970275294475226,-1.8895227442902396,-0.02382296941201921,0.06992927116370606,-0.04676292591513538,-0.0034729777739598636,-0.1016269104029997,-0.10168034042039517,4.341555959272264,2.9401387626227464,0.2863798510052925,-0.0036094376581920586,-0.03681845763215356,-0.47972292860363686
1750759508.4668255,-1.8861134412307727,-2.154757605215787,-0.7028236162520614,1.5866745711881904,-0.31990732084184526,-1.8897274197382101,-0.02413133731620773,0.0708344458814238,-0.04736823165522511,-0.0035179322362501567,-0.10294238383801224,-0.10299650543253452,4.341754240366848,2.941339978604562,0.28629018038520077,-0.003643174754120295,-0.03705731198584163,-0.48292428473330806
1750759508.4687212,-1.8861620138959196,-2.154615026386333,-0.7029189612061808,1.5866674901327158,-0.3201145280048916,-1.8899347358396614,-0.024441647873324947,0.07174532301938563,-0.04797735068639041,-0.0035631698933188422,-0.1042661444877308,-0.10432096201517775,4.341968978049924,2.9425218183235033,0.28620248082520516,-0.0036762356966633905,-0.037290765502357597,-0.4860579700694715
1750759508.470665,-1.88621120908756,-2.154470620209593,-0.7030155281384891,1.586660318324166,-0.3203243908174471,-1.8901447089867593,-0.024753856379306625,0.07266177135453711,-0.04859019525749222,-0.0036086842280917287,-0.10559800164813302,-0.1056535193640412,4.342200172221037,2.9436844151361488,0.2861167415504153,-0.003708624380150529,-0.037518846824872616,-0.4891243590167224
1750759508.4793136,-1.8863114819671987,-2.1541762820275885,-0.7032123572184474,1.5866457002733019,-0.320752147025388,-1.8905726900856443,-0.02538378961336006,0.07451086022243056,-0.04982671235428383,-0.0037005170361911204,-0.10828524776882548,-0.10834217822989377,4.342711923504736,2.945952412212513,0.2859511007859098,-0.0037714004953141186,-0.03795900746058611,-0.4950567421208554
1750759508.481173,-1.8864142888193713,-2.1538745056915065,-0.7034141603181148,1.5866307128154018,-0.3211907129628937,-1.8910114865970034,-0.026020784152868768,0.07638067669362573,-0.05107709029382658,-0.003793379218905931,-0.11100261690361686,-0.11106097594222117,4.343289468974955,2.948145031749735,0.2857931720097305,-0.00383153404522185,-0.038378023038351305,-0.5007244162233984
1750759508.4829378,-1.8864666511476544,-2.153720802787979,-0.7035169441292073,1.5866230792960228,-0.3214140865338164,-1.8912349776053654,-0.02634182018448478,0.07732303715658383,-0.05170726267286843,-0.003840180402251427,-0.11237213164458762,-0.11243121066412777,4.343602901322499,2.949213405761472,0.2857170727429124,-0.0038606194823264427,-0.03857967303843072,-0.5034599164220493
1750759508.484739,-1.8865196571899236,-2.153565210343862,-0.7036209915080347,1.5866153519349235,-0.32164020613854216,-1.891461216091173,-0.026664490945945193,0.07827019617100987,-0.052340643910218566,-0.003887219890554661,-0.1137486200245993,-0.11380842269027067,4.343932763947179,2.950263331921381,0.2856428692361811,-0.0038890558056398367,-0.03877612270353726,-0.506130352851379
1750759508.486669,-1.8865733101725626,-2.1534077188884932,-0.7037263087877594,1.586607530261774,-0.3218690855405937,-1.891690215825184,-0.02698875340164089,0.07922202741138443,-0.052977149529806644,-0.003934491409974338,-0.11513189845712671,-0.1151924283376055,4.344279048244251,2.9512949419467063,0.2855705507567234,-0.003916846835249469,-0.0389674006768418,-0.5087360952607968
1750759508.4888113,-1.886627613236123,-2.153248319203165,-0.7038329021330592,1.5865996138187564,-0.32210073813733686,-1.891921990211805,-0.027314564754313486,0.08017840525183587,-0.05361669552342932,-0.003981988721416718,-0.11652178437242994,-0.11658304494040783,4.344641744408441,2.9523083673431922,0.28550010657799996,-0.003943996380385699,-0.03915353560151561,-0.5112775127146956
1750759508.4906557,-1.8866825694358003,-2.153087002319719,-0.7039407775410647,1.586591602160497,-0.32233517696201375,-1.8921565522911283,-0.027641882445055332,0.08113920476614042,-0.05425919835075018,-0.0040297056205356166,-0.11791809621755442,-0.11798009085027308,4.3450208414379095,2.953303739410258,0.28543152597980603,-0.003970508239376826,-0.0393345561207304,-0.5137549735886467
1750759508.493776,-1.8867381817419098,-2.152923759519151,-0.7040499408422924,1.5865834948539963,-0.32257241468578,-1.8923939147409676,-0.027970664153309507,0.08210430172772223,-0.054904574939299795,-0.004077635937732409,-0.11932065345633085,-0.1193833854361166,4.345416327138369,2.9542811892459455,0.2853647982483225,-0.003996386199610309,-0.03951049087765628,-0.5161688455660742
1750759508.4954448,-1.8867944530403644,-2.1527585823302093,-0.7041603977015827,1.5865752914785582,-0.3228124636197327,-1.8926340898788911,-0.028300867796869824,0.0830735726096532,-0.055552742684475714,-0.0041257735381560225,-0.12072927656937528,-0.12079274908417362,4.34582818812725,2.955240847751659,0.2852999126761635,-0.004021634037499183,-0.039681368515466164,-0.5185194956352405
1750759508.4970334,-1.8868513861331522,-2.152591462527999,-0.7042721536190335,1.5865669916257223,-0.32305533571694944,-1.8928770896642586,-0.028632451531880827,0.08404689458465316,-0.056203619449542414,-0.004174112321702945,-0.12214378705408904,-0.12220800319799925,4.346256409838051,2.9561828456368344,0.28523685856242986,-0.004046255518454272,-0.03984721767733021,-0.5208072900866128
1750759508.4989579,-1.8869089837388113,-2.1524223921325767,-0.7043852139309381,1.5865585948991936,-0.3233010425745171,-1.8931229257002524,-0.028965373752837795,0.08502414552508974,-0.05685712356563137,-0.004222646223017219,-0.1235640074246588,-0.12362897019846852,4.346700976524777,2.9571073134233417,0.2851756252127448,-0.004070254396862051,-0.040008067006420546,-0.5230325945106874
1750759508.5008605,-1.8869672484929048,-2.152251363407556,-0.7044995838107191,1.5865501009147729,-0.32354959543557005,-1.8933716092359134,-0.029299593092586736,0.0860052040029785,-0.05751317383174101,-0.0042713692114904455,-0.12498976121205649,-0.12505547352377638,4.347161871266448,2.958014381449776,0.28511620193930054,-0.004093634416067845,-0.04016394514590778,-0.5251957737960947
1750759508.5032384,-1.887026182948503,-2.1520783688587075,-0.7046152682698654,1.5865415093002877,-0.32380100519131894,-1.8936231511681783,-0.029635068422324384,0.08698994928998274,-0.058171689514736724,-0.004320275291261776,-0.12642087296403942,-0.1264873376294376,4.347639075971811,2.9589041798755584,0.28505857806089296,-0.0041163993083636954,-0.040314880738964845,-0.5272971921280635
1750759508.5048566,-1.8870857895766546,-2.151903401232558,-0.7047322721588687,1.586532819695522,-0.3240552823830898,-1.89387756204391,-0.029971758851598217,0.08797826135741371,-0.05883259034935088,-0.004369358501217926,-0.12785716824515012,-0.1279243879882869,4.348132571384064,2.959776838684907,0.2850027429029575,-0.004138552794983504,-0.04046090242876041,-0.5293372129873868
1750759508.5068474,-1.8871460707668684,-2.1517264535149927,-0.7048506001681556,1.5865240317521476,-0.3243124372043509,-1.8941348520619377,-0.03030962372830643,0.08897002087623046,-0.059495796538182794,-0.004418612914993163,-0.12929847363671654,-0.1293664510904789,4.348642337085775,2.960632487690617,0.2849486857976013,-0.004160098586100421,-0.040602038858469795,-0.5313161991495103
1750759508.5087588,-1.8872070288275857,-2.1515475189298545,-0.7049702568290277,1.5865151451336545,-0.3245724795027529,-1.8943950310750832,-0.03064862263869797,0.08996510921703993,-0.06016122875169874,-0.004468032640969312,-0.1307446167368518,-0.13081335444348813,4.349168351503814,2.961471256537716,0.28489639608363176,-0.004181040380831933,-0.040738318671260126,-0.5332345126841883
1750759508.5108402,-1.8872686659866567,-2.1513665909375455,-0.705091246514594,1.586506159515281,-0.3248354187821585,-1.894658108592206,-0.0309887154073725,0.09096340845009689,-0.060828808128232,-0.004517611822275754,-0.1321954261604545,-0.13226492657210892,4.349710591914471,2.9622932747069473,0.2848458631065823,-0.004201381867248287,-0.04086977051030636,-0.5350925149552808
1750759508.512983,-1.8873309843918236,-2.1511836632336276,-0.7052135734407097,1.5864970745839442,-0.325101264204676,-1.8949240937802276,-0.03132986209728042,0.09196480134530395,-0.061498456273982774,-0.004567344636789428,-0.13365073153920837,-0.13372099701845563,4.350269034448643,2.9630986715180962,0.28479707621873734,-0.004221126722387304,-0.040996423018778004,-0.5368905666211419
1750759508.5148554,-1.8873939861111895,-2.1509987297474247,-0.7053372416669088,1.5864878900381707,-0.3253700245926945,-1.895192995466175,-0.031672023009722855,0.09296917137221161,-0.06217009526301824,-0.004617225297134826,-0.1351103635215826,-0.1351813963419624,4.350843654097102,2.9638875761332133,0.2847500247791533,-0.004240278612272063,-0.0411183048398477,-0.5386290276349952
1750759508.5167577,-1.8874576731336985,-2.15081178464062,-0.7054622550973413,1.5864786055880276,-0.32564170843091844,-1.8954648221392087,-0.032015158684351674,0.0939764027000182,-0.06284364763727257,-0.004667248050684003,-0.1365741537728316,-0.1366459561193834,4.351434424715889,2.9646601175596383,0.28470469815367444,-0.004258841191935848,-0.041235444616686524,-0.5403082572460032
1750759508.5188622,-1.8875220473696146,-2.150622822305861,-0.7055886174817108,1.586469220955052,-0.3259163238683973,-1.895739581952662,-0.03235922989916948,0.09498638019756989,-0.06351903640654685,-0.004717407179556564,-0.13804193497499512,-0.1381145089447925,4.352041319031806,2.965416424652914,0.28466108571495263,-0.004276818105448825,-0.04134787099246483,-0.5419286140002757
1750759508.5206962,-1.887587110650994,-2.1504318373653533,-0.7057163324162055,1.586459735872182,-0.32619387872056205,-1.8960172827260724,-0.03270419767052958,0.09599898943336074,-0.06419618504850917,-0.004767697000619672,-0.1395135408268982,-0.13958688842958367,4.352664308648009,2.9661566261195715,0.2846191768424567,-0.004294212985953035,-0.041455612610356046,-0.5434904557426528
1750759508.5265963,-1.887652864732166,-2.150238824669472,-0.7058454033444397,1.5864501500836876,-0.3264743804712591,-1.8962979319472169,-0.033050023253136045,0.09701411667553261,-0.06487501750869457,-0.004818111865488049,-0.1409888060441512,-0.14106292920247065,4.353303364049623,2.9668808505197055,0.28457896092248497,-0.004311029455697637,-0.04155869811352976,-0.5449941396182251
1750759508.5286965,-1.8877193112902049,-2.150043779295351,-0.7059758335583846,1.5864404633451006,-0.3267578362747816,-1.896581536774148,-0.03339666814004366,0.0980316488918753,-0.06555545820050507,-0.004868646160523972,-0.14246756635914987,-0.14254246690948708,4.353958454609575,2.9675892262695704,0.2845404273481735,-0.004327271126082271,-0.04165715614516102,-0.5464400220746796
1750759508.5291555,-1.887786451925411,-2.1498466965454917,-0.7061076261993069,1.5864306754231454,-0.3270442529579043,-1.89686810403723,-0.033744094062657964,0.09905147374982637,-0.06623743200520962,-0.004919294306837272,-0.1439496585210751,-0.1440253382139866,4.354629548594407,2.968281881643829,0.2845035655195028,-0.004342941597703295,-0.04175101534841708,-0.5478284588647224
1750759508.5293689,-1.887786451925411,-2.1498466965454917,-0.7061076261993069,1.5864306754231454,-0.3270442529579043,-1.89686810403723,-0.033744094062657964,0.09905147374982637,-0.06623743200520962,-0.004919294306837272,-0.1439496585210751,-0.1440253382139866,4.354629548594407,2.968281881643829,0.2845035655195028,-0.004342941597703295,-0.04175101534841708,-0.5478284588647224
1750759508.5309465,-1.8878542881617868,-2.1496475719463612,-0.7062407842587026,1.5864207860956694,-0.3273336370219182,-1.8971576402411676,-0.034092262990735187,0.10007347961647127,-0.06692086427194419,-0.00497005076028534,-0.14543492029589322,-0.1455113807966426,4.355316613170249,2.968958944777865,0.28446836484329824,-0.004358044460402932,-0.04184030436647145,-0.5491598050485843
1750759508.532913,-1.8879228214475106,-2.1494464012469914,-0.7063753105792365,1.5864107951515731,-0.3276259946446629,-1.8974501515670452,-0.03444113713238234,0.10109755555854331,-0.06760568081771165,-0.005020910011473123,-0.14692319046635585,-0.1470004333554485,4.356019614408817,2.9696205436698717,0.2844348147332348,-0.004372583293326121,-0.04192505184249687,-0.5504344149973164
1750759508.5349169,-1.8879920531554175,-2.1492431804175816,-0.706511207855673,1.586400702390742,-0.32792133168255866,-1.8977456438743605,-0.034790678934057115,0.10212359134242367,-0.0682918079273819,-0.005071866585753121,-0.14841430883199985,-0.1484923356057175,4.356738517293594,2.9702668061828295,0.2844029046098334,-0.004386561664977563,-0.04200528641966219,-0.5516526423958454
1750759508.5368128,-1.888061984583472,-2.1490379056480986,-0.7066484786358131,1.5863905076239755,-0.32821965367264205,-1.8980441227030616,-0.035140851080567984,0.10315147743414134,-0.06897917235369175,-0.005122915043225398,-0.1499081162091475,-0.1499869282800828,4.357473285725945,2.9708978600463563,0.28437262390046036,-0.004399983133285873,-0.042081036741142525,-0.5528148402466345
1750759508.5388734,-1.8881326169552466,-2.1488305733468778,-0.7067871253214353,1.586380210672918,-0.3285209658346018,-1.8983455932755744,-0.03549161649507412,0.10418110499937316,-0.06966770131724498,-0.005174049978737563,-0.15140445443090633,-0.1514840531284974,4.358223882531487,2.9715138328584763,0.28434396203931767,-0.004412851245669489,-0.04215233145010675,-0.5539213608734715
1750759508.5408058,-1.8882039514204,-2.1486211801392248,-0.7069271501692223,1.5863698113699896,-0.3288252730728063,-1.8986500604988468,-0.03584293833908543,0.1052123659034439,-0.0703573225065124,-0.005225266021884794,-0.1529031663471691,-0.1529835529182343,4.358990269466418,2.972114852087219,0.284316908467438,-0.004425169539109222,-0.04221919918972608,-0.5549725559256691
1750759508.5428417,-1.8882759890551508,-2.1484097228660106,-0.7070685552917055,1.5863593095583166,-0.3291325799783422,-1.8989575289663758,-0.036194780012462575,0.1062451527113261,-0.0710479640778317,-0.005276557837009817,-0.15440409582461403,-0.1544852714338863,4.359772407223964,2.9727010450721285,0.2842914526326769,-0.0044369415402205166,-0.042281668603174886,-0.5559687763822105
1750759508.5450218,-1.8883487308627558,-2.1481961985822817,-0.7072113426581943,1.5863487050916616,-0.3294428908310456,-1.8992680029602447,-0.03654710515341693,0.10727935868764019,-0.0717395546554076,-0.0053279201232029165,-0.1559070877467046,-0.15598905347736614,4.360570255440918,2.9732725390256687,0.2842675839896956,-0.004448170765333845,-0.04233976833362365,-0.5569103725565686
1750759508.547201,-1.8884221777739887,-2.147980604555854,-0.707355514095716,1.5863379978343546,-0.32975620960153584,-1.8995814864531608,-0.03689987763851059,0.10831487779665444,-0.07243202333131174,-0.0053793476143019344,-0.1574119880136895,-0.15749474486790643,4.361383772704253,2.9738294610344855,0.2842452919999515,-0.00445886072057598,-0.04239352702424282,-0.5577976941014623
1750759508.5487194,-1.8884963306476106,-2.147762938265913,-0.7075010712899479,1.5863271876612228,-0.33007253995325225,-1.899897983110483,-0.0372530615826564,0.10935160470228497,-0.07312529966548276,-0.005430835078892269,-0.15891864354260285,-0.15900219244205976,4.362212916557771,2.974371938060602,0.2842245661316796,-0.004469014901955924,-0.042442973318205256,-0.5586310900140071
1750759508.5507298,-1.8885711902708557,-2.14754319740162,-0.707648015786158,1.5863162744575219,-0.33039188524448093,-1.9002174962922647,-0.03760662133911795,0.11038943476809579,-0.07381931368572622,-0.005482377320306875,-0.16042690226726403,-0.16051124405369852,4.3630576435088875,2.97490009694248,0.28420539585987725,-0.004478636795453593,-0.04248813585868224,-0.559410908640982
1750759508.552777,-1.888646757359898,-2.147321379860708,-0.7077963489901347,1.5863052581188657,-0.33071424853039666,-1.9005400290552812,-0.037960521499509514,0.1114282640572987,-0.0745139958877147,-0.005533969176626262,-0.16193661313827779,-0.16202174857401502,4.363917909035464,2.9754140643959706,0.28418777066628076,-0.004487729877113156,-0.04252904328884738,-0.5601374976845274
1750759508.5547488,-1.8887230325603372,-2.147097483748082,-0.7079460721691282,1.5862941385511578,-0.33103963256508795,-1.9008655841550697,-0.03831472689379617,0.11246798933275343,-0.0752092772349877,-0.005585605520678497,-0.16344762612303404,-0.16353355589152146,4.36479366759266,2.9759139670151904,0.284171680039347,-0.004496297613138542,-0.04256572425186808,-0.5608112042078509
1750759508.5567002,-1.8888000164476697,-2.146871507374426,-0.7080971864527825,1.5862829156705203,-0.3313680398035981,-1.9011941640479595,-0.03866920259029365,0.1135085080569675,-0.0759050891589517,-0.005637281260039206,-0.16495979220570817,-0.16504651691204997,4.365684872619991,2.9763999312732654,0.2841571134742269,-0.004504343459993346,-0.04259820739092034,-0.5614323746413646
1750759508.5587287,-1.8888777095277653,-2.146643449254796,-0.7082496928340714,1.5862715894032264,-0.3316994724039537,-1.9015257708931124,-0.03902391389566848,0.1145497183920963,-0.07660136355888016,-0.005688991337031568,-0.16647296338726075,-0.16656048355875258,4.366591476548245,2.976872083523002,0.28414406047274066,-0.004511870864502742,-0.042626521349173115,-0.5620013547888821
1750759508.561088,-1.8889561122373495,-2.146413308107225,-0.7084035921702361,1.5862601596856298,-0.3320339322292023,-1.9018604065545501,-0.039378826354937876,0.11559151919994307,-0.0772980328019135,-0.00574073072872632,-0.1679869926854378,-0.16807530877210114,4.3675134308067225,2.977330549997454,0.28413251054335326,-0.004518883263959309,-0.042650694769800886,-0.5625184898340608
1750759508.5629084,-1.8890352249444717,-2.1461810828513226,-0.7085588851837201,1.5862486264640947,-0.3323714208494408,-1.9021980726031948,-0.03973390575146982,0.11663381004195893,-0.07799502972305908,-0.005792494446941753,-0.1695017341347705,-0.16959084650988754,4.368450685830306,2.977775456810402,0.2841224532011425,-0.004525384086232491,-0.04267075629597261,-0.5629841243472455
1750759508.5646868,-1.889115047948989,-2.1459467726068757,-0.7087155724631051,1.5862369896949275,-0.33271193954385314,-1.9025387703189,-0.040089118106982985,0.11767649117924281,-0.07869228762519125,-0.005844277538243721,-0.17101704278657537,-0.17110695174722337,4.3694031910667475,2.978206929956711,0.28411387796776777,-0.004531376749879218,-0.04268673457086043,-0.5633986022921246
1750759508.5666616,-1.8891955814830403,-2.145710376692451,-0.7088736544640453,1.5862252493443063,-0.33305548930274487,-1.9028825006924883,-0.04044442968154681,0.11871946357254157,-0.07938974027905131,-0.005896075083945626,-0.17253277470895434,-0.17262348047654028,4.370370894983961,2.978625095312648,0.2841067743714396,-0.004536864664259871,-0.04269865823763802,-0.5637622670330916
