mathias31415/primitives_from_planned_trajectory_python/data/saved_trajectories/trajectory_20250617_153137_planned.csv
time_from_start,shoulder_pan_joint_pos,shoulder_lift_joint_pos,elbow_joint_pos,wrist_1_joint_pos,wrist_2_joint_pos,wrist_3_joint_pos,shoulder_pan_joint_vel,shoulder_lift_joint_vel,elbow_joint_vel,wrist_1_joint_vel,wrist_2_joint_vel,wrist_3_joint_vel,shoulder_pan_joint_acc,shoulder_lift_joint_acc,elbow_joint_acc,wrist_1_joint_acc,wrist_2_joint_acc,wrist_3_joint_acc,fk_x,fk_y,fk_z,fk_qx,fk_qy,fk_qz,fk_qw
0.0,1.1440669166483162,-1.408963132896755,1.687079771040423,-2.5532031655147667,-1.3319496853314199,-2.960617463532638,-0.00010803514043637659,-0.00016228372771652852,-0.00031532101821523203,0.0005000000000000001,6.937435863744249e-05,-8.592584692882503e-05,-0.10803514043637659,-0.16228372771652852,-0.315321018215232,0.5000000000000001,0.06937435863744248,-0.08592584692882503,-0.15285000045916727,-0.8235570011766684,0.6197819993866583,0.901552739747639,-0.23962739361207355,0.06901135284343346,0.3535799808571312
0.1,1.1435267409461343,-1.4097745515353375,1.685503165949347,-2.5507031655147667,-1.3316028135382327,-2.961047092767282,-0.010803514043637568,-0.016228372771652715,-0.03153210182152293,0.04999999999999959,0.0069374358637441895,-0.00859258469288243,-0.1080351404363025,-0.16228372771641741,-0.3153210182150129,0.49999999999966,0.06937435863739455,-0.08592584692876548,-0.15320741729293005,-0.8233770916771934,0.6211636377806624,0.9015551639236998,-0.23962646504636212,0.06900988080943195,0.35357471629425563
0.2,1.1419062138395888,-1.4122088074510855,1.6807733506761184,-2.543203165514767,-1.330562198158671,-2.962335980471215,-0.02160702808727516,-0.032456745543305465,-0.06306420364304594,0.0999999999999993,0.013874871727488395,-0.01718516938576488,-0.10803514043628341,-0.1622837277163862,-0.31532101821495045,0.4999999999995559,0.06937435863738067,-0.0859258469287464,-0.15427077442719023,-0.8228189575680498,0.6253115290917951,0.9015622368371732,-0.23962373975022788,0.0690056164261536,0.3535593604459009
0.30000000000000004,1.1392053353286793,-1.4162659006439988,1.6728903252207377,-2.5307031655147667,-1.3288278391927348,-2.964484126644435,-0.03241054213091335,-0.048685118314959114,-0.09459630546457069,0.15000000000000177,0.020812307591232985,-0.025777754078647807,-0.10803514043686281,-0.16228372771725355,-0.31532101821664354,0.5000000000022204,0.0693743586377519,-0.0859258469292113,-0.1560130610742334,-0.8218274232111201,0.6322341486074982,0.9015733594576497,-0.23961939866820667,0.06899901040412988,0.3535352286001854
0.4,1.135424105413406,-1.4219458311140774,1.6618540895832046,-2.513203165514767,-1.3263997366404245,-2.967491531286944,-0.043214056174550916,-0.06491349108661183,-0.12612840728609362,0.20000000000000134,0.027749743454977174,-0.034370338771530236,-0.10803514043680036,-0.16228372771716335,-0.31532101821646313,0.5000000000019429,0.06937435863771374,-0.08592584692915926,-0.15838816249223603,-0.8203106858494742,0.6419441076212347,0.9015875327819257,-0.23961374251188722,0.06899079908525729,0.35350451874512834
0.5,1.1305625240937691,-1.4292485988613208,1.6476646437635192,-2.4907031655147667,-1.3232778905017397,-2.971358194398741,-0.054017570218188045,-0.08114186385826389,-0.15766050910761528,0.24999999999999892,0.03468717931872108,-0.042962923464412314,-0.1080351404358428,-0.16228372771572006,-0.3153210182136598,0.49999999999752975,0.06937435863709618,-0.08592584692839599,-0.16132923502262111,-0.8181406180865671,0.6544558693198742,0.9016033569113389,-0.23960719046220086,0.06898198209774183,0.3534703201555719
0.6000000000000001,1.1246205913697684,-1.4381742038857301,1.6303219877616812,-2.4632031655147664,-1.3194623007766801,-2.976084115979827,-0.06482108426182516,-0.09737023662991592,-0.18919261092913692,0.29999999999999644,0.041624615182464984,-0.05155550815729439,-0.10803514043486441,-0.1622837277142629,-0.3153210182108565,0.4999999999930611,0.06937435863647862,-0.0859258469276327,-0.16474647450721575,-0.8151533258900187,0.6697825277050471,0.9016190297722994,-0.2396002783451261,0.0689737909122794,0.35343662506393536
0.7000000000000001,1.1178758738402226,-1.448305702754233,1.610636252264878,-2.4319877780847947,-1.3151312058115332,-2.98144853318409,-0.06788048070489336,-0.10196587335828382,-0.1981220388694879,0.3141592653589836,0.04358919508857917,-0.05398880189301628,-9.29072450758427e-13,-1.400542052635838e-12,-2.7178835872933092e-12,4.270959922889486e-12,5.962703788449607e-13,-7.418712853071023e-13,-0.1683804956217594,-0.8113180136457007,0.6872137178456651,0.9016319263153789,-0.23959388632213457,0.06896782008277651,0.35340922296808386
0.8,1.1110878257697334,-1.4585022900900613,1.5908240483779292,-2.4005718515488965,-1.3107722863026752,-2.9868474133733915,-0.06788048070489336,-0.10196587335828382,-0.1981220388694879,0.3141592653589836,0.04358919508857917,-0.05398880189301628,-9.29072450758427e-13,-1.400542052635838e-12,-2.7178835872933092e-12,4.270959922889486e-12,5.962703788449607e-13,-7.418712853071023e-13,-0.1717650791966584,-0.806983943610756,0.7047786347356194,0.9016396462719353,-0.23958900587977836,0.06896524043542054,0.35339333913338494
0.9,1.1042997776992438,-1.4686988774258896,1.5710118444909806,-2.3691559250129983,-1.3064133667938171,-2.9922462935626934,-0.06788048070489364,-0.10196587335828362,-0.1981220388694875,0.3141592653589838,0.043589195088579086,-0.05398880189301699,-9.84539462744005e-13,-1.46987581761781e-12,-2.8565511172572537e-12,4.492827970831797e-12,6.309372613359468e-13,-7.765381677980884e-13,-0.17486589088842264,-0.802177907950012,0.722350047517296,0.9016420840139203,-0.23958567439491096,0.06896595185538225,0.35338923928785876
1.0,1.0975117296287547,-1.478895464761718,1.551199640604032,-2.3377399984771,-1.3020544472849593,-2.9976451737519954,-0.06788048070489364,-0.10196587335828362,-0.1981220388694875,0.3141592653589838,0.043589195088579086,-0.05398880189301699,-9.84539462744005e-13,-1.46987581761781e-12,-2.8565511172572537e-12,4.492827970831797e-12,6.309372613359468e-13,-7.765381677980884e-13,-0.1776730326216102,-0.796904140669075,0.7399125529031201,0.9016392336452174,-0.23958388315852333,0.06896980393403745,0.3533969742763066
1.1,1.090726885048415,-1.4890872400121349,1.5313967867097968,-2.3063388980900683,-1.297697584885239,-3.003041506042501,-0.06698178707056653,-0.10061591118426667,-0.19549903129348073,0.3100000000000594,0.04301210235522246,-0.053274025095882374,0.10803514042439867,0.16228372769855737,0.3153210181803049,-0.49999999994459987,-0.06937435862975559,0.08592584691930863,-0.18017575255861318,-0.791170241881158,0.7574424381778748,0.9016310944152495,-0.23958362319315527,0.06897664173052982,0.3534165813551733
1.2,1.0845622099381116,-1.498347434917426,1.5134040148681962,-2.277808018760421,-1.2937389619755257,-3.007944585982549,-0.056178273026906735,-0.08438753841258068,-0.16396692947189315,0.25999999999995715,0.03607466649146404,-0.04468144040298219,0.10803514044604486,0.16228372773105088,0.3153210182434343,-0.500000000044742,-0.06937435864365267,0.08592584693651882,-0.1821790923876931,-0.7855638843785827,0.7733359208003794,0.9016191083937822,-0.2395847062988901,0.06898531700417983,0.35344473107504176
1.3,1.079477886232172,-1.505984792545552,1.498564453208748,-2.2542771394307737,-1.290474082652187,-3.0119884074533085,-0.045374758983276725,-0.06815916564093942,-0.13243482765039247,0.20999999999999272,0.029137230627724747,-0.0360888557101057,0.10803514043792635,0.1622837277188523,0.315321018219731,-0.5000000000071609,-0.06937435863843809,0.08592584693005871,-0.18363245461520125,-0.780659107091774,0.7864111635118556,0.9016059307213931,-0.23958653996895124,0.06899415255266128,0.35347537745542723
1.4,1.075473913930596,-1.5119993128965126,1.4868781017314523,-2.2357462601011266,-1.2879029469152228,-3.0151729704547803,-0.03457124493964275,-0.05193079286929219,-0.1009027258288802,0.1600000000000099,0.022199794763982907,-0.027496271017226046,0.10803514043414782,0.16228372771318456,0.3153210182087266,-0.4999999999896749,-0.069374358636011,0.08592584692705243,-0.18464782506752642,-0.7766196357062102,0.796682560317496,0.9015934567967163,-0.239588579711856,0.06900213480063748,0.35350425248638484
1.5,1.0725502930333837,-1.516390995970308,1.4783449604363086,-2.2222153807714795,-1.2860255547646333,-3.0174982749869637,-0.02376773089600747,-0.035702420097643,-0.06937062400736412,0.11000000000002105,0.015262358900240225,-0.018903686324345356,0.10803514043177818,0.1622837277096249,0.31532101820181546,-0.49999999997872535,-0.06937435863448965,0.08592584692516853,-0.18531620993457057,-0.7735724918810039,0.8041663133910819,0.9015831810673879,-0.239590399503358,0.06900851345852732,0.353527980720728
1.6,1.0707070235405352,-1.5191598417669379,1.4729650293233174,-2.2136845014418327,-1.2848419062004177,-3.0189643210498587,-0.012964216852366395,-0.01947404732598512,-0.037838522185831135,0.060000000000005396,0.008324923036493823,-0.010311101631460056,0.10803514043517681,0.16228372771472366,0.31532101821172354,-0.49999999999444195,-0.06937435863667041,0.08592584692787122,-0.18570558283930858,-0.7716092828762364,0.8088769610113125,0.9015761957413739,-0.23959168981520643,0.0690127674309475,0.35354408971941215
1.7000000000000002,1.0699441054520504,-1.5203058502864026,1.4707383083924785,-2.210153622112185,-1.2843520012225769,-3.019571108643466,-0.0021607028087270693,-0.0032456745543298564,-0.0063064203643032534,0.00999999999999783,0.0013874871727485446,-0.0017185169385761485,0.10803514043661758,0.16228372771688954,0.3153210182159333,-0.5000000000011137,-0.06937435863759667,0.08592584692901747,-0.18585944548019812,-0.7707872458138213,0.8108248431949698,0.9015731898563035,-0.23959225616979823,0.0690145798116164,0.3535510173782863
1.720617586,1.069921143399863,-1.5203403424656137,1.4706712892943699,-2.210047350892956,-1.2843372562272255,-3.0195893715324984,-6.855631328032047e-19,-1.0298106738875853e-18,-2.0009458423728023e-18,3.1728710215679334e-18,4.402317843212034e-19,-5.452632594483085e-19,0.1080351404417136,0.1622837277245445,0.3153210182308072,-0.5000000000246989,-0.06937435864086923,0.08592584693307062,-0.18586400995491956,-0.7707624185904569,0.8108834529317436,0.9015730983450444,-0.23959227350869242,0.06901463482525828,0.35355122824760354
