mathias31415/primitives_from_planned_trajectory_python/data/saved_trajectories/trajectory_20250624_152244_executed.csv
timestamp,shoulder_lift_joint_pos,elbow_joint_pos,wrist_1_joint_pos,wrist_2_joint_pos,wrist_3_joint_pos,shoulder_pan_joint_pos,shoulder_lift_joint_vel,elbow_joint_vel,wrist_1_joint_vel,wrist_2_joint_vel,wrist_3_joint_vel,shoulder_pan_joint_vel,shoulder_lift_joint_eff,elbow_joint_eff,wrist_1_joint_eff,wrist_2_joint_eff,wrist_3_joint_eff,shoulder_pan_joint_eff
1750771373.3645704,-2.387781,-0.4076940000000011,-1.9521560000000004,1.569265,-0.8340519999999998,-2.403933,0.0,0.0,0.0,0.0,0.0,0.0,8.281076952623776,4.0543075488582305,0.29967837237094824,-0.00012634043139254705,0.0,-1.9693366333402722e-16
1750771373.366571,-2.387781,-0.4076940000000011,-1.9521560000000004,1.569265,-0.8340519999999998,-2.403933,0.0,0.0,0.0,0.0,0.0,0.0,8.281076952623776,4.0543075488582305,0.29967837237094824,-0.00012634043139254705,0.0,-1.9693366333402722e-16
1750771373.3672488,-2.387781,-0.4076940000000011,-1.9521560000000004,1.569265,-0.8340519999999998,-2.403933,0.0,0.0,0.0,0.0,0.0,0.0,8.281076952623776,4.0543075488582305,0.29967837237094824,-0.00012634043139254705,0.0,-1.9693366333402722e-16
1750771373.3677998,-2.387781,-0.4076940000000011,-1.9521560000000004,1.569265,-0.8340519999999998,-2.403933,0.0,0.0,0.0,0.0,0.0,0.0,8.281076952623776,4.0543075488582305,0.29967837237094824,-0.00012634043139254705,0.0,-1.9693366333402722e-16
1750771373.3691132,-2.387781,-0.4076940000000011,-1.9521560000000004,1.569265,-0.8340519999999998,-2.403933,0.0,0.0,0.0,0.0,0.0,0.0,8.281076952623776,4.0543075488582305,0.29967837237094824,-0.00012634043139254705,0.0,-1.9693366333402722e-16
1750771373.371333,-2.387781,-0.4076940000000011,-1.9521560000000004,1.569265,-0.8340519999999998,-2.403933,0.0,0.0,0.0,0.0,0.0,0.0,8.281076952623776,4.0543075488582305,0.29967837237094824,-0.00012634043139254705,0.0,-1.9693366333402722e-16
1750771373.373203,-2.387781,-0.4076940000000011,-1.9521560000000004,1.569265,-0.8340519999999998,-2.403933,0.0,0.0,0.0,0.0,0.0,0.0,8.281076952623776,4.0543075488582305,0.29967837237094824,-0.00012634043139254705,0.0,-1.9693366333402722e-16
1750771373.3755465,-2.387781,-0.4076940000000011,-1.9521560000000004,1.569265,-0.8340519999999998,-2.403933,0.0,0.0,0.0,0.0,0.0,0.0,8.281076952623776,4.0543075488582305,0.29967837237094824,-0.00012634043139254705,0.0,-1.9693366333402722e-16
1750771373.376998,-2.387781,-0.4076940000000011,-1.9521560000000004,1.569265,-0.8340519999999998,-2.403933,0.0,0.0,0.0,0.0,0.0,0.0,8.281076952623776,4.0543075488582305,0.29967837237094824,-0.00012634043139254705,0.0,-1.9693366333402722e-16
1750771373.3794613,-2.387781,-0.4076940000000011,-1.9521560000000004,1.569265,-0.8340519999999998,-2.403933,0.0,0.0,0.0,0.0,0.0,0.0,8.281076952623776,4.0543075488582305,0.29967837237094824,-0.00012634043139254705,0.0,-1.9693366333402722e-16
1750771373.3812318,-2.387781,-0.4076940000000011,-1.9521560000000004,1.569265,-0.8340519999999998,-2.403933,0.0,0.0,0.0,0.0,0.0,0.0,8.281076952623776,4.0543075488582305,0.29967837237094824,-0.00012634043139254705,0.0,-1.9693366333402722e-16
1750771373.3838346,-2.387781,-0.4076940000000011,-1.9521560000000004,1.569265,-0.8340519999999998,-2.403933,0.0,0.0,0.0,0.0,0.0,0.0,8.281076952623776,4.0543075488582305,0.29967837237094824,-0.00012634043139254705,0.0,-1.9693366333402722e-16
1750771373.3855603,-2.387781,-0.4076940000000011,-1.9521560000000004,1.569265,-0.8340519999999998,-2.403933,0.0,0.0,0.0,0.0,0.0,0.0,8.281076952623776,4.0543075488582305,0.29967837237094824,-0.00012634043139254705,0.0,-1.9693366333402722e-16
1750771373.387331,-2.387781,-0.4076940000000011,-1.9521560000000004,1.569265,-0.8340519999999998,-2.403933,0.0,0.0,0.0,0.0,0.0,0.0,8.281076952623776,4.0543075488582305,0.29967837237094824,-0.00012634043139254705,0.0,-1.9693366333402722e-16
1750771373.3895192,-2.387781,-0.4076940000000011,-1.9521560000000004,1.569265,-0.8340519999999998,-2.403933,0.0,0.0,0.0,0.0,0.0,0.0,8.281076952623776,4.0543075488582305,0.29967837237094824,-0.00012634043139254705,0.0,-1.9693366333402722e-16
1750771373.4053724,-2.387781,-0.4076940000000011,-1.9521560000000004,1.569265,-0.8340519999999998,-2.403933,0.0,0.0,0.0,0.0,0.0,0.0,8.281076952623776,4.0543075488582305,0.29967837237094824,-0.00012634043139254705,0.0,-1.9693366333402722e-16
1750771373.407974,-2.387781,-0.4076940000000011,-1.9521560000000004,1.569265,-0.8340519999999998,-2.403933,0.0,0.0,0.0,0.0,0.0,0.0,8.281076952623776,4.0543075488582305,0.29967837237094824,-0.00012634043139254705,0.0,-1.9693366333402722e-16
1750771373.4086144,-2.387781,-0.4076940000000011,-1.9521560000000004,1.569265,-0.8340519999999998,-2.403933,0.0,0.0,0.0,0.0,0.0,0.0,8.281076952623776,4.0543075488582305,0.29967837237094824,-0.00012634043139254705,0.0,-1.9693366333402722e-16
1750771373.40927,-2.387781,-0.4076940000000011,-1.9521560000000004,1.569265,-0.8340519999999998,-2.403933,0.0,0.0,0.0,0.0,0.0,0.0,8.281076952623776,4.0543075488582305,0.29967837237094824,-0.00012634043139254705,0.0,-1.9693366333402722e-16
1750771373.411132,-2.387781,-0.4076940000000011,-1.9521560000000004,1.569265,-0.8340519999999998,-2.403933,0.0,0.0,0.0,0.0,0.0,0.0,8.281076952623776,4.0543075488582305,0.29967837237094824,-0.00012634043139254705,0.0,-1.9693366333402722e-16
1750771373.4129994,-2.387781,-0.4076940000000011,-1.9521560000000004,1.569265,-0.8340519999999998,-2.403933,0.0,0.0,0.0,0.0,0.0,0.0,8.281076952623776,4.0543075488582305,0.29967837237094824,-0.00012634043139254705,0.0,-1.9693366333402722e-16
1750771373.4155064,-2.387781,-0.4076940000000011,-1.9521560000000004,1.569265,-0.8340519999999998,-2.403933,0.0,0.0,0.0,0.0,0.0,0.0,8.281076952623776,4.0543075488582305,0.29967837237094824,-0.00012634043139254705,0.0,-1.9693366333402722e-16
1750771373.4171147,-2.387781,-0.4076940000000011,-1.9521560000000004,1.569265,-0.8340519999999998,-2.403933,0.0,0.0,0.0,0.0,0.0,0.0,8.281076952623776,4.0543075488582305,0.29967837237094824,-0.00012634043139254705,0.0,-1.9693366333402722e-16
1750771373.4189794,-2.387781,-0.4076940000000011,-1.9521560000000004,1.569265,-0.8340519999999998,-2.403933,0.0,0.0,0.0,0.0,0.0,0.0,8.281076952623776,4.0543075488582305,0.29967837237094824,-0.00012634043139254705,0.0,-1.9693366333402722e-16
1750771373.4209569,-2.387781,-0.4076940000000011,-1.9521560000000004,1.569265,-0.8340519999999998,-2.403933,0.0,0.0,0.0,0.0,0.0,0.0,8.281076952623776,4.0543075488582305,0.29967837237094824,-0.00012634043139254705,0.0,-1.9693366333402722e-16
1750771373.4232178,-2.387781,-0.4076940000000011,-1.9521560000000004,1.569265,-0.8340519999999998,-2.403933,0.0,0.0,0.0,0.0,0.0,0.0,8.281076952623776,4.0543075488582305,0.29967837237094824,-0.00012634043139254705,0.0,-1.9693366333402722e-16
1750771373.42529,-2.387781,-0.4076940000000011,-1.9521560000000004,1.569265,-0.8340519999999998,-2.403933,0.0,0.0,0.0,0.0,0.0,0.0,8.281076952623776,4.0543075488582305,0.29967837237094824,-0.00012634043139254705,0.0,-1.9693366333402722e-16
1750771373.427179,-2.387781,-0.4076940000000011,-1.9521560000000004,1.569265,-0.8340519999999998,-2.403933,0.0,0.0,0.0,0.0,0.0,0.0,8.281076952623776,4.0543075488582305,0.29967837237094824,-0.00012634043139254705,0.0,-1.9693366333402722e-16
1750771373.428933,-2.387781,-0.4076940000000011,-1.9521560000000004,1.569265,-0.8340519999999998,-2.403933,0.0,0.0,0.0,0.0,0.0,0.0,8.281076952623776,4.0543075488582305,0.29967837237094824,-0.00012634043139254705,0.0,-1.9693366333402722e-16
1750771373.4315498,-2.387781,-0.4076940000000011,-1.9521560000000004,1.569265,-0.8340519999999998,-2.403933,0.0,0.0,0.0,0.0,0.0,0.0,8.281076952623776,4.0543075488582305,0.29967837237094824,-0.00012634043139254705,0.0,-1.9693366333402722e-16
1750771373.4330313,-2.387781,-0.4076940000000011,-1.9521560000000004,1.569265,-0.8340519999999998,-2.403933,0.0,0.0,0.0,0.0,0.0,0.0,8.281076952623776,4.0543075488582305,0.29967837237094824,-0.00012634043139254705,0.0,-1.9693366333402722e-16
1750771373.4379463,-2.387781,-0.4076940000000011,-1.9521560000000004,1.569265,-0.8340519999999998,-2.403933,0.0,0.0,0.0,0.0,0.0,0.0,8.281076952623776,4.0543075488582305,0.29967837237094824,-0.00012634043139254705,0.0,-1.9693366333402722e-16
1750771373.4390068,-2.387781,-0.4076940000000011,-1.9521560000000004,1.569265,-0.8340519999999998,-2.403933,0.0,0.0,0.0,0.0,0.0,0.0,8.281076952623776,4.0543075488582305,0.29967837237094824,-0.00012634043139254705,0.0,-1.9693366333402722e-16
1750771373.4411147,-2.387781,-0.4076940000000011,-1.9521560000000004,1.569265,-0.8340519999999998,-2.403933,0.0,0.0,0.0,0.0,0.0,0.0,8.281076952623776,4.0543075488582305,0.29967837237094824,-0.00012634043139254705,0.0,-1.9693366333402722e-16
1750771373.443482,-2.387781,-0.4076940000000011,-1.9521560000000004,1.569265,-0.8340519999999998,-2.403933,0.0,0.0,0.0,0.0,0.0,0.0,8.281076952623776,4.0543075488582305,0.29967837237094824,-0.00012634043139254705,0.0,-1.9693366333402722e-16
1750771373.4449096,-2.387781,-0.4076940000000011,-1.9521560000000004,1.569265,-0.8340519999999998,-2.403933,0.0,0.0,0.0,0.0,0.0,0.0,8.281076952623776,4.0543075488582305,0.29967837237094824,-0.00012634043139254705,0.0,-1.9693366333402722e-16
1750771373.4471784,-2.387781,-0.4076940000000011,-1.9521560000000004,1.569265,-0.8340519999999998,-2.403933,0.0,0.0,0.0,0.0,0.0,0.0,8.281076952623776,4.0543075488582305,0.29967837237094824,-0.00012634043139254705,0.0,-1.9693366333402722e-16
1750771373.4489272,-2.387778789712319,-0.4076994925037152,-1.9521527158643481,1.5692650191287205,-0.8340514584318264,-2.403932458305687,0.0022102688064861496,-0.005492465311150985,0.00328411612889633,1.912872357097434e-05,0.0005415682925817726,0.0005416944321743354,8.821830157305373,3.3795910013818764,0.3794056892023356,0.0029194793180783328,0.015256157366776203,0.29501539953394734
1750771373.452117,-2.387772159075759,-0.40771596955404465,-1.9521428636916607,1.5692650765149176,-0.8340498337258753,-2.4039308332213163,0.00442031113819652,-0.010984469826451248,0.006567997996802216,3.825748243863155e-05,0.001083138016992665,0.0010833902966497424,8.821734470369824,3.379646560803218,0.37939878774331354,0.0029194829274996033,0.015256197701861209,0.2950162604708418
1750771373.4538622,-2.3877611087696766,-0.40774342976874234,-1.9521264441846489,1.5692651721586972,-0.8340471258778495,-2.4039281247425905,0.006629900609952972,-0.016475552935695626,0.00985141143875012,5.7386311923462946e-05,0.0016247106051158866,0.0016250890257181842,8.82154920805733,3.3797545680418786,0.37938529341461846,0.0029194914214750933,0.015256278373560103,0.29501980198404254
1750771373.4568794,-2.387745639926035,-0.4077818708446799,-1.9521034585141779,1.5692653060602357,-0.8340433348805911,-2.4039243328623487,0.008838811015802393,-0.02196525440001997,0.013134122481926894,7.651524728193917e-05,0.0021662874887833474,0.002166792051660307,8.821274433029952,3.3799149851727353,0.379365211737314,0.0029195047981798,0.015256399380427154,0.295026022569185
1750771373.4575007,-2.3877257541289563,-0.4078312895587759,-1.952073908318785,1.5692654782197804,-0.8340384607240763,-2.4039194575705647,0.011046816418312443,-0.027453114536940538,0.016415897441357127,9.56443238538233e-05,0.002707870099799828,0.002708500806728949,8.820910238903513,3.3801277554341698,0.3793385509276389,0.002919523059954436,0.015256560721698115,0.2950349197345677
1750771373.4595783,-2.3877014534140932,-0.40789168176929635,-1.9520377957040118,1.5692656886376488,-0.8340325033954192,-2.403913498854348,0.013253691237756752,-0.03293867440512308,0.01969650301552233,0.00011477357688783897,0.0032494598698904623,0.003250216723150314,8.82045675021742,3.380392803259161,0.3793053218952002,0.002919546204202922,0.015256762395128494,0.2950464900097493
1750771373.4608738,-2.3876727402678273,-0.40796304241751713,-1.9519951232415398,1.5692659373142293,-0.834025462878869,-2.403906456697943,0.015459210340854112,-0.03842147598825729,0.0229757063814847,0.00013390304171302496,0.0037910582308829568,0.0037919412331036528,8.819914122277819,3.380710034360345,0.3792655382289167,0.002919574233163738,0.015257004403610115,0.2950607289396847
1750771373.4635715,-2.3876396176262857,-0.4080453655297607,-1.951945893968138,1.5692662242499804,-0.8340173391558139,-2.4038983310827318,0.017663149129107894,-0.043901062378095275,0.026253275289553703,0.00015303275360479006,0.0043326666143643664,0.004333675768729857,8.819282541021199,3.381079335812477,0.3792192161840205,0.0029196071453260345,0.015257286740360589,0.2950776311054179
1750771373.4661217,-2.3876020888741856,-0.4081386442197923,-1.951890111384424,1.5692665494454319,-0.8340081322047759,-2.40388912198723,0.019865283626748147,-0.049376977956666096,0.029528978157655705,0.00017216274782566376,0.004874286452041341,0.004875421762114316,8.818562222881164,3.381500576134194,0.37916637467354225,0.002919644940299206,0.015257609408751682,0.2950971901115236
1750771373.4680097,-2.3875601578434993,-0.4082428706915815,-1.9518277794534322,1.5692669129011836,-0.8339978420014154,-2.4038788293870903,0.022065390567910858,-0.0548487685769016,0.03280258416469703,0.0001912930596853803,0.005415919175480129,0.005417180645273149,8.817753414528696,3.381973605444945,0.3791070352400723,0.0029196876193804157,0.015257972404827094,0.2951193985985563
1750771373.4690118,-2.387513828811949,-0.4083580362424257,-1.9517589025990034,1.569267314617906,-0.8339864685185292,-2.403867453255101,0.024263247483276944,-0.060315981742168914,0.03607386334345478,0.00021042372440701262,0.005957566216166714,0.005958953850163094,8.81685639268234,3.3824982555689203,0.3790412220419912,0.002919735180125912,0.015258375726325475,0.2951442482615131
1750771373.4714568,-2.3874631065013276,-0.4084841312664267,-1.9516834857039793,1.56926775459634,-0.8339740117260508,-2.403854993561187,0.02645863278586979,-0.0657781667840189,0.03934258667256918,0.00022955477729606267,0.0064992290055335385,0.006500742808651625,8.815871463832108,3.383074340217137,0.37896896182870926,0.0029197876248179887,0.015258819371739034,0.2951717298361674
1750771373.4731214,-2.3874079960756482,-0.4086211452583264,-1.9516015341082245,1.5692682328372973,-0.8339604715910536,-2.4038414502724095,0.028651325856158573,-0.07123487503854953,0.042608526167824005,0.00024868625357020777,0.007040908974918567,0.0070425489525329805,8.814798963989784,3.383701655115561,0.37889028391973956,0.0029198449509874927,0.015259303338405996,0.2952018331327298
1750771373.4750218,-2.387348503139126,-0.4087690668176851,-1.95151305360646,1.56926874934166,-0.833945848077744,-2.4038268233529654,0.03084110712605123,-0.07668566002041399,0.04587145497207381,0.00026781818850369796,0.0075826075555844264,0.0075843737134976014,8.81363925832296,3.384379978244592,0.37880522016723994,0.002919907160183249,0.015259827624204508,0.29523454702217133
1750771373.4770796,-2.3872846337339912,-0.40892788365341826,-1.951418050445918,1.5692693041103805,-0.8339301411474693,-2.4038111127641897,0.03302775816212949,-0.08213007759530032,0.049131147444553186,0.00028695061732359254,0.008124326178677244,0.008126218523138568,8.812392740887907,3.385109069983832,0.37871380493791257,0.0029199742510570303,0.015260392225852442,0.2952698594643342
1750771373.479148,-2.3872163943381377,-0.40909758258866447,-1.9513165313238225,1.5692698971444818,-0.8339133507587135,-2.403794318464553,0.035211061747684215,-0.0875676861499068,0.05238737924884393,0.00030608357524363307,0.008666066275242282,0.008668084812945136,8.811059834225409,3.385888673361821,0.3786160750755956,0.002920046223233953,0.015260997140508412,0.29530775751526867
1750771373.4814177,-2.3871437918626084,-0.4092781495659965,-1.951208503384695,1.5692705284450577,-0.8338954768670988,-2.4037764404096635,0.0373908019636324,-0.09299804675960135,0.05563992743954506,0.00032521709751707014,0.009207829276159681,0.009209974014277145,8.809640988979037,3.3867185142830354,0.37851206986438835,0.002920123077765711,0.015261642363520343,0.2953482273274632
1750771373.4830263,-2.3870668336489205,-0.40946956965296444,-1.9510939742174838,1.5692711980132716,-0.8338765194253854,-2.4037574785522673,0.03956676426831609,-0.09842072335377483,0.05888857054789796,0.0003443512192972913,0.009749616612281166,0.009751887558381715,8.808136683511963,3.387598301754138,0.37840183099916697,0.0029202048118375794,0.01526232789408908,0.2953912541871078
1750771373.486336,-2.3869855274662313,-0.40967182704796734,-1.9509729518525303,1.5692719058503581,-0.8338564783834723,-2.4037374328422474,0.04173873557593238,-0.10383528287835096,0.0621330886657988,0.00036348597582472553,0.010291429714290503,0.010293826876368567,8.806547423442494,3.388527728164678,0.3782854025401144,0.00292029142789401,0.015263053727482658,0.2954368225057781
1750771373.487792,-2.3869855274662313,-0.40967182704796734,-1.9509729518525303,1.5692719058503581,-0.8338564783834723,-2.4037374328422474,0.04173873557593238,-0.10383528287835096,0.0621330886657988,0.00036348597582472553,0.010291429714290503,0.010293826876368567,8.806547423442494,3.388527728164678,0.3782854025401144,0.00292029142789401,0.015263053727482658,0.2954368225057781
1750771373.4896507,-2.3869855274662313,-0.40967182704796734,-1.9509729518525303,1.5692719058503581,-0.8338564783834723,-2.4037374328422474,0.04173873557593238,-0.10383528287835096,0.0621330886657988,0.00036348597582472553,0.010291429714290503,0.010293826876368567,8.806547423442494,3.388527728164678,0.3782854025401144,0.00292029142789401,0.015263053727482658,0.2954368225057781
1750771373.4919145,-2.3869855274662313,-0.40967182704796734,-1.9509729518525303,1.5692719058503581,-0.8338564783834723,-2.4037374328422474,0.04173873557593238,-0.10383528287835096,0.0621330886657988,0.00036348597582472553,0.010291429714290503,0.010293826876368567,8.806547423442494,3.388527728164678,0.3782854025401144,0.00292029142789401,0.015263053727482658,0.2954368225057781
1750771373.494818,-2.3868099043905935,-0.4101087862473918,-1.9507114618383161,1.5692734363364373,-0.8338131452843376,-2.4036940896495604,0.046069860597639456,-0.11463833454153939,0.06860887859619709,0.0004017575337682035,0.011375138937730745,0.011377788557718121,8.803116195617537,3.390534185854877,0.37803416468885936,0.002920479299317254,0.01526462628203244,0.2955355169340063
1750771373.4952712,-2.386715605146498,-0.41034345216017165,-1.9505710124270337,1.5692742589882502,-0.8337898531126084,-2.4036707920523503,0.04822859610677005,-0.12002597707893631,0.07183971913288645,0.0004208944055108709,0.011917037919825206,0.011919813782567049,8.80127537127464,3.391610521281735,0.37789945489261,0.0029205805543977875,0.015265472997253513,0.2955886076775501
1750771373.4968462,-2.3866169932243766,-0.410588883611652,-1.9504241062867473,1.5692751199145762,-0.8337654771116663,-2.4036464103734323,0.05038250435598013,-0.12540380364904066,0.07506557228515895,0.0004400320526248078,0.012458968388994124,0.012461870504254832,8.799351878136386,3.3927351045517637,0.3777587546022228,0.002920686688570579,0.015266359998324788,0.29564416918247977
1750771373.4988995,-2.3865140784837378,-0.4108450605536209,-1.9502707536034531,1.569276019117001,-0.8337400172171074,-2.403620944548382,0.05253138066713467,-0.1307713986185526,0.07828622715811713,0.00045917051022813693,0.013000931775039255,0.01300396015311295,8.79734635093703,3.3939075492576585,0.3776121190807362,0.00292079770115674,0.015267287277372681,0.2957021817706043
1750771373.5009801,-2.386406871191561,-0.4111119621105077,-1.950110964982918,1.5692769565971807,-0.8337134733616685,-2.403594394509915,0.0546750222586721,-0.1361283502839174,0.08150147489001955,0.00047830981344198185,0.013542929507738716,0.013546084159287508,8.79525944864813,3.395127454177874,0.37745960568927944,0.002920913592198896,0.01526825483373385,0.29576262499200107
1750771373.5028617,-2.3862953820184356,-0.41138956658737946,-1.9499447514465356,1.5692779323568418,-0.8336858454752258,-2.4035667601878865,0.0568132283134291,-0.14147425101186675,0.08471110872504181,0.000497449997368728,0.014084963016638,0.014088243952739835,8.793091853883045,3.396394403639104,0.37730127383715034,0.0029210343611583063,0.015269262660854462,0.2958254776552884
1750771373.5048826,-2.3861796220345655,-0.4116778514782249,-1.9497721244270476,1.5692789463977805,-0.833657133484798,-2.4035380415092926,0.058945800044903005,-0.14680869737674793,0.0879149240843799,0.00051659109704517,0.014627033730988333,0.014630440963239334,8.79084427235888,3.397707967828577,0.37713718493434634,0.0029211600061624767,0.015270310750443232,0.29589071783815657
1750771373.506775,-2.386059602705643,-0.4119767934744969,-1.9495930957641177,1.5692799987218637,-0.833627337314546,-2.403508238398269,0.06107254076139887,-0.1521312902934031,0.0911127186348578,0.0005357331475428471,0.01516914307997915,0.01517267662034822,8.788517432188986,3.3990677032421863,0.37696740232236464,0.0029212905281700927,0.015271399100761805,0.29595832291007973
1750771373.5089562,-2.3859353358885977,-0.4122863684739304,-1.9494076776997753,1.569281089331028,-0.8335964568857692,-2.4034773507760936,0.06319325592877269,-0.1574416351472418,0.09430429235640025,0.0005548761839056216,0.015711292492460036,0.01571495235341314,8.786112083385358,3.400473152948295,0.3767919912407496,0.0029214259263561216,0.015272527702234596,0.29602826954738204
1750771373.5107722,-2.385806833827218,-0.4126065515896027,-1.9492158828737223,1.56928221822728,-0.8335644921169143,-2.403445378561185,0.06530775323090848,-0.16273934191951378,0.09748944760670838,0.0005740202411566073,0.016253483397198027,0.01625726959156755,8.783628997105241,3.4019238470743454,0.3766110187496771,0.002921566200141074,0.015273696552538069,0.2961005337696267
1750771373.5127156,-2.385674109147658,-0.41293731715925475,-1.949017724318514,1.5692833854126966,-0.833531442923567,-2.4034123216691046,0.0674158426286435,-0.16802402530946658,0.10066798918459952,0.0005931653542743143,0.01679571722265393,0.01679962976371547,8.781068965104259,3.4034193031018316,0.3764245536909589,0.0029217113482268384,0.015274905643044583,0.2961750909417196
1750771373.5159838,-2.3855371748538254,-0.41327863875484194,-1.9488132154546172,1.5692845908894244,-0.8334973092184574,-2.403378180012555,0.06951733641646579,-0.17329530485180403,0.10383972439068533,0.0006123115582435914,0.017337995397007113,0.017342034298526376,8.778432798992219,3.4049590263404563,0.37623266661410937,0.0029218613707833563,0.01527615496582495,0.29625191580895477
1750771373.517065,-2.38539604432266,-0.41363048919231726,-1.9486023700853448,1.56928583465968,-0.8334620909114605,-2.403342953501383,0.07161204927737805,-0.1785528050303942,0.1070044630862384,0.000631458888034841,0.0178803193483016,0.01788448462442073,8.7757213295994,3.4065425102925566,0.37603542972472154,0.002922016267357728,0.015277444517068563,0.2963309825101019
1750771373.519122,-2.3852507312993017,-0.41399284054164465,-1.9483852023916803,1.5692871167257503,-0.8334257879095945,-2.403306642042578,0.07369979833582702,-0.18379615538798236,0.11016201775005272,0.0006506073785587272,0.018422690504230163,0.01842698216957334,8.772935406314058,3.4081692370458443,0.3758329168277516,0.0029221760362568333,0.01527877428687853,0.2964122646094658
1750771373.5209765,-2.3851012498921587,-0.41436566413701925,-1.9481617269269869,1.5692884370899913,-0.8333884001170224,-2.4032692455402733,0.07578040320833425,-0.18902499063108344,0.11331220353253467,0.0006697570647357198,0.018965110292318167,0.018969528361898167,8.770075896309262,3.4098386777563254,0.37562520325017357,0.0029223406777404495,0.015280144270540657,0.2964957351142199
1750771373.5230148,-2.384947614567873,-0.4147489305872982,-1.947931958611611,1.5692897957548295,-0.8333499274350524,-2.4032307638957473,0.07785368605243906,-0.19423895073143935,0.11645483830841946,0.0006889079814382,0.019507580139769366,0.019512124629036495,8.767143683957553,3.411550292981003,0.3754123658014617,0.002922510190398548,0.015281554458994191,0.29658136649108774
1750771373.5252018,-2.3847898401461913,-0.41514260978662865,-1.947695912727382,1.5692911927227606,-0.8333103697621391,-2.4031911970074225,0.07991947161324568,-0.19943768102248366,0.11958974272656049,0.0007080601635386991,0.020050101473534244,0.020054772398362113,8.764139670016727,3.41330353317377,0.3751944826916115,0.0029226845742598095,0.015283004845104553,0.29666913070788176
1750771373.5269608,-2.384627941794745,-0.415546670925262,-1.9474536049120204,1.5692926279963504,-0.8332697269938834,-2.4031505447708676,0.08197758726805494,-0.20462083229183103,0.1227167402577948,0.000727213645870228,0.020592675720241652,0.0205974730969573,8.761064770979491,3.415097839079334,0.37497163347669493,0.002922863828147381,0.015284495419810877,0.2967589992341419
1750771373.5292242,-2.3844619350237433,-0.4159610825005542,-1.9472050511534427,1.569294101578234,-0.8332279990230322,-2.403108807078797,0.08402786306883292,-0.20978806086933935,0.12583565724059773,0.0007463684632521485,0.021135304306274125,0.02114022815161416,8.757919918325145,3.416932642165163,0.37474389899646576,0.0029230479516670744,0.015286026176174916,0.29685094308271365
1750771373.5309393,-2.384291835680583,-0.41638581232813277,-1.9469502677839845,1.5692956134711165,-0.833185185739481,-2.403065983821073,0.08607013178255501,-0.21493902871068163,0.1289463229242669,0.0007655246504464102,0.021677988657693027,0.021683038988826654,8.754706057810912,3.4188073650752204,0.37451136130517365,0.00292323694317628,0.015287597105148917,0.29694493282675904
1750771373.533088,-2.3841176599443807,-0.416820827553229,-1.946689271474538,1.5692971636777722,-0.8331412870302737,-2.403022074884703,0.08810422892940159,-0.22007340347654947,0.13204856950993213,0.000784682242231518,0.022220730200241907,0.022225907034780116,8.751424148723611,3.4207214220527766,0.37427410360984853,0.0029234308031340617,0.015289208197779668,0.2970409386236717
1750771373.5350735,-2.383939424320428,-0.417266094662164,-1.9464220792286095,1.5692987522010449,-0.8330963027796026,-2.402977080153844,0.09012999281885946,-0.22519085860747623,0.1351422321893008,0.0008038412733129963,0.02276353035940824,0.022768833715339967,8.748075163173088,3.4226742193787407,0.3740322102067124,0.0029236295294291317,0.015290859446854484,0.297138930236562
1750771373.5369623,-2.3837571456345796,-0.4177215794939766,-1.9461487083763007,1.569300379043848,-0.8330502328688079,-2.402930999509801,0.09214726458364607,-0.2302910733941634,0.1382271491810367,0.0008230017783922097,0.023306390560313722,0.02331182045604896,8.744660085345572,3.424665155814782,0.37378576641442135,0.002923833121940707,0.015292550842068625,0.297238877065225
1750771373.5390089,-2.383570841027576,-0.41818724725219436,-1.9458691765682197,1.5693020442091643,-0.8330030771763832,-2.402883832831029,0.09415588821147168,-0.23537373304333628,0.14130316176484137,0.000842163792170636,0.023849312227689046,0.023854868682115213,8.741179910764627,3.4266936230453355,0.37353485850934215,0.002924041580653185,0.015294282372406404,0.2973407481646893
1750771373.5409951,-2.3833805279493023,-0.4186630625167256,-1.9455835017693284,1.5693037477000455,-0.8329548355779703,-2.4028355799931322,0.09615571057472982,-0.24043852873928098,0.14437011431337674,0.0008613273492600296,0.024392296786006865,0.024397979818407918,8.737635645589233,3.4287590061088267,0.3732795736649155,0.0029242549030044193,0.015296054030600085,0.29744451227186014
1750771373.5429893,-2.38318622415299,-0.41914898925587263,-1.9452917022527236,1.5693054895196132,-0.8329055079463625,-2.4027862408688656,0.09814658145795858,-0.24548515770079318,0.14742785432168856,0.0008804924842559639,0.02493534565939206,0.024941155289446546,8.734028305845854,3.430860683848037,0.373019999881001,0.002924473088520941,0.01529786580685278,0.2975501378284493
1750771373.5448332,-2.382987947689369,-0.41964499083845297,-1.9449937965933692,1.5693072696710577,-0.8328550941515065,-2.402735815328135,0.1001283535832039,-0.2505133232337657,0.15047623243439684,0.0008996592317607519,0.025478460271581335,0.025484396519390697,8.73035891671478,3.432998029344202,0.37275622592104524,0.002924696137375529,0.015299717690228988,0.2976575930042053
1750771373.5496793,-2.382785716900768,-0.42015103004602494,-1.9446898036617686,1.5693090881576384,-0.8328035940605014,-2.4026843032379994,0.10210088263327494,-0.2555227347794297,0.1535151024707697,0.0009188276263086147,0.026021642045938646,0.026027704932030722,8.726628511807391,3.4351704103466196,0.37248834125251823,0.0029249240475998357,0.015301609670228134,0.29776684572073303
1750771373.5501854,-2.382785716900768,-0.42015103004602494,-1.9446898036617686,1.5693090881576384,-0.8328035940605014,-2.4026843032379994,0.10210088263327494,-0.2555227347794297,0.1535151024707697,0.0009188276263086147,0.026021642045938646,0.026027704932030722,8.726628511807391,3.4351704103466196,0.37248834125251823,0.0029249240475998357,0.015301609670228134,0.29776684572073303
1750771373.5513642,-2.38257955041517,-0.4206670690852006,-1.944379742617591,1.5693109449826839,-0.832751007537599,-2.4026317044626695,0.10406402727287734,-0.2605131079581586,0.1565443214473513,0.0009379977024022424,0.026564892405491165,0.026571081950789475,8.722838132447048,3.4373771897164875,0.37221643597808557,0.0029251568183161925,0.015303541737363402,0.29787786368246044
1750771373.5551276,-2.3821554862572687,-0.4217289926845522,-1.9437414942375,1.569314773661829,-0.8326425746388884,-2.4025232462990402,0.10796161300091671,-0.2704356328243119,0.1625732503940015,0.000976343037134018,0.027651604570202545,0.027658047498405575,8.71508164983878,3.441891373134181,0.37166092682463225,0.00292563693818665,0.015307526086732411,0.2981050651595176
1750771373.5554674,-2.3821554862572687,-0.4217289926845522,-1.9437414942375,1.569314773661829,-0.8326425746388884,-2.4025232462990402,0.10796161300091671,-0.2704356328243119,0.1625732503940015,0.000976343037134018,0.027651604570202545,0.027658047498405575,8.71508164983878,3.441891373134181,0.37166092682463225,0.00292563693818665,0.015307526086732411,0.2981050651595176
1750771373.5568397,-2.3819376272151884,-0.4222747988951765,-1.94341334660884,1.5693167455229304,-0.8325867279773593,-2.402467386624934,0.10989578648899039,-0.2753672469817329,0.1655726905563341,0.0009955183646321556,0.028195069219430838,0.028201638872152945,8.711117661316528,3.4441974823141908,0.3713775057669725,0.0029258842860632656,0.015309578346848771,0.2982211831710396
1750771373.558842,-2.3817159097244303,-0.4228304482634382,-1.9430792102691044,1.5693187557365003,-0.832529794312495,-2.4024104396940213,0.11182004039358527,-0.2802787477697557,0.1685619400732522,0.0010146955113637846,0.02873860814200475,0.028745304541778132,8.707097926388153,3.4465354009635845,0.371090429624584,0.002926136489345599,0.015311670651021994,0.2983389354647756
1750771373.5608137,-2.381490353750853,-0.423395900308563,-1.9427391057268668,1.5693208043062115,-0.8324717734943281,-2.402352405356289,0.11373424853277841,-0.28516988221055906,0.1715408722098905,0.001033874511687995,0.029282222758836286,0.02928904592869547,8.7030235142318,3.4489044739038213,0.3707997907412442,0.0029263935489311104,0.015313802982744545,0.29845828897171595
1750771373.563418,-2.381260979509616,-0.4239711140501701,-1.9423930537408838,1.5693228912358055,-0.8324126653700494,-2.402293283458881,0.11563828778981439,-0.2900404036783193,0.17450936351822766,0.001053055399898504,0.029825914490572984,0.029832864453900272,8.698895497525918,3.4513040435815543,0.3705056817287822,0.002926655462973644,0.015315975334568842,0.2985792105454275
1750771373.5649376,-2.38102780745904,-0.42455604802099334,-1.942041075313515,1.5693250165290924,-0.8323524697840092,-2.4022330738461006,0.11753203811998698,-0.2948900719135053,0.17746729384461016,0.0010722382102451753,0.03036968475738562,0.030376761537950863,8.69471495178631,3.4537334504877126,0.37020819540895045,0.0029269222301983094,0.015318187693063628,0.29870166696988293
1750771373.5668123,-2.380790858294461,-0.4251506602796189,-1.9416831916841293,1.5693271801899507,-0.8322911865777165,-2.4021717763594097,0.11941538255541514,-0.2997186530328132,0.18041454633474133,0.0010914229769528256,0.03091353497898376,0.030920738600961555,8.690482954642134,3.456192033589796,0.3699074247419467,0.0029271938498743894,0.015320440045236132,0.2988256249918519
1750771373.5686982,-2.380550152942069,-0.4257549084232517,-1.9413194243225007,1.5693293822223273,-0.8322288155898434,-2.4021093908374307,0.12128820720812275,-0.3045259195356333,0.1833510074371755,0.0011106097342047138,0.031457466574585737,0.0314647970626001,8.686200585247771,3.458679130673243,0.36960346278391104,0.0029274703208279594,0.01532273237724738,0.29895105134038763
1750771373.5707471,-2.3803057125527505,-0.42636874960047866,-1.9409497949222034,1.5693316226302374,-0.8321653566562235,-2.4020459171159474,0.1231504012710655,-0.30931165030622265,0.18627656690446723,0.0011297985161427234,0.03200148096302875,0.032008938342067875,8.681868923588373,3.461194078774953,0.36929640262150176,0.0029277516418388296,0.015325064678362336,0.2990779127409334
1750771373.5726082,-2.3800575584959245,-0.4269921405240389,-1.9405743253940022,1.5693339014177643,-0.8321008096098508,-2.401981355027905,0.12500185701741864,-0.314075630612281,0.18919111779241204,0.0011489893568363814,0.032545579562664434,0.03255316385810786,8.6774890498801,3.463736214539973,0.36898633731769553,0.002928037810879041,0.015327436934901496,0.29920617595074617
1750771373.5756094,-2.3798057123533862,-0.4276250374835868,-1.940193037859249,1.5693362185890598,-0.832035174280886,-2.401915704403412,0.12684246979797903,-0.31881765209964413,0.19209455645737825,0.0011681822903685313,0.03308976379134557,0.03309747502897225,8.673062043922386,3.4663048746080816,0.368673359858245,0.0029283288282579245,0.015329849132812302,0.2993358077564387
1750771373.576783,-2.379550195913155,-0.42826739635844024,-1.939805954643285,1.5693385741483437,-0.831968450496654,-2.4018489650697408,0.12867213803679725,-0.32353751278327897,0.1949867825516199,0.0011873773507616117,0.0336340350664413,0.033641873272433565,8.668588984494328,3.468899395985889,0.3683575630949016,0.0029286246922711535,0.015332301258470344,0.2994667750200116
1750771373.5787876,-2.379291031163334,-0.4289191726303052,-1.9394130982688607,1.5693409680999035,-0.8319006380816454,-2.401781136851329,0.1304907632251649,-0.328235017034891,0.19786769901696818,0.0012065745719685372,0.03417839480487656,0.03418636000577143,8.664070948788217,3.4715191163840746,0.368039039699557,0.0029289254009336576,0.015334793299362895,0.29959904468135407
1750771373.580807,-2.379028240285982,-0.42958032139597346,-1.9390144914495542,1.5693434004480948,-0.8318317368575148,-2.40171221956978,0.13229824991372335,-0.3329099755666502,0.20073721207640388,0.0012257739879102795,0.034722844423000394,0.03473093664575986,8.659509011763102,3.4741633746047036,0.36771788210483697,0.002929230953315316,0.015337325239265325,0.2997325837821113
1750771373.58281,-2.378761845651006,-0.43025079737998784,-1.938610157083228,1.569345871197341,-0.8317617466430889,-2.401642213043864,0.1340945057030725,-0.33756220541179693,0.20359523122401738,0.0012449756324946022,0.03526738533667483,0.03527560460865733,8.65490424563071,3.4768315108543084,0.3673941824583107,0.0029295413490160304,0.015339897064459318,0.2998673594819857
1750771373.5847082,-2.37849186981007,-0.43093055494725796,-1.9382001182454953,1.569348380352133,-0.8316906672543611,-2.4015711170895195,0.13587944123268406,-0.3421915299017289,0.20644166921330756,0.0012641795395306446,0.035812018961290305,0.035820365310204716,8.650257719277034,3.4795228670996625,0.3670680325763798,0.002929856585228007,0.015342508761660194,0.30000333908325616
1750771373.5867796,-2.3782183354905313,-0.4316195481156351,-1.9377843981832124,1.56935092791703,-0.8316184985044934,-2.401498931519854,0.1376529701682499,-0.3467977786398623,0.20927644204359172,0.0012833857428014683,0.036356746711668636,0.03636522016561328,8.645570497718664,3.482236787387237,0.3667395238904471,0.0029301766612004746,0.015345160314849443,0.300140490042513
1750771373.5887432,-2.377941265589401,-0.43231773056842293,-1.9373630203080046,1.5693535138966577,-0.8315452402038206,-2.4014256561451446,0.13941500918743238,-0.3513807874721646,0.21209946894474763,0.001302594276076115,0.03690157000207971,0.03691017058954887,8.640843641558506,3.484972618180752,0.36640874740043344,0.0029305015764953665,0.015347851708478787,0.3002787799866694
1750771373.5907328,-2.3776606831673357,-0.43302505566683447,-1.9369360081898206,1.56935613829571,-0.8314708921598495,-2.4013512907728405,0.14116547796427478,-0.35594039845494757,0.21491067236075437,0.001321805173028036,0.03744649024629604,0.03745521799613698,8.63607820651833,3.4877297086336267,0.36607579364067694,0.0029308313284099477,0.01535058292853732,0.30041817673900095
1750771373.592708,-2.377376611442662,-0.4337414764623748,-1.9365033855505214,1.5693588011189479,-0.8313954541772581,-2.4012758352075627,0.142904299151975,-0.3604764598192312,0.21770997793114416,0.001341018467308014,0.03799150885745625,0.03800036379893988,8.631275242881912,3.4905074109367913,0.36574075262134625,0.0029311659162597186,0.015353353957167836,0.3005586483226067
1750771373.5947564,-2.3770890737854367,-0.4344669457091559,-1.9360651762575118,1.5693615023711998,-0.8313189260578993,-2.4011992892511054,0.14463139836440805,-0.36498882593253906,0.22049731447134038,0.0013602341924949665,0.03853662724823494,0.0385456094109574,8.626435795059999,3.4933050805761603,0.36540371379691433,0.0029315053380005334,0.015356164781299326,0.3007001629869745
1750771373.5967264,-2.3767980937115434,-0.4352014158761257,-1.9356214043174056,1.5693642420573608,-0.8312413076008038,-2.4011216527024377,0.1463467041561818,-0.3694773572576377,0.22327261395129902,0.0013794523821801736,0.039081846830639956,0.03909095624460498,8.621560901088852,3.496122076642653,0.36506476601862897,0.002931849593933802,0.015359015382148074,0.3008426892119433
1750771373.5988464,-2.3765036948768343,-0.4359448391592169,-1.935172093869741,1.5693670201823937,-0.8311625986021749,-2.4010429253577046,0.14805014800144478,-0.37394192030872137,0.2260358114729416,0.0013986730698066095,0.039627169016167425,0.03963640571172557,8.616651592193394,3.49895776208727,0.36472399750032375,0.0029321986798699585,0.015361905745299982,0.3009861957412165
1750771373.6006708,-2.376205901071312,-0.4366971674934055,-1.9347172691807408,1.5693698367513278,-0.8310827988553964,-2.4009631070102277,0.14974166427140267,-0.37838238760489684,0.22878684524608423,0.0014178962888526177,0.04017259521567467,0.04018195922355918,8.611708892347302,3.5018115039967967,0.36438149577612156,0.0029325525967656375,0.015364835852758827,0.30113065157175706
1750771373.6051598,-2.3759047362133594,-0.4374583525646658,-1.9342569546371209,1.569372691769259,-0.8310019081510296,-2.400882197450507,0.15142119021059805,-0.38279863762110417,0.23152565656311416,0.0014371220726775516,0.040718126839462646,0.040727618190748306,8.606733817845965,3.504682673854453,0.36403734766545587,0.0029329113412369543,0.015367805688852158,0.3012760259888701
1750771373.6057413,-2.3759047362133594,-0.4374583525646658,-1.9342569546371209,1.569372691769259,-0.8310019081510296,-2.400882197450507,0.15142119021059805,-0.38279863762110417,0.23152565656311416,0.0014371220726775516,0.040718126839462646,0.040727618190748306,8.606733817845965,3.504682673854453,0.36403734766545587,0.0029329113412369543,0.015367805688852158,0.3012760259888701
1750771373.6094468,-2.3759047362133594,-0.4374583525646658,-1.9342569546371209,1.569372691769259,-0.8310019081510296,-2.400882197450507,0.15142119021059805,-0.38279863762110417,0.23152565656311416,0.0014371220726775516,0.040718126839462646,0.040727618190748306,8.606733817845965,3.504682673854453,0.36403734766545587,0.0029329113412369543,0.015367805688852158,0.3012760259888701
1750771373.6097376,-2.3749812563146486,-0.4397945615740211,-1.9328433174245818,1.5693814875689989,-0.830752688155723,-2.400632919360576,0.15638724105895863,-0.39590095698031463,0.23966821437282312,0.0014948151460006701,0.04235536834991688,0.042365241921597914,8.59162438584012,3.513394536865918,0.3629958817412445,0.002934016530969488,0.015376953390013331,0.3017173580291035
1750771373.6107745,-2.3749812563146486,-0.4397945615740211,-1.9328433174245818,1.5693814875689989,-0.830752688155723,-2.400632919360576,0.15638724105895863,-0.39590095698031463,0.23966821437282312,0.0014948151460006701,0.04235536834991688,0.042365241921597914,8.59162438584012,3.513394536865918,0.3629958817412445,0.002934016530969488,0.015376953390013331,0.3017173580291035
1750771373.6127684,-2.3746668487992224,-0.44059068588626893,-1.9323612895258195,1.5693844964352144,-0.8306674314702391,-2.4005476428004826,0.1580182346933674,-0.4002192398936501,0.24235760948475024,0.001514051521806759,0.04290133576113819,0.04291133680421708,8.586529808310921,3.516329229554681,0.3626460007618578,0.002934394573699424,0.015380081961827554,0.30186610564206723
1750771373.614777,-2.3743491915505404,-0.4413954220418521,-1.9318738953005186,1.569387543776907,-0.8305810827377016,-2.4004612739383595,0.15963696641064876,-0.40451278535852847,0.24503453386901622,0.0015332906285465693,0.043447415638667726,0.043457544186012595,8.581407808824174,3.5192782817588415,0.36229489557391,0.002934777437434985,0.015383250174113607,0.30201562287620065
1750771373.6168563,-2.3740283091389616,-0.44220872047799453,-1.9313811597314263,1.5693906295995714,-0.8304936417317696,-2.400373812547801,0.16124339013510036,-0.40878150642581346,0.2476989467144991,0.0015525324992639114,0.04399360938893768,0.044003865473815296,8.576259349656405,3.5222410961583126,0.3619426480132471,0.0029351651196686513,0.015386458006049023,0.3021658809542478
1750771373.6188097,-2.3737042262243135,-0.44303053146358273,-1.9308831078800353,1.5693937539087688,-0.8304051082232933,-2.4002852583995895,0.16283746246813846,-0.41302532169622064,0.25035081008282833,0.001571777166959965,0.044539918417826396,0.0445503020737783,8.571085382894255,3.5252170813601826,0.36158933897905615,0.002935557619126694,0.015389705442033611,0.30231685144532827
1750771373.6207254,-2.3733769675505707,-0.443860805110198,-1.9303797648808683,1.569396916710126,-0.8303154819803096,-2.4001956112616942,0.16441914265650331,-0.41724415525455927,0.25299008887448193,0.0015910246645860148,0.04508634413039343,0.045096855391376735,8.56588685013865,3.528205652067414,0.3612350484141882,0.002935954934370138,0.015392992458999165,0.3024685062936875
1750771373.622682,-2.3730465579405955,-0.44469949138302134,-1.9298711559358397,1.5694001180093358,-0.8302247627680464,-2.4001048708992756,0.16598839255965334,-0.4214379366022387,0.2556167507938391,0.0016102750250047094,0.045632887931104905,0.045643526831403713,8.560664682231192,3.531206229263427,0.360879855275953,0.0029363570628788984,0.015396319040229974,0.302620817824761
1750771373.6246955,-2.3727130222909465,-0.44554654011159567,-1.9293573063086802,1.5694033578121565,-0.8301329503489239,-2.400013037074684,0.1675451766164015,-0.4256066005882383,0.258230766313614,0.0016295282810491157,0.04617955122375743,0.04619031779794792,8.55541979898601,3.53421824036957,0.3605238375188126,0.0029367640037595176,0.01539968516686634,0.3027737587427505
1750771373.6282353,-2.372376385566754,-0.4464019010004483,-1.9288382413194354,1.5694066361244121,-0.8300400444825549,-2.399920109547464,0.1690894618108132,-0.4297500873385204,0.2608321086382493,0.0016487844654807559,0.046726335411315434,0.04673722969439095,8.550153108933243,3.537241119407778,0.36016707206495086,0.002937175754952118,0.015403090815463443,0.30292730215066993
1750771373.6286283,-2.3720366727966637,-0.4472655236395786,-1.9283139863390435,1.5694099529519923,-0.8299460449257463,-2.399826088074352,0.1706212176374999,-0.43386834218424924,0.263420753666923,0.0016680436109847926,0.04727324189617222,0.04728426392340363,8.544865509097958,3.5402743071211824,0.3598096347932317,0.002937592314286376,0.01540653596993441,0.3030814215561048
1750771373.630758,-2.371693909067851,-0.448137357514792,-1.9277845667839788,1.5694133083008517,-0.8298509514325039,-2.3997309724092806,0.17214041606622332,-0.4379613155885003,0.26599667995566784,0.0016873057502092528,0.047820272079894886,0.04783142188692051,8.539557884774483,3.5433172511411604,0.35945160051487607,0.0029380136806389065,0.015410020607003467,0.3032360908655683
1750771373.63274,-2.3713481195211057,-0.4490173520178873,-1.9272500081109811,1.5694167021770105,-0.8297547637540275,-2.3996347623033802,0.17364703150591226,-0.4420289630718209,0.2685598686787938,0.0017065709157184819,0.04836742736334756,0.048378704986144,8.534231109303864,3.5463694060992608,0.3590930429531569,0.0029384398516207524,0.015413544706868062,0.30339128440949187
1750771373.6346135,-2.370999329345992,-0.44990545645670377,-1.9267103358118547,1.5694201345865537,-0.8296574816387174,-2.3995374575049784,0.1751410407682148,-0.44607124513681917,0.2711103035901206,0.0017258391400325728,0.0489147091467061,0.04892611462152903,8.528886043914742,3.5494302337351313,0.3587340347385481,0.0029388708259427457,0.015417108250140523,0.3035469769345703
1750771373.6366727,-2.3706475637760787,-0.45080162006500046,-1.9261655754083487,1.5694236055356314,-0.8295591048321747,-2.3994390577596034,0.17662242303046663,-0.4500881271914818,0.2736479709831594,0.001745110455575438,0.04946211882934713,0.04947365219277407,8.523523537525445,3.5524992030350613,0.3583746473791555,0.002939306600836538,0.01542071121430521,0.303703143614162
1750771373.6388023,-2.3702928480842447,-0.4517057920121941,-1.9256157524471202,1.5694271150304584,-0.8294596330772013,-2.3993395628099843,0.17809115979824527,-0.45407957947174205,0.2761728596511989,0.0017643848947036796,0.050009657809821764,0.05002131909881439,8.518144426577752,3.5555757903032315,0.35801495125764476,0.002939747174372177,0.015424353576106132,0.30385976005483445
1750771373.6406896,-2.3699352075780618,-0.4526179214129362,-1.9250608924947734,1.5694306630773143,-0.8293590661138044,-2.399238972396053,0.179547234867495,-0.4580455769630501,0.2786849608467117,0.0017836624897726453,0.05055732748596889,0.05056911673779737,8.512749534904243,3.5586594792810673,0.3576550156127239,0.0029401925464373367,0.015428035315481098,0.30401680228918787
1750771373.6426654,-2.3699352075780618,-0.4526179214129362,-1.9250608924947734,1.5694306630773143,-0.8293590661138044,-2.399238972396053,0.179547234867495,-0.4580455769630501,0.2786849608467117,0.0017836624897726453,0.05055732748596889,0.05056911673779737,8.512749534904243,3.5586594792810673,0.3576550156127239,0.0029401925464373367,0.015428035315481098,0.30401680228918787
1750771373.6446383,-2.369574667595251,-0.45353795733653435,-1.924501021132981,1.569434249682543,-0.8292574036791951,-2.399137286254946,0.1809906342862979,-0.4619860993212966,0.28118426824060094,0.001802943272982116,0.05110512925488796,0.05111704650709556,8.507339673584262,3.5617497612099593,0.35729490853430496,0.0029406427126191115,0.015431756411600259,0.30417424680270533
1750771373.646655,-2.369211253499218,-0.4544658488162092,-1.9239361639536918,1.5694378748525533,-0.829154645507792,-2.3990345041210066,0.18242134631627963,-0.4659011307929053,0.28367077788077266,0.0018222272765376828,0.05165306451277854,0.05166510980327295,8.501915640826105,3.5648461349292853,0.3569346969446931,0.0029410976730028086,0.015435516839112307,0.3043320705093767
1750771373.6487644,-2.3688449906746625,-0.4554015448581996,-1.923366346554416,1.5694415385938176,-0.8290507913312215,-2.3989306257257845,0.18383936139371487,-0.4697906601343831,0.28614448815065147,0.0018415145325260747,0.05220113465514616,0.052213308022097074,8.496478221843372,3.5679481069306904,0.356574446596905,0.0029415574242154918,0.015439316578467211,0.30449025078298875
1750771373.6506262,-2.368475904523271,-0.4563449944506992,-1.922791594533595,1.569445240912873,-0.828945840878319,-2.39882565079804,0.18524467209039305,-0.47365468053131055,0.28860539972728966,0.001860805072966097,0.052749341076636036,0.05276164255851328,8.491028188778364,3.5710551914285333,0.35621422206341874,0.002942021964266267,0.01544315560542907,0.304648765435854
1750771373.6526031,-2.3681040204594828,-0.4572961465726344,-1.922211933486059,1.5694489818163204,-0.8288397938751331,-2.398719579063743,0.18663727307423372,-0.47749318951683684,0.2910535155392291,0.0018800989298421171,0.05329768517099618,0.05331011480663465,8.485566300605239,3.574166910414925,0.3558540867291806,0.002942491292120247,0.015447033894722625,0.3048075927315672
1750771373.6564999,-2.3677293639063386,-0.4582549502022779,-1.921627388998565,1.5694527613108247,-0.8287326500449241,-2.3986124102460766,0.1880171610697341,-0.4813061888898443,0.29348884072423914,0.001899396135021535,0.0538461683312413,0.053858726159743464,8.480093303062331,3.5772827936989184,0.35549410278804333,0.002942965404439335,0.0154509514256916,0.3049667113932257
1750771373.6579306,-2.3673519602914066,-0.45922135432569533,-1.921037986645418,1.5694565794031141,-0.8286244091081691,-2.3985041440654387,0.18938433481824385,-0.4850936846327102,0.2959113825868083,0.0019186967203430032,0.054394791949485814,0.054407478010264555,8.474609928596033,3.580402378960607,0.3551343312362029,0.0029434443003282344,0.015454908172974102,0.3051261005881265
1750771373.6590812,-2.3673519602914066,-0.45922135432569533,-1.921037986645418,1.5694565794031141,-0.8286244091081691,-2.3985041440654387,0.18938433481824385,-0.4850936846327102,0.2959113825868083,0.0019186967203430032,0.054394791949485814,0.054407478010264555,8.474609928596033,3.580402378960607,0.3551343312362029,0.0029434443003282344,0.015454908172974102,0.3051261005881265
1750771373.660732,-2.366589013585206,-0.4611767600866381,-1.9198447105514909,1.56946433140828,-0.8284046347830074,-2.3982843184829195,0.1920805443848087,-0.49259220958025873,0.30071815614049463,0.0019573081582948313,0.055492466124258275,0.055505408768958694,8.463614911890776,3.5866508456234083,0.35441566327958196,0.0029444164323613672,0.015462939222184667,0.3054456095553399
1750771373.6627674,-2.3662035213361654,-0.4621656598090089,-1.9192408878588871,1.5694682653349306,-0.828293100821643,-2.39817275850792,0.19340958741084294,-0.4963032709243866,0.3031024128903321,0.001976619074172401,0.056041519460711356,0.05605459045765483,8.458104667677878,3.5897788419600984,0.35405688285509856,0.002944909663454418,0.015467013473927907,0.3056056899511883
1750771373.6649556,-2.3658153837022047,-0.46316195621058576,-1.918632309388828,1.5694722378869144,-0.8281804686078198,-2.3980601000237165,0.19472593052583265,-0.49998889275168346,0.3054739363496081,0.0019959334967143256,0.05659071881505156,0.0566039182047833,8.452586842542148,3.592908770183664,0.3536985467769643,0.0029454076695732538,0.015471126845046873,0.3057659621283877
1750771373.6667926,-2.3654246260752188,-0.4641655984373738,-1.9180190005907196,1.5694762490712761,-0.828066737848113,-2.3979463427368035,0.19602958195644862,-0.5036491007226339,0.307832744015907,0.0020152514573582637,0.05714006557501213,0.05715339339837239,8.447062101930749,3.596040207655219,0.3533407100202862,0.002945910447645476,0.015475279309060216,0.30592640754149003
1750771373.6686378,-2.3650312738288655,-0.46517653569040185,-1.9174009868770563,1.5694802988951235,-0.8279519082463249,-2.397831486350901,0.19732055170647578,-0.5072839241851194,0.31017885529724437,0.0020345729874536493,0.057689561127372814,0.057703017425536046,8.441531097877693,3.599172739700676,0.35298342635976265,0.0029464179951005417,0.015479470839106634,0.3060870080956894
1750771373.6706433,-2.3646353523150516,-0.46619471723300965,-1.9167782936196387,1.5694843873656266,-0.827835979503484,-2.397715530566955,0.1985988515168261,-0.5108933960916419,0.31251229146912984,0.002053898118318775,0.05823920685810131,0.058252791672463715,8.435994468984576,3.602305959628964,0.35262674836048946,0.0029469303109992445,0.01548370141231246,0.3062477461524332
1750771373.6726098,-2.3642368868604975,-0.4672200923979819,-1.916150946145886,1.5694885144900181,-0.8277189513178502,-2.397598475083141,0.19986449482576624,-0.5144775529170724,0.31483307563217805,0.0020732268811286866,0.05878900415222425,0.05880271752441416,8.430452840473702,3.6054394686802045,0.35227072739293874,0.0029474473912217193,0.015487971002167525,0.30640860452750424
1750771373.6746461,-2.363835902763383,-0.4682526105945035,-1.9155189697352268,1.569492680275593,-0.8276008233849108,-2.3974803195948646,0.20111749672919046,-0.5180364345763909,0.317141232669584,0.00209255930700068,0.05933895439370281,0.05935279636569646,8.424906824216356,3.608572876047394,0.3519154136299765,0.0029479692340503793,0.015492279578655021,0.3065695664831793
1750771373.6780522,-2.3634324252900716,-0.46929222131496307,-1.9148823896155749,1.5694968847297088,-0.827481595397388,-2.3973610637947633,0.20235787394102175,-0.5215700843427837,0.3194367892047745,0.0021118954269993178,0.05988905896564524,0.05990302957966408,8.419357018750812,3.611705798837848,0.3515608560511022,0.0029484958379328023,0.015496627117749804,0.30673061573514404
1750771373.6787229,-2.363026479671914,-0.4703388741415857,-1.9142412309598926,1.5695011278597846,-0.827361267045239,-2.3972407073727093,0.203585644753803,-0.5250785487660612,0.32171977355924164,0.0021312352721037544,0.060439319250178786,0.06045341854870385,8.41380400935542,3.6148378620592667,0.3512071024481807,0.002949027200381925,0.015501013591816505,0.3068917364458353
1750771373.6808197,-2.3626180911021293,-0.47139251875290356,-1.913595518882837,1.5695054096733012,-0.8272398380156583,-2.3971192500158107,0.20480082899950416,-0.5285618775915709,0.3239902157107092,0.0021505788731418216,0.060989736628502725,0.061003964654229616,8.408248368106468,3.6179686985734056,0.3508541994344958,0.0029495633170489176,0.015505438974714281,0.3070529132244916
1750771373.6828804,-2.3622072847327664,-0.47245310493006976,-1.912945278437487,1.5695097301778016,-0.8271173079930758,-2.396996691408414,0.20600344801042547,-0.5320201236793051,0.3262481472512373,0.0021699262609477027,0.061540312480741016,0.06155466927665273,8.402690653904948,3.6210979490856903,0.3505021924431206,0.0029501041880011848,0.015509903236150008,0.30721413111373047
1750771373.684863,-2.3617940856717414,-0.4735205825630029,-1.9122905346121577,1.5695140893808899,-0.8269936766591659,-2.3968730312321065,0.2071935245804726,-0.5354533429237489,0.32849360134587663,0.002189277466218161,0.06209104818604179,0.062105533795395844,8.397131412601986,3.6242252620836473,0.35015112574256463,0.002950649809314266,0.015514406348634368,0.3073753756087328
1750771373.68673,-2.361378518979953,-0.4745949016563813,-1.9116313123272972,1.5695184872902317,-0.826868943692844,-2.396748269165716,0.20837108292661408,-0.5388615941741458,0.33072661269146647,0.002208632519585247,0.0626419451225913,0.06265655958886249,8.39157117704806,3.627350293799448,0.3498010424405767,0.002951200179050094,0.015518948285072024,0.3075366326294137
1750771373.6887994,-2.3609606096684748,-0.47567601233546775,-1.91096763643246,1.569522923913554,-0.8267431087702706,-2.396622404885316,0.20953614865053655,-0.5422449391551245,0.3329472174755477,0.002227991451586602,0.06319300466751197,0.0632077480344347,8.386010467161798,3.6304727081881283,0.3494519844879303,0.0029517552944622635,0.015523529015493446,0.3076978885356624
1750771373.6907372,-2.3605403826958242,-0.4767638648517858,-1.9102995317033704,1.569527399258644,-0.8266161715648517,-2.396495438064226,0.2106887487007755,-0.5456034423883879,0.33515545333601005,0.002247354292650253,0.06374422819690316,0.06375910050846108,8.38044979007205,3.6335921768209416,0.34910399269822645,0.002952315152366109,0.015528148511078902,0.30785913011376353
1750771373.6928318,-2.360117862965306,-0.47785840958863446,-1.909627022839059,1.5695319133333507,-0.8264881317472428,-2.396367368373013,0.21182891133492768,-0.5489371711144753,0.33735135932055355,0.0022667210731864167,0.06429561708586509,0.064310618386236,8.374889640157182,3.636708378898471,0.34875710674378246,0.0029528797521536135,0.01553280674368334,0.3080203445725625
1750771373.6948307,-2.360117862965306,-0.47785840958863446,-1.909627022839059,1.5695319133333507,-0.8264881317472428,-2.396367368373013,0.21182891133492768,-0.5489371711144753,0.33735135932055355,0.0022667210731864167,0.06429561708586509,0.064310618386236,8.374889640157182,3.636708378898471,0.34875710674378246,0.0029528797521536135,0.01553280674368334,0.3080203445725625
1750771373.69696,-2.359693075322432,-0.47895959706644664,-1.9089501344590847,1.5695364661455833,-0.8263589889853522,-2.3962381954794956,0.21295666608239505,-0.552246195215702,0.3395349758469848,0.0022860918234356158,0.06484717270833816,0.06486230304200188,8.369330499205676,3.6398210011324275,0.34841136517831683,0.00295344908894175,0.015537503680632055,0.3081815195482307
1750771373.6987796,-2.3592660445524136,-0.48006737794800003,-1.9082688911008345,1.569541057703311,-0.8262287429443385,-2.396107919048744,0.21407204370728855,-0.5555305871394097,0.34170634466346295,0.002305466573560637,0.06539889643732318,0.06541415584893458,8.363772836467332,3.642929737725266,0.3480668054358761,0.002954023160457562,0.015542239295458653,0.30834264309498816
1750771373.7008104,-2.358836795377731,-0.4811817030434664,-1.9075833172169006,1.5695456880145642,-0.8260973932866174,-2.395976538743084,0.21517507617180906,-0.5587904218221612,0.34386550880936767,0.002324845353702235,0.06595078964467775,0.0659661781791181,8.358217108820023,3.6460342902903395,0.34772346384860575,0.002954601965954316,0.015547013555958049,0.3085037036707051
1750771373.706319,-2.358405352455771,-0.48230252331531887,-1.9068934371725383,1.5695503570874325,-0.8259649396718602,-2.395844054222098,0.21626579659996337,-0.562025776614719,0.3460125125765811,0.002344228193835639,0.06650285370117653,0.06651837140355141,8.352663760858896,3.649134367770838,0.3473813756578266,0.002955185500671404,0.015551826431622682,0.30866469015308196
1750771373.7067366,-2.357971740376542,-0.4834297898830844,-1.906199275243198,1.569555064930066,-0.8258313817570002,-2.395710465142627,0.21734423924161408,-0.5652367312076205,0.3481474014709322,0.0023636151238717123,0.06705508997646618,0.06707073689212213,8.347113225022891,3.652229686399836,0.3470405750192693,0.0029557737626681596,0.015556677890676487,0.3088255918159822
1750771373.7070253,-2.357535983660455,-0.4845634540279482,-1.9055008556121358,1.5695598115506744,-0.8256967191962294,-2.395575771158774,0.218410439436995,-0.5684233675577723,0.3502702221743894,0.002383006173631934,0.0676074998390936,0.06762327601360368,8.341565921738024,3.6553199696014538,0.3467010950239525,0.0029563667493290005,0.015561567902139051,0.30898639833750136
1750771373.7105255,-2.3570981067561796,-0.48570346719721513,-1.9047982023681005,1.5695645969575267,-0.8255609516410072,-2.3954399719219057,0.21946443358158985,-0.5715857698158053,0.35238102250745723,0.002402401372810806,0.06816008465656563,0.06817599013564364,8.336022259531928,3.658404947920512,0.3463629677036037,0.002956964456964588,0.015566496436712917,0.30914709979063515
1750771373.711227,-2.356658134038569,-0.48684978100862786,-1.9040913395030907,1.5695694211589517,-0.8254240787400562,-2.3953030670806537,0.22050625909142968,-0.5747240242542611,0.3544798513920603,0.0024218007510667995,0.06871284579510549,0.06872888062473882,8.33048263517922,3.661484358953018,0.34602622404483196,0.002957566884421125,0.015571463458235783,0.30930768663034797
1750771373.7127297,-2.356216089806652,-0.4880023472545334,-1.9033802909101913,1.5695742841633369,-0.825286100139369,-2.3951650562809186,0.22153595436882853,-0.5778382191966923,0.35656675881498545,0.002441204337910774,0.0692657846198933,0.06928194884623871,8.324947433843718,3.6645579472626872,0.3456908940049722,0.002958174027427924,0.015576468937324856,0.3094681497051334
1750771373.7149072,-2.355771998281695,-0.4891611179059199,-1.902665080381479,1.5695791859791288,-0.8251470154822096,-2.3950259391658713,0.22255355876856117,-0.5809284449477133,0.35864179579168143,0.0024606121627749234,0.06981890249491562,0.06983519616432594,8.319417029216114,3.66762546428868,0.3453570065215605,0.0029587858836472416,0.015581512840356714,0.30962848023829903
1750771373.716634,-2.3553258836053295,-0.4903260451163085,-1.9019457316060002,1.569584126614833,-0.8250068244091144,-2.394885715375955,0.22355911256445177,-0.5839947937238619,0.3607050143305281,0.002480024254997994,0.07037220078293704,0.07038862394200598,8.313891783656688,3.6706866682781762,0.3450245895261542,0.002959402450325939,0.015586595132906982,0.3097886698287703
1750771373.7186112,-2.3548777698377483,-0.49149708122550795,-1.901222268167821,1.5695891060790133,-0.824865526557895,-2.394744384548889,0.22455265691647408,-0.5870373595855471,0.36275646739777934,0.002499440643797797,0.07092568084568274,0.07094223354109078,8.308372048360354,3.673741324183122,0.34469366996311945,0.002960023723905356,0.015591715785697657,0.30994871044065847
1750771373.7205966,-2.3544276809559648,-0.4926741787632354,-1.9004947135441466,1.569594124380292,-0.8247231215636415,-2.3946019463196695,0.22553423383826077,-0.5900562383698253,0.36479620888271047,0.00251886135831651,0.0714793440434866,0.07149602632219246,8.30285816349175,3.6767892035859817,0.34436427379529755,0.002960649702146121,0.01559687475953297,0.31010859440546407
1750771373.7225766,-2.3539756408521386,-0.4938572904526053,-1.899763091103508,1.5695991815273498,-0.8245796090587243,-2.394458400320573,0.22650388616507147,-0.593051527624156,0.3668242935634795,0.0025382864275889177,0.0720331917356144,0.07205000364470508,8.297350458333508,3.6798300846079934,0.34403642602432305,0.0029612803818732532,0.015602072024325194,0.3102683144093785
1750771373.7246265,-2.3535216733319637,-0.49504636921348055,-1.8990274241040206,1.569604277528925,-0.8244349886727971,-2.3943137461811577,0.22746165752233133,-0.5960233265412829,0.36884077707345825,0.0025577158805384754,0.07258722527998414,0.07260416686679738,8.291849251484253,3.6828637518092866,0.3437101507037892,0.0029619157598213,0.015607307542106041,0.3104278634917133
1750771373.727405,-2.3530658021131186,-0.49624136816570186,-1.8982877356917047,1.5696094123938138,-0.8242892600327982,-2.394167983528268,0.2284075922944852,-0.5989717358948397,0.37084571586795684,0.0025771497460157665,0.07314144603343264,0.07315851734539068,8.28635485094903,3.6858899961171456,0.3433854709503417,0.002962555833777289,0.015612581282420553,0.3105872350349701
1750771373.729066,-2.352608050823779,-0.49744224063218745,-1.897544048898876,1.56961458613087,-0.8241424227629537,-2.3940211119860346,0.22934173559452803,-0.6018968579763079,0.37283916719170385,0.002596588052701615,0.07369585535143698,0.07371305643616398,8.28086755437273,3.6889086147027625,0.3430624089648439,0.002963200598840975,0.015617893206961952,0.3107464227701925
1750771373.7308743,-2.352148443001192,-0.49864894014190053,-1.8967963866425963,1.5696197987490046,-0.8239944764847804,-2.3938731311758787,0.2302641332338191,-0.6047987965325787,0.37482118904653927,0.0026160308292434197,0.07425045458822967,0.07426778549351717,8.275387649130542,3.691919410927665,0.34274098603873443,0.002963850053892412,0.015623243280671448,0.3109054207515717
1750771373.7328598,-2.351687002090308,-0.49986142043270565,-1.8960447717231954,1.5696250502571858,-0.8238454208170864,-2.393724040716514,0.23117483169258005,-0.607677656704942,0.3767918401599339,0.002635478104151903,0.07480524509680564,0.07482270587058247,8.269915412551947,3.694922194205437,0.34242122257675484,0.002964504194972422,0.01562863146868642,0.31106422337475664
1750771373.7346928,-2.3512237514424723,-0.5010796354540936,-1.8952892268228467,1.569630340664439,-0.8236952553759771,-2.3935738402239486,0.23207387809075916,-0.6105335449687839,0.37875117995383567,0.0026549299058153774,0.0753602282287973,0.07537781891919249,8.264451112052893,3.697916779945594,0.342103138106948,0.002965163018439716,0.015634057732622768,0.31122282534766493
1750771373.7368326,-2.3507587143141744,-0.5023035393697892,-1.8945297745042122,1.5696356699798457,-0.8235439797748558,-2.393422529311489,0.23296132015941728,-0.6133665690744518,0.38069926851412234,0.002674386262540162,0.07591540533463353,0.07593312598987823,8.258995005290402,3.700902989432629,0.3417867512969325,0.0029658265218549616,0.01563952203857831,0.31138122170326854
1750771373.738822,-2.350291913865854,-0.5035330865602452,-1.893766437209143,1.5696410382125445,-0.8233915936244234,-2.3932701075897413,0.2338372062126548,-0.616176837989161,0.38263616656058713,0.0026938472025255333,0.07647077776336653,0.07648862843184732,8.253547340358573,3.7038806497382986,0.34147207996943496,0.0029664947020213894,0.015645024347770316,0.31153940777963485
1750771373.740745,-2.349823373160763,-0.504768231625019,-1.8929992372574391,1.56964644537173,-0.8232380965326884,-2.393116574666615,0.23470158512001904,-0.6189644618399387,0.3845619354174941,0.0027133127538340844,0.0770263468626901,0.0770443275929809,8.248108355939417,3.706849593619949,0.34115914111813384,0.002967167554939227,0.015650564621932456,0.3116973792264504
1750771373.7427087,-2.3493531151638805,-0.5060089293850334,-1.8922281968456751,1.5696518914666528,-0.8230834881049613,-2.3929619301473255,0.23555450627935903,-0.6217295518574653,0.38647663698453655,0.0027327829444360645,0.077582113979113,0.07760022481981331,8.242678281456888,3.7098096594411234,0.34084795091932435,0.002967845077840197,0.01565614282768349,0.31185513199009907
1750771373.7446783,-2.3488811627408848,-0.5072551348847316,-1.8914533380460714,1.5696573765066193,-0.8229277679438631,-2.3928061736343955,0.23639601959029197,-0.6244722203212247,0.3883803337085535,0.002752257802212701,0.0781380804575618,0.07815632145751766,8.237257337273107,3.712760691041748,0.3405385247527051,0.0029685272680428686,0.01566175892044979,0.31201266230863267
1750771373.7466989,-2.3484075386571748,-0.508506803394118,-1.8906746828054324,1.5696629005009917,-0.8227709356493271,-2.392649304727659,0.2372261754280723,-0.6271925805054412,0.3902730885555726,0.002771737354889887,0.07869424764173973,0.07871261884990066,8.231845734830046,3.71570253767213,0.3402308772111768,0.002969214121007719,0.015667412865770045,0.3121699667137439
1750771373.748863,-2.347932265576944,-0.5097638904106976,-1.8898922529441347,1.5696684634591873,-0.8226129908185982,-2.3924913230242644,0.2380450246180115,-0.629890746626202,0.39215496498354463,0.0027912216300714247,0.07925061687399683,0.07926911833938063,8.226443676825493,3.7186350538753543,0.3399250221199276,0.002969905633102926,0.01567310462552713,0.31232704201396405
1750771373.7506678,-2.3474553660623068,-0.5110263516613056,-1.8891060701551687,1.5696740653906787,-0.8224539330462388,-2.392332228118676,0.23885261841037672,-0.6325668337895175,0.39402602691543737,0.0028107106553056805,0.07980718949517854,0.07982582126697403,8.221051357381425,3.7215580994055895,0.3396209725468379,0.0029706018025974054,0.015678834157332677,0.3124838852944029
1750771373.7571115,-2.3474553660623068,-0.5110263516613056,-1.8891060701551687,1.5696740653906787,-0.8224539330462388,-2.392332228118676,0.23885261841037672,-0.6325668337895175,0.39402602691543737,0.0028107106553056805,0.07980718949517854,0.07982582126697403,8.221051357381425,3.7215580994055895,0.3396209725468379,0.0029706018025974054,0.015678834157332677,0.3124838852944029
1750771373.7582145,-2.3469768625724723,-0.5122941431038361,-1.8883161560032349,1.5696797063049934,-0.8222937619241311,-2.392172019602678,0.23964900845582468,-0.6352209579405657,0.3958863387131568,0.0028302044579963967,0.08036396684482136,0.08038272897228677,8.215668962209852,3.7244715391080967,0.33931874082548363,0.002971302625233882,0.015684601424315735,0.3126404939130291
1750771373.7592263,-2.3464967774629684,-0.5135672209288726,-1.887522531923894,1.5696853862117137,-0.8221324770414817,-2.3920106970653765,0.24043424678129482,-0.6378532358137974,0.397735965151646,0.002849703065389154,0.08092095026095486,0.08093984279350414,8.210296668780384,3.7273752428481153,0.3390183385604914,0.002972008096382452,0.01569040638402369,0.3127968654946062
1750771373.7611856,-2.3455319512843276,-0.516129061661311,-1.88592423907477,1.5696968630409718,-0.8218065643380017,-2.3916847082699153,0.2419714781204276,-0.6430527233194692,0.401403422965774,0.0028887148029147418,0.08203554063793397,0.08205469412913818,8.199583056789836,3.733152946332,0.3384230652984914,0.0029734329747516095,0.015702129225167675,0.313108889303096
1750771373.762747,-2.34504725440151,-0.5174177381266034,-1.8851196125234413,1.5697026599829451,-0.8216419356822193,-2.3915200411766047,0.24272357685956378,-0.6456201699334618,0.4032213857328873,0.0029082279870004846,0.08259315026763875,0.082612434312659,8.194242053440401,3.736026709956183,0.3381282140292615,0.00297415237390939,0.015708047022917677,0.3132645380472862
1750771373.7646546,-2.3445610642704344,-0.5187115280927674,-1.8843113604802584,1.5697084959561949,-0.8214761915959947,-2.391354258391695,0.24346473528491716,-0.6481662441402095,0.4050289258759399,0.002927746083755006,0.08315097130166435,0.08317038595025036,8.188911782566137,3.7388902651942333,0.3378352317020276,0.0029748764084960503,0.015714002351028565,0.3134199427626598
1750771373.7667253,-2.3440734027182057,-0.5200103889348675,-1.8834995037240416,1.569714370970573,-0.8213093316551889,-2.3911873594909467,0.24419500696083254,-0.6506910659093486,0.4068261098681609,0.0029472691198687085,0.08370900507074049,0.08372855037275088,8.18359238289216,3.7417435054955024,0.3375441265261733,0.0029756050749734685,0.015719995166225405,0.3135751023105445
1750771373.768736,-2.343584291464555,-0.521314278268429,-1.8826840629003936,1.5697202850359848,-0.821141355433002,-2.3910193440474607,0.2449144456937982,-0.6531947557224886,0.40861300445274046,0.0029667971218863445,0.08426725290414656,0.08428692890948523,8.178283985888989,3.7445863287259806,0.3372549060786919,0.0029763383690107567,0.01572602542765374,0.3137300157756596
1750771373.770729,-2.3430937521213755,-0.5226231539504163,-1.8818650585211767,1.5697262381623887,-0.8209722624999776,-2.3908502116316805,0.2456231055117016,-0.6556774345302925,0.4103896766205839,0.0029863301162609025,0.0848257161295614,0.08484552288825192,8.172986715906292,3.747418637112834,0.33696757731086185,0.002977076287822094,0.015732093090223057,0.3138846824707065
1750771373.7727284,-2.3426018061923,-0.5239369740801294,-1.8810425109640452,1.5697322303597956,-0.8208020524240052,-2.3906799618113954,0.24632104064369884,-0.6581392237108902,0.412156193588926,0.0030058681292812386,0.08538439607323604,0.08540433363531238,8.167700690367733,3.750240337108081,0.33668214657176476,0.0029778188265686674,0.01573819811371451,0.31403910192802853
1750771373.7761424,-2.3421084750723185,-0.5252556970000164,-1.8802164404720072,1.5697382616382691,-0.8206307247703233,-2.390508594151744,0.2470083055005069,-0.6605802450291148,0.4139126227802568,0.003025411187152204,0.08594329405976327,0.0859633624753674,8.162426019922366,3.753051339317679,0.33639861961747425,0.0029785659826550414,0.01574434045141206,0.31419327388785867
1750771373.7766232,-2.3416137800474335,-0.5265792812964101,-1.8793868671530385,1.569744332007925,-0.8204582791015218,-2.3903361082152164,0.2476849546550852,-0.6630006205966176,0.4156590318017094,0.00304495931591982,0.08650241141224456,0.08652261073155154,8.157162808559924,3.755851558410138,0.33611700162376107,0.0029793177513878872,0.015750520061306988,0.3143471983060532
1750771373.7787938,-2.3411177422943554,-0.527907685800181,-1.8785538109797333,1.5697504414789307,-0.8202847149775492,-2.390162503561659,0.2483510428239405,-0.6654004728331696,0.4173954884250998,0.0030645125415406497,0.08706174945218227,0.0870820797254124,8.15191115384103,3.758640913013929,0.33583729720482536,0.002980074130023685,0.015756736898350797,0.3145008753350096
1750771373.7807264,-2.3406203828802337,-0.5292408695873156,-1.8777172917889926,1.5697565900615063,-0.820110031955708,-2.3899877797482763,0.2490066248487432,-0.6677799244286983,0.41912206056737006,0.0030840708897925946,0.08762130949947045,0.08764177077690394,8.146671146983888,3.761419325639514,0.3355595104244906,0.0029808351133061997,0.015762990917236534,0.31465430533102984
1750771373.7828379,-2.3401217227624236,-0.5305787919794183,-1.876877329281755,1.5697627777659222,-0.8199342295906673,-2.389811936329634,0.24965175567849116,-0.670139098306424,0.42083881627154573,0.0031036343863319296,0.08818109287242706,0.08820168520436117,8.14144287305426,3.76418672257609,0.3352836448105127,0.002981600697556993,0.015769282073566707,0.3148074888354158
1750771373.784714,-2.33962178278829,-0.5319214125441443,-1.8760339430227644,1.5697690046025008,-0.8197573074344566,-2.389634972857664,0.2502864903520277,-0.6724781175867256,0.42254582368797716,0.003123203056730468,0.08874110088770196,0.08876182432449069,8.136226411083591,3.76694303382389,0.3350097033627735,0.002982370880180728,0.01577561032034823,0.3149604265814824
1750771373.786674,-2.339120583695044,-0.5332686910955573,-1.8751871524403683,1.5697752705816153,-0.8195792650364782,-2.3894568888816643,0.250910883981144,-0.674797105552226,0.42424315105652666,0.0031427769263892777,0.08930133486031921,0.08932218945235194,8.131021834267035,3.7696881929764197,0.3347376885799652,0.002983145656098688,0.0157819756117837,0.31511311947976317
1750771373.7887127,-2.338618146109615,-0.5346205876944197,-1.8743369768263616,1.5697815757136893,-0.8194001019435015,-2.3892776839483068,0.25152499173398946,-0.6770961856135057,0.42593086668871716,0.003162356020550041,0.08986179610370831,0.08988278190135156,8.125829210064305,3.772422137161051,0.3344676024583404,0.0029839250205966933,0.015788377902953163,0.3152655686246383
1750771373.7906723,-2.3381144905485516,-0.5359770626484153,-1.8734834353358583,1.569787920009197,-0.8192198176996754,-2.3890973576016368,0.25212886881895785,-0.6793754812758139,0.4276090389506101,0.0031819403643867632,0.09042248592952437,0.09044360298321243,8.12064860035989,3.7751448069430764,0.3341994465123895,0.0029847089715043895,0.015794817143870866,0.3154177752732419
1750771373.7926216,-2.3376096374179602,-0.5373380765123059,-1.8726265469872008,1.5697943034786632,-0.8190384118465222,-2.3889159093830785,0.2527225704690382,-0.6816351161067219,0.42927773624606924,0.0032015299828749466,0.09098340564780814,0.09100465400797375,8.115480061621215,3.7778561462364415,0.3339332217855771,0.002985497502983161,0.015801293289060717,0.3155697408575434
1750771373.7946193,-2.3371036070134683,-0.5387035900880246,-1.8717663306618988,1.5698007261326616,-0.8188558839229501,-2.3887333388314373,0.25330615192653305,-0.6838752137045677,0.43093702700055697,0.003221124900910081,0.09154455656689357,0.09156593628396544,8.110323645018434,3.7805561022264307,0.33366892886550364,0.002986290612527907,0.015807806290441137,0.31572146696648007
1750771373.7966547,-2.3365964195202222,-0.5400735644247066,-1.8709028051046026,1.5698071879818163,-0.8186722334652501,-2.388549645482904,0.2538796684282539,-0.6860958976678594,0.4325869796453086,0.003240725143200545,0.09210593999337974,0.09212745111779487,8.105179396588412,3.783244625278992,0.3334065678943432,0.002987088294583019,0.015814356099140198,0.31587295534603155
1750771373.7986567,-2.336088095012912,-0.5414479608186582,-1.8700359889231066,1.5698136890368004,-0.8184874600071019,-2.3883648288710573,0.2544431751910254,-0.688297291565336,0.43422766260186824,0.0032603307343513034,0.09266755723215092,0.0926891998143291,8.100047357335905,3.785921668877785,0.333146138579294,0.002987890545969368,0.01582094266685189,0.31602420789535524
1750771373.8006258,-2.335578653455826,-0.5428267408132701,-1.8691659005883867,1.5698202293083359,-0.8183015630795776,-2.388178888526869,0.2549967273977291,-0.6904795189071359,0.435859144267232,0.003279941698792801,0.09322940958628974,0.09325118367669176,8.094927563416299,3.7885871895164587,0.33288764020934153,0.002988697361532092,0.01582756594282158,0.31617522666694975
1750771373.8048537,-2.3350681147029317,-0.5442098661988712,-1.868292558434657,1.5698268088071938,-0.8181145422111449,-2.3879918239787057,0.2555403801836538,-0.6926427031166081,0.4374814929993564,0.003299558060822805,0.09379149835724307,0.09381340400622959,8.089820046239053,3.791241146638246,0.3326310716658535,0.002989508737227224,0.015834225880972257,0.3163260138463997
1750771373.8052847,-2.3350681147029317,-0.5442098661988712,-1.868292558434657,1.5698268088071938,-0.8181145422111449,-2.3879918239787057,0.2555403801836538,-0.6926427031166081,0.4374814929993564,0.003299558060822805,0.09379149835724307,0.09381340400622959,8.089820046239053,3.791241146638246,0.3326310716658535,0.002989508737227224,0.015834225880972257,0.3163260138463997
1750771373.8070352,-2.3340438244746653,-0.5469890015377876,-1.8665361853238354,1.569840085530203,-0.8177371267524238,-2.3876143203709193,0.2565982077171504,-0.6969124352343609,0.440699064815549,0.0033388070742724086,0.09491639034603132,0.0949385592632668,8.07964194480789,3.796514222397493,0.33212371759635145,0.002991145154146784,0.015847655533334542,0.3166269028788035
1750771373.8093774,-2.3335301121567333,-0.5483849363043722,-1.8656531903523597,1.5698467827761373,-0.8175467312060798,-2.3874238803550396,0.25711249238009504,-0.6990192293132278,0.44229442429512494,0.0033584397735686375,0.09547919615757802,0.09550149678447074,8.074571400861698,3.799133273945992,0.33187292789458345,0.0029919701860968134,0.015854425146462944,0.31677700978798945
1750771373.810637,-2.333015380958217,-0.5497850660878214,-1.864767013533429,1.5698535192929597,-0.817355209806724,-2.3872323142226786,0.2576170974284039,-0.7011074725501178,0.44388092360621073,0.00337807796624195,0.09604224357343626,0.0960646759602246,8.069513214510753,3.8017406276697066,0.33162405968610914,0.0029927997600027803,0.01586123121808274,0.31692689521065176
1750771373.812995,-2.3324996501836206,-0.5511893539090842,-1.8638776725194033,1.5698602950916805,-0.8171625620698553,-2.3870396214892344,0.2581120775684423,-0.7031772875400404,0.44545863070783476,0.003397721675921757,0.09660553388585676,0.09662809808278,8.064467395398744,3.8043362565965695,0.3313771099789532,0.0029936338737669333,0.015868073692823118,0.3170765619805601
1750771373.8147695,-2.331982939028154,-0.5525977630340639,-1.8629851848268384,1.569867110183357,-0.8169687875083893,-2.3868458016675227,0.2585974873852711,-0.7052287966389916,0.44702761344147884,0.003417370926022416,0.0971690683852949,0.09719176444252768,8.059433949216617,3.80692013623801,0.3311320754457853,0.0029944725210323906,0.01587495252010927,0.3172260130566471
1750771373.816618,-2.331982939028154,-0.5525977630340639,-1.8629851848268384,1.569867110183357,-0.8169687875083893,-2.3868458016675227,0.2585974873852711,-0.7052287966389916,0.44702761344147884,0.003417370926022416,0.0971690683852949,0.09719176444252768,8.059433949216617,3.80692013623801,0.3311320754457853,0.0029944725210323906,0.01587495252010927,0.3172260130566471
1750771373.8187406,-2.3314652665779882,-0.5540102569731191,-1.8620895678367368,1.5698739645790936,-0.8167738856326636,-2.3866508542677805,0.2590733813316025,-0.7072621219411717,0.4485879395193031,0.003437025739817664,0.09773284836032407,0.09775567632797544,8.054412877783907,3.8094922445320725,0.3308889524279527,0.0029953156975391242,0.015881867646924314,0.3173752515088297
1750771373.820653,-2.3309466518105295,-0.5554267994805144,-1.8611908387948128,1.5698808582900408,-0.81657785595044,-2.386454778797669,0.2595398137171272,-0.7092773852569152,0.45013967651267145,0.0034566861404958377,0.09829687509761399,0.0983198350257244,8.049404179183924,3.81205256178028,0.3306477369441991,0.0029961634005677192,0.01588881901964195,0.31752428051194487
1750771373.8226404,-2.330427113594717,-0.5568473545538364,-1.8602890148117899,1.5698877913273954,-0.8163806979669088,-2.386257574762279,0.25999683869825924,-0.7112747080915823,0.4516828918414499,0.003476352150974798,0.0988611498819016,0.09888424182046568,8.044407847888825,3.8146010705437723,0.33040842471188947,0.002997015622172037,0.015895806583814467,0.31767310335213983
1750771373.825673,-2.3299066706913383,-0.5582718864333582,-1.8593841128637125,1.5698947637023999,-0.816182411184692,-2.386059241664134,0.26044451026806226,-0.7132542116247118,0.4532176527630909,0.0034960237941154045,0.0994256739960661,0.09944889799495032,8.039423874839818,3.8171377556320314,0.3301710111418339,0.002997872360437353,0.015902830287109645,0.31782172341169057
1750771373.8267748,-2.3293853417533663,-0.5597003596013685,-1.8584761497922804,1.5699017754263422,-0.8159829951038509,-2.3858597790031926,0.2608828822466912,-0.7152160166903266,0.45474402636258726,0.0035157010926174927,0.09999044872092624,0.1000138048299783,8.034452247607028,3.8196626039792134,0.32993549136188066,0.002998733610502286,0.015909890071482934,0.3179701441712164
1750771373.8287952,-2.328863145326314,-0.561132738781466,-1.8575651423052033,1.5699088265105556,-0.8157824492218824,-2.3856591862768544,0.2613120082720061,-0.7171602437575657,0.4562620795424332,0.0035353840689782007,0.10055547533544797,0.10057896360438151,8.029492950452234,3.8221756046178728,0.32970186021764153,0.0029995993663122344,0.015916985884740616,0.3181183692065675
1750771373.830657,-2.3283400998486097,-0.5625689889378034,-1.8566511069765772,1.5699159169664183,-0.815580773033731,-2.385457462979964,0.2617319417906175,-0.7190870129121885,0.4577718790131341,0.003555072745572348,0.1011207551165671,0.10114437559500195,8.024545964479753,3.824676748595474,0.3294701122878686,0.003000469624082782,0.015924117669693826,0.3182664021795857
1750771373.8327355,-2.3278162236519853,-0.5640090752743081,-1.8557340602472774,1.5699230468053529,-0.8153779660317886,-2.3852546086048134,0.2621427360491336,-0.7209964438385489,0.45927349128389594,0.003574767144606587,0.10168628933923106,0.10171004207668359,8.019611267694001,3.827166028923792,0.3292402418893767,0.003001344378758417,0.015931285370328487,0.318414246845804
1750771373.834638,-2.327291534961888,-0.5654529632338612,-1.854814018425369,1.5699302160388264,-0.8151740277058979,-2.3850506226411476,0.26254444408583294,-0.722888655802395,0.46076698265379457,0.003594467288132993,0.10225207927633537,0.10227596432224387,8.014688835154923,3.829643440503766,0.32901224309065036,0.003002223625617025,0.015938488928840998,0.3185619070350999
1750771373.8367822,-2.326766051897902,-0.566900618497443,-1.8538909976865359,1.5699374246783497,-0.8149689575433596,-2.384845504576168,0.2629371187225026,-0.7247637676340297,0.4622524192030086,0.003614173198049436,0.10281812619883515,0.1028421436024628,8.009778639028863,3.832108980089362,0.32878610971376465,0.003003107359973697,0.01594572829057169,0.3187093866629511
1750771373.8387835,-2.3262397924741927,-0.5683520069832424,-1.8529650140745284,1.5699446727354773,-0.8147627550289327,-2.3846392538945356,0.26332081255672185,-0.7266218977124214,0.4637298667847671,0.0036338848960911765,0.10338443137554533,0.10340858118606448,8.004880648736773,3.8345626461907854,0.328561835354124,0.003003995576895576,0.015953003395228496,0.3188566897184279
1750771373.8406186,-2.3257127745999595,-0.5698070948457454,-1.8520360835016225,1.569951960221807,-0.8145554196448428,-2.384431870078377,0.2636955779543244,-0.7284631639496585,0.4651993910173216,0.0036536024037937364,0.10395099607322408,0.10397527833969701,7.999994831017985,3.837004439044731,0.3283394133814735,0.0030048882703750473,0.015960314184872867,0.31900382026271373
1750771373.8426542,-2.3251850160799084,-0.5712658484747815,-1.8511042217491012,1.5699592871489798,-0.8143469508707826,-2.3842233526072873,0.26406146704211786,-0.7302876837759034,0.4666610572760176,0.0036733257425928265,0.1045178215566202,0.10454223632791648,7.995121150022043,3.8394343605687618,0.3281188369427608,0.003005785437262168,0.015967660602900745,0.3191507824294398
1750771373.8449225,-2.3246565346147365,-0.5727282344945452,-1.8501694444677437,1.569966653528679,-0.8141373481839178,-2.3840137009583344,0.2644185317010125,-0.7320955741252811,0.4681149306862811,0.00369305493372125,0.1050849090882289,0.1051094564131661,7.990259567435512,3.8418524142605914,0.32790009898750294,0.003006687071445994,0.015975042585825574,0.3192975804147813
1750771373.8466594,-2.324127347801631,-0.5741942197625951,-1.8492317671783356,1.5699740593726303,-0.813926611058891,-2.3838029146060635,0.2647668235593085,-0.7338869514220032,0.46956107611632186,0.0037127899982427504,0.1056522599286275,0.10567693985576125,7.9854100425489385,3.844258605184901,0.3276831922602027,0.0030075931677922677,0.01598246007962355,0.3194442184810106
1750771373.848802,-2.3235974731347797,-0.5756637713688137,-1.8482912052721883,1.5699815046926016,-0.8137147389678248,-2.3835909930225014,0.2651063939862798,-0.735661931567161,0.47099955817043404,0.0037325309570671985,0.1062198753360741,0.10624468791386986,7.980572532349942,3.846652939902632,0.3274681093170936,0.0030085037215897233,0.015989913018957688,0.319590700950179
1750771373.851238,-2.323066928005897,-0.577136856634354,-1.8473477740116744,1.569988989500402,-0.813501731380331,-2.3833779356771605,0.26543729408597905,-0.7374206299259631,0.47243044118226124,0.0037522778309482894,0.10678775656674508,0.10681270184349188,7.9757469915978465,3.8490354264271676,0.32725484252481984,0.0030094187280471554,0.015997401345187186,0.3197370322013894
1750771373.8588095,-2.322535729704758,-0.5786134431105534,-1.8464014885307751,1.5699965138078824,-0.8132875877635071,-2.383163742037044,0.26575957469140526,-0.7391631613157151,0.47385378920884347,0.0037720306404180476,0.10735590487463868,0.10738098289844522,7.970933372952837,3.8514060741546765,0.3270433840829397,0.00301033818051889,0.016004924996953284,0.319883216668826
1750771373.859748,-2.322003895419749,-0.580093498577825,-1.8454523638356388,1.5700040776269344,-0.8130723075819466,-2.382948411566649,0.2660732863587764,-0.7408896399940224,0.475269666024333,0.0037917894059049835,0.10792432151151816,0.10794953233034356,7.966131627005827,3.8537648938393243,0.32683372601415994,0.0030112620757122765,0.01601248391129462,0.32002925883852695
1750771373.8600905,-2.3214714422384244,-0.5815769910445283,-1.8445004148051538,1.5700116809694902,-0.8128558902977412,-2.382731943727972,0.26637847936213777,-0.7426001796476938,0.47667813511442575,0.0038115541476215157,0.10849300772700406,0.10851835138857817,7.961341702395315,3.856111897525616,0.3266258601847903,0.003012190407118082,0.016020078027851305,0.32017516324481127
1750771373.8607006,-2.3209383871480775,-0.5830638887458184,-1.8435456561915284,1.5700193238475224,-0.8126383353704876,-2.3825143379805125,0.26667520368816744,-0.7442948933820365,0.47807925967079257,0.0038313248856268484,0.10906196476839405,0.10908744132029752,7.956563545875624,3.8584470985106893,0.3264197783046242,0.0030131231700107754,0.016027707281186927,0.32032093446789883
1750771373.862761,-2.3204047470363194,-0.5845541601424689,-1.8425881026208897,1.5700270062730435,-0.8124196422572876,-2.3822955937812784,0.26696350903125443,-0.7459738937107214,0.4794731025859113,0.003851101639765976,0.10963119388083842,0.1096568033703957,7.951797102408967,3.860770511287358,0.3262154719381989,0.0030140603579522428,0.016035371610809104,0.3204665771351858
1750771373.8647754,-2.3198705386916685,-0.5860477739196819,-1.841627768593879,1.5700347282581055,-0.8121998104127552,-2.38207571058479,0.2672434447887015,-0.7476372925459378,0.480859726447936,0.0038708844297864306,0.11020069630707839,0.11022643878147748,7.947042315202303,3.863082151512668,0.32601293250572966,0.0030150019677609562,0.01604307094885305,0.3206120959080584
1750771373.8667011,-2.3193357788041498,-0.5875446989858739,-1.8406646684862729,1.5700424898147995,-0.8119788392890221,-2.381854687843085,0.2675150600562778,-0.7492852011892096,0.4822391935360616,0.003890673275180061,0.11077047328770288,0.11079634879385818,7.942299125838155,3.865382035949224,0.32581215129741364,0.003015947991819848,0.01605080523468886,0.32075749549581833
1750771373.868945,-2.318800483965902,-0.5890449044714483,-1.8396988165495989,1.570050290955256,-0.8117567283357427,-2.3816325250057218,0.26777840362389577,-0.7509177303225237,0.48361156581592246,0.003910468195306877,0.11134052606089397,0.11136653464553055,7.937567474306762,3.8676701824280366,0.32561311947397004,0.0030168984259804246,0.016058574400513673,0.32090278063695954
1750771373.870687,-2.318264670671793,-0.5905483597275438,-1.8387302269117738,1.5700581316916435,-0.8115334770000935,-2.381409221519786,0.26803352397151214,-0.7525349899998783,0.48497690493521833,0.003930269209314878,0.11191085586255134,0.11193699757215031,7.932847299090198,3.869946609812116,0.3254158280733935,0.0030178532638228837,0.016066378382033165,0.32104795610685893
1750771373.8726685,-2.317728355320044,-0.5920550343247726,-1.8377589135777397,1.5700660120361687,-0.8113090847267843,-2.3811847768298944,0.26828046926526294,-0.754137089639367,0.4863352722197278,0.0039500763362049895,0.11248146392616018,0.11250773880701405,7.928138537233898,3.872211337937534,0.32522026802150744,0.0030188125007652414,0.01607421711122835,0.32119302671092764
1750771373.87467,-2.3171915542128607,-0.5935648980519419,-1.8367848904301098,1.5700739320010761,-0.8110835509580596,-2.380959190378199,0.26851928735375485,-0.7557241380155376,0.4876867286693156,0.003969889594776412,0.11305235148299601,0.11307875958104477,7.923441124407515,3.8744643875914306,0.32502643013208715,0.0030197761306840452,0.016082090525855144,0.3213379972874872
1750771373.876677,-2.3166542835570723,-0.5950779209147585,-1.8358081712298304,1.5700818915986479,-0.8108568751337044,-2.3807324616043917,0.26875002576460016,-0.7572962432522727,0.48903133495433376,0.003989709003621957,0.11362351976172338,0.11365006112276767,7.918754994986452,3.876705780458495,0.32483430511782196,0.0030207441472976495,0.01608999855235792,0.3214828726986204
1750771373.879277,-2.316116559464777,-0.5965940731345194,-1.834828769616836,1.570089890841203,-0.810629056691047,-2.3805045899457116,0.26897273170107866,-0.7588535128159303,0.4903691514120433,0.00400953458117659,0.1141949699887589,0.1142216446582867,7.914080082094653,3.878935539095196,0.32464388359094476,0.003021716545689565,0.01609794112741413,0.32162765783048824
1750771373.8808324,-2.315578397953992,-0.5981133251467918,-1.8338466991107243,1.5700979297410973,-0.8104000950649679,-2.3802755748369466,0.2691874520390187,-0.7603960535089599,0.49170023804336915,0.004029366345726633,0.11476670338805912,0.11479351141127021,7.909416317675922,3.8811536868799146,0.3244551560724401,0.003022693321227028,0.016105918181722977,0.3217723575959078
1750771373.882657,-2.3150398149493143,-0.5996356476000804,-1.83286197311143,1.5701060083107226,-0.8101699896878998,-2.3800454157104407,0.2693942333238845,-0.7619239714639001,0.49302465450981814,0.004049204315274499,0.11533872118102874,0.11536566260293452,7.904763632572615,3.8833602479797804,0.32426811299685054,0.0030236744654271327,0.016113929643395624,0.32191697692950405
1750771373.884649,-2.3145008262825817,-0.6011610113544776,-1.831874604899907,1.570114126562507,-0.8099387399898355,-2.379814111996097,0.26959312176798345,-0.7634373721376588,0.494342460130627,0.004069048507718624,0.11591102458678053,0.11593809945201049,7.900121956562482,3.8855552473200556,0.3240827447188378,0.003024659974879841,0.016121975447871337,0.3220615207785
1750771373.8867059,-2.313961447693543,-0.6026893874803108,-1.8308846076388132,1.5701222845089138,-0.8097063453983324,-2.3795816631213835,0.26978416324786036,-0.7649363603061874,0.4956537138798657,0.0040888989407456,0.11648361482176556,0.11651082317473137,7.895491218417053,3.8877387105406482,0.32389904151126175,0.003025649843127729,0.01613005552016597,0.32220599411207973
1750771373.8889344,-2.313421694830532,-0.6042207472567762,-1.8298919943732086,1.570130482162442,-0.809472805338519,-2.3793480685113395,0.26996740330186936,-0.7664210400594786,0.4969584743840135,0.004108755631830953,0.11705649310002589,0.11708383498481116,7.890871345975151,3.8899106639723127,0.32371699357946887,0.0030266440637255984,0.016138169792418715,0.3223504019139333
1750771373.8907225,-2.313421694830532,-0.6042207472567762,-1.8298919943732086,1.570130482162442,-0.809472805338519,-2.3793480685113395,0.26996740330186936,-0.7664210400594786,0.4969584743840135,0.004108755631830953,0.11705649310002589,0.11708383498481116,7.890871345975151,3.8899106639723127,0.32371699357946887,0.0030266440637255984,0.016138169792418715,0.3223504019139333
1750771373.892737,-2.3128815832511456,-0.6057550621705561,-1.8288967780312468,1.5701387195356247,-0.809238119233096,-2.3791133275885783,0.2701428871279215,-0.7678915147969451,0.4982567999195818,0.004128618598240975,0.1176296606330629,0.117657136093427,7.886262266197943,3.8920711345945174,0.32353659106206634,0.003027642630289257,0.016146318193057726,0.32249474918248344
1750771373.8947892,-2.312341128422927,-0.6072923039144404,-1.827898971424884,1.57014699664103,-0.809002286502345,-2.378877439773294,0.27031065958131434,-0.7693478872230343,0.49954874841079067,0.004148487857101929,0.11820311862975845,0.11823072770919157,7.881663905184186,3.8942201500036755,0.32335782403199625,0.0030286455383748525,0.016154500648288623,0.32263904092586715
1750771373.896614,-2.3118003457240532,-0.6088324443859285,-1.8268985872505787,1.5701553134912594,-0.8087653065641307,-2.378640404483266,0.2704707651728132,-0.7707902593432282,0.5008343774275894,0.004168363425301758,0.11877686829646569,0.11880461103813746,7.877076188283501,3.896357738391437,0.32318068250732546,0.0030296527807503835,0.016162717086878588,0.3227832821634178
1750771373.8987727,-2.3112592504440257,-0.6103754556858281,-1.8258956380900049,1.5701636700989485,-0.8085271788339092,-2.3784022211338636,0.27062324806681354,-0.7722187324603426,0.5021137441837848,0.00418824531954897,0.11935091083700539,0.11937878728369128,7.872499040099284,3.8984839284985404,0.32300515645325767,0.0030306643518386183,0.016170967437489595,0.322927477921102
1750771373.9006407,-2.310717857784365,-0.6119213101168492,-1.8248901364107706,1.570172066476766,-0.8082879027247323,-2.3781628891380526,0.27076815207966787,-0.7736334071710902,0.5033869055352221,0.004208133556361592,0.11992524745245274,0.11995325764665345,7.867932384558619,3.9005987495963943,0.3228312357840334,0.003031680245745657,0.0161792516227769,0.32307163323202365
1750771373.9091969,-2.310176182859308,-0.6134699801821846,-1.8238820945671277,1.5701805026374132,-0.8080474776472508,-2.3779224079063996,0.2709055206781351,-0.7750343833629086,0.5046539179782222,0.004228028152027784,0.12049987934133058,0.12052802332518153,7.863376144953756,3.902702231460496,0.3226589103703791,0.0030327004554691465,0.016187569570840173,0.32321575313774925
1750771373.9108474,-2.3085496143396127,-0.6181326121933868,-1.8208428499071436,1.5702060499438317,-0.8073193026756051,-2.377194062866182,0.271272843382627,-0.7791561090026465,0.50841862139738,0.004287750252203994,0.12222555859347418,0.12225410419556877,7.849769146192772,3.908944946229157,0.3221514037800192,0.0030357869208173837,0.016212725234858533,0.3236479508543675
1750771373.912718,-2.308006959774251,-0.6196922737877433,-1.8198247687066251,1.5702146453634547,-0.8070742757836102,-2.3769489787490343,0.2713804979532417,-0.7805032757141586,0.50966159593135,0.00430767044230247,0.12280138350756904,0.12283006306423055,7.845253792242444,3.911003377849929,0.32198535733750744,0.003036824332811709,0.016221177477169904,0.32379197957949146
1750771373.9148188,-2.307464097230037,-0.621254616489721,-1.8188042074379869,1.5702232806298926,-0.806828096940758,-2.3767027424130807,0.2714808291550277,-0.781837232614743,0.5108986985995104,0.004327597069728707,0.12337750964722402,0.12340632319877944,7.840748462807936,3.913050625606037,0.3218208549688529,0.0030378660298282585,0.016229663098649982,0.3239359981202035
1750771373.9169068,-2.306921041312305,-0.6228196139754001,-1.817781177790586,1.5702319557560351,-0.8065807655434156,-2.3764553532546073,0.2715738783322777,-0.783158075285629,0.5121299837152258,0.004347530149577349,0.12395393819473925,0.12398288578103156,7.836253078319167,3.9150867216889518,0.32165788635670783,0.003038912005703105,0.01623818202590868,0.3240800115166866
1750771373.9186795,-2.306377806544057,-0.6243872401112993,-1.816755691345521,1.5702406707548022,-0.806332280985588,-2.3762068106675387,0.27165968647255523,-0.7844658985842831,0.5133555052249928,0.00436746969670208,0.12453067032947539,0.12455975199000587,7.831767558899074,3.9171116986075667,0.32149644116646225,0.0030399622530726486,0.016246734176137485,0.3242240248055455
1750771373.9207635,-2.3058344073666777,-0.6259574689529286,-1.8157277595763617,1.570249425639143,-0.8060826426589216,-2.375957114043445,0.27173829420603296,-0.7857607966431238,0.5145753167077451,0.0043874157257498625,0.1251077072280364,0.12513692300189408,7.827291824334241,3.919125589176662,0.32133650904405175,0.003041016765510808,0.016255319471681077,0.3243680430165138
1750771373.9227374,-2.3052908581406477,-0.627530274743334,-1.814697393849892,1.570258220422036,-0.8058318499527166,-2.375706262771547,0.2718097418051717,-0.7870428628688554,0.5157894713746268,0.004407368251143107,0.12568505006422268,0.12571439999004744,7.822825794207642,3.9211284264618445,0.32117807962924433,0.0030420755361187705,0.016263937833561067,0.3245120711741289
1750771373.924788,-2.304747173146262,-0.6291056319116528,-1.8136646054268368,1.5702670551164881,-0.8055799022539265,-2.3754542562387204,0.2718740691842359,-0.7883121899415487,0.5169980220683711,0.004427327287146887,0.12626270000890752,0.12629218412494067,7.818369387826483,3.9231202437958355,0.32102114254430747,0.0030431385598505057,0.01627258917932103,0.324656114291249
1750771373.9273856,-2.304203366584345,-0.6306835150716514,-1.8126294054626086,1.5702759297355344,-0.8053267989471635,-2.3752010938295043,0.271931315899146,-0.7895688698143276,0.5182010212633389,0.0044472928477589215,0.12684065823011942,0.12687027657416078,7.813922524357168,3.9251010747277313,0.3208656874131402,0.0030442058285656656,0.016281273428821196,0.3248001773752448
1750771373.9287498,-2.303659452576968,-0.6322638990202778,-1.811591805008037,1.5702848442922381,-0.8050725394147111,-2.3749467749261046,0.2719815211472712,-0.7908129937130114,0.5193985210652335,0.004467264946761862,0.12741892589301523,0.12744867850237976,7.80948512278833,3.9270709530164196,0.320711703851444,0.003045277335591382,0.01628999050116764,0.324944265422657
1750771373.9307141,-2.303115445168166,-0.6338467587362038,-1.8105518150101094,1.5702937987996894,-0.8048171230365222,-2.374691298908401,0.2720247237673656,-0.7920446521359821,0.5205905732110927,0.004487243597717661,0.12799750415976438,0.12802739107133085,7.8050571019955415,3.9290299126170916,0.320559181475302,0.003046353074085108,0.016298740312202208,0.3250883834184798
1750771373.9326494,-2.302571358324655,-0.6354320693783695,-1.809509446312708,1.5703027932710059,-0.8045605491902297,-2.3744346651539527,0.2720609622396209,-0.7932639348543655,0.521777229069391,0.004507228813995058,0.12857639418958203,0.1286064154397828,7.800638380767466,3.930977987638819,0.3204081099033988,0.003047433037971946,0.0163075227787028,0.3252325363336762
1750771373.9346995,-2.30202720593655,-0.6370198062845311,-1.8084647096573478,1.570311827719331,-0.804302817251151,-2.374176873038005,0.2720902746857556,-0.7944709309122108,0.5229585396401258,0.004527220608750206,0.12915559713873573,0.12918575276351785,7.7962288778333555,3.932915212354328,0.3202584787574321,0.003048517220624032,0.01631633781763464,0.3253767291275625
1750771373.9366524,-2.3014830018180787,-0.638609944969807,-1.8074176156839092,1.570320902157835,-0.8040439265922927,-2.373917921933493,0.27211269886921785,-0.7956657286269883,0.524134555555136,0.004547218994843707,0.1297351141605104,0.1297654041953172,7.791828511887347,3.934841621156905,0.32011027766790534,0.00304960561307956,0.016325185344975884,0.3255209667508029
1750771373.9387481,-2.3009387597083024,-0.6402024611252219,-1.8063681749313796,1.5703300165997132,-0.8037838765843599,-2.3736578112110513,0.2721282721954725,-0.7968484155901586,0.5253053270783744,0.004567223984998249,0.13031494640511418,0.13034537088491946,7.787437201637243,3.9367572485644904,0.31996349627357856,0.0030506982107901676,0.016334065274052498,0.32566525412849656
