mathias31415/primitives_from_planned_trajectory_python/data/saved_trajectories/trajectory_20250624_130846_planned.csv
time_from_start,shoulder_pan_joint_pos,shoulder_lift_joint_pos,elbow_joint_pos,wrist_1_joint_pos,wrist_2_joint_pos,wrist_3_joint_pos,shoulder_pan_joint_vel,shoulder_lift_joint_vel,elbow_joint_vel,wrist_1_joint_vel,wrist_2_joint_vel,wrist_3_joint_vel,shoulder_pan_joint_acc,shoulder_lift_joint_acc,elbow_joint_acc,wrist_1_joint_acc,wrist_2_joint_acc,wrist_3_joint_acc,fk_x,fk_y,fk_z,fk_qx,fk_qy,fk_qz,fk_qw
0.0,-2.0403629999999993,-1.9171740000000002,-2.4362719999999998,-0.3923930000000002,1.5818439999999998,-0.47065999999999963,-0.00017128788072361673,-6.350796964724389e-05,0.0005000000000000001,-0.0004376037485833125,-5.874249941879978e-06,-0.00017120643910286594,-0.17128788072361673,-0.06350796964724388,0.5000000000000001,-0.43760374858331247,-0.0058742499418799774,-0.17120643910286593,-0.3915654151475676,-0.3896612953205892,0.10140062646707933,-0.00045419724926469503,0.9998447871727967,0.012407841923497923,0.012499629076310319
0.1,-2.0412194394036174,-1.9174915398482362,-2.433772,-0.3945810187429168,1.5818146287502903,-0.4715160321955139,-0.01712878807236165,-0.00635079696472438,0.04999999999999994,-0.043760374858331196,-0.000587424994187997,-0.017120643910286573,-0.1712878807235868,-0.06350796964723308,0.4999999999999098,-0.4376037485832453,-0.005874249941879042,-0.17120643910283742,-0.3925138266980877,-0.3905273654222942,0.10177332639281769,-0.0004542239883332909,0.9998448216560847,0.012406274972792524,0.012498425075986187
0.2,-2.0437887576144718,-1.918444159392945,-2.4262719999999995,-0.40114507497166646,1.5817265150011621,-0.4740841287820569,-0.03425757614472378,-0.012701593929448937,0.10000000000000127,-0.0875207497166636,-0.0011748499883760103,-0.03424128782057362,-0.17128788072396497,-0.06350796964737186,0.5000000000009992,-0.437603748584189,-0.0058742499418919444,-0.17120643910321212,-0.3953669796650874,-0.3931122589865447,0.10290635040981774,-0.00045430469455905886,0.9998449237658062,0.012401640964423312,0.012494852075273963
0.30000000000000004,-2.048070954632562,-1.920031858634126,-2.413772,-0.4120851686862493,1.5815796587526154,-0.47836428975962864,-0.051386364217085735,-0.019052390894173432,0.1500000000000021,-0.13128112457499558,-0.0017622749825640179,-0.0513619317308605,-0.17128788072442988,-0.06350796964754707,0.5000000000023592,-0.43760374858539636,-0.005874249941907991,-0.17120643910367703,-0.4001482440504291,-0.39737565519221557,0.10484434386449223,-0.00045444083500732996,0.9998450894815368,0.012394139690757294,0.012489028165197088
0.4,-2.054066030457889,-1.9222546375717795,-2.3962719999999997,-0.42740129988666514,1.5813740600046493,-0.4843565151282289,-0.06851515228944823,-0.02540318785889812,0.2000000000000045,-0.17504149943332892,-0.0023496999767520436,-0.0684825756411479,-0.17128788072512377,-0.06350796964780034,0.5000000000043854,-0.4376037485871727,-0.005874249941931626,-0.17120643910435704,-0.406895273673309,-0.4032491329745899,0.10766128094898622,-0.00045463485480340903,0.9998453121025809,0.012384101656906963,0.012481153784523495
0.5,-2.0617739850904515,-1.9251124962059056,-2.3737719999999998,-0.4470934685729142,1.581109718757265,-0.4920608048878579,-0.08564394036181036,-0.03175398482362268,0.25000000000000583,-0.21880187429166134,-0.0029371249709400572,-0.08560321955143496,-0.17128788072509601,-0.06350796964779687,0.5000000000042744,-0.43760374858708945,-0.005874249941930759,-0.17120643910434316,-0.4156580171249178,-0.4106343969505579,0.11145977728441739,-0.0004548901771606199,0.9998455822479906,0.012371984290385194,0.012471517101848448
0.6000000000000001,-2.07119481853025,-1.9286054345365042,-2.3462719999999995,-0.4711616747449966,1.5807866350104613,-0.5014771590385155,-0.10277272843417248,-0.03810478178834724,0.3000000000000072,-0.26256224914999376,-0.0035245499651280704,-0.10272386346172202,-0.17128788072506826,-0.06350796964778299,0.5000000000042188,-0.43760374858703394,-0.005874249941929458,-0.1712064391043154,-0.42649584669402246,-0.4194009073191489,0.11637005744836675,-0.00045521120341537527,0.9998458878565928,0.01235836650147324,0.012460501452076502
0.7000000000000001,-2.0818884536479434,-1.9325702862913634,-2.3150566125700274,-0.49848161585066897,1.580419901034869,-0.5121657096927194,-0.10762334954605979,-0.03990323417763847,0.31415926535899097,-0.27495454434654804,-0.0036909000925522176,-0.10757217826657037,-3.993624862961597e-12,-1.4837425706142046e-12,1.1648072516971326e-11,-1.0205930205346305e-11,-1.3693418583939506e-13,-3.993624862961597e-12,-0.4389574436941504,-0.42899639122521377,0.12229664054556948,-0.0004555875528624982,0.9998462020048245,0.012344477649957698,0.012449042053869019
0.8,-2.0926507886025494,-1.936560609709127,-2.2836406860341287,-0.5259770702853234,1.5800508110256137,-0.5229229275193762,-0.10762334954605979,-0.03990323417763847,0.31415926535899097,-0.27495454434654804,-0.0036909000925522176,-0.10757217826657037,-3.993624862961597e-12,-1.4837425706142046e-12,1.1648072516971326e-11,-1.0205930205346305e-11,-1.3693418583939506e-13,-3.993624862961597e-12,-0.4516571430829848,-0.4382617101628243,0.12863525679518778,-0.0004559791501672875,0.9998464830131498,0.012332158750196921,0.012438663505758117
0.9,-2.103413123557155,-1.9405509331268909,-2.2522247594982305,-0.5534725247199775,1.5796817210163583,-0.533680145346033,-0.10762334954605979,-0.03990323417763847,0.31415926535899097,-0.27495454434654804,-0.0036909000925522176,-0.10757217826657037,-3.993624862961597e-12,-1.4837425706142046e-12,1.1648072516971326e-11,-1.0205930205346305e-11,-1.3693418583939506e-13,-3.993624862961597e-12,-0.4645012522067161,-0.4471237376379025,0.13534362591899401,-0.00045638361877364266,0.9998467287509194,0.012321477675298675,0.012429477381412443
1.0,-2.114175458511761,-1.9445412565446547,-2.220808832962332,-0.5809679791546318,1.5793126310071033,-0.5444373631726899,-0.10762334954605986,-0.039903234177638136,0.31415926535899114,-0.274954544346548,-0.003690900092552569,-0.10757217826657042,-4.049091874947175e-12,-1.497609323610599e-12,1.181447355292806e-11,-1.031686422931746e-11,-1.3866752996394434e-13,-4.049091874947175e-12,-0.4774752959496507,-0.45557275067016784,0.14241604895294566,-0.00045680095885039783,0.9998469392182613,0.01231240715831281,0.012421517569375902
1.1,-2.1249377934663656,-1.948531579962418,-2.189392906426437,-0.6084634335892831,1.578943540997848,-0.5551945809993455,-0.107623349546036,-0.039903234177629296,0.3141592653589215,-0.27495454434648703,-0.003690900092551751,-0.10757217826654658,1.9787856525852665e-11,7.335512335091843e-12,-5.774115947698002e-11,5.058591493084129e-11,6.786042247609774e-13,1.977398977285627e-11,-0.49056451465180567,-0.4635995653255824,0.14984654643762685,-0.0004572311705666673,0.9998471144153055,0.012304919394281754,0.012414817507471197
1.2,-2.13570012842097,-1.9525219033801813,-2.1579769798905417,-0.6359588880239344,1.5785744509885928,-0.5659517988260012,-0.107623349546036,-0.039903234177629296,0.3141592653589215,-0.27495454434648703,-0.003690900092551751,-0.10757217826654658,1.9787856525852665e-11,7.335512335091843e-12,-5.774115947698002e-11,5.058591493084129e-11,6.786042247609774e-13,1.977398977285627e-11,-0.5037538846500677,-0.4711955482914092,0.15762886292591427,-0.00045767425408986117,0.9998472543421831,0.012298986046802593,0.012409410175162687
1.3,-2.146462463375575,-1.9565122267979445,-2.1265610533546466,-0.6634543424585856,1.5782053609793376,-0.5767090166526568,-0.107623349546036,-0.039903234177629296,0.3141592653589215,-0.27495454434648703,-0.003690900092551751,-0.10757217826654658,1.9787856525852665e-11,7.335512335091843e-12,-5.774115947698002e-11,5.058591493084129e-11,6.786042247609774e-13,1.977398977285627e-11,-0.5170281392241899,-0.4783526276629936,0.1657564716983152,-0.0004581302095861991,0.9998473589990267,0.01229457825469536,0.012405328086009039
1.4,-2.157224798330179,-1.9605025502157076,-2.0951451268187515,-0.6909497968932369,1.5778362709700824,-0.5874662344793125,-0.107623349546036,-0.039903234177629296,0.3141592653589215,-0.27495454434648703,-0.003690900092551751,-0.10757217826654658,1.9787856525852665e-11,7.335512335091843e-12,-5.774115947698002e-11,5.058591493084129e-11,6.786042247609774e-13,1.977398977285627e-11,-0.5303717899173085,-0.4850633029270946,0.17422257968244573,-0.0004585990372223334,0.9998474283859704,0.012291666638769842,0.012402603280206256
1.5,-2.167987133284784,-1.9644928736334712,-2.0637292002828547,-0.7184452513278898,1.5774671809608272,-0.5982234523059687,-0.10762334954605698,-0.039903234177637074,0.31415926535898275,-0.27495454434654065,-0.0036909000925524705,-0.10757217826656755,-1.1786740046936578e-12,-4.368027193864732e-13,3.4389547431062016e-12,-2.9952186472215305e-12,-4.03002508957758e-14,-1.1786740046936578e-12,-0.5437691482000986,-0.49132065412773956,0.18302013257294314,-0.00045908073716254645,0.9998474625031495,0.012290221308692324,0.012401267317222372
1.6,-2.17874946823939,-1.968483197051235,-2.0323132737469565,-0.7459407057625438,1.577098090951572,-0.6089806701326255,-0.1076233495460564,-0.039903234177637116,0.3141592653589834,-0.27495454434654093,-0.0036909000925524744,-0.10757217826656748,-1.4005420526359934e-12,-5.20003237364849e-13,4.104558886933209e-12,-3.605355779062953e-12,-4.8100299456248535e-14,-1.4005420526359934e-12,-0.5572043474471636,-0.4971183502017838,0.19214182014795916,-0.00045957530957074853,0.9998474613507008,0.01229021186995033,0.01240135126852561
1.7000000000000002,-2.1895118031939957,-1.972473520468999,-2.0008973472110583,-0.7734361601971977,1.5767290009423167,-0.6197378879592822,-0.1076233495460564,-0.039903234177637116,0.3141592653589834,-0.27495454434654093,-0.0036909000925524744,-0.10757217826656748,-1.4005420526359934e-12,-5.20003237364849e-13,4.104558886933209e-12,-3.605355779062953e-12,-4.8100299456248535e-14,-1.4005420526359934e-12,-0.5706613651938234,-0.5024506564725486,0.20158008177824072,-0.00046008275461040894,0.9998474249287627,0.012291607430915646,0.012402885710407251
1.8,-2.2002741381486013,-1.976463843886762,-1.96948142067516,-0.8009316146318515,1.5763599109330613,-0.6304951057859388,-0.1076233495460564,-0.039903234177637116,0.3141592653589834,-0.27495454434654093,-0.0036909000925524744,-0.10757217826656748,-1.4005420526359934e-12,-5.20003237364849e-13,4.104558886933209e-12,-3.605355779062953e-12,-4.8100299456248535e-14,-1.4005420526359934e-12,-0.5841240456410286,-0.5073124412911408,0.211327112124652,-0.0004606030724436121,0.9998473532374746,0.012294376610001717,0.012405900716899553
1.9,-2.2110364731032064,-1.9804541673045262,-1.9380654941392623,-0.8284270690665054,1.5759908209238063,-0.6412523236125955,-0.1076233495460564,-0.039903234177637116,0.3141592653589834,-0.27495454434654093,-0.0036909000925524744,-0.10757217826656748,-1.4005420526359934e-12,-5.20003237364849e-13,4.104558886933209e-12,-3.605355779062953e-12,-4.8100299456248535e-14,-1.4005420526359934e-12,-0.5975761223757687,-0.5116991818163009,0.22137486701984804,-0.0004611362632315435,0.9998472462769779,0.012298487542917685,0.012410425852792518
2.0,-2.2217988080578124,-1.9844444907222898,-1.906649567603364,-0.8559225235011594,1.575621730914551,-0.6520095414392522,-0.10762334954600866,-0.039903234177619415,0.3141592653588441,-0.27495454434641897,-0.003690900092550837,-0.10757217826651977,4.630108825495588e-11,1.7167040209534408e-11,-1.3511764119685239e-10,1.1825566955323862e-10,1.5877432180869868e-12,4.6273354748963095e-11,-0.611001241274024,-0.5156069689248681,0.23171506952968882,-0.00046168232713410083,0.9998471040474147,0.012303907890012166,0.012416490166744327
2.1,-2.232561143012418,-1.9884348141400534,-1.875233641067466,-0.8834179779358132,1.5752526409052956,-0.6627667592659088,-0.1076233495460564,-0.039903234177637116,0.3141592653589834,-0.27495454434654093,-0.0036909000925524744,-0.10757217826656748,-1.4005420526359934e-12,-5.20003237364849e-13,4.104558886933209e-12,-3.605355779062953e-12,-4.8100299456248535e-14,-1.4005420526359934e-12,-0.6243829835530301,-0.5190325112462251,0.24233921618981524,-0.0004622412643113514,0.9998469265489294,0.012310604843714316,0.012424122184497288
2.2,-2.2433234779670235,-1.9924251375578172,-1.8438177145315677,-0.9109134323704672,1.5748835508960404,-0.6735239770925655,-0.1076233495460564,-0.039903234177637116,0.3141592653589834,-0.27495454434654093,-0.0036909000925524744,-0.10757217826656748,-1.4005420526359934e-12,-5.20003237364849e-13,4.104558886933209e-12,-3.605355779062953e-12,-4.8100299456248535e-14,-1.4005420526359934e-12,-0.6377048889394218,-0.521973138315347,0.2532385834127162,-0.00046281307492143696,0.9998467137816667,0.01231854513606089,0.012433349902189663
2.3,-2.254085812921629,-1.9964154609755809,-1.8124017879956698,-0.9384088868051211,1.5745144608867851,-0.6842811949192222,-0.10762334954605692,-0.0399032341776374,0.3141592653589826,-0.2749545443465407,-0.003690900092552119,-0.1075721782665675,-1.1232069927080738e-12,-4.160025898918792e-13,3.2725537071494496e-12,-2.8842846232503625e-12,-3.85669067712263e-14,-1.1232069927080738e-12,-0.6509504789196171,-0.524426802840374,0.2644042340604539,-0.0004633977591221967,0.9998464657457736,0.012327695046315621,0.012444200779770646
2.4,-2.2648481478762346,-2.0004057843933447,-1.7809858614597716,-0.9659043412397751,1.57414537087753,-0.695038412745879,-0.10762334954605692,-0.0399032341776374,0.3141592653589826,-0.2749545443465407,-0.003690900092552119,-0.1075721782665675,-1.1232069927080738e-12,-4.160025898918792e-13,3.2725537071494496e-12,-2.8842846232503625e-12,-3.85669067712263e-14,-1.1232069927080738e-12,-0.6641032800387083,-0.5263920820818978,0.27582702417810995,-0.00046399531707019636,0.9998461824413983,0.012338020408676004,0.012456701734518679
2.5,-2.27561048283084,-2.0043961078111083,-1.7495699349238736,-0.9933997956744288,1.5737762808682747,-0.7057956305725355,-0.10762334954605692,-0.0399032341776374,0.3141592653589826,-0.2749545443465407,-0.003690900092552119,-0.1075721782665675,-1.1232069927080738e-12,-4.160025898918792e-13,3.2725537071494496e-12,-2.8842846232503625e-12,-3.85669067712263e-14,-1.1232069927080738e-12,-0.6771468472140235,-0.5278681783424544,0.28749760988288636,-0.00046460574892106106,0.9998458638686902,0.012349486620066626,0.012470879134663188
2.6,-2.2861370027994004,-2.0082989987093445,-1.7188423670303068,-1.020292793464575,1.5734152780404491,-0.7163171455352337,-0.09849053141611828,-0.03651708254717957,0.28750000000011294,-0.2516221554355035,-0.003377693716582313,-0.09844370248418657,0.17128788068585477,0.06350796963323918,-0.49999999988975485,0.43760374848682937,0.005874249940584832,0.17120643906511576,-0.6897832019115411,-0.5288385396122671,0.2991430333895329,-0.00046521525953604814,0.999845518158772,0.012361771580948956,0.012486392431740826
2.7,-2.2951440963878262,-2.0116385357729545,-1.6925500994443725,-1.0433039831732958,1.5731063833377719,-0.7253199565538889,-0.08136174334373898,-0.030166285582448642,0.23750000000006144,-0.20786178057712718,-0.0027902687223937107,-0.08132305857388235,0.1712878807030077,0.06350796963960215,-0.4999999999398259,0.4376037485306554,0.005874249941172903,0.17120643908225483,-0.7004886355061308,-0.5292974697745376,0.3092816125807507,-0.00046574656961611514,0.9998451955636993,0.01237309810310535,0.012500977227863577
2.8,-2.3024383111690163,-2.014342993140091,-1.6712578318584381,-1.0619391353961833,1.5728562311345136,-0.7326107031815152,-0.06423295527135965,-0.02381548861771771,0.18750000000000988,-0.16410140571875081,-0.0022028437282051072,-0.06420241466357811,0.17128788072017453,0.06350796964596511,-0.4999999999899525,0.43760374857450923,0.005874249941761842,0.17120643909942165,-0.7090790073832482,-0.5294185565138692,0.3176055815528028,-0.0004661834486597649,0.9998449162140584,0.012382806060047609,0.012513684827976688
2.9,-2.30801964714297,-2.0164123708107557,-1.6549655642725032,-1.0761982501332386,1.572664821430674,-0.7381893854181132,-0.04710416719897981,-0.017464691652986586,0.13749999999995685,-0.12034103086037315,-0.0016154187340164867,-0.04708177075327335,0.17128788073837525,0.06350796965271319,-0.5000000000430767,0.4376037486209998,0.005874249942385909,0.17120643911761543,-0.7156008591836618,-0.5293600726441489,0.32404131668752556,-0.0004665217305197004,0.9998446915227073,0.012390550315288578,0.012523955214767972
3.0,-2.3118881043096873,-2.017846668784948,-1.6436732966865684,-1.08608132738446,1.5725321542262534,-0.7420560032636824,-0.029975379126626518,-0.011113894688265303,0.0874999999999813,-0.0765806560020633,-0.0010279937398287762,-0.029961126842995133,0.17128788073024606,0.06350796964970042,-0.5000000000193456,0.4376037486002526,0.005874249942107276,0.1712064391094897,-0.7200937977030777,-0.5292428021473938,0.32853494364820124,-0.0004667582273344678,0.9998445302224185,0.012396075672052706,0.012531353837521733
3.1,-2.3140436826691686,-2.018645887062668,-1.6373810291006337,-1.091588367149849,1.5724582295212512,-0.744210556718223,-0.012846591054269841,-0.004763097723542767,0.037499999999995884,-0.03282028114374483,-0.0004405687456409499,-0.012840482932713533,0.17128788072466009,0.06350796964763081,-0.5000000000030392,0.437603748585979,0.005874249941915711,0.17120643910390915,-0.7225872949322085,-0.5291502410001316,0.3310503888241443,-0.000466890729558822,0.9998444383659091,0.012399209812148234,0.012535576486176503
3.175845351,-2.3145363509243633,-2.0188285524121654,-1.6359428997563004,-1.0928470287339047,1.5724413336588166,-0.7447029907262482,-1.9039694703112177e-17,-7.0592989310733e-18,5.557805555967463e-17,-4.8642330903770446e-17,-6.529587792824415e-19,-1.9030641969266265e-17,0.17128788076157403,0.0635079696613172,-0.5000000001107997,0.43760374868028523,0.005874249943181708,0.17120643914080516,-0.7231561678888431,-0.5291263537012229,0.33162645133189056,-0.00046692108611824385,0.999844417173012,0.012399931650837071,0.012536551667575151
