mathias31415/primitives_from_planned_trajectory_python/data/saved_trajectories/trajectory_20250626_101043_planned.csv
time_from_start,shoulder_pan_joint_pos,shoulder_lift_joint_pos,elbow_joint_pos,wrist_1_joint_pos,wrist_2_joint_pos,wrist_3_joint_pos,shoulder_pan_joint_vel,shoulder_lift_joint_vel,elbow_joint_vel,wrist_1_joint_vel,wrist_2_joint_vel,wrist_3_joint_vel,shoulder_pan_joint_acc,shoulder_lift_joint_acc,elbow_joint_acc,wrist_1_joint_acc,wrist_2_joint_acc,wrist_3_joint_acc,fk_x,fk_y,fk_z,fk_qx,fk_qy,fk_qz,fk_qw
0.0,-3.677608261980449,-1.382902758183599,-1.4175619429039479,-1.9135533516497594,1.553474016688138,-2.1078970623337074,0.0004999982477379952,-0.00011362181361079987,-0.0002620010017454858,0.0003711673390729337,6.256619027542008e-06,0.0005,0.4999982477379952,-0.11362181361079987,-0.2620010017454858,0.37116733907293364,0.0062566190275420075,0.5,-0.37758599558642464,0.4292030018761734,0.8571010015749656,-0.0005495978530791529,0.9999620096999775,0.007027575024476278,0.005127405606874651
0.1,-3.675108270741759,-1.3834708672516531,-1.4188719479126752,-1.9116975149543947,1.5535052997832757,-2.1053970623337075,0.049999824773799426,-0.011362181361079964,-0.026200100174548525,0.037116733907293295,0.0006256619027541995,0.049999999999999906,0.4999982477379215,-0.11362181361078406,-0.2620010017454486,0.3711673390728792,0.006256619027541084,0.4999999999999306,-0.379260271492633,0.4286093046000365,0.8561512744791229,-0.0005496770994013517,0.9999621358722747,0.007021238768029764,0.005111446273518406
0.2,-3.6676082970256894,-1.3851751944558153,-1.4228019629388577,-1.9061300048683008,1.553599149068689,-2.0978970623337077,0.09999964954759717,-0.022724362722159545,-0.05240020034909617,0.07423346781458534,0.001251323805508378,0.09999999999999813,0.4999982477364019,-0.11362181361044059,-0.26200100174465063,0.37116733907174815,0.006256619027522002,0.49999999999841793,-0.38426967446085963,0.42678844478064515,0.8532969173261192,-0.0005499127465073473,0.9999625121780029,0.007002016563349568,0.005063950895796512
0.30000000000000004,-3.6551083408322396,-1.388015739796085,-1.4293519879824947,-1.8968508213914776,1.5537555645443775,-2.0853970623337075,0.14999947432139796,-0.034086544083239814,-0.0786003005236454,0.11135020172187965,0.0018769857082625947,0.14999999999999938,0.49999824773791457,-0.11362181361078406,-0.2620010017454486,0.3711673390728861,0.0062566190275413006,0.49999999999991673,-0.39257236199846823,0.4236217752299775,0.8485226158578175,-0.0005502985188127645,0.9999631319836667,0.006969284863002623,0.004986071946364049
0.4,-3.6376084021614097,-1.391992503272463,-1.4385220230435867,-1.8838599645239247,1.5539745462103414,-2.0678970623337074,0.19999929909519065,-0.04544872544431825,-0.1048004006981904,0.14846693562916793,0.0025026476110167097,0.19999999999999254,0.49999824773136425,-0.1136218136092922,-0.2620010017420069,0.37116733906800115,0.006256619027458684,0.49999999999333866,-0.4040934144904728,0.4189138271514305,0.8418035594257962,-0.0005508239569961429,0.9999639842334247,0.006922060414747815,0.004879744726728513
0.5,-3.616753595374716,-1.396731641820102,-1.4494500218796658,-1.8683786639855406,1.554235508286804,-2.0470421824605864,0.209439510239342,-0.04759396078448173,-0.10974710758695656,0.15547475628956633,0.002620775634336227,0.20944024422770646,2.2455212407199723e-11,-5.100937139413271e-12,-1.1768194650439855e-11,1.668893564090646e-11,2.811233189095799e-13,2.2455212407199723e-11,-0.41765554442679304,0.41289012513058104,0.8337445846081077,-0.0005514278155078192,0.9999649762833167,0.006863771376354373,0.00475718157771282
0.6000000000000001,-3.5958096443507843,-1.4014910378985497,-1.4604247326383601,-1.852831188356586,1.5544975858502377,-2.026098158037818,0.2094395102393024,-0.04759396078447273,-0.10974710758693582,0.15547475628953694,0.002620775634335731,0.20944024422766688,-1.7104772907705507e-11,3.888078444579736e-12,8.95436247842606e-12,-1.2669175395172476e-11,-2.1398292687415217e-13,-1.7077050423252177e-11,-0.43107828308347496,0.4063954652391805,0.825596431549014,-0.0005520098378856362,0.9999659467638212,0.006803187837629042,0.004638667170596092
0.7000000000000001,-3.574865693326853,-1.406250433976997,-1.471399443397054,-1.8372837127276314,1.5547596634136711,-2.0051541336150507,0.2094395102393024,-0.04759396078447273,-0.10974710758693582,0.15547475628953694,0.002620775634335731,0.20944024422766688,-1.7104772907705507e-11,3.888078444579736e-12,8.95436247842606e-12,-1.2669175395172476e-11,-2.1398292687415217e-13,-1.7077050423252177e-11,-0.4442887477989718,0.39946255966472605,0.8173955522829095,-0.0005525673908146064,0.9999668913793159,0.0067407203982534185,0.004524765516424922
0.8,-3.5539217423029212,-1.4110098300554443,-1.4823741541557482,-1.8217362370986772,1.5550217409771045,-1.9842101091922832,0.2094395102393024,-0.04759396078447273,-0.10974710758693582,0.15547475628953694,0.002620775634335731,0.20944024422766688,-1.7104772907705507e-11,3.888078444579736e-12,8.95436247842606e-12,-1.2669175395172476e-11,-2.1398292687415217e-13,-1.7077050423252177e-11,-0.4572727466711603,0.39209980743373807,0.8091440803184808,-0.0005531004742586851,0.9999678101297592,0.00667653544154436,0.004415502084368469
0.9,-3.5329777912789906,-1.415769226133892,-1.4933488649144422,-1.8061887614697227,1.5552838185405382,-1.9632660847695154,0.2094395102393024,-0.04759396078447273,-0.10974710758693582,0.15547475628953694,0.002620775634335731,0.20944024422766688,-1.7104772907705507e-11,3.888078444579736e-12,8.95436247842606e-12,-1.2669175395172476e-11,-2.1398292687415217e-13,-1.7077050423252177e-11,-0.470016422763519,0.3843160700030168,0.8008441586127345,-0.0005536090881828455,0.9999687030151105,0.006610799560801507,0.0043108974033005025
1.0,-3.512033840255059,-1.4205286222123392,-1.5043235756731363,-1.7906412858407683,1.5555458961039719,-1.942322060346748,0.20943951023934887,-0.04759396078448329,-0.10974710758696017,0.15547475628957144,0.0026207756343363127,0.20944024422771335,2.93026660671746e-11,-6.6603268899136205e-12,-1.5372117629373997e-11,2.178987278032094e-11,3.668897551870992e-13,2.9330388551627934e-11,-0.4825062693871429,0.37612065812492257,0.7924979390380935,-0.0005540932325553398,0.9999695700353313,0.00654367942547959,0.00421096706481588
1.1,-3.4910898892311284,-1.425288018290787,-1.5152982864318303,-1.7750938102118141,1.5558079736674053,-1.9213780359239803,0.2094395102393024,-0.04759396078447273,-0.10974710758693582,0.15547475628953694,0.002620775634335731,0.20944024422766688,-1.7104772907705507e-11,3.888078444579736e-12,8.95436247842606e-12,-1.2669175395172476e-11,-2.1398292687415217e-13,-1.7077050423252177e-11,-0.4947291448757677,0.367523318199527,0.7841075818473587,-0.0005545529073430375,0.9999704111903831,0.006475341647593341,0.004115721729680281
1.2,-3.4701459382071973,-1.4300474143692343,-1.5262729971905244,-1.75954633458286,1.556070051230839,-1.9004340115012128,0.20943951023930263,-0.04759396078447278,-0.10974710758693616,0.15547475628953686,0.002620775634335978,0.2094402442276668,-1.6882993032078856e-11,3.839564096786407e-12,8.8573337828394e-12,-1.2530562972905818e-11,-2.1181710777623564e-13,-1.691071551653219e-11,-0.5066722868363316,0.35853421813296227,0.7756752551366629,-0.0005549881125162823,0.9999712264802295,0.006405952648439036,0.004025167137707127
1.3,-3.449201987183266,-1.4348068104476817,-1.5372477079492184,-1.7439988589539053,1.5563321287942726,-1.8794899870784452,0.20943951023930263,-0.04759396078447278,-0.10974710758693616,0.15547475628953686,0.002620775634335978,0.2094402442276668,-1.6882993032078856e-11,3.839564096786407e-12,8.8573337828394e-12,-1.2530562972905818e-11,-2.1181710777623564e-13,-1.691071551653219e-11,-0.5183233258583196,0.3491639327219241,0.7672031343065555,-0.0005553988480452696,0.9999720159048353,0.0063356785257183065,0.003939304121052417
1.4,-3.4282580361593347,-1.4395662065261292,-1.5482224187079126,-1.728451383324951,1.556594206357706,-1.8585459626556777,0.20943951023930263,-0.04759396078447278,-0.10974710758693616,0.15547475628953686,0.002620775634335978,0.2094402442276668,-1.6882993032078856e-11,3.839564096786407e-12,8.8573337828394e-12,-1.2530562972905818e-11,-2.1181710777623564e-13,-1.691071551653219e-11,-0.5296702986658949,0.3394234285848335,0.7586934015213478,-0.0005557851139024748,0.9999727794641664,0.006264684921147385,0.003858128620913284
1.5,-3.407314085135404,-1.4443256026045768,-1.5591971294666065,-1.7129039076959969,1.5568562839211397,-1.8376019382329103,0.20943951023930263,-0.04759396078447278,-0.10974710758693616,0.15547475628953686,0.002620775634335978,0.2094402442276668,-1.6882993032078856e-11,3.839564096786407e-12,8.8573337828394e-12,-1.2530562972905818e-11,-2.1181710777623564e-13,-1.691071551653219e-11,-0.5407016606975918,0.32932404866072856,0.750148245166854,-0.0005561469100602677,0.99997351715819,0.006193136888637905,0.0037816317076122753
1.6,-3.386370134111473,-1.4490849986830243,-1.5701718402253007,-1.6973564320670425,1.5571183614845734,-1.8166579138101429,0.20943951023930263,-0.04759396078447278,-0.10974710758693616,0.15547475628953686,0.002620775634335978,0.2094402442276668,-1.6882993032078856e-11,3.839564096786407e-12,8.8573337828394e-12,-1.2530562972905818e-11,-2.1181710777623564e-13,-1.691071551653219e-11,-0.5514062980991402,0.3188774962974633,0.7415698593066629,-0.0005564842364938392,0.9999742289868747,0.0061211987631316234,0.003709799604058108
1.7000000000000002,-3.365426183087542,-1.4538443947614716,-1.5811465509839946,-1.681808956438088,1.557380439048007,-1.7957138893873754,0.20943951023930263,-0.04759396078447278,-0.10974710758693616,0.15547475628953686,0.002620775634335978,0.2094402442276668,-1.6882993032078856e-11,3.839564096786407e-12,8.8573337828394e-12,-1.2530562972905818e-11,-2.1181710777623564e-13,-1.691071551653219e-11,-0.5617735391157911,0.3080958189512879,0.732960443137072,-0.0005567970931786966,0.9999749149501902,0.006049034030172677,0.003642613712556428
1.8,-3.3444822320636107,-1.4586037908399192,-1.5921212617426885,-1.6662614808091338,1.5576425166114407,-1.7747698649646075,0.20943951023930263,-0.04759396078447278,-0.10974710758693616,0.15547475628953686,0.002620775634335978,0.2094402442276668,-1.6882993032078856e-11,3.839564096786407e-12,8.8573337828394e-12,-1.2530562972905818e-11,-2.1181710777623564e-13,-1.691071551653219e-11,-0.57179316487135,0.2969913915203338,0.7243222004408234,-0.0005570854800916503,0.9999755750481073,0.005976805196300429,0.003580050644954947
1.9,-3.3235382810396796,-1.4633631869183665,-1.6030959725013827,-1.6507140051801794,1.5579045941748744,-1.75382584054184,0.20943951023930263,-0.04759396078447278,-0.10974710758693616,0.15547475628953686,0.002620775634335978,0.2094402442276668,-1.6882993032078856e-11,3.839564096786407e-12,8.8573337828394e-12,-1.2530562972905818e-11,-2.1181710777623564e-13,-1.691071551653219e-11,-0.5814554195219577,0.28557689933496316,0.7156573390397734,-0.000557349397211408,0.9999762092805986,0.005904673660345493,0.00352208225609549
2.0,-3.3025943300157485,-1.4681225829968139,-1.6140706832600769,-1.6351665295512252,1.558166671738308,-1.7328818161190727,0.2094395102393955,-0.047593960784493884,-0.10974710758698483,0.1554747562896058,0.00262077563433714,0.2094402442277597,7.587643994878502e-11,-1.7236454708862654e-11,-3.9754042706086126e-11,5.633208840918201e-11,9.490619287072295e-13,7.587643994878502e-11,-0.5907510197735185,0.2738653208283311,0.7069680702466326,-0.0005575888445173212,0.9999768176476376,0.005832799585709614,0.0034686756805533993
2.1,-3.2816503789918126,-1.4728819790752625,-1.6250453940187735,-1.6196190539222675,1.5584287493017415,-1.7119377916963006,0.2094395102393953,-0.04759396078449384,-0.1097471075869845,0.15547475628960591,0.002620775634336894,0.20944024422775978,7.568238255761166e-11,-1.7201801603295984e-11,-3.967087525272611e-11,5.622119847136866e-11,9.47329273428896e-13,7.5710105042065e-11,-0.5996711637525435,0.2618699099108751,0.6982566083159099,-0.0005578038219902861,0.9999774001491989,0.0057613417737115745,0.00341979337263259
2.2,-3.260706427967877,-1.477641375153711,-1.6360201047774696,-1.6040715782933097,1.5586908268651751,-1.690993767273528,0.2094395102393953,-0.04759396078449384,-0.1097471075869845,0.15547475628960591,0.002620775634336894,0.20944024422775978,7.568238255761166e-11,-1.7201801603295984e-11,-3.967087525272611e-11,5.622119847136866e-11,9.47329273428896e-13,7.5710105042065e-11,-0.6082075392210481,0.24960417807279367,0.6895251698942075,-0.0005579943296118479,0.9999779567852589,0.005690457538078132,0.0033753931495900153
2.3,-3.239762476943941,-1.4824007712321596,-1.6469948155361664,-1.5885241026643517,1.5589529044286088,-1.670049742850756,0.2094395102393953,-0.04759396078449384,-0.1097471075869845,0.15547475628960591,0.002620775634336894,0.20944024422775978,7.568238255761166e-11,-1.7201801603295984e-11,-3.967087525272611e-11,5.622119847136866e-11,9.47329273428896e-13,7.5710105042065e-11,-0.616352331127066,0.23708187623883115,0.6807759734699779,-0.0005581603673662564,0.9999784875557948,0.005620302580661287,0.003335428238060197
2.4,-3.2188185259200055,-1.4871601673106083,-1.6579695262948628,-1.5729766270353942,1.5592149819920427,-1.6491057184279838,0.2094395102393953,-0.04759396078449384,-0.1097471075869845,0.15547475628960591,0.002620775634336894,0.20944024422775978,7.568238255761166e-11,-1.7201801603295984e-11,-3.967087525272611e-11,5.622119847136866e-11,9.47329273428896e-13,7.5710105042065e-11,-0.6240982284831966,0.22431697640001388,0.6720112388229121,-0.0005583019352374593,0.9999789924607851,0.0055510308684588614,0.0032998473236417955
2.5,-3.1978745748960695,-1.4919195633890565,-1.6689442370535592,-1.5574291514064362,1.559477059555476,-1.6281616940052115,0.2094395102393953,-0.04759396078449384,-0.1097471075869845,0.15547475628960591,0.002620775634336894,0.20944024422775978,7.568238255761166e-11,-1.7201801603295984e-11,-3.967087525272611e-11,5.622119847136866e-11,9.47329273428896e-13,7.5710105042065e-11,-0.6314384305665539,0.21132365304716447,0.6632331864730676,-0.0005584190332116491,0.99997947150021,0.00548279451201802,0.0032685946036180697
2.6,-3.176930623872134,-1.4966789594675052,-1.6799189478122556,-1.5418816757774785,1.5597391371189098,-1.6072176695824394,0.2094395102393953,-0.04759396078449384,-0.1097471075869845,0.15547475628960591,0.002620775634336894,0.20944024422775978,7.568238255761166e-11,-1.7201801603295984e-11,-3.967087525272611e-11,5.622119847136866e-11,9.47329273428896e-13,7.5710105042065e-11,-0.6383666524343811,0.19811626443124916,0.6544440371298857,-0.0005585116612757699,0.9999799246740506,0.0054157436452962025,0.0032416098427726844
2.7,-3.155986672848198,-1.5014383555459536,-1.6908936585709522,-1.5263342001485207,1.5600012146823434,-1.586273645159667,0.2094395102393953,-0.04759396078449384,-0.1097471075869845,0.15547475628960591,0.002620775634336894,0.20944024422775978,7.568238255761166e-11,-1.7201801603295984e-11,-3.967087525272611e-11,5.622119847136866e-11,9.47329273428896e-13,7.5710105042065e-11,-0.6448771297505193,0.1847093336757625,0.6456460111412377,-0.0005585798194184539,0.9999803519822891,0.005350026307059845,0.003218828432258245
2.8,-3.135042721824262,-1.5061977516244023,-1.7018683693296486,-1.510786724519563,1.560263292245777,-1.565329620736895,0.2094395102393953,-0.04759396078449384,-0.1097471075869845,0.15547475628960591,0.002620775634336894,0.20944024422775978,7.568238255761166e-11,-1.7201801603295984e-11,-3.967087525272611e-11,5.622119847136866e-11,9.47329273428896e-13,7.5710105042065e-11,-0.6509646229188633,0.1711175297665004,0.6368413279426236,-0.000558623507629386,0.9999807534249093,0.005285788323891619,0.0032001814514850645
2.9,-3.1140987708003265,-1.5109571477028507,-1.712843080088345,-1.4952392488906052,1.5605253698092105,-1.5443855963141229,0.2094395102393953,-0.04759396078449384,-0.1097471075869845,0.15547475628960591,0.002620775634336894,0.20944024422775978,7.568238255761166e-11,-1.7201801603295984e-11,-3.967087525272611e-11,5.622119847136866e-11,9.47329273428896e-13,7.5710105042065e-11,-0.6566244205208409,0.15735564844415365,0.6280322055066728,-0.0005586427258991788,0.9999811290018964,0.00522317319488325,0.0031855957329824224
3.0,-3.093154819776391,-1.5157165437812992,-1.7238177908470413,-1.4796917732616475,1.5607874473726442,-1.5234415718913508,0.2094395102393955,-0.047593960784493884,-0.1097471075869846,0.1554747562896058,0.002620775634336896,0.2094402442277597,7.587643994878502e-11,-1.7236454708862654e-11,-3.9754042706086126e-11,5.633208840918201e-11,9.494950925268129e-13,7.587643994878502e-11,-0.6618523420549156,0.14343859302523054,0.6192208597930741,-0.0005586374742202636,0.9999814787132361,0.005162321978085401,0.00317499393019162
3.1,-3.0722108687524554,-1.5204759398597478,-1.734792501605738,-1.4641442976326897,1.5610495249360778,-1.5024975474685787,0.2094395102393955,-0.047593960784493884,-0.1097471075869846,0.1554747562896058,0.002620775634336896,0.2094402442277597,7.587643994878502e-11,-1.7236454708862654e-11,-3.9754042706086126e-11,5.633208840918201e-11,9.494950925268129e-13,7.587643994878502e-11,-0.6666447399770244,0.12938135517684082,0.6104095041990762,-0.000558607752586133,0.9999818025589163,0.0051033731787884905,0.0031682945881439635
3.2,-3.0512669177285194,-1.5252353359381965,-1.7457672123644343,-1.448596822003732,1.5613116024995117,-1.4815535230458066,0.2094395102393955,-0.047593960784493884,-0.1097471075869846,0.1554747562896058,0.002620775634336896,0.2094402442277597,7.587643994878502e-11,-1.7236454708862654e-11,-3.9754042706086126e-11,5.633208840918201e-11,9.494950925268129e-13,7.587643994878502e-11,-0.670998501041809,0.11519899567086532,0.6016003490106936,-0.0005585535609917568,0.9999821005389258,0.005046462639702886,0.003165412216976587
3.3,-3.030322966704584,-1.529994732016645,-1.7567419231231307,-1.4330493463747742,1.5615736800629452,-1.4606094986230342,0.2094395102393955,-0.047593960784493884,-0.1097471075869846,0.1554747562896058,0.002620775634336896,0.2094402442277597,7.587643994878502e-11,-1.7236454708862654e-11,-3.9754042706086126e-11,5.633208840918201e-11,9.494950925268129e-13,7.587643994878502e-11,-0.6749110469454307,0.10090662514300348,0.5927956008547508,-0.0005584748994325783,0.9999823726532544,0.004991723433110789,0.003166257368239104
3.4,-3.009379015680648,-1.5347541280950934,-1.7677166338818273,-1.4175018707458165,1.5618357576263788,-1.439665474200262,0.2094395102393955,-0.047593960784493884,-0.1097471075869846,0.1554747562896058,0.002620775634336896,0.2094402442277597,7.587643994878502e-11,-1.7236454708862654e-11,-3.9754042706086126e-11,5.633208840918201e-11,9.494950925268129e-13,7.587643994878502e-11,-0.6783803342716836,0.08651938488210588,0.5839974621519055,-0.0005583717679064628,0.9999826189018934,0.004939285755055248,0.003170736713938587
3.5,-2.9884350646567124,-1.5395135241735418,-1.7786913446405237,-1.4019543951168587,1.5620978351898125,-1.41872144977749,0.2094395102393955,-0.047593960784493884,-0.1097471075869846,0.1554747562896058,0.002620775634336896,0.2094402442277597,7.587643994878502e-11,-1.7236454708862654e-11,-3.9754042706086126e-11,5.633208840918201e-11,9.494950925268129e-13,7.587643994878502e-11,-0.6814048537440538,0.07205242767510799,0.5752081305707836,-0.0005582441664116785,0.9999828392848357,0.0048892768216373455,0.0031787531282703604
3.6,-2.9674911136327764,-1.5442729202519905,-1.7896660553992203,-1.386406919487901,1.5623599127532461,-1.3977774253547177,0.2094395102393955,-0.047593960784493884,-0.1097471075869846,0.1554747562896058,0.002620775634336896,0.2094402442277597,7.587643994878502e-11,-1.7236454708862654e-11,-3.9754042706086126e-11,5.633208840918201e-11,9.494950925268129e-13,7.587643994878502e-11,-0.6839836287872865,0.05752089873271916,0.5664297984833582,-0.0005580920949481013,0.9999830338020749,0.004841820767484045,0.0031902057719838677
3.7,-2.946547162608841,-1.549032316330439,-1.8006407661579167,-1.3708594438589432,1.5626219903166798,-1.3768334009319454,0.2094395102393955,-0.047593960784493884,-0.1097471075869846,0.1554747562896058,0.002620775634336896,0.2094402442277597,7.587643994878502e-11,-1.7236454708862654e-11,-3.9754042706086126e-11,5.633208840918201e-11,9.494950925268129e-13,7.587643994878502e-11,-0.6861162134029449,0.04293991672086888,0.5576646524217159,-0.0005579155535165754,0.999983202453606,0.004797038546453011,0.0032049901793238036
3.8,-2.925603211584905,-1.5537917124088876,-1.8116154769166133,-1.3553119682299855,1.5628840678801135,-1.3558893765091733,0.2094395102393955,-0.047593960784493884,-0.1097471075869846,0.1554747562896058,0.002620775634336896,0.2094402442277597,7.587643994878502e-11,-1.7236454708862654e-11,-3.9754042706086126e-11,5.633208840918201e-11,9.494950925268129e-13,7.587643994878502e-11,-0.6878026893643461,0.02832455492268049,0.5489148725363333,-0.0005577145421199411,0.9999833452394253,0.004755047834637731,0.003222998347494892
3.9,-2.904659260560969,-1.558551108487336,-1.8225901876753097,-1.3397644926010277,1.5631461454435471,-1.334945352086401,0.2094395102393948,-0.04759396078449373,-0.1097471075869845,0.15547475628960578,0.002620775634337132,0.20944024422775956,7.515565535299825e-11,-1.7083981044369297e-11,-3.939365040819273e-11,5.58053612045686e-11,9.40831816135145e-13,7.518337783745158e-11,-0.6890436627371544,0.013689822555524186,0.5401826320560097,-0.0005574890607614795,0.9999834621595308,0.004715962935733753,0.003244118828586037
4.0,-2.883715309537034,-1.5633105045657847,-1.8335648984340063,-1.32421701697207,1.5634082230069808,-1.314001327663629,0.2094395102393948,-0.04759396078449373,-0.1097471075869845,0.15547475628960578,0.002620775634337132,0.20944024422775956,7.515565535299825e-11,-1.7083981044369297e-11,-3.939365040819273e-11,5.58053612045686e-11,9.40831816135145e-13,7.518337783745158e-11,-0.6898402597328103,-0.0009493537325906924,0.5314700967495778,-0.0005572391094458642,0.9999835532139213,0.00467989468882776,0.0032682368239000444
4.1,-2.8627713585131067,-1.568069900644231,-1.8445396091926978,-1.3086695413431189,1.5636703005704142,-1.2930573032408659,0.20943951023920904,-0.047593960784451515,-0.10974710758688716,0.15547475628946789,0.002620775634334807,0.20944024422757376,-1.1039093309314137e-10,2.5081917809146072e-11,5.782910256963659e-11,-8.191994155957628e-11,-1.38135942065085e-12,-1.1039093309314137e-10,-0.6901941219028367,-0.015578148163315883,0.5227794243895442,-0.0005569646881798475,0.9999836184025968,0.004646950378666981,0.0032952342806212825
4.2,-2.8418274074891805,-1.5728292967226774,-1.8555143199513895,-1.293122065714168,1.563932378133848,-1.272113278818103,0.20943951023920904,-0.047593960784451515,-0.10974710758688716,0.15547475628946789,0.002620775634334807,0.20944024422757376,-1.1039093309314137e-10,2.5081917809146072e-11,5.782910256963659e-11,-8.191994155957628e-11,-1.38135942065085e-12,-1.1039093309314137e-10,-0.6901074006829416,-0.030181853901355752,0.5141127642177545,-0.0005566657969701864,0.9999836577255585,0.004617233648467662,0.00332498999076583
4.3,-2.8208834564652543,-1.5775886928011238,-1.8664890307100812,-1.2775745900852171,1.5641944556972813,-1.2511692543953403,0.20943951023920904,-0.047593960784451515,-0.10974710758688716,0.15547475628946789,0.002620775634334807,0.20944024422757376,-1.1039093309314137e-10,2.5081917809146072e-11,5.782910256963659e-11,-8.191994155957628e-11,-1.38135942065085e-12,-1.1039093309314137e-10,-0.6895827512966698,-0.0447459008776474,0.5054722564132728,-0.0005563424358259518,0.9999836711828097,0.00459084441531769,0.0033573796923415137
4.4,-2.7999395054413276,-1.5823480888795702,-1.8774637414687727,-1.2620271144562665,1.564456533260715,-1.2302252299725773,0.20943951023920904,-0.047593960784451515,-0.10974710758688716,0.15547475628946789,0.002620775634334807,0.20944024422757376,-1.1039093309314137e-10,2.5081917809146072e-11,5.782910256963659e-11,-8.191994155957628e-11,-1.38135942065085e-12,-1.1039093309314137e-10,-0.6886233260292111,-0.0592558733395218,0.49686003156255565,-0.0005559946047570801,0.9999836587743541,0.004567878788227177,0.0033922761726600773
4.5,-2.7789955544174014,-1.5871074849580165,-1.8884384522274642,-1.2464796388273156,1.5647186108241486,-1.2092812055498146,0.20943951023920904,-0.047593960784451515,-0.10974710758688716,0.15547475628946789,0.002620775634334807,0.20944024422757376,-1.1039093309314137e-10,2.5081917809146072e-11,5.782910256963659e-11,-8.191994155957628e-11,-1.38135942065085e-12,-1.1039093309314137e-10,-0.6872327668827732,-0.07369752710539527,0.4882782101320758,-0.000555622303774622,0.999983620500197,0.004548428988881563,0.00342954937373028
4.6,-2.7580516033934748,-1.591866881036463,-1.899413162986156,-1.2309321631983645,1.564980688387582,-1.1883371811270513,0.20943951023920904,-0.047593960784451515,-0.10974710758688716,0.15547475628946789,0.002620775634334807,0.20944024422757376,-1.1039093309314137e-10,2.5081917809146072e-11,5.782910256963659e-11,-8.191994155957628e-11,-1.38135942065085e-12,-1.1039093309314137e-10,-0.6854151976257468,-0.08805680650203278,0.4797289019435223,-0.0005552255328910758,0.9999835563603445,0.004532583275146306,0.0034690664996659764
4.7,-2.737107652369548,-1.5966262771149096,-1.9103878737448474,-1.2153846875694136,1.5652427659510155,-1.1673931567042888,0.20943951023920904,-0.047593960784451515,-0.10974710758688716,0.15547475628946789,0.002620775634334807,0.20944024422757376,-1.1039093309314137e-10,2.5081917809146072e-11,5.782910256963659e-11,-8.191994155957628e-11,-1.38135942065085e-12,-1.1039093309314137e-10,-0.6831752152486599,-0.10231986096289647,0.4712142056517069,-0.000554804292120609,0.999983466354805,0.004520425867372716,0.003510692126037386
4.8,-2.716163701345622,-1.6013856731933558,-1.9213625845035391,-1.1998372119404626,1.5655048435144492,-1.1464491322815256,0.20943951023920981,-0.047593960784451446,-0.1097471075868873,0.15547475628946794,0.002620775634334573,0.209440244227574,-1.0961470352844827e-10,2.490865228131279e-11,5.742712654506337e-11,-8.136549187050978e-11,-1.3713966528004364e-12,-1.0958698104399495e-10,-0.6805178808406953,-0.11647306126662177,0.46273620822530553,-0.0005543585814773106,0.9999833504835869,0.004512036877554152,0.0035542883110986564
4.9,-2.6952197503216953,-1.6061450692718022,-1.9323372952622306,-1.184289736311512,1.5657669210778826,-1.1255051078587628,0.20943951023920981,-0.047593960784451446,-0.1097471075868873,0.15547475628946794,0.002620775634334573,0.209440244227574,-1.0961470352844827e-10,2.490865228131279e-11,5.742712654506337e-11,-8.136549187050978e-11,-1.3713966528004364e-12,-1.0958698104399495e-10,-0.6774487099012869,-0.13050301539520145,0.4542969844305619,-0.0005538884009785069,0.9999832087467011,0.0045074922413777235,0.003599714708817951
5.0,-2.674275799297769,-1.6109044653502487,-1.9433120060209221,-1.168742260682561,1.566028998641316,-1.1045610834359998,0.20943951023920981,-0.047593960784451446,-0.1097471075868873,0.15547475628946794,0.002620775634334573,0.209440244227574,-1.0961470352844827e-10,2.490865228131279e-11,5.742712654506337e-11,-8.136549187050978e-11,-1.3713966528004364e-12,-1.0958698104399495e-10,-0.6739736621020286,-0.1443965839920196,0.4458985963180847,-0.000553393750640849,0.9999830411441587,0.004506863653213854,0.0036468286836368485
5.1,-2.6533318482738424,-1.6156638614286951,-1.9542867167796139,-1.1531947850536102,1.5662910762047497,-1.083617059013237,0.20943951023920981,-0.047593960784451446,-0.1097471075868873,0.15547475628946794,0.002620775634334573,0.209440244227574,-1.0961470352844827e-10,2.490865228131279e-11,5.742712654506337e-11,-8.136549187050978e-11,-1.3713966528004364e-12,-1.0958698104399495e-10,-0.6700991305148463,-0.15814089540049397,0.437543092712862,-0.0005528746304839063,0.9999828476759729,0.004510218504089796,0.0036954854268883754
5.2,-2.6323878972499157,-1.6204232575071411,-1.9652614275383053,-1.137647309424659,1.5665531537681832,-1.062673034590474,0.20943951023920981,-0.047593960784451446,-0.1097471075868873,0.15547475628946794,0.002620775634334573,0.209440244227574,-1.0961470352844827e-10,2.490865228131279e-11,5.742712654506337e-11,-8.136549187050978e-11,-1.3713966528004364e-12,-1.0958698104399495e-10,-0.6658319303230458,-0.17172336026468016,0.42923250870762214,-0.0005523310405273219,0.9999826283421576,0.004517619822684412,0.0037455380747941263
5.3,-2.6114439462259895,-1.6251826535855878,-1.976236138296997,-1.1220998337957084,1.5668152313316168,-1.0417290101677112,0.20943951023920981,-0.047593960784451446,-0.1097471075868873,0.15547475628946794,0.002620775634334573,0.209440244227574,-1.0961470352844827e-10,2.490865228131279e-11,5.742712654506337e-11,-8.136549187050978e-11,-1.3713966528004364e-12,-1.0958698104399495e-10,-0.6611792870325214,-0.18513168567385846,0.4209688651596598,-0.0005517629807923948,0.9999823831427281,0.004529126219385528,0.003796837827972351
5.4,-2.590499995202063,-1.629942049664034,-1.9872108490556888,-1.1065523581667573,1.5670773088950503,-1.0207849857449482,0.20943951023920981,-0.047593960784451446,-0.1097471075868873,0.15547475628946794,0.002620775634334573,0.209440244227574,-1.0961470352844827e-10,2.490865228131279e-11,5.742712654506337e-11,-8.136549187050978e-11,-1.3713966528004364e-12,-1.0958698104399495e-10,-0.6561488242010256,-0.19835388883377844,0.412754168191266,-0.0005511704513019412,0.9999821120777013,0.004544791833443527,0.0038492340723683387
5.5,-2.5695560441781367,-1.6347014457424804,-1.9981855598143805,-1.0910048825378067,1.567339386458484,-0.9998409613221855,0.20943951023920981,-0.047593960784451446,-0.1097471075868873,0.15547475628946794,0.002620775634334573,0.209440244227574,-1.0961470352844827e-10,2.490865228131279e-11,5.742712654506337e-11,-8.136549187050978e-11,-1.3713966528004364e-12,-1.0958698104399495e-10,-0.65074855070402,-0.2113783102479301,0.4045904086938651,-0.0005505534520796134,0.9999818151470949,0.004564666283261264,0.00390257450154579
5.6,-2.5486120931542104,-1.639460841820927,-2.009160270573072,-1.0754574069088558,1.5676014640219176,-0.9788969368994225,0.20943951023920981,-0.047593960784451446,-0.1097471075868873,0.15547475628946794,0.002620775634334573,0.209440244227574,-1.0961470352844827e-10,2.490865228131279e-11,5.742712654506337e-11,-8.136549187050978e-11,-1.3713966528004364e-12,-1.0958698104399495e-10,-0.6449868475561961,-0.22419362639292656,0.39647956183600347,-0.0005499119831506794,0.9999814923509281,0.004588794619847994,0.003956705240244027
5.7,-2.527668142130284,-1.6442202378993733,-2.0201349813317635,-1.0599099312799047,1.5678635415853508,-0.9579529124766596,0.20943951023920954,-0.047593960784451626,-0.10974710758688738,0.15547475628946786,0.0026207756343345693,0.20944024422757399,-1.0986420588852819e-10,2.496409725021944e-11,5.756573896733e-11,-8.155954926168305e-11,-1.3744287995375187e-12,-1.0986420588852819e-10,-0.6388724543083126,-0.23678886187280754,0.38842358657529374,-0.0005492460445417704,0.9999811436892215,0.0046172172834730305,0.004011470969135108
5.8,-2.506724191106357,-1.6489796339778195,-2.031109692090455,-1.0443624556509539,1.5681256191487842,-0.9370088880538967,0.20943951023920954,-0.047593960784451626,-0.10974710758688738,0.15547475628946786,0.0026207756343345693,0.20944024422757399,-1.0986420588852819e-10,2.496409725021944e-11,5.756573896733e-11,-8.155954926168305e-11,-1.3744287995375187e-12,-1.0986420588852819e-10,-0.6324144550395184,-0.2491534010378301,0.38042442517444514,-0.0005485556362803965,0.9999807691619967,0.004649970063545699,0.004066715050694918
5.9,-2.485780240082423,-1.653739030056268,-2.042084402849151,-1.0288149800219972,1.5683876967122181,-0.9160648636311259,0.209439510239471,-0.047593960784511044,-0.1097471075870244,0.15547475628966198,0.002620775634337841,0.20944024422783547,1.512815976617962e-10,-3.438281134323671e-11,-7.928630553651038e-11,1.1233150700487415e-10,1.893359055398202e-12,1.5130932014624953e-10,-0.6256222639658227,-0.26127699905408475,0.3724840027214952,-0.0005478407583952941,0.9999803687692765,0.00468708406175057,0.004122279656106465
6.0,-2.4648362890584834,-1.6584984261347175,-2.0530591136078495,-1.0132675043930368,1.5686497742756518,-0.8951208392083501,0.209439510239471,-0.047593960784511044,-0.1097471075870244,0.15547475628966198,0.002620775634337841,0.20944024422783547,1.512815976617962e-10,-3.438281134323671e-11,-7.928630553651038e-11,1.1233150700487415e-10,1.893359055398202e-12,1.5130932014624953e-10,-0.618505610685857,-0.2731497924110377,0.3646042266543741,-0.0005471014109168965,0.9999799425110855,0.00472858565846214,0.004178005893116928
6.1,-2.4438923380345443,-1.6632578222131666,-2.0640338243665477,-0.9977200287640763,1.5689118518390854,-0.8741768147855742,0.209439510239471,-0.047593960784511044,-0.1097471075870244,0.15547475628966198,0.002620775634337841,0.20944024422783547,1.512815976617962e-10,-3.438281134323671e-11,-7.928630553651038e-11,1.1233150700487415e-10,1.893359055398202e-12,1.5130932014624953e-10,-0.6110745250854833,-0.28476230885495224,0.3567869862898961,-0.000546337593876488,0.9999794903874489,0.00477449648246355,0.004233733934768117
6.2,-2.4229483870106048,-1.6680172182916162,-2.0750085351252463,-0.9821725531351158,1.569173929402519,-0.8532327903627983,0.209439510239471,-0.047593960784511044,-0.1097471075870244,0.15547475628966198,0.002620775634337841,0.20944024422783547,1.512815976617962e-10,-3.438281134323671e-11,-7.928630553651038e-11,1.1233150700487415e-10,1.893359055398202e-12,1.5130932014624953e-10,-0.6033393219232273,-0.2961054767369148,0.34903415235730856,-0.0005455493073070649,0.9999790123983937,0.004824833383991826,0.004289303148914614
6.3,-2.402004435986665,-1.6727766143700653,-2.085983245883945,-0.9666250775061551,1.5694360069659528,-0.8322887659400222,0.209439510239471,-0.047593960784511044,-0.1097471075870244,0.15547475628966198,0.002620775634337841,0.20944024422783547,1.512815976617962e-10,-3.438281134323671e-11,-7.928630553651038e-11,1.1233150700487415e-10,1.893359055398202e-12,1.5130932014624953e-10,-0.5953105851189014,-0.3071706337650301,0.3413475765365211,-0.000544736551242696,0.9999785085439477,0.0048796084111240885,0.004344552228445612
6.4,-2.3810604849627257,-1.6775360104485149,-2.096957956642643,-0.9510776018771945,1.5696980845293864,-0.8113447415172462,0.209439510239471,-0.047593960784511044,-0.1097471075870244,0.15547475628966198,0.002620775634337841,0.20944024422783547,1.512815976617962e-10,-3.438281134323671e-11,-7.928630553651038e-11,1.1233150700487415e-10,1.893359055398202e-12,1.5130932014624953e-10,-0.586999151768106,-0.3179495351512133,0.3337290910011134,-0.0005438993257180795,0.9999779788241404,0.004938828789530414,0.004399319322133274
6.5,-2.360116533938786,-1.6822954065269642,-2.1079326674013417,-0.9355301262482341,1.5699601620928203,-0.7904007170944704,0.209439510239471,-0.047593960784511044,-0.1097471075870244,0.15547475628966198,0.002620775634337841,0.20944024422783547,1.512815976617962e-10,-3.438281134323671e-11,-7.928630553651038e-11,1.1233150700487415e-10,1.893359055398202e-12,1.5130932014624953e-10,-0.5784160959056178,-0.32843436114384905,0.3261805079662469,-0.0005430376307704021,0.9999774232390024,0.005002496905600813,0.004453442166017214
6.6,-2.339172582914846,-1.6870548026054137,-2.1189073781600403,-0.9199826506192734,1.5702222396562537,-0.7694566926716944,0.2094395102394713,-0.04759396078451111,-0.10974710758702408,0.15547475628966217,0.0026207756343380887,0.20944024422783547,1.5155882250632945e-10,-3.44451869332567e-11,-7.9424917958777e-11,1.1252556439604742e-10,1.8968243659548677e-12,1.5155882250632945e-10,-0.5695727120409702,-0.3386177239384532,0.3187036192415853,-0.000542151466437341,0.9999768417885655,0.005070610292964422,0.004506758215243841
6.7,-2.318228631890907,-1.691814198683863,-2.1298820889187384,-0.9044351749903129,1.5704843172196876,-0.7485126682489184,0.2094395102394713,-0.04759396078451111,-0.10974710758702408,0.15547475628966217,0.0026207756343380887,0.20944024422783547,1.5155882250632945e-10,-3.44451869332567e-11,-7.9424917958777e-11,1.1252556439604742e-10,1.8968243659548677e-12,1.5155882250632945e-10,-0.560480498489754,-0.34849267395935096,0.31130019578933876,-0.0005412408327575074,0.9999762344728627,0.005143161622410602,0.004559104776277839
6.8,-2.297284680866967,-1.6965735947623122,-2.140856799677437,-0.8888876993613521,1.570746394783121,-0.7275686438261423,0.2094395102394713,-0.04759396078451111,-0.10974710758702408,0.15547475628966217,0.0026207756343380887,0.20944024422783547,1.5155882250632945e-10,-3.44451869332567e-11,-7.9424917958777e-11,1.1252556439604742e-10,1.8968243659548677e-12,1.5155882250632945e-10,-0.5511511405244046,-0.3580527055062726,0.30397198728753555,-0.0005403057297718769,0.9999756012919284,0.0052201386952234075,0.0046103191393969435
6.9,-2.2763407298430276,-1.7013329908407617,-2.1518315104361356,-0.8733402237323917,1.571008472346555,-0.7066246194033664,0.2094395102394713,-0.04759396078451111,-0.10974710758702408,0.15547475628966217,0.0026207756343380887,0.20944024422783547,1.5155882250632945e-10,-3.44451869332567e-11,-7.9424917958777e-11,1.1252556439604742e-10,1.8968243659548677e-12,1.5155882250632945e-10,-0.5415964933684195,-0.36729176176064604,0.2967207216986376,-0.0005393461575216652,0.9999749422457985,0.005301524439931854,0.004660238711389097
7.0,-2.2553967788190885,-1.7060923869192113,-2.162806221194834,-0.8577927481034311,1.5712705499099888,-0.6856805949805906,0.2094395102394713,-0.04759396078451111,-0.10974710758702408,0.15547475628966217,0.0026207756343380887,0.20944024422783547,1.5155882250632945e-10,-3.44451869332567e-11,-7.9424917958777e-11,1.1252556439604742e-10,1.8968243659548677e-12,1.5155882250632945e-10,-0.5318285650580903,-0.3762042391472748,0.28954810484360066,-0.0005383621160497586,0.9999742573345096,0.005387296912486257,0.00470870114836245
7.1,-2.2344528277951485,-1.7108517829976604,-2.1737809319535324,-0.8422452724744705,1.5715326274734225,-0.6647365705578144,0.2094395102394713,-0.04759396078451111,-0.10974710758702408,0.15547475628966217,0.0026207756343380887,0.20944024422783547,1.5155882250632945e-10,-3.44451869332567e-11,-7.9424917958777e-11,1.1252556439604742e-10,1.8968243659548677e-12,1.5155882250632945e-10,-0.5218594991959652,-0.3847849910479787,0.28245581998148195,-0.0005373536054005879,0.9999735465581001,0.005477429299862457,0.004755544488589015
7.2,-2.2135088767712094,-1.71561117907611,-2.1847556427122306,-0.8266977968455098,1.5717947050368561,-0.6437925461350386,0.2094395102394713,-0.04759396078451111,-0.10974710758702408,0.15547475628966217,0.0026207756343380887,0.20944024422783547,1.5155882250632945e-10,-3.44451869332567e-11,-7.9424917958777e-11,1.1252556439604742e-10,1.8968243659548677e-12,1.5155882250632945e-10,-0.5117015576203358,-0.3930293308646837,0.27544552739471057,-0.0005363206256189916,0.9999728099166093,0.005571889927091814,0.004800607285290224
7.3,-2.1925649257472695,-1.7203705751545593,-2.195730353470929,-0.8111503212165492,1.5720567826002898,-0.6228485217122625,0.2094395102394713,-0.04759396078451111,-0.10974710758702408,0.15547475628966217,0.0026207756343380887,0.20944024422783547,1.5155882250632945e-10,-3.44451869332567e-11,-7.9424917958777e-11,1.1252556439604742e-10,1.8968243659548677e-12,1.5155882250632945e-10,-0.5013671030150826,-0.40093303443035055,0.26851886398010827,-0.0005352631767523939,0.9999720474100782,0.005670642267721049,0.00484372873928362
7.4,-2.17162097472333,-1.7251299712330088,-2.2067050642296278,-0.7956028455875888,1.5723188601637235,-0.6019044972894866,0.2094395102394713,-0.04759396078451111,-0.10974710758702408,0.15547475628966217,0.0026207756343380887,0.20944024422783547,1.5155882250632945e-10,-3.44451869332567e-11,-7.9424917958777e-11,1.1252556439604742e-10,1.8968243659548677e-12,1.5155882250632945e-10,-0.49086858148425183,-0.40849234176703403,0.2616774428457764,-0.0005341812588481687,0.9999712590385483,0.005773644957694164,0.0048847488314027075
7.5,-2.150677023699391,-1.729889367311458,-2.217679774988326,-0.7800553699586283,1.5725809377271573,-0.5809604728667108,0.20943951023947074,-0.047593960784510995,-0.10974710758702429,0.15547475628966204,0.002620775634337838,0.2094402442278353,1.5103209530171627e-10,-3.432736637433006e-11,-7.91338318720171e-11,1.1213744961370087e-10,1.8903269086611193e-12,1.510598177861696e-10,-0.48021850511569425,-0.4157039581912743,0.25492285291393724,-0.0005330748719555819,0.9999704448020631,0.005880851812654059,0.004923508454605974
7.6,-2.129733072675451,-1.7346487633899075,-2.2286544857470245,-0.7645078943296676,1.5728430152905908,-0.5600164484439347,0.20943951023947074,-0.047593960784510995,-0.10974710758702429,0.15547475628966204,0.002620775634337838,0.2094402442278353,1.5103209530171627e-10,-3.432736637433006e-11,-7.91338318720171e-11,1.1213744961370087e-10,1.8903269086611193e-12,1.510598177861696e-10,-0.46942943455806585,-0.42256505476791945,0.24825665852983253,-0.0005319440161254308,0.9999696047006671,0.005992211848658201,0.004959849545690733
7.7,-2.1087891216515118,-1.7394081594683568,-2.2396291965057227,-0.7489604187007071,1.5731050928540247,-0.539072424021159,0.20943951023947074,-0.047593960784510995,-0.10974710758702429,0.15547475628966204,0.002620775634337838,0.2094402442278353,1.5103209530171627e-10,-3.432736637433006e-11,-7.91338318720171e-11,1.1213744961370087e-10,1.8903269086611193e-12,1.510598177861696e-10,-0.4585139616353996,-0.4290732681143818,0.24168039907678107,-0.0005307886914090866,0.9999687387344063,0.006107669306291316,0.004993615216524162
7.8,-2.0878451706275722,-1.7441675555468064,-2.2506039072644217,-0.7334129430717464,1.5733671704174585,-0.5181283995983827,0.20943951023947074,-0.047593960784510995,-0.10974710758702429,0.15547475628966204,0.002620775634337838,0.2094402442278353,1.5103209530171627e-10,-3.432736637433006e-11,-7.91338318720171e-11,1.1213744961370087e-10,1.8903269086611193e-12,1.510598177861696e-10,-0.447484692023334,-0.4352266995582228,0.23519558859747877,-0.0005296088978596602,0.9999678469033275,0.006227163678175837,0.005024649884709335
7.9,-2.0669012196036327,-1.7489269516252555,-2.26157861802312,-0.7178654674427858,1.573629247980892,-0.4971843751756069,0.20943951023947074,-0.047593960784510995,-0.10974710758702429,0.15547475628966204,0.002620775634337838,0.2094402442278353,1.5103209530171627e-10,-3.432736637433006e-11,-7.91338318720171e-11,1.1213744961370087e-10,1.8903269086611193e-12,1.510598177861696e-10,-0.4363542280109502,-0.4410239136518531,0.22880371542164857,-0.0005284046355315585,0.9999669292074791,0.006350629739853553,0.005052799403599743
8.0,-2.045957268579693,-1.753686347703705,-2.2725533287818185,-0.7023179918138254,1.5738913255443256,-0.476240350752831,0.20943951023947074,-0.047593960784510995,-0.10974710758702429,0.15547475628966204,0.002620775634337838,0.2094402442278353,1.5103209530171627e-10,-3.432736637433006e-11,-7.91338318720171e-11,1.1213744961370087e-10,1.8903269086611193e-12,1.510598177861696e-10,-0.42513515137196756,-0.4464639360490141,0.22250624180011788,-0.0005271759044802755,0.9999659856469105,0.006477997584036019,0.005077911191582676
8.1,-2.0250133175557536,-1.7584457437821546,-2.2835280395405166,-0.6867705161848648,1.5741534031077595,-0.4552963263300551,0.20943951023947074,-0.047593960784510995,-0.10974710758702429,0.15547475628966204,0.002620775634337838,0.2094402442278353,1.5103209530171627e-10,-3.432736637433006e-11,-7.91338318720171e-11,1.1213744961370087e-10,1.8903269086611193e-12,1.510598177861696e-10,-0.41384000636885215,-0.45154625074858834,0.21630460354543002,-0.0005259227047626007,0.999965016221673,0.006609192658193136,0.00509983436053883
8.2,-2.0041309928204885,-1.763191135630155,-2.2944704578873125,-0.6712687880473955,1.57441470952407,-0.43441392841192483,0.20149929383854767,-0.04578959088518316,-0.10558640370350206,0.14958043764649306,0.0025214174681011258,0.20150000000013568,-0.49999824760177347,0.11362181357984416,0.26200100167410956,-0.3711673389718121,-0.006256619025837589,-0.49999999986377563,-0.4025147863746846,-0.4562574195625126,0.21021802747990148,-0.0005246488317895913,0.999964023898338,0.006743733326181899,0.005118370196938772
8.3,-1.986472055614699,-1.7672040306369639,-2.303723808791258,-0.6581599006399272,1.574635680783525,-0.4167549293197492,0.15149946906469955,-0.03442740952409213,-0.07938630352892796,0.11246370373916358,0.001895755565346317,0.15150000000008707,-0.4999982476506788,0.11362181359095333,0.2620010016997141,-0.3711673390081025,-0.006256619026449296,-0.4999999999126532,-0.39289751382105553,-0.4599640941637634,0.20514742870718158,-0.0005235526109352099,0.9999631646842171,0.006860352771189624,0.005131347507616204
8.4,-1.9738131008862916,-1.7700807075076646,-2.3103571496777473,-0.6487626866231897,1.5747940858527043,-0.4040959302275755,0.10149964429085147,-0.02306522816300111,-0.05318620335435388,0.07534696983183413,0.0012700936625915085,0.10150000000003848,-0.49999824769950085,0.11362181360204862,0.2620010017253047,-0.3711673390443513,-0.006256619027060352,-0.499999999961503,-0.3859850207907279,-0.46246516442961627,0.20155612660553884,-0.0005227560717084713,0.9999625374345027,0.006945526329316056,0.005139077509523011
8.5,-1.9661541286352633,-1.7718211662422572,-2.3143704805467826,-0.6430771459971808,1.5748899247316084,-0.39643693113540107,0.051499819517003345,-0.011703046801910078,-0.026986103179779772,0.038230235924504655,0.0006444317598366996,0.05149999999998986,-0.4999982477483715,0.11362181361315779,0.2620010017509231,-0.3711673390806417,-0.006256619027671842,-0.5000000000103806,-0.38179670415017425,-0.46391519766805617,0.1994011236903364,-0.0005222698061107066,0.9999621533455088,0.006997686851252607,0.005143101165131134
8.6,-1.9634951388616149,-1.7724254068407417,-2.3157638013983624,-0.6411032787619012,1.574923197420237,-0.3937779320432264,0.0014999947432114183,-0.00034086544083181624,-0.0007860030052351138,0.0011135020172168962,1.87698570825939e-05,0.0014999999999974333,-0.49999824774883245,0.11362181361326254,0.26200100175116514,-0.37116733908097876,-0.006256619027677617,-0.5000000000108374,-0.38034169873562834,-0.46440748710623636,0.19865612159072632,-0.0005221002225446464,0.9999620191912622,0.007015905326494525,0.005144381278756211
8.603179981,-1.9634926107993436,-1.7724259813287955,-2.3157651261127,-0.641101402087032,1.574923229054593,-0.3937754039720955,-5.669309018610378e-17,1.2883188601735277e-17,2.9707396951898667e-17,-4.208539434567095e-17,-7.0941661974464055e-19,-5.669328886909582e-17,-0.49999824797103076,0.1136218136637559,0.2620010018675979,-0.37116733924592493,-0.006256619030458047,-0.5000000002330366,-0.3803403151603045,-0.4644079524293685,0.19865541404814738,-0.0005221000611236896,0.9999620190635152,0.007015922674695659,0.00514438246701562
