mathias31415/primitives_from_planned_trajectory_python/data/saved_trajectories/trajectory_20250624_120659_executed.csv
timestamp,shoulder_lift_joint_pos,elbow_joint_pos,wrist_1_joint_pos,wrist_2_joint_pos,wrist_3_joint_pos,shoulder_pan_joint_pos,shoulder_lift_joint_vel,elbow_joint_vel,wrist_1_joint_vel,wrist_2_joint_vel,wrist_3_joint_vel,shoulder_pan_joint_vel,shoulder_lift_joint_eff,elbow_joint_eff,wrist_1_joint_eff,wrist_2_joint_eff,wrist_3_joint_eff,shoulder_pan_joint_eff
1750759629.2714968,-2.022895,-1.7532490000000003,-0.9713180000000001,1.566735,-0.9034110000000002,-2.4735389999999997,0.0,0.0,0.0,0.0,0.0,0.0,5.856399782732593,3.5181137321432465,0.29969413464749556,-0.0003350765266340756,0.0,8.627375840032692e-17
1750759629.272434,-2.022895,-1.7532490000000003,-0.9713180000000001,1.566735,-0.9034110000000002,-2.4735389999999997,0.0,0.0,0.0,0.0,0.0,0.0,5.856399782732593,3.5181137321432465,0.29969413464749556,-0.0003350765266340756,0.0,8.627375840032692e-17
1750759629.2929242,-2.022895,-1.7532490000000003,-0.9713180000000001,1.566735,-0.9034110000000002,-2.4735389999999997,0.0,0.0,0.0,0.0,0.0,0.0,5.856399782732593,3.5181137321432465,0.29969413464749556,-0.0003350765266340756,0.0,8.627375840032692e-17
1750759629.2933989,-2.022895,-1.7532490000000003,-0.9713180000000001,1.566735,-0.9034110000000002,-2.4735389999999997,0.0,0.0,0.0,0.0,0.0,0.0,5.856399782732593,3.5181137321432465,0.29969413464749556,-0.0003350765266340756,0.0,8.627375840032692e-17
1750759629.2937443,-2.022895,-1.7532490000000003,-0.9713180000000001,1.566735,-0.9034110000000002,-2.4735389999999997,0.0,0.0,0.0,0.0,0.0,0.0,5.856399782732593,3.5181137321432465,0.29969413464749556,-0.0003350765266340756,0.0,8.627375840032692e-17
1750759629.294156,-2.022895,-1.7532490000000003,-0.9713180000000001,1.566735,-0.9034110000000002,-2.4735389999999997,0.0,0.0,0.0,0.0,0.0,0.0,5.856399782732593,3.5181137321432465,0.29969413464749556,-0.0003350765266340756,0.0,8.627375840032692e-17
1750759629.2945101,-2.022895,-1.7532490000000003,-0.9713180000000001,1.566735,-0.9034110000000002,-2.4735389999999997,0.0,0.0,0.0,0.0,0.0,0.0,5.856399782732593,3.5181137321432465,0.29969413464749556,-0.0003350765266340756,0.0,8.627375840032692e-17
1750759629.2948449,-2.022895,-1.7532490000000003,-0.9713180000000001,1.566735,-0.9034110000000002,-2.4735389999999997,0.0,0.0,0.0,0.0,0.0,0.0,5.856399782732593,3.5181137321432465,0.29969413464749556,-0.0003350765266340756,0.0,8.627375840032692e-17
1750759629.2952082,-2.022895,-1.7532490000000003,-0.9713180000000001,1.566735,-0.9034110000000002,-2.4735389999999997,0.0,0.0,0.0,0.0,0.0,0.0,5.856399782732593,3.5181137321432465,0.29969413464749556,-0.0003350765266340756,0.0,8.627375840032692e-17
1750759629.2955415,-2.022894484673559,-1.7532500000000004,-0.9713175119244477,1.5667350277017158,-0.9034102050678907,-2.473538204357547,0.000515326441730244,-0.001,0.0004880755525537414,2.770171580288749e-05,0.0007949321098353404,0.0007956424528961041,6.014422324629508,3.3651929983382365,0.31068405975783425,0.0032640642949976328,0.02239349158672372,0.3404819865123268
1750759629.2958868,-2.022894484673559,-1.7532500000000004,-0.9713175119244477,1.5667350277017158,-0.9034102050678907,-2.473538204357547,0.000515326441730244,-0.001,0.0004880755525537414,2.770171580288749e-05,0.0007949321098353404,0.0007956424528961041,6.014422324629508,3.3651929983382365,0.31068405975783425,0.0032640642949976328,0.02239349158672372,0.3404819865123268
1750759629.296252,-2.022892938694233,-1.753253,-0.9713160476977896,1.5667351108068632,-0.9034078202715605,-2.473535817430188,0.001030652883460488,-0.002,0.0009761511051074828,5.540343160577498e-05,0.0015898642196706808,0.0015912849057922083,6.014410329703362,3.3651888442755302,0.3106840287087888,0.003264051445491477,0.022393491586684536,0.3404802070034745
1750759629.2965932,-2.022892938694233,-1.753253,-0.9713160476977896,1.5667351108068632,-0.9034078202715605,-2.473535817430188,0.001030652883460488,-0.002,0.0009761511051074828,5.540343160577498e-05,0.0015898642196706808,0.0015912849057922083,6.014410329703362,3.3651888442755302,0.3106840287087888,0.003264051445491477,0.022393491586684536,0.3404802070034745
1750759629.2969472,-2.022890362062025,-1.7532580000000006,-0.9713136073200275,1.5667352493154423,-0.9034038456110114,-2.4735318392179235,0.001545979325190732,-0.003,0.0014642266576612242,8.310514740866248e-05,0.0023847963295060212,0.0023869273586883126,6.014390338128323,3.3651819208231633,0.31068397696056815,0.0032640300295382913,0.022393491586619237,0.3404772411612432
1750759629.2987351,-2.0228821168389572,-1.7532740000000002,-0.9713057981111861,1.566735692542895,-0.9033911266972545,-2.473519108938677,0.00257663220865122,-0.005,0.0024403777627687072,0.00013850857901443747,0.003974660549176702,0.003978212264480521,6.014326364823898,3.365159765653697,0.3106838113678494,0.0032639614975674856,0.022393491586410283,0.3404677505152922
1750759629.3029706,-2.0228764482480983,-1.753285,-0.9713004292801077,1.566735997261769,-0.9033823824440459,-2.4735103568716954,0.003091958650381464,-0.006,0.0029284533153224484,0.00016621029481732495,0.0047695926590120424,0.004773854717376625,6.014282382943489,3.3651445338669275,0.3106836975242574,0.0032639143810238446,0.022393491586266634,0.34046122573968124
1750759629.3034744,-2.0228764482480983,-1.753285,-0.9713004292801077,1.566735997261769,-0.9033823824440459,-2.4735103568716954,0.003091958650381464,-0.006,0.0029284533153224484,0.00016621029481732495,0.0047695926590120424,0.004773854717376625,6.014282382943489,3.3651445338669275,0.3106836975242574,0.0032639143810238446,0.022393491586266634,0.34046122573968124
1750759629.3077447,-2.0228697490043555,-1.753298,-0.9712940842979254,1.5667363573840742,-0.9033720483266183,-2.473500013519808,0.003607285092111708,-0.007,0.00341652886787619,0.00019391201062021244,0.005564524768847383,0.005569497170272729,6.014230404112136,3.365126532551186,0.31068356298330363,0.0032638586969810693,0.022393491586096877,0.34045351468691076
1750759629.3081872,-2.0228620191077296,-1.7533130000000003,-0.9712867631646365,1.5667367729098114,-0.9033601243449709,-2.4734880788830145,0.004122611533841952,-0.008,0.003904604420429931,0.00022161372642309993,0.006359456878682723,0.006365139623168833,6.014170428207133,3.365105761649869,0.31068340774572445,0.0032637944450118147,0.02239349158590101,0.3404446173798255
1750759629.308533,-2.0228532585582197,-1.75333,-0.9712784658802436,1.56673724383898,-0.9033466104991037,-2.473474552961315,0.004637937975572197,-0.009000000000000001,0.004392679972983673,0.00024931544222598744,0.007154388988518064,0.007160782076064938,6.0141024550869036,3.365082221097684,0.3106832318123701,0.003263721624622904,0.022393491585679045,0.3404345338447851
1750759629.3089266,-2.022843467355827,-1.753349,-0.971269192444745,1.5667377701715803,-0.9033315067890166,-2.47345943575471,0.005153264417302441,-0.010000000000000002,0.004880755525537415,0.000277017158028875,0.007949321098353406,0.007956424528961044,6.014026484590989,3.365055910820618,0.31068303518420387,0.003263640235255496,0.022393491585431028,0.34042326411166757
1750759629.3135388,-2.02283264550055,-1.7533700000000003,-0.9712589428581406,1.5667383519076121,-0.9033148132147097,-2.4734427272631994,0.0056685908590326855,-0.011000000000000003,0.005368831078091157,0.0003047188738317625,0.008744253208188746,0.008752066981857147,6.013942516540061,3.3650268307359625,0.3106828178623018,0.003263550276284943,0.022393491585156824,0.3404108082138705
1750759629.315359,-2.0228079098313483,-1.753418,-0.9712355152316183,1.5667396815899706,-0.9032766564734382,-2.4734045364254604,0.006699243742493174,-0.013000000000000005,0.00634498218319864,0.0003601223054375375,0.010334117427859429,0.010343351887649357,6.013750586961491,3.3649603607695364,0.31068232114216443,0.0032633446467074632,0.02239349158453031,0.34038233807544127
1750759629.3175797,-2.0227939960174215,-1.7534450000000001,-0.9712223371916995,1.5667404295362974,-0.9032551933064727,-2.473383054079232,0.007214570184223419,-0.014000000000000005,0.006833057735752383,0.00038782402124042505,0.01112904953769477,0.011138994340545463,6.013642624980826,3.3649229706788426,0.3106820417466489,0.00326322897452272,0.022393491584177867,0.3403663239192152
1750759629.3192332,-2.0227790515506108,-1.7534740000000006,-0.9712081830006758,1.5667412328860557,-0.9032321402752874,-2.473359980448098,0.007729896625953663,-0.015000000000000006,0.007321133288306124,0.00041552573704331253,0.01192398164753011,0.011934636793441568,6.013526664539112,3.364882810362714,0.3106817416628378,0.003263104729579216,0.02239349158379941,0.3403491237671292
1750759629.3211398,-2.022763076430917,-1.7535050000000005,-0.9711930526585464,1.5667420916392456,-0.9032074973798823,-2.4733353155320583,0.008245223067683908,-0.016000000000000007,0.007809208840859866,0.0004432274528462001,0.012718913757365452,0.012730279246337671,6.013402705362674,3.3648398796949417,0.31068142089237466,0.0032629719109237977,0.022393491583394945,0.34033073767020305
1750759629.3229659,-2.0227460706583402,-1.7535380000000007,-0.9711769461653121,1.5667430057958671,-0.9031812646202582,-2.473309059331113,0.008760549509414153,-0.017000000000000008,0.008297284393413608,0.00047092916864908756,0.013513845867200792,0.013525921699233777,6.013270747158961,3.3647941785406217,0.3106810794370161,0.0032628305175376217,0.022393491582964338,0.3403111656829903
1750759629.3250256,-2.0227280342328795,-1.7535730000000003,-0.971159863520973,1.56674397535592,-0.9031534419964133,-2.4732812118452614,0.009275875951144397,-0.01800000000000001,0.008785359945967349,0.0004986308844519751,0.014308777977036134,0.014321564152129882,6.013130789616566,3.364745706756164,0.31068071729863256,0.003262680548336114,0.02239349158250779,0.34029040786357323
1750759629.327283,-2.0227089671545357,-1.7536100000000001,-0.9711418047255282,1.5667450003194048,-0.9031240295083496,-2.4732517730745043,0.009791202392874641,-0.01900000000000001,0.009273435498521092,0.0005263326002548626,0.015103710086871475,0.015117206605025987,6.012982832405214,3.3646944641892755,0.3106803344792079,0.003262522002169106,0.022393491582025117,0.3402684642735728
1750759629.3291867,-2.022688869423308,-1.7536490000000002,-0.9711227697789786,1.5667460806863212,-0.903093027156066,-2.473220743018841,0.010306528834604886,-0.02000000000000001,0.009761511051074834,0.0005540343160577501,0.015898642196706815,0.01591284905792209,6.012826875175769,3.3646404506789835,0.3106799309808387,0.003262354877820702,0.022393491581516475,0.3402453349781452
1750759629.3313015,-2.0226677410391964,-1.7536900000000006,-0.9711027586813241,1.5667472164566691,-0.9030604349395626,-2.4731881216782727,0.01082185527633513,-0.02100000000000001,0.010249586603628576,0.0005817360318606376,0.016693574306542155,0.016708491510818196,6.01266291756024,3.3645836660556254,0.3106795068057359,0.003262179174009411,0.02239349158098183,0.3402210200459924
1750759629.3331654,-2.0226455820022027,-1.7537330000000004,-0.9710817714325639,1.5667484076304485,-0.9030262528588402,-2.473153909052798,0.011337181718065375,-0.022000000000000013,0.010737662156182317,0.0006094377476635252,0.0174885064163775,0.0175041339637143,6.01249095917179,3.3645241101408505,0.31067906195622363,0.003261994889388038,0.022393491580421292,0.34019551954935656
1750759629.335209,-2.022622392312325,-1.7537780000000005,-0.9710598080326989,1.5667496542076598,-0.9029904809138971,-2.473118105142418,0.011852508159795619,-0.023000000000000013,0.011225737708736059,0.0006371394634664127,0.01828343852621284,0.018299776416610406,6.012310999604705,3.364461782747626,0.3106785964347391,0.003261802022543848,0.02239349157983457,0.34016883356402794
1750759629.3369293,-2.0225981719695634,-1.753825,-0.971036868481729,1.5667509561883024,-0.9029531191047351,-2.4730807099471317,0.012367834601525863,-0.024000000000000014,0.0117138132612898,0.0006648411792693001,0.01907837063604818,0.01909541886950651,6.012123038434434,3.364396683680247,0.3106781102438337,0.0032616005719984173,0.022393491579221984,0.34014096216934725
1750759629.3388205,-2.0225729209739187,-1.7538740000000006,-0.9710129527796543,1.5667523135723769,-0.9029141674313532,-2.4730417234669395,0.012883161043256108,-0.025000000000000015,0.012201888813843542,0.0006925428950721877,0.01987330274588352,0.019891061322402617,6.011927075217579,3.364328812734317,0.31067760338617145,0.0032613905362077976,0.022393491578583447,0.3401119054482103
1750759629.3409343,-2.022546639325391,-1.7539250000000006,-0.9709880609264738,1.5667537263598827,-0.9028736258937515,-2.473001145701842,0.013398487484986352,-0.026000000000000016,0.012689964366397284,0.0007202446108750752,0.02066823485571886,0.020686703775298722,6.011723109491892,3.3642581696967784,0.31067707586453114,0.0032611719135623796,0.022393491577918968,0.3400816634870696
1750759629.3429132,-2.0225193270239785,-1.753978,-0.9709621929221885,1.5667551945508202,-0.90283149449193,-2.4729589766518383,0.013913813926716596,-0.027000000000000017,0.013178039918951027,0.0007479463266779628,0.0214631669655542,0.021482346228194824,6.011511140776277,3.3641847543458985,0.31067652768180426,0.0032609447023870326,0.022393491577228558,0.34005023637593823
1750759629.3451283,-2.022490984069684,-1.7540329999999997,-0.9709353487667975,1.5667567181451894,-0.9027877732258895,-2.4729152163169292,0.01442914036844684,-0.028000000000000018,0.013666115471504769,0.0007756480424808502,0.022258099075389545,0.02227798868109093,6.011291168570811,3.3641085664512644,0.3106759588409957,0.003260708900941096,0.022393491576512343,0.34001762420840004
1750759629.347023,-2.022490984069684,-1.7540329999999997,-0.9709353487667975,1.5667567181451894,-0.9027877732258895,-2.4729152163169292,0.01442914036844684,-0.028000000000000018,0.013666115471504769,0.0007756480424808502,0.022258099075389545,0.02227798868109093,6.011291168570811,3.3641085664512644,0.3106759588409957,0.003260708900941096,0.022393491576512343,0.34001762420840004
1750759629.3490686,-2.0224616104625053,-1.7540900000000006,-0.9709075284603026,1.5667582971429903,-0.9027424620956284,-2.472869864697114,0.014944466810177085,-0.02900000000000002,0.01415419102405851,0.0008033497582837377,0.023053031185224886,0.023073631133987034,6.011063192356716,3.364029605773809,0.31067536934522455,0.0032604645074183337,0.022393491575770034,0.3399838270815999
1750759629.3511147,-2.0224312062024428,-1.754149,-0.9708787320027019,1.5667599315442227,-0.9026955611011482,-2.4728229217923934,0.01545979325190733,-0.03000000000000002,0.014642266576612252,0.0008310514740866253,0.023847963295060226,0.02386927358688314,6.010827211596388,3.363947872065803,0.31067475919772314,0.0032602115199469616,0.022393491575001947,0.33994884509626244
1750759629.3575234,-2.022399771289497,-1.7542100000000005,-0.9708489593939955,1.5667616213488866,-0.9026470702424483,-2.4727743876027666,0.015975119693637574,-0.03100000000000002,0.015130342129165994,0.0008587531898895128,0.024642895404895566,0.024664916039779244,6.0105832257333915,3.363863365070846,0.3106741284018379,0.0032599499365897457,0.022393491574208,0.3399126783566877
1750759629.3579364,-2.022399771289497,-1.7542100000000005,-0.9708489593939955,1.5667616213488866,-0.9026470702424483,-2.4727743876027666,0.015975119693637574,-0.03100000000000002,0.015130342129165994,0.0008587531898895128,0.024642895404895566,0.024664916039779244,6.0105832257333915,3.363863365070846,0.3106741284018379,0.0032599499365897457,0.022393491574208,0.3399126783566877
1750759629.3582304,-2.0223673057236677,-1.7542730000000004,-0.9708182106341852,1.5667633665569822,-0.9025969895195285,-2.472724262128234,0.01649044613536782,-0.03200000000000002,0.015618417681719735,0.0008864549056924003,0.025437827514730907,0.02546055849267535,6.010331234192468,3.3637760845238955,0.3106734769610283,0.003259679755343944,0.02239349157338821,0.33987532697076045
1750759629.3594697,-2.0223673057236677,-1.7542730000000004,-0.9708182106341852,1.5667633665569822,-0.9025969895195285,-2.472724262128234,0.01649044613536782,-0.03200000000000002,0.015618417681719735,0.0008864549056924003,0.025437827514730907,0.02546055849267535,6.010331234192468,3.3637760845238955,0.3106734769610283,0.003259679755343944,0.02239349157338821,0.33987532697076045
1750759629.367856,-2.0223673057236677,-1.7542730000000004,-0.9708182106341852,1.5667633665569822,-0.9025969895195285,-2.472724262128234,0.01649044613536782,-0.03200000000000002,0.015618417681719735,0.0008864549056924003,0.025437827514730907,0.02546055849267535,6.010331234192468,3.3637760845238955,0.3106734769610283,0.003259679755343944,0.02239349157338821,0.33987532697076045
1750759629.3697624,-2.0222992826333606,-1.7544050000000002,-0.9707537846612482,1.566767023183468,-0.9024920584810303,-2.472619237324452,0.01752109901882831,-0.03400000000000002,0.01659456878682722,0.0009418583372981753,0.02702769173440159,0.02705184339846756,6.009803231681657,3.3635932016705437,0.3106721121590438,0.0032591135908483114,0.022393491571671177,0.33979707070932097
1750759629.3702872,-2.02226372510888,-1.754474,-0.9707201074481215,1.5667689346018585,-0.9024372081654519,-2.472564337995202,0.01803642546055855,-0.035000000000000024,0.017082644339380962,0.0009695600531010629,0.02782262384423693,0.027847485851363665,6.009527219467119,3.363497598790803,0.3106713988053573,0.003258817603265748,0.022393491570773968,0.339756166067533
1750759629.3706484,-2.02226372510888,-1.754474,-0.9707201074481215,1.5667689346018585,-0.9024372081654519,-2.472564337995202,0.01803642546055855,-0.035000000000000024,0.017082644339380962,0.0009695600531010629,0.02782262384423693,0.027847485851363665,6.009527219467119,3.363497598790803,0.3106713988053573,0.003258817603265748,0.022393491570773968,0.339756166067533
1750759629.3741703,-2.0222271369315177,-1.7545450000000002,-0.9706854540838901,1.5667709014236806,-0.9023807679856537,-2.4725078473810465,0.018551751902288798,-0.036000000000000025,0.0175707198919347,0.0009972617689039504,0.028617555954072272,0.02864312830425977,6.009243199085395,3.363399221212376,0.31067066482172256,0.003258513009129164,0.022393491569850998,0.33971407724684827
1750759629.375747,-2.0222271369315177,-1.7545450000000002,-0.9706854540838901,1.5667709014236806,-0.9023807679856537,-2.4725078473810465,0.018551751902288798,-0.036000000000000025,0.0175707198919347,0.0009972617689039504,0.028617555954072272,0.02864312830425977,6.009243199085395,3.363399221212376,0.31067066482172256,0.003258513009129164,0.022393491569850998,0.33971407724684827
1750759629.3774354,-2.0221895181012712,-1.7546180000000007,-0.9706498245685538,1.566772923648934,-0.9023227379416356,-2.472449765481985,0.01906707834401904,-0.037000000000000026,0.018058795444488445,0.0010249634847068379,0.029412488063907612,0.029438770757155872,6.0089511698671165,3.363298068626995,0.31066991021216894,0.0032581998061086397,0.02239349156890228,0.33967080437313624
1750759629.3778603,-2.0221508686181418,-1.7546930000000005,-0.9706132189021126,1.5667750012776194,-0.9022631180333978,-2.4723900922980175,0.019582404785749286,-0.03800000000000003,0.018546870997042185,0.0010526652005097253,0.030207420173742956,0.030234413210051977,6.008651131124138,3.363194140717747,0.31066913498083776,0.0032578779918090127,0.022393491567927935,0.33962634757588445
1750759629.3782282,-2.0221111884821283,-1.7547700000000006,-0.9705756370845657,1.566777134309736,-0.9022019082609409,-2.472328827829145,0.02009773122747953,-0.03900000000000003,0.01903494654959593,0.001080366916312613,0.031002352283578297,0.031030055662948083,6.008343082149486,3.363087437159097,0.3106683391319859,0.003257547563769615,0.02239349156692769,0.3395807069881909
1750759629.3790774,-2.022070477693232,-1.754849,-0.970537079115914,1.5667793227452846,-0.9021391086242634,-2.472265972075366,0.020613057669209775,-0.04000000000000003,0.01952302210214967,0.0011080686321155004,0.03179728439341364,0.03182569811584419,6.008027022217419,3.362977957616881,0.31066752266998315,0.0032572085194645674,0.022393491565901865,0.3395338827467833
1750759629.381115,-2.0220287362514515,-1.7549299999999999,-0.9704975449961575,1.5667815665842646,-0.9020747191233669,-2.4722015250366813,0.021128384110940018,-0.04100000000000003,0.02001109765470341,0.001135770347918388,0.03259221650324898,0.03262134056874029,6.007702950583375,3.362865701748316,0.3106666855993133,0.00325686085630263,0.022393491564850383,0.3394858749920173
1750759629.383165,-2.021985964156788,-1.755013,-0.9704570347252952,1.5667838658266764,-0.9020087397582506,-2.472135486713091,0.021643710552670264,-0.04200000000000003,0.020499173207257155,0.0011634720637212755,0.03338714861308432,0.0334169830216364,6.007370866484024,3.362750669202007,0.3106658279245749,0.0032565045716273756,0.022393491563773262,0.3394366838678935
1750759629.3853016,-2.021985964156788,-1.755013,-0.9704570347252952,1.5667838658266764,-0.9020087397582506,-2.472135486713091,0.021643710552670264,-0.04200000000000003,0.020499173207257155,0.0011634720637212755,0.03338714861308432,0.0334169830216364,6.007370866484024,3.362750669202007,0.3106658279245749,0.0032565045716273756,0.022393491563773262,0.3394366838678935
1750759629.3920329,-2.021985964156788,-1.755013,-0.9704570347252952,1.5667838658266764,-0.9020087397582506,-2.472135486713091,0.021643710552670264,-0.04200000000000003,0.020499173207257155,0.0011634720637212755,0.03338714861308432,0.0334169830216364,6.007370866484024,3.362750669202007,0.3106658279245749,0.0032565045716273756,0.022393491563773262,0.3394366838678935
1750759629.393653,-2.0218973280088104,-1.755185,-0.9703730857302562,1.5667886305217944,-0.9018720114353593,-2.4719986362111928,0.022674363436130753,-0.04400000000000003,0.021475324312364638,0.0012188754953270505,0.034977012832755,0.03500826792742861,6.0066826577421155,3.3625122726275056,0.3106640507818529,0.0032557661267845505,0.02239349156154222,0.3393347521057469
1750759629.3944187,-2.021851463955496,-1.755274,-0.9703296470060785,1.5667910959745008,-0.9018012624775835,-2.471927824032885,0.023189689877861,-0.04500000000000003,0.021963399864918378,0.001246577211129938,0.03577194494259034,0.03580391038032471,6.0063265314789716,3.362388907853478,0.3106631313236351,0.003255383960977852,0.022393491560388345,0.33928201177394995
1750759629.395147,-2.0218045692492987,-1.7553650000000003,-0.9702852321307969,1.566793616830639,-0.9017289236555888,-2.4718554205696717,0.02370501631959124,-0.046000000000000034,0.02245147541747212,0.0012742789269328254,0.036566877052425686,0.03659955283322082,6.005962389509368,3.362262764910047,0.3106621912808806,0.0032549931623796504,0.022393491559209132,0.3392280886852648
1750759629.3957124,-2.0217566438902175,-1.755458,-0.9702398411044086,1.5667961930902086,-0.9016549949693742,-2.4717814258215522,0.024220342761321487,-0.047000000000000035,0.022939550970025865,0.001301980642735713,0.03736180916226103,0.03739519528611692,6.005590230976089,3.3621338434028103,0.3106612306587571,0.003254593728007363,0.022393491558004016,0.3391729830019498
1750759629.397326,-2.021707687878253,-1.7555530000000008,-0.9701934739269165,1.5667988247532099,-0.9015794764189398,-2.471705839788527,0.02473566920305173,-0.048000000000000036,0.023427626522579605,0.0013296823585386005,0.03815674127209637,0.03819083773901303,6.005210055003154,3.3620021429287656,0.31066024946254667,0.003254185654813468,0.02239349155677362,0.3391166948899685
1750759629.3992267,-2.021657701213406,-1.7556500000000002,-0.9701461305983186,1.5668015118196428,-0.9015023680042855,-2.471628662470596,0.025250995644781976,-0.04900000000000004,0.023915702075133348,0.0013573840743414882,0.03895167338193171,0.03898648019190913,6.00482186069585,3.3618676630763535,0.3106592476976465,0.0032537689396852,0.022393491555517765,0.3390592245189402
1750759629.401363,-2.0216066838956745,-1.7557489999999998,-0.9700978111186158,1.5668042542895073,-0.9014236697254123,-2.4715498938677594,0.02576632208651222,-0.05000000000000004,0.024403777627687088,0.0013850857901443756,0.03974660549176705,0.03978212264480523,6.004425647140684,3.3617304034254203,0.3106582253695668,0.0032533435794448516,0.02239349155423648,0.33900057206219836
1750759629.4030728,-2.0215546359250602,-1.7558500000000006,-0.9700485154878074,1.5668070521628032,-0.9013433815823184,-2.471469533980017,0.026281648528242465,-0.05100000000000004,0.02489185318024083,0.001412787505947263,0.04054153760160239,0.04057776509770134,6.004021413405439,3.3615903635472444,0.31065718248393287,0.003252909570849633,0.022393491552929808,0.3389407376967638
1750759629.4051197,-2.021501557301562,-1.7559529999999999,-0.9699982437058949,1.566809905439531,-0.9012615035750056,-2.4713875828073686,0.026796974969972708,-0.05200000000000004,0.02537992873279457,0.0014404892217501507,0.04133646971143773,0.041373407550597444,6.003609158539157,3.3614475430045543,0.3106561190464838,0.003252466910591717,0.022393491551597762,0.33887972160335506
1750759629.4072416,-2.02144744802518,-1.7560580000000003,-0.9699469957728768,1.5668128141196902,-0.9011780357034729,-2.4713040403498145,0.027312301411702954,-0.05300000000000004,0.025868004285348314,0.001468190937553038,0.04213140182127307,0.04216905000349355,6.003188881572145,3.3613019413515053,0.31065503506307335,0.003252015595298379,0.02239349155024038,0.3388175239664255
1750759629.4091392,-2.0213923080959146,-1.7561650000000002,-0.9698947716887538,1.5668157782032812,-0.9010929779677204,-2.471218906607355,0.027827627853433196,-0.05400000000000004,0.026356079837902058,0.0014958926533559255,0.04292633393110841,0.042964692456389654,6.002760581515974,3.3611535581337018,0.3106539305396694,0.003251555621531873,0.022393491548857686,0.338754144974125
1750759629.411131,-2.0213361375137655,-1.7562740000000003,-0.9698415714535251,1.5668187976903036,-0.901006330367748,-2.471132181579989,0.028342954295163442,-0.05500000000000004,0.026844155390455798,0.0015235943691588132,0.04372126604094375,0.04376033490928576,6.002324257363519,3.3610023928882162,0.3106528054823547,0.0032510869857896424,0.02239349154744972,0.33868958481835904
1750759629.4132752,-2.0212789362787342,-1.7563849999999999,-0.9697873950671916,1.566821872580758,-0.9009180929035567,-2.4710438652677174,0.028858280736893685,-0.05600000000000004,0.02733223094300954,0.0015512960849617006,0.04451619815077909,0.044555977362181864,6.001879908088915,3.360848445143557,0.31065165989732557,0.003250609684504114,0.022393491546016504,0.3386238436947431
1750759629.415161,-2.021220704390819,-1.7564980000000006,-0.9697322425297532,1.5668250028746435,-0.9008282655751447,-2.4709539576705404,0.02937360717862393,-0.057000000000000044,0.02782030649556328,0.0015789978007645883,0.04531113026061444,0.04535161981507797,6.001427532647596,3.36069171441972,0.3106504937908939,0.0032501237140430354,0.022393491544558275,0.33855692180266733
1750759629.4171457,-2.021161441850019,-1.7566129999999998,-0.9696761138412091,1.5668281885719608,-0.9007368483825138,-2.4708624587884573,0.029888933620354174,-0.058000000000000045,0.028308382048117024,0.0016066995165674757,0.04610606237044978,0.046147262267974075,6.000967129976289,3.3605322002281715,0.31064930716948563,0.0032496290707091516,0.022393491543074472,0.3384888193452491
1750759629.4194355,-2.021101148656337,-1.7567300000000001,-0.9696190090015602,1.56683142967271,-0.900643841325663,-2.4707693686214682,0.03040426006208442,-0.059000000000000045,0.028796457600670764,0.0016344012323703631,0.04690099448028512,0.046942904720870184,6.0004986989930424,3.3603699020718394,0.31064810003964094,0.0032491257507406713,0.022393491541565714,0.33841953652939494
1750759629.4209454,-2.0210398248097707,-1.7568490000000008,-0.9695609280108064,1.5668347261768905,-0.9005492444045933,-2.470674687169574,0.030919586503814663,-0.060000000000000046,0.029284533153224507,0.0016621029481732508,0.04769592659012046,0.047738547173766285,6.000022238597189,3.3602048194451557,0.3106468724080154,0.0032486137503107914,0.022393491540031847,0.33834907356575855
1750759629.422955,-2.0209774703103225,-1.7569700000000008,-0.9695018708689478,1.5668380780845026,-0.9004530576193028,-2.470578414432773,0.03143491294554491,-0.06100000000000005,0.029772608705778247,0.0016898046639761382,0.0484908586999558,0.04853418962666239,5.9995377476694065,3.3600369518340383,0.3106456242813787,0.0032480930655282092,0.0223934915384729,0.3382774306687982
1750759629.4249604,-2.0209140851579885,-1.7570930000000002,-0.9694418375759835,1.5668414853955464,-0.9003552809697934,-2.470480550411067,0.031950239387275155,-0.06200000000000005,0.03026068425833199,0.0017175063797790259,0.04928579080979114,0.049329832079558496,5.999045225071658,3.35986629871591,0.3106443556666158,0.0032475636924369053,0.02239349153688891,0.33820460805674984
1750759629.4273412,-2.0208496693527724,-1.757218,-0.9693808281319143,1.5668449481100217,-0.9002559144560633,-2.470381095104455,0.032465565829005394,-0.06300000000000004,0.03074875981088573,0.001745208095581913,0.05008072291962647,0.05012547453245459,5.998544669647277,3.3596928595596878,0.3106430665707257,0.0032470256270160677,0.022393491535279718,0.33813060595163985
1750759629.4291518,-2.0207842228946724,-1.7573450000000008,-0.9693188425367403,1.5668484662279287,-0.9001549580781143,-2.4702800485129375,0.03298089227073564,-0.06400000000000004,0.03123683536343947,0.0017729098113848005,0.050875655029461814,0.0509211169853507,5.998036080220907,3.3595166338258085,0.3106417570008227,0.0032464788651806265,0.022393491533645938,0.33805542457933657
1750759629.431232,-2.0207177457836902,-1.7574740000000002,-0.9692558807904605,1.5668520397492671,-0.9000524118359454,-2.4701774106365137,0.03349621871246588,-0.06500000000000004,0.031724910915993214,0.0018006115271876882,0.05167058713929716,0.0517167594382468,5.997519455598552,3.3593376209662327,0.31064042696413624,0.0032459234027805376,0.02239349153198723,0.33797906416948353
1750759629.4332106,-2.0206502380198232,-1.7576049999999999,-0.969191942893076,1.5668556686740374,-0.8999482757295576,-2.4700731814751844,0.034011545154196125,-0.06600000000000004,0.03221298646854696,0.0018283132429905756,0.0524655192491325,0.05251240189114291,5.996994794567563,3.3591558204244545,0.3106390764680105,0.0032453592356015896,0.022393491530303226,0.3379015249555894
1750759629.4349334,-2.020581699603073,-1.7577379999999998,-0.9691270288445866,1.5668593530022392,-0.8998425497589491,-2.469967361028949,0.03452687159592637,-0.06700000000000005,0.032701062021100694,0.0018560149587934633,0.05326045135896784,0.05330804434403901,5.996462095896632,3.3589712316354823,0.31063770551990355,0.0032447863593648534,0.02239349152859456,0.3378228071749745
1750759629.4370754,-2.0205121305334393,-1.757873,-0.9690611386449914,1.5668630927338725,-0.8997352339241216,-2.469859949297808,0.03504219803765662,-0.06800000000000005,0.03318913757365444,0.0018837166745963507,0.05405538346880318,0.05410368679693512,5.995921358335834,3.358783854025889,0.3106363141273907,0.0032442047697270964,0.022393491526861074,0.3377429110688322
1750759629.4392102,-2.0204415308109223,-1.7580100000000005,-0.9689942722942915,1.5668668878689376,-0.8996263282250743,-2.4697509462817613,0.035557524479386864,-0.06900000000000005,0.03367721312620818,0.0019114183903992381,0.05485031557863852,0.05489932924983122,5.995372580616623,3.358593687013786,0.31063490229816026,0.003243614462280596,0.022393491525102803,0.33766183688218865
1750759629.4409409,-2.0204415308109223,-1.7580100000000005,-0.9689942722942915,1.5668668878689376,-0.8996263282250743,-2.4697509462817613,0.035557524479386864,-0.06900000000000005,0.03367721312620818,0.0019114183903992381,0.05485031557863852,0.05489932924983122,5.995372580616623,3.358593687013786,0.31063490229816026,0.003243614462280596,0.022393491525102803,0.33766183688218865
1750759629.4430742,-2.0203699004355222,-1.7581490000000004,-0.9689264297924867,1.566870738407434,-0.8995158326618071,-2.469640351980809,0.0360728509211171,-0.07000000000000005,0.034165288678761924,0.0019391201062021258,0.05564524768847386,0.05569497170272733,5.994815761451819,3.358400730008846,0.3106334700400167,0.00324301543255337,0.022393491523319792,0.33757958486396505
1750759629.4514859,-2.0202972394072383,-1.7582900000000006,-0.968857611139577,1.5668746443493624,-0.8994037472343202,-2.4695281663949507,0.03658817736284735,-0.07100000000000005,0.03465336423131567,0.001966821822005013,0.056440179798309204,0.05649061415562343,5.99425089953564,3.358204982412312,0.3106320173608794,0.003242407676008969,0.022393491521512075,0.3374961552669366
1750759629.452064,-2.0200730724050855,-1.758725,-0.9686452982742155,1.5668866945957367,-0.899057951766542,-2.4691820619279405,0.03813415668803808,-0.07400000000000005,0.03611759088897689,0.0020499269694136757,0.058824976127815225,0.058877541514311744,5.992508043941992,3.3576009899592063,0.3106275368784312,0.0032405319991455073,0.02239349151594112,0.33723880358936326
1750759629.45521,-2.0200730724050855,-1.758725,-0.9686452982742155,1.5668866945957367,-0.899057951766542,-2.4691820619279405,0.03813415668803808,-0.07400000000000005,0.03611759088897689,0.0020499269694136757,0.058824976127815225,0.058877541514311744,5.992508043941992,3.3576009899592063,0.3106275368784312,0.0032405319991455073,0.02239349151594112,0.33723880358936326
1750759629.4556754,-2.0199962887652676,-1.7588740000000005,-0.9685725750168857,1.5668908221513913,-0.8989395068821766,-2.4690635112024593,0.038649483129768326,-0.07500000000000005,0.036605666441530633,0.0020776286852165634,0.059619908237650565,0.05967318396720785,5.991910997590512,3.357394073840301,0.3106260025968206,0.003239889288684075,0.022393491514035007,0.3371506662829901
1750759629.4574387,-2.0199184744725667,-1.7590250000000003,-0.96849887560845,1.5668950051104775,-0.8988194721335914,-2.468943369192072,0.03916480957149857,-0.07600000000000005,0.03709374199408437,0.0021053304010194506,0.06041484034748591,0.060468826420103955,5.99130590167984,3.3571843640097816,0.3106244479355438,0.0032392378277603336,0.0223934915121046,0.3370613527203221
1750759629.459128,-2.019839629526981,-1.7591780000000004,-0.9684242000489087,1.5668992434729954,-0.8986978475207863,-2.4688216358967785,0.03968013601322882,-0.07700000000000005,0.03758181754663811,0.0021330321168223382,0.06120977245732125,0.061264468873000064,5.990692754792682,3.3569718598184557,0.31062287290321283,0.003238577611453037,0.022393491510149348,0.3369708631776664
1750759629.4609158,-2.019759753928513,-1.7593329999999998,-0.9683485483382634,1.5669035372389448,-0.8985746330437623,-2.46869831131658,0.04019546245495906,-0.07800000000000006,0.03806989309919186,0.002160733832625226,0.06200470456715659,0.062060111325896165,5.990071555493212,3.3567565606087584,0.3106212775085545,0.003237908634776662,0.022393491508169886,0.33687919793526183
1750759629.4628468,-2.019678847677161,-1.7594900000000004,-0.9682719204765124,1.566907886408326,-0.8984498287025176,-2.4685733954514752,0.040710788896689304,-0.07900000000000006,0.0385579686517456,0.0021884355484281135,0.06279963667699193,0.06285575377879227,5.9894423023270456,3.3565384657147566,0.31061966176041245,0.003237230892681939,0.022393491506165875,0.3367863572773368
1750759629.4649231,-2.0195969107729264,-1.7596490000000005,-0.9681943164636557,1.5669122909811384,-0.8983234344970539,-2.4684468883014645,0.04122611533841955,-0.08000000000000006,0.03904604420429934,0.0022161372642310008,0.06359456878682727,0.06365139623168838,5.988804993821256,3.3563175744621647,0.31061802566774505,0.003236544380055568,0.02239349150413813,0.336692341492095
1750759629.468287,-2.0195139432158076,-1.7598099999999999,-0.968115736299695,1.5669167509573827,-0.8981954504273704,-2.468318789866548,0.041741441780149796,-0.08100000000000006,0.03953411975685308,0.0022438389800338884,0.06438950089666262,0.06444703868458448,5.988159628484398,3.3560938861683463,0.3106163692396271,0.003235849091720427,0.022393491502085725,0.33659715087172415
1750759629.469037,-2.0194299450058057,-1.7599730000000005,-0.9680361799846287,1.5669212663370586,-0.898065876493467,-2.468189100146726,0.042256768221880035,-0.08200000000000006,0.04002219530940682,0.002271540695836776,0.06518443300649795,0.06524268113748058,5.987506204806497,3.3558674001423197,0.310614692485249,0.0032351450224354676,0.02239349150000871,0.33650078571242054
1750759629.471028,-2.01934491614292,-1.7601380000000004,-0.9679556475184574,1.566925837120166,-0.8979347126953447,-2.4680578191419986,0.04277209466361028,-0.08300000000000006,0.040510270861960566,0.0022992424116396633,0.0659793651163333,0.06603832359037669,5.986844721259088,3.3556381156847856,0.31061299541391696,0.0032344321668960783,0.0223934914979083,0.3364032463144196
1750759629.4729934,-2.019258856627152,-1.7603050000000007,-0.9678741389011805,1.5669304633067052,-0.8978019590330018,-2.467924946852365,0.04328742110534053,-0.08400000000000006,0.04099834641451431,0.002326944127442551,0.06677429722616864,0.0668339660432728,5.9861751762951885,3.3554060320881103,0.3106112780350532,0.0032337105197337212,0.02239349149578298,0.33630453298195156
1750759629.475251,-2.0191717664584985,-1.7604740000000003,-0.9677916541327996,1.566935144896676,-0.8976676155064398,-2.4677904832778252,0.043802747547070774,-0.08500000000000006,0.04148642196706805,0.0023546458432454386,0.06756922933600398,0.0676296084961689,5.985497568349318,3.3551711486363667,0.31060954035819605,0.003232980075516249,0.022393491493634364,0.33620464602331096
1750759629.4772441,-2.0190836456369627,-1.7606450000000002,-0.9677081932133129,1.5669398818900782,-0.897531682115658,-2.46765442841838,0.04431807398880101,-0.08600000000000006,0.04197449751962179,0.002382347559048326,0.06836416144583932,0.068425250949065,5.984811895837538,3.3549334646053035,0.31060778239299947,0.003232240828747829,0.02239349149146094,0.3361035857508376
1750759629.478969,-2.018994494162544,-1.7608180000000004,-0.9676237561427206,1.566944674286912,-0.8973941588606564,-2.467516782274029,0.04483340043053126,-0.08700000000000006,0.04246257307217553,0.0024100492748512134,0.06915909355567466,0.06922089340196111,5.98411815715743,3.3546929792623965,0.3106060041492351,0.0032314927738693287,0.02239349148926431,0.3360013524809644
1750759629.4809575,-2.0189043120352412,-1.760993,-0.9675383429210243,1.5669495220871776,-0.897255045741435,-2.4673775448447723,0.045348726872261505,-0.08800000000000006,0.042950648624729276,0.002437750990654101,0.06995402566551,0.07001653585485722,5.983416350688098,3.354449691866837,0.3106042056367888,0.003230735905257727,0.022393491487042973,0.33589794653416705
1750759629.482838,-2.0188130992550555,-1.76117,-0.9674519535482222,1.5669544252908747,-0.8971143427579946,-2.4672367161306097,0.04586405331399175,-0.08900000000000007,0.04343872417728302,0.0024654527064569883,0.07074895777534534,0.07081217830775333,5.9827064747902075,3.3542036016695347,0.3106023868656636,0.003229970217226708,0.02239349148479854,0.3357933682350416
1750759629.4848864,-2.018720855821985,-1.761349,-0.9673645880243145,1.5669593838980034,-0.8969720499103335,-2.4670942961315414,0.046379379755722,-0.09000000000000007,0.043926799729836756,0.002493154422259876,0.07154388988518068,0.07160782076064942,5.98198852780597,3.353954707913148,0.3106005478459792,0.00322919570402654,0.022393491482529494,0.33568761791228063
1750759629.4868371,-2.018720855821985,-1.761349,-0.9673645880243145,1.5669593838980034,-0.8969720499103335,-2.4670942961315414,0.046379379755722,-0.09000000000000007,0.043926799729836756,0.002493154422259876,0.07154388988518068,0.07160782076064942,5.98198852780597,3.353954707913148,0.3106005478459792,0.00322919570402654,0.022393491482529494,0.33568761791228063
1750759629.4889438,-2.018627581736032,-1.7615300000000005,-0.9672762463493028,1.5669643979085637,-0.8968281671984535,-2.466950284847567,0.046894706197452236,-0.09100000000000007,0.0444148752823905,0.0025208561380627636,0.07233882199501603,0.07240346321354553,5.9812625080591815,3.353703009832076,0.31059868858797157,0.0032284123598442303,0.02239349148023745,0.3355806958987217
1750759629.4907546,-2.0185332769971955,-1.7617130000000003,-0.9671869285231853,1.5669694673225556,-0.8966826946223536,-2.466804682278687,0.04741003263918248,-0.09200000000000007,0.04490295083494424,0.002548557853865651,0.07313375410485137,0.07319910566644164,5.9805284138552075,3.3534485066524873,0.31059680910199317,0.0032276201788032275,0.022393491477921294,0.33547260253130134
1750759629.4927752,-2.018437941605475,-1.7618980000000004,-0.9670966345459631,1.5669745921399791,-0.8965356321820348,-2.4666574884249015,0.04792535908091273,-0.09300000000000007,0.045391026387497986,0.0025762595696685385,0.0739286862146867,0.07399474811933773,5.979786243480991,3.353191197592309,0.3105949093985124,0.0032268191549639073,0.022393491475581076,0.3353633381511233
1750759629.4946887,-2.0183415755608713,-1.7620850000000008,-0.9670053644176351,1.5669797723608343,-0.8963869798774953,-2.46650870328621,0.048440685522642975,-0.09400000000000007,0.04587910194005173,0.002603961285471426,0.07472361832452205,0.07479039057223384,5.97903599520508,3.3529310818612506,0.3105929894881153,0.003226009282323527,0.022393491473218022,0.3352529031034748
1750759629.4966104,-2.0182441788633847,-1.7622740000000006,-0.9669131181382022,1.566985007985121,-0.8962367377087359,-2.466358326862612,0.048956011964373214,-0.09500000000000007,0.046367177492605466,0.002631663001274314,0.07551855043435739,0.07558603302512995,5.978277667277639,3.352668158660818,0.31059104938150367,0.0032251905548159577,0.022393491470830622,0.33514129773777973
1750759629.4986424,-2.018145751513014,-1.7624650000000006,-0.9668198957076646,1.5669902990128395,-0.8960849056757576,-2.4662063591541092,0.04947133840610346,-0.09600000000000007,0.04685525304515921,0.002659364717077201,0.07631348254419273,0.07638167547802606,5.9775112579304475,3.3524024271843134,0.3105890890894974,0.003224362966312155,0.022393491468420495,0.33502852240768094
1750759629.50062,-2.0180462935097605,-1.762658,-0.9667256971260221,1.5669956454439893,-0.8959314837785595,-2.4660528001607003,0.049986664847833706,-0.09700000000000007,0.04734332859771295,0.0026870664328800887,0.07710841465402807,0.07717731793092215,5.9767367653769075,3.3521338866168535,0.3105871086230316,0.0032235265106199907,0.022393491465986133,0.33491457747101533
1750759629.5026186,-2.017945804853623,-1.7628529999999998,-0.9666305223932738,1.567001047278571,-0.8957764720171415,-2.4658976498823857,0.05050199128956395,-0.09800000000000007,0.047831404150266696,0.0027147681486829763,0.07790334676386342,0.07797296038381826,5.975954187812061,3.3518625361353767,0.3105851079931599,0.003222681181484539,0.022393491463529154,0.3347994632898634
1750759629.504684,-2.0178442855446015,-1.7630499999999998,-0.9665343715094208,1.5670065045165842,-0.8956198703915037,-2.465740908319165,0.05101731773129419,-0.09900000000000007,0.04831947970282043,0.0027424698644858635,0.07869827887369875,0.07876860283671437,5.975163523412609,3.351588374908656,0.3105830872110514,0.0032218269725876546,0.022393491461048052,0.3346831802305048
1750759629.512642,-2.0176381549679103,-1.7634500000000006,-0.9663391412883993,1.5670175852029053,-0.8953018975475695,-2.4654226513380064,0.052047970614754684,-0.10100000000000008,0.04929563080792792,0.002797873296091639,0.08028814309336943,0.08035988774250657,5.9735579267250305,3.351031616853812,0.31057898523539107,0.0032200918899237025,0.022393491456016833,0.3344471089636452
1750759629.5142353,-2.0174279017796835,-1.7638580000000008,-0.9661400064629575,1.5670288875029528,-0.8949775652467569,-2.465098029217225,0.05307862349821517,-0.10300000000000008,0.050271781913035406,0.0028532767276974137,0.08187800731304012,0.08195117264829879,5.9719199603612,3.350463605639639,0.31057480278775246,0.003218321210828425,0.022393491450893335,0.334206366686104
1750759629.5152822,-2.017321229206246,-1.7640650000000004,-0.9660389748235785,1.567034621758124,-0.8948130143000208,-2.464933331229475,0.053593949939945415,-0.10400000000000008,0.05075985746558914,0.0028809784435003013,0.08267293942287546,0.08274681510119489,5.971088833797823,3.350175377933304,0.3105726814161119,0.0032174225061573697,0.022393491448296395,0.334084244879497
1750759629.5168033,-2.0172135259799244,-1.7642740000000003,-0.9659369670330955,1.567040411416727,-0.8946468734890658,-2.46476704195682,0.05410927638167566,-0.10500000000000008,0.051247933018142885,0.0029086801593031886,0.0834678715327108,0.083542457554091,5.970249609075343,3.349884334323528,0.310570539961716,0.0032165148824994712,0.022393491445677243,0.33396095648227764
1750759629.5187638,-2.017104792100719,-1.7644850000000005,-0.9658339830915059,1.5670462564787613,-0.8944791428138901,-2.464599161399259,0.05462460282340591,-0.10600000000000008,0.05173600857069663,0.002936381875106076,0.08426280364254614,0.0843381000069871,5.9694022842423475,3.3495904739222517,0.31056837843655616,0.003215598333097947,0.02239349144303438,0.33383650189079794
1750759629.5207524,-2.0169950275686306,-1.764698,-0.9657300229988124,1.5670521569442273,-0.8943098222744954,-2.464429689556792,0.055139929265136146,-0.10700000000000008,0.05222408412325037,0.002964083590908964,0.08505773575238149,0.08513374245988321,5.9685468573291525,3.349293795833335,0.3105661968527406,0.0032146728511337716,0.022393491440369433,0.33371088150579387
1750759629.522659,-2.016884232383658,-1.764913,-0.9656250867550131,1.567058112813125,-0.8941389118708809,-2.4642586264294195,0.05565525570686639,-0.10800000000000008,0.052712159675804116,0.002991785306711851,0.08585266786221682,0.08592938491277931,5.967683326347845,3.348994299152587,0.3105639952224967,0.003213738429725487,0.022393491437680893,0.3335840957323641
1750759629.526191,-2.016772406545803,-1.76513,-0.965519174360109,1.5670641240854541,-0.8939664116030466,-2.4640859720171413,0.05617058214859664,-0.10900000000000008,0.05320023522835785,0.0030194870225147387,0.08664759997205217,0.08672502736567542,5.9668116892922605,3.3486919829677606,0.31056177355816794,0.0032127950619295857,0.02239349143497039,0.33345614498002213
1750759629.5267131,-2.0166595500550644,-1.7653490000000005,-0.9654122858141001,1.567070190761215,-0.8937923214709924,-2.463911726319957,0.056685908590326885,-0.11000000000000008,0.053688310780911595,0.0030471887383176264,0.0874425320818875,0.08752066981857153,5.965931944138029,3.348386846358577,0.31055953187221746,0.0032118427407399697,0.022393491432236425,0.33332702966265165
1750759629.5289989,-2.016545662911442,-1.7655700000000003,-0.9653044211169854,1.5670763128404073,-0.8936166414747193,-2.4637358893378667,0.05720123503205713,-0.11100000000000008,0.05417638633346534,0.003074890454120514,0.08823746419172285,0.08831631227146762,5.965044088842564,3.3480788883967403,0.31055727017722495,0.003210881459088563,0.022393491429480623,0.3331967501985805
1750759629.5309799,-2.0164307451149366,-1.7657930000000004,-0.965195580268766,1.5670824903230314,-0.8934393716142255,-2.463558461070871,0.05771656147378737,-0.11200000000000009,0.05466446188601908,0.0031025921699234012,0.08903239630155818,0.08911195472436373,5.964148121345089,3.3477681081459365,0.310554988485889,0.003209911209845383,0.02239349142670148,0.3330653070105943
1750759629.5328457,-2.0163147966655472,-1.7660180000000008,-0.9650857632694416,1.567088723209087,-0.8932605118895127,-2.463379441518969,0.058231887915517616,-0.11300000000000009,0.05515253743857282,0.003130293885726289,0.08982732841139353,0.08990759717725984,5.963244039566649,3.347454504661856,0.3105526868110256,0.003208931985818121,0.022393491423900635,0.33293270052589824
1750759629.5347106,-2.016197817563274,-1.7662450000000005,-0.9649749701190116,1.5670950114985742,-0.8930800623005801,-2.463198830682162,0.05874721435724786,-0.11400000000000009,0.05564061299112656,0.0031579956015291765,0.09062226052122888,0.09070323963015595,5.962331841410107,3.3471380769922097,0.3105503651655702,0.0032079437797526427,0.02239349142107697,0.3327989311761986
1750759629.5369844,-2.0160798078081177,-1.7664740000000005,-0.9648632008174767,1.5671013551914932,-0.8928980228474277,-2.4630166285604487,0.05926254079897811,-0.11500000000000009,0.056128688543680305,0.0031856973173320638,0.09141719263106421,0.09149888208305204,5.96141152476018,3.346818824176729,0.31054802356257516,0.0032069465843329262,0.022393491418230552,0.3326639993976785
1750759629.5388477,-2.0159607674000775,-1.766705,-0.964750455364837,1.5671077542878435,-0.8927143935300563,-2.46283283515383,0.05977786724070835,-0.11600000000000009,0.05661676409623405,0.0032133990331349514,0.09221212474089956,0.09229452453594815,5.960483087483429,3.3464967452471934,0.3105456620152119,0.0032059403921812883,0.022393491415362628,0.33252790563105805
1750759629.540874,-2.015840696339154,-1.7669380000000006,-0.9646367337610915,1.5671142087876258,-0.8925291743484642,-2.462647450462305,0.060293193682438594,-0.11700000000000009,0.05710483964878779,0.003241100748937839,0.09300705685073489,0.09309016698884426,5.959546527428313,3.3461718392274364,0.3105432805367708,0.0032049251958580116,0.022393491412471694,0.33239065032154275
1750759629.5428295,-2.0157195946253488,-1.7671730000000005,-0.9645220360062421,1.5671207186908394,-0.8923423653026532,-2.4624604744858742,0.06080852012416884,-0.11800000000000009,0.05759291520134153,0.0032688024647407263,0.09380198896057024,0.09388580944174037,5.958601842425138,3.34584410513335,0.3105408791406595,0.0032039009878618687,0.02239349140955938,0.33225223391890835
1750759629.5450397,-2.0155974622586577,-1.76741,-0.964406362100287,1.5671272839974846,-0.8921539663926215,-2.462271907224538,0.061323846565899086,-0.11900000000000009,0.05808099075389527,0.003296504180543614,0.09459692107040557,0.09468145189463646,5.957649030286121,3.345513541972932,0.3105384578404064,0.0032028677606300193,0.022393491406624198,0.3321126568774799
1750759629.5467377,-2.0154742992390844,-1.7676490000000005,-0.9642897120432261,1.5671339047075616,-0.8919639776183717,-2.4620817486782958,0.061839173007629325,-0.12000000000000009,0.058569066306449015,0.0033242058963465016,0.09539185318024092,0.09547709434753257,5.9566880888053895,3.345180148746246,0.31053601664965647,0.0032018255065382117,0.02239349140366777,0.33197191965618666
1750759629.5486865,-2.015350105566627,-1.7678900000000004,-0.9641720858350604,1.56714058082107,-0.8917723989799011,-2.461889998847148,0.06235449944935957,-0.1210000000000001,0.05905714185900276,0.003351907612149389,0.09618678529007625,0.09627273680042868,5.9557190157590005,3.344843924445486,0.31053355558217494,0.003200774217900435,0.022393491400688612,0.3318300227185167
1750759629.550668,-2.015224881241287,-1.7681330000000006,-0.9640534834757899,1.5671473123380102,-0.8915792304772108,-2.461696657731094,0.06286982589108982,-0.1220000000000001,0.059545217411556495,0.0033796093279522764,0.0969817173999116,0.09706837925332477,5.954741808904937,3.3445048680549614,0.3105310746518453,0.0031997138869695224,0.02239349139768835,0.3316869665325941
1750759629.552797,-2.015098626263063,-1.7683780000000002,-0.9639339049654145,1.567154099258382,-0.8913844721103015,-2.4615017253301343,0.06338515233282006,-0.1230000000000001,0.06003329296411024,0.003407311043755164,0.09777664950974693,0.09786402170622088,5.953756465983129,3.3441629785511164,0.3105285738726708,0.003198644505937058,0.022393491394665493,0.33154275157119417
1750759629.562651,-2.015098626263063,-1.7683780000000002,-0.9639339049654145,1.567154099258382,-0.8913844721103015,-2.4615017253301343,0.06338515233282006,-0.1230000000000001,0.06003329296411024,0.003407311043755164,0.09777664950974693,0.09786402170622088,5.953756465983129,3.3441629785511164,0.3105285738726708,0.003198644505937058,0.022393491394665493,0.33154275157119417
1750759629.564121,-2.0148430243479645,-1.7688740000000003,-0.9636918194913475,1.5671678393094202,-0.8909901857838225,-2.461107086673498,0.06441580521628054,-0.12500000000000008,0.06100944406921772,0.0034627144753609385,0.09936651372941761,0.09945530661201309,5.951761362805871,3.3434706960700247,0.31052351282439367,0.003196478562026827,0.022393491388555405,0.3312508472362164
1750759629.5644212,-2.014713677411091,-1.7691250000000007,-0.9635693125276568,1.5671747924400867,-0.8907906578242546,-2.460907380417821,0.06493113165801079,-0.12600000000000008,0.06149751962177146,0.003490416191163826,0.10016144583925295,0.10025094906490918,5.950751597940188,3.3431203010064743,0.31052095258389256,0.003195381983226272,0.02239349138546793,0.33110315883149904
1750759629.5648224,-2.014583299821333,-1.7693780000000006,-0.9634458294128612,1.5671818009741847,-0.890589540000466,-2.4607060828772385,0.06544645809974103,-0.12700000000000009,0.0619855951743252,0.003518117906966714,0.1009563779490883,0.10104659151780529,5.949733687786283,3.3427670686570474,0.31051837255174985,0.003194276322478365,0.022393491382359316,0.33095431358903726
1750759629.565072,-2.014583299821333,-1.7693780000000006,-0.9634458294128612,1.5671818009741847,-0.890589540000466,-2.4607060828772385,0.06544645809974103,-0.12700000000000009,0.0619855951743252,0.003518117906966714,0.1009563779490883,0.10104659151780529,5.949733687786283,3.3427670686570474,0.31051837255174985,0.003194276322478365,0.022393491382359316,0.33095431358903726
1750759629.566821,-2.014451891578692,-1.7696330000000007,-0.9633213701469598,1.5671888649117145,-0.8903868323124584,-2.46050319405175,0.06596178454147128,-0.12800000000000009,0.06247367072687894,0.003545819622769601,0.10175131005892363,0.1018422339707014,5.94870762999407,3.342410997959078,0.31051577274256553,0.0031931615716691087,0.02239349137922847,0.3308043120050237
1750759629.5687397,-2.014319452683167,-1.7698900000000002,-0.9631959347299537,1.567195984252676,-0.8901825347602301,-2.4602987139413557,0.06647711098320153,-0.1290000000000001,0.06296174627943268,0.0035735213385724887,0.10254624216875897,0.10263787642359751,5.947673422195487,3.342052087842141,0.31051315317105854,0.003192037722623764,0.022393491376077025,0.33065315458041694
1750759629.5707579,-2.014185983134759,-1.770149,-0.9630695231618418,1.5672031589970687,-0.8899766473437829,-2.4600926425460554,0.06699243742493176,-0.1300000000000001,0.06344982183198643,0.0036012230543753763,0.10334117427859432,0.1034335188764936,5.946631062004507,3.3416903372280298,0.31051051385206696,0.0031909047671066447,0.022393491372903886,0.33050084182093
1750759629.5742643,-2.0140514829334677,-1.77041,-0.9629421354426251,1.5672103891448934,-0.8897691700631158,-2.4598849798658495,0.067507763866662,-0.1310000000000001,0.06393789738454017,0.0036289247701782636,0.10413610638842966,0.10422916132938971,5.94558054701721,3.341325745030809,0.3105078548005507,0.003189762696821656,0.022393491369709126,0.3303473742370859
1750759629.574776,-2.0139159520792926,-1.7706730000000004,-0.9628137715723035,1.5672176746961495,-0.889560102918229,-2.459675725900738,0.06802309030839225,-0.1320000000000001,0.06442597293709391,0.003656626485981151,0.104931038498265,0.10502480378228582,5.944521874811704,3.3409583101567977,0.31050517603158717,0.003188611503411754,0.022393491366493996,0.3301927523441759
1750759629.5772235,-2.0137793905722337,-1.7709380000000001,-0.9626844315508771,1.5672250156508372,-0.8893494459091231,-2.4594648806507204,0.0685384167501225,-0.1330000000000001,0.06491404848964766,0.003684328201784039,0.10572597060810034,0.10582044623518193,5.943455042948217,3.3405880315046064,0.3105024775603757,0.0031874511784595397,0.022393491363257006,0.3300369766623402
1750759629.5788164,-2.0136417984122916,-1.7712050000000001,-0.962554115378345,1.5672324120089567,-0.8891371990357966,-2.4592524441157972,0.06905374319185274,-0.1340000000000001,0.06540212404220139,0.0037120299175869265,0.10652090271793568,0.10661608868807802,5.942380048969099,3.340214907965134,0.3104997594022341,0.003186281713487099,0.022393491359999795,0.32988004771655266
1750759629.5807211,-2.0135031755994666,-1.7714740000000004,-0.962422823054708,1.5672398637705076,-0.8889233622982511,-2.459038416295968,0.06956906963358299,-0.1350000000000001,0.06589019959475513,0.0037397316333898137,0.10731583482777102,0.10741173114097413,5.94129689039881,3.339838938421603,0.31049702157260295,0.0031851030999562667,0.02239349135672088,0.32972196603667675
1750759629.5827446,-2.0133635221337576,-1.7717450000000001,-0.9622905545799663,1.5672473709354902,-0.8887079356964858,-2.4588227971912335,0.07008439607531324,-0.1360000000000001,0.06637827514730887,0.0037674333491927014,0.10811076693760636,0.10820737359387024,5.940205564743951,3.339460121749558,0.3104942640870402,0.003183915329268397,0.0223934913534219,0.329562732157423
1750759629.5847583,-2.0132228380151656,-1.772018,-0.9621573099541187,1.5672549335039043,-0.8884909192305006,-2.4586055868015926,0.07059972251704348,-0.1370000000000001,0.06686635069986262,0.003795135064995589,0.1089056990474417,0.10900301604676634,5.93910606949329,3.3390784568168868,0.3104914869612258,0.0031827183927646764,0.02239349135010137,0.32940234661842577
1750759629.5868192,-2.0130811232436887,-1.7722930000000003,-0.9620230891771664,1.56726255147575,-0.8882723129002956,-2.4583867851270464,0.07111504895877373,-0.1380000000000001,0.06735442625241636,0.0038228367807984763,0.10970063115727705,0.10979865849966244,5.937998402117749,3.338693942483842,0.31048869021096,0.0031815122817263623,0.022393491346760934,0.3292408099642658
1750759629.5888073,-2.0129383778193297,-1.77257,-0.9618878922491092,1.5672702248510275,-0.8880521167058717,-2.4581663921675942,0.07163037540050396,-0.1390000000000001,0.0678425018049701,0.003850538496601364,0.11049556326711238,0.11059430095255855,5.93688256007046,3.338306577603047,0.31048587385216375,0.003180296987374407,0.022393491343399106,0.32907812274443243
1750759629.5907898,-2.012794601742087,-1.7728490000000008,-0.9617517191699463,1.5672779536297365,-0.8878303306472279,-2.457944407923236,0.0721457018422342,-0.1400000000000001,0.06833057735752385,0.0038782402124042516,0.11129049537694773,0.11138994340545466,5.9357585407867575,3.3379163610195195,0.31048303790087894,0.0031790725008699213,0.022393491340017533,0.32891428551340585
1750759629.5929117,-2.0126497950119617,-1.77313,-0.9616145699396794,1.5672857378118772,-0.8876069547243635,-2.457720832393972,0.07266102828396445,-0.1410000000000001,0.06881865291007759,0.0039059419282071388,0.11208542748678307,0.11218558585835076,5.93462634168418,3.3375232915706827,0.31048018237326747,0.0031778388133140915,0.022393491336615123,0.328749298830645
1750759629.5950792,-2.0126497950119617,-1.77313,-0.9616145699396794,1.5672857378118772,-0.8876069547243635,-2.457720832393972,0.07266102828396445,-0.1410000000000001,0.06881865291007759,0.0039059419282071388,0.11208542748678307,0.11218558585835076,5.93462634168418,3.3375232915706827,0.31048018237326747,0.0031778388133140915,0.022393491336615123,0.328749298830645
1750759629.5967333,-2.012503957628951,-1.7734130000000006,-0.9614764445583068,1.5672935773974495,-0.88738198893728,-2.4574956655798026,0.0731763547256947,-0.1420000000000001,0.06930672846263133,0.003933643644010026,0.11288035959661841,0.11298122831124686,5.933485960162493,3.3371273680863873,0.31047730728561324,0.00317659591574854,0.022393491333191955,0.32858316326064013
1750759629.5987892,-2.012357089593058,-1.7736980000000004,-0.9613373430258285,1.5673014723864533,-0.8871554332859777,-2.4572689074807275,0.07369168116742494,-0.1430000000000001,0.06979480401518506,0.003961345359812914,0.11367529170645375,0.11377687076414297,5.932337393603758,3.3367285893889234,0.31047441265432035,0.0031753437991548198,0.02239349132974928,0.3284158793728774
1750759629.6007586,-2.012209190904281,-1.7739850000000006,-0.9611972653422454,1.5673094227788886,-0.8869272877704546,-2.4570405580967463,0.07420700760915519,-0.1440000000000001,0.0702828795677388,0.003989047075615802,0.11447022381628909,0.11457251321703908,5.931180639372265,3.3363269542930296,0.31047149849591543,0.0031740824544551475,0.022393491326285625,0.3282474477419178
1750759629.611578,-2.0119103015680784,-1.7745650000000008,-0.9609141815217646,1.5673254897740543,-0.8864662271467498,-2.456579085474066,0.07523766049261568,-0.1460000000000001,0.0712590306728463,0.004044450507221576,0.11606008803595977,0.11616379812283129,5.928842557259678,3.3355151101273206,0.31046561166447584,0.0031715320441288277,0.02239349131929882,0.3279071435740226
1750759629.6120362,-2.011454237667147,-1.7754500000000002,-0.9604822346577544,1.5673500057925398,-0.8857627122295462,-2.4558749419032533,0.0767836398178064,-0.1490000000000001,0.07272325733050752,0.004127555654630239,0.1184448843654658,0.1185507254815196,5.925273959635032,3.334275890827259,0.31045663538409285,0.003167636987479921,0.022393491308669588,0.3273880939049914
1750759629.612699,-2.01130015506107,-1.7757490000000002,-0.9603363000675404,1.567358288605565,-0.885525027528705,-2.4556370448098375,0.07729896625953665,-0.1500000000000001,0.07321133288306127,0.004155257370433127,0.11923981647530113,0.1193463679344157,5.924068023026549,3.3338570920300925,0.31045360441685027,0.00316632008018201,0.022393491305086485,0.3272127881661669
1750759629.6146846,-2.0111450418021093,-1.7760500000000006,-0.9601893893262226,1.5673666268220217,-0.8852857529636449,-2.4553975564315156,0.0778142927012669,-0.1510000000000001,0.07369940843561501,0.004182959086236014,0.12003474858513648,0.12014201038731182,5.922853879800367,3.333435428327891,0.3104505540415768,0.00316499387957127,0.022393491301484558,0.3270363388493172
1750759629.6166663,-2.0109888978902646,-1.7763530000000003,-0.960041502433798,1.56737502044191,-0.8850448885343649,-2.455156476768288,0.07832961914299715,-0.1520000000000001,0.07418748398816874,0.004210660802038901,0.12082968069497182,0.12093765284020791,5.921631527179547,3.3330108984756537,0.3104474842757713,0.003163658376096188,0.022393491297862715,0.32685874657019537
1750759629.618682,-2.010831723325537,-1.7766580000000003,-0.9598926393902696,1.5673834694652298,-0.8848024342408642,-2.454913805820155,0.07884494558472739,-0.1530000000000001,0.07467555954072248,0.004238362517841789,0.12162461280480716,0.12173329529310402,5.920400962369575,3.3325835012209906,0.31044439513705635,0.0031623135601465545,0.02239349129422105,0.3266800119498299
1750759629.621533,-2.010831723325537,-1.7766580000000003,-0.9598926393902696,1.5673834694652298,-0.8848024342408642,-2.454913805820155,0.07884494558472739,-0.1530000000000001,0.07467555954072248,0.004238362517841789,0.12162461280480716,0.12173329529310402,5.920400962369575,3.3325835012209906,0.31044439513705635,0.0031623135601465545,0.02239349129422105,0.3266800119498299
1750759629.6230032,-2.0105142822374305,-1.7772740000000002,-0.9595919848498964,1.5674005337221644,-0.8843127560612061,-2.454423690069171,0.07987559846818788,-0.1550000000000001,0.07565171064582997,0.004293765949447564,0.12321447702447784,0.12332458019889622,5.917915184916313,3.331720099457967,0.31043815881199077,0.0031595959520881933,0.022393491286880556,0.32631911819573545
1750759629.624994,-2.0103540157140527,-1.7775850000000002,-0.9594401933530525,1.567409148955779,-0.8840655321750477,-2.45417624526632,0.08039092490991812,-0.1560000000000001,0.07613978619838371,0.004321467665250452,0.12400940913431319,0.12412022265179233,5.916659966596254,3.331284092408026,0.31043501166149495,0.0031582231404658242,0.022393491283181906,0.32613696033050515
1750759629.6267903,-2.010192718537791,-1.7778980000000004,-0.959287425705103,1.5674178195928254,-0.8838167184246686,-2.4539272091785636,0.08090625135164836,-0.1570000000000001,0.07662786175093746,0.004349169381053339,0.12480434124414852,0.12491586510468844,5.915396524733555,3.3308452128725388,0.3104318452097984,0.0031568409773411583,0.022393491279463395,0.325953662661013
1750759629.6287668,-2.0100303907086463,-1.778213,-0.9591336819060485,1.5674265456333032,-0.8835663148100705,-2.4536765818059014,0.08142157779337861,-0.1580000000000001,0.0771159373034912,0.004376871096856227,0.12559927335398385,0.12571150755758453,5.914124856446059,3.330403459562419,0.3104286594751343,0.003155449452811342,0.022393491275726287,0.32576922583486917
1750759629.6307645,-2.0098670322266177,-1.77853,-0.9589789619558893,1.5674353270772128,-0.8833143213312526,-2.4534243631483332,0.08193690423510885,-0.1590000000000001,0.07760401285604494,0.004404572812659114,0.12639420546381921,0.12650715001048066,5.912844958834163,3.32995883118131,0.31042545447585995,0.0031540485569153524,0.02239349127197107,0.32558365050509536
1750759629.6329513,-2.009702643091706,-1.7788490000000001,-0.9588232658546243,1.567444163924554,-0.8830607379882158,-2.4531705532058594,0.0824522306768391,-0.16000000000000011,0.07809208840859869,0.0044322745284620015,0.12718913757365455,0.12730279246337675,5.9115568289808,3.3295113264255725,0.31042223023045495,0.0031526382796336163,0.022393491268195488,0.32539693733005814
1750759629.6347618,-2.0095372233039104,-1.7791700000000006,-0.9586665936022545,1.5674530561753266,-0.8828055647809583,-2.45291515197848,0.08296755711856935,-0.16100000000000012,0.07858016396115243,0.00445997624426489,0.12798406968348988,0.12809843491627285,5.9102604639514755,3.329060943984337,0.3104189867575222,0.0031512186108890875,0.022393491264401974,0.32520908697364465
1750759629.637057,-2.0095372233039104,-1.7791700000000006,-0.9586665936022545,1.5674530561753266,-0.8828055647809583,-2.45291515197848,0.08296755711856935,-0.16100000000000012,0.07858016396115243,0.00445997624426489,0.12798406968348988,0.12809843491627285,5.9102604639514755,3.329060943984337,0.3104189867575222,0.0031512186108890875,0.022393491264401974,0.32520908697364465
1750759629.6388404,-2.0093707728632317,-1.7794930000000004,-0.9585089451987798,1.567462003829531,-0.8825488017094818,-2.4526581594661945,0.08348288356029959,-0.16200000000000012,0.07906823951370616,0.004487677960067777,0.12877900179332524,0.12889407736916897,5.908955860794284,3.3286076825394977,0.31041572407578794,0.0031497895405464818,0.022393491260590623,0.3250201001051635
1750759629.6407294,-2.009203291769669,-1.7798180000000006,-0.9583503206441994,1.567471006887167,-0.8822904487737855,-2.452399575669003,0.08399821000202984,-0.16300000000000012,0.0795563150662599,0.004515379675870664,0.12957393390316058,0.12968971982206506,5.907643016539914,3.3281515407657363,0.3104124422041025,0.003148351058412463,0.02239349125675919,0.32482997739937064
1750759629.6429756,-2.0090347800232236,-1.780145,-0.9581907199385142,1.5674800653482344,-0.8820305059738693,-2.452139400586906,0.08451353644376007,-0.16400000000000012,0.08004439061881365,0.004543081391673552,0.1303688660129959,0.13048536227496116,5.9063219282016775,3.3276925173305467,0.3104091411614377,0.0031469031542365276,0.0223934912529101,0.32463871953660894
1750759629.6450748,-2.008865237623894,-1.780474,-0.9580301430817242,1.5674891792127337,-0.8817689733097334,-2.4518776342199033,0.08502886288549032,-0.16500000000000012,0.08053246617136739,0.004570783107476439,0.13116379812283124,0.13128100472785728,5.904992592775551,3.3272306108942526,0.31040582096689134,0.0031454458177101706,0.02239349124904268,0.3244463272027143
1750759629.646731,-2.0086946645716814,-1.7808050000000009,-0.9578685900738293,1.5674983484806644,-0.8815058507813776,-2.4516142765679945,0.08554418932722056,-0.16600000000000012,0.08102054172392113,0.0045984848232793266,0.1319587302326666,0.13207664718075338,5.903655007240138,3.3267658201100128,0.31040248163968315,0.0031439790384671677,0.022393491245157802,0.32425280108904597
1750759629.6488295,-2.008523060866585,-1.7811380000000003,-0.9577060609148287,1.5675075731520267,-0.8812411383888019,-2.4513493276311804,0.08605951576895081,-0.16700000000000012,0.08150861727647488,0.004626186539082215,0.13275366234250194,0.1328722896336495,5.902309168556751,3.326298143623872,0.31039912319915797,0.0031425028060845218,0.022393491241253217,0.32405814189263227
1750759629.6603358,-2.0083504265086063,-1.781473,-0.9575425556047232,1.5675168532268207,-0.8809748361320073,-2.45108278740946,0.08657484221068106,-0.16800000000000012,0.08199669282902862,0.004653888254885102,0.13354859445233727,0.1336679320865456,5.900955073669382,3.325827580074733,0.3103957456647834,0.003141017110081048,0.022393491237331364,0.3238623503160091
1750759629.6608346,-2.0083504265086063,-1.781473,-0.9575425556047232,1.5675168532268207,-0.8809748361320073,-2.45108278740946,0.08657484221068106,-0.16800000000000012,0.08199669282902862,0.004653888254885102,0.13354859445233727,0.1336679320865456,5.900955073669382,3.325827580074733,0.3103957456647834,0.003141017110081048,0.022393491237331364,0.3238623503160091
1750759629.661163,-2.0083504265086063,-1.781473,-0.9575425556047232,1.5675168532268207,-0.8809748361320073,-2.45108278740946,0.08657484221068106,-0.16800000000000012,0.08199669282902862,0.004653888254885102,0.13354859445233727,0.1336679320865456,5.900955073669382,3.325827580074733,0.3103957456647834,0.003141017110081048,0.022393491237331364,0.3238623503160091
1750759629.661382,-2.007826339517366,-1.7824900000000001,-0.9570461827677761,1.5675450258717922,-0.8801663901763046,-2.450273619034865,0.0881208215358718,-0.17100000000000012,0.08346091948668984,0.004736993402293764,0.1359333907818433,0.1360548594452339,5.89684322096432,3.3243985533322347,0.3103854986951116,0.0031365031346825153,0.02239349122545849,0.32326818841557275
1750759629.6616004,-2.007826339517366,-1.7824900000000001,-0.9570461827677761,1.5675450258717922,-0.8801663901763046,-2.450273619034865,0.0881208215358718,-0.17100000000000012,0.08346091948668984,0.004736993402293764,0.1359333907818433,0.1360548594452339,5.89684322096432,3.3243985533322347,0.3103854986951116,0.0031365031346825153,0.02239349122545849,0.32326818841557275
1750759629.6627142,-2.0076495825478524,-1.7828330000000001,-0.9568787728532504,1.5675545275603127,-0.8798937284626316,-2.4500007136735213,0.08863614797760203,-0.17200000000000013,0.08394899503924358,0.004764695118096652,0.13672832289167863,0.13685050189813,5.895456070355724,3.3239164277786797,0.3103820449825089,0.003134979478246704,0.02239349122146542,0.32306787445711527
1750759629.6648335,-2.007471794925456,-1.7831780000000004,-0.956710386787619,1.5675640846522647,-0.8796194768847378,-2.4497262170272722,0.08915147441933227,-0.17300000000000013,0.08443707059179732,0.00479239683389954,0.137523255001514,0.13764614435102612,5.89406064800436,3.3234314082506726,0.31037857227526305,0.003133446304930577,0.02239349121745558,0.32286643171640833
1750759629.6668591,-2.0072929766501755,-1.783525,-0.9565410245708827,1.5675736971476482,-0.8793436354426252,-2.449450129096117,0.08966680086106252,-0.17400000000000013,0.08492514614435107,0.004820098549702427,0.13831818711134933,0.13844178680392222,5.892656950750821,3.322943493344849,0.31037508059358887,0.0031319036039112783,0.022393491213426715,0.32266386093017474
1750759629.669973,-2.007113127722011,-1.7838740000000008,-0.9563706862030417,1.5675833650464635,-0.8790662041362927,-2.4491724498800567,0.09018212730279276,-0.17500000000000013,0.08541322169690481,0.004847800265505314,0.13911311922118466,0.1392374292568183,5.891244975418567,3.3224526816508644,0.3103715699578264,0.0031303513643101515,0.022393491209381274,0.32246016284099704
1750759629.6709118,-2.0069322481409646,-1.7842250000000002,-0.9561993716840957,1.5675930883487101,-0.8787871829657403,-2.44889317937909,0.09069745374452301,-0.17600000000000013,0.08590129724945855,0.004875501981308202,0.13990805133102,0.14003307170971444,5.889824718813922,3.3219589717514197,0.3103680403884403,0.0031287895751916208,0.022393491205318583,0.32225533819723196
1750759629.6730042,-2.0067503379070333,-1.7845779999999998,-0.9560270810140441,1.5676028670543887,-0.878506571930969,-2.4486123175932177,0.09121278018625326,-0.17700000000000013,0.0863893728020123,0.004903203697111089,0.14070298344085536,0.14082871416261053,5.888396177726075,3.321462362222278,0.31036449190602056,0.003127218225563454,0.022393491201239516,0.3220493877530338
1750759629.6748412,-2.006567397020219,-1.7849330000000005,-0.9558538141928876,1.5676127011634986,-0.878224371031977,-2.4483298645224396,0.0917281066279835,-0.17800000000000013,0.08687744835456604,0.004930905412913977,0.1414979155506907,0.14162435661550665,5.886959348927125,3.320962851632282,0.3103609245312826,0.0031256373043779062,0.022393491197141836,0.32184231226850907
1750759629.6768503,-2.0063834254805215,-1.7852899999999998,-0.9556795712206254,1.5676225906760404,-0.8779405802687661,-2.4480458201667554,0.09224343306971375,-0.17900000000000013,0.08736552390711978,0.004958607128716865,0.14229284766052602,0.14241999906840275,5.885514229172101,3.320460438543387,0.3103573382850672,0.0031240468005303236,0.022393491193027987,0.3216341125095526
1750759629.6788352,-2.00619842328794,-1.7856490000000003,-0.9555043520972593,1.5676325355920135,-0.8776551996413353,-2.447760184526166,0.092758759511444,-0.18000000000000013,0.08785359945967351,0.004986308844519752,0.14308777977036136,0.14321564152129884,5.88406081519896,3.3199551215106635,0.31035373318834,0.0031224467028605238,0.022393491188897295,0.32142478924806367
1750759629.6808343,-2.006012390442475,-1.78601,-0.9553281568227874,1.5676425359114183,-0.8773682291496847,-2.44747295760067,0.09327408595317423,-0.18100000000000013,0.08834167501222726,0.005014010560322639,0.14388271188019672,0.14401128397419496,5.882599103728617,3.3194468990823305,0.310350109262194,0.003120837000152327,0.02239349118475064,0.3212143432618458
1750759629.682829,-2.0058253269441275,-1.7863730000000002,-0.9551509853972098,1.5676525916342547,-0.8770796687938143,-2.447184139390269,0.09378941239490447,-0.18200000000000013,0.088829750564781,0.005041712276125527,0.14467764399003205,0.14480692642709106,5.881129091465026,3.3189357697997734,0.3103464665278465,0.0031192176811333525,0.022393491180585787,0.3210027753346331
1750759629.6848557,-2.005637232792896,-1.7867380000000006,-0.9549728378205282,1.567662702760523,-0.8767895185737249,-2.446893729894962,0.09430473883663472,-0.18300000000000013,0.08931782611733474,0.0050694139919284145,0.14547257609986738,0.14560256887998715,5.8796507750950715,3.3184217321975624,0.31034280500664047,0.003117588734476039,0.022393491176405184,0.3207900862562319
1750759629.6869304,-2.005448107988781,-1.7871050000000004,-0.9547937140927409,1.5676728692902226,-0.8764977784894148,-2.4466017291147493,0.09482006527836497,-0.18400000000000014,0.08980590166988849,0.005097115707731302,0.14626750820970275,0.14639821133288328,5.878164151288713,3.317904784803478,0.31033912472004654,0.0031159501487970447,0.022393491172208936,0.32057627682243456
1750759629.688887,-2.0052579525317826,-1.7874740000000005,-0.9546136142138479,1.567683091223354,-0.8762044485408857,-2.4463081370496305,0.09533539172009521,-0.18500000000000014,0.09029397722244223,0.00512481742353419,0.14706244031953808,0.14719385378577937,5.876669216698953,3.3173849261385273,0.31033542568966027,0.0031143019126572465,0.022393491167994804,0.32036134783504394
1750759629.6908302,-2.0050667664219004,-1.7878450000000008,-0.954432538183851,1.5676933685599166,-0.8759095287281369,-2.446012953699606,0.09585071816182546,-0.18600000000000014,0.09078205277499597,0.005152519139337077,0.1478573724293734,0.14798949623867547,5.875165967961859,3.316862154716968,0.31033170793720427,0.0031126440145626258,0.02239349116376524,0.32014530010201675
1750759629.6929023,-2.004874549659135,-1.7882180000000005,-0.9542504860027483,1.567703701299911,-0.8756130190511682,-2.445716179064676,0.0963660446035557,-0.18700000000000014,0.09127012832754972,0.005180220855139965,0.14865230453920875,0.1487851386915716,5.873654401696602,3.3163364690463344,0.31032797148452745,0.0031109764429638653,0.022393491159519573,0.31992813443737755
1750759629.6950393,-2.004681302243487,-1.7885930000000005,-0.9540674576705408,1.5677140894433372,-0.8753149195099796,-2.44541781314484,0.09688137104528595,-0.18800000000000014,0.09175820388010346,0.005207922570942852,0.1494472366490441,0.14958078114446768,5.872134514505467,3.315807867627443,0.31032421635360524,0.0031092991862559753,0.02239349115525869,0.31970985166124255
1750759629.696877,-2.0044870241749546,-1.7889700000000008,-0.9538834531872276,1.567724532990195,-0.8750152301045722,-2.445117855940098,0.09739669748701618,-0.18900000000000014,0.09224627943265719,0.0052356242867457395,0.15024216875887944,0.1503764235973638,5.87060630297385,3.3152763489544355,0.31032044256653923,0.003107612232779824,0.022393491150980355,0.31949045259997955
1750759629.698927,-2.0042917154535385,-1.7893490000000005,-0.9536984725528104,1.5677350319404841,-0.8747139508349449,-2.4448163074504503,0.09791202392874643,-0.19000000000000014,0.09273435498521093,0.005263326002548628,0.15103710086871477,0.1511720660502599,5.869069763670372,3.314741911514794,0.3103166501455606,0.0031059155708205236,0.02239349114668702,0.31926993808604054
1750759629.7042172,-2.0040953760792393,-1.7897300000000005,-0.9535125157672866,1.5677455862942051,-0.8744110817010968,-2.444513167675897,0.09842735037047667,-0.19100000000000014,0.09322243053776468,0.005291027718351515,0.1518320329785501,0.151967708503156,5.867524893146761,3.314204553789341,0.3103128391130239,0.003104209188609068,0.022393491142378017,0.3190483089581828
1750759629.704655,-2.0040953760792393,-1.7897300000000005,-0.9535125157672866,1.5677455862942051,-0.8744110817010968,-2.444513167675897,0.09842735037047667,-0.19100000000000014,0.09322243053776468,0.005291027718351515,0.1518320329785501,0.151967708503156,5.867524893146761,3.314204553789341,0.3103128391130239,0.003104209188609068,0.022393491142378017,0.3190483089581828
1750759629.7058365,-2.00369960537199,-1.7904980000000004,-0.9531376737429262,1.5677668612119418,-0.8738005738407431,-2.4439021142720727,0.09945800325393717,-0.19300000000000014,0.09419858164287216,0.00534643114995729,0.1534218971982208,0.1535589934089482,5.864410144562284,3.313121071371277,0.31030516130333896,0.003100767216079365,0.022393491133713445,0.3186017102467972
1750759629.7069187,-2.003500174039041,-1.7908850000000003,-0.9529487885040879,1.5677775817759574,-0.8734929351142373,-2.443594200642802,0.09997332969566741,-0.19400000000000014,0.0946866571954259,0.005374132865760177,0.15421682930805614,0.1543546358618443,5.862840259521061,3.3125749436073213,0.3103012945715398,0.0030990316019497313,0.0223934911293581,0.31837674237203895
1750759629.7095606,-2.003500174039041,-1.7908850000000003,-0.9529487885040879,1.5677775817759574,-0.8734929351142373,-2.443594200642802,0.09997332969566741,-0.19400000000000014,0.0946866571954259,0.005374132865760177,0.15421682930805614,0.1543546358618443,5.862840259521061,3.3125749436073213,0.3103012945715398,0.0030990316019497313,0.0223934911293581,0.31837674237203895
1750759629.710704,-2.0030982194144915,-1.791665,-0.9525680895730959,1.5677991891142837,-0.8728728880685654,-2.4429735995295427,0.1010039825791279,-0.19600000000000015,0.09566280830053339,0.005429536297365953,0.15580669352772683,0.15594592076763653,5.859675450364279,3.3114739072420387,0.3102935055683586,0.0030955310580254216,0.02239349112060184,0.31792347390374004
1750759629.7128494,-2.0028956961228914,-1.7920580000000008,-0.9523762758809422,1.5678100758885942,-0.8725604797494002,-2.4426609120455547,0.10151930902085815,-0.19700000000000015,0.09615088385308714,0.00545723801316884,0.15660162563756216,0.15674156322053262,5.858080519168076,3.3109189955301197,0.31028958334309165,0.0030937661040939396,0.022393491116201154,0.317695175057028
1750759629.7148361,-2.0026921421784074,-1.792453,-0.9521834860376828,1.5678210180663363,-0.8722464815660151,-2.442346633276661,0.10203463546258838,-0.19800000000000015,0.09663895940564086,0.005484939728971727,0.1573965577473975,0.15753720567342874,5.856477232145121,3.310361152714138,0.3102856426663307,0.003091991346001966,0.022393491111785586,0.3174657676438454
1750759629.7167888,-2.0026921421784074,-1.792453,-0.9521834860376828,1.5678210180663363,-0.8722464815660151,-2.442346633276661,0.10203463546258838,-0.19800000000000015,0.09663895940564086,0.005484939728971727,0.1573965577473975,0.15753720567342874,5.856477232145121,3.310361152714138,0.3102856426663307,0.003091991346001966,0.022393491111785586,0.3174657676438454
1750759629.7202225,-2.0024875575810412,-1.7928500000000005,-0.9519897200433194,1.56783201564751,-0.8719308935184111,-2.442030763222861,0.10254996190431863,-0.19900000000000015,0.09712703495819461,0.005512641444774615,0.15819148985723286,0.15833284812632484,5.8548655857134895,3.309800377222588,0.31028168356145414,0.0030902067715460925,0.02239349110735603,0.31723525255361945
1750759629.7210338,-2.0024875575810412,-1.7928500000000005,-0.9519897200433194,1.56783201564751,-0.8719308935184111,-2.442030763222861,0.10254996190431863,-0.19900000000000015,0.09712703495819461,0.005512641444774615,0.15819148985723286,0.15833284812632484,5.8548655857134895,3.309800377222588,0.31028168356145414,0.0030902067715460925,0.02239349110735603,0.31723525255361945
1750759629.723135,-2.0022819423307903,-1.7932490000000003,-0.9517949778978503,1.5678430686321154,-0.8716137156065864,-2.4417133018841555,0.10306528834604888,-0.20000000000000015,0.09761511051074835,0.005540343160577502,0.1589864219670682,0.15912849057922093,5.853245576274594,3.309236667477549,0.31027770605196786,0.0030884123684697517,0.02239349110291025,0.3170036306823297
1750759629.7249696,-2.002075296427657,-1.7936500000000004,-0.9515992596012763,1.5678541770201524,-0.8712949478305427,-2.441394249260544,0.10358061478777912,-0.20100000000000015,0.0981031860633021,0.0055680448763803896,0.15978135407690353,0.15992413303211706,5.8516172002133064,3.308670021894658,0.3102737101615066,0.0030866081244626713,0.022393491098450714,0.31677090293241666
1750759629.7269208,-2.001867619871639,-1.794053,-0.9514025651535976,1.567865340811621,-0.8709745901902792,-2.441073605352027,0.10409594122950937,-0.20200000000000015,0.09859126161585584,0.005595746592183278,0.16057628618673886,0.16071977548501315,5.849980453897914,3.3081004388831814,0.31026969591383396,0.003084794027160793,0.02239349109397676,0.3165370702128166
1750759629.7288659,-2.001658912662739,-1.7944580000000006,-0.951204894554813,1.5678765600065212,-0.8706526426857959,-2.440751370158604,0.10461126767123961,-0.20300000000000015,0.09907933716840958,0.005623448307986165,0.16137121829657422,0.16151541793790927,5.848335333680179,3.307527916845996,0.31026566333284183,0.003082970064147355,0.022393491089489275,0.3163021334391154
1750759629.7310932,-2.001449174800954,-1.7948650000000006,-0.9510062478049237,1.567887834604853,-0.8703291053170927,-2.4404275436802756,0.10512659411296986,-0.20400000000000015,0.09956741272096332,0.005651150023789052,0.16216615040640955,0.16231106039080537,5.8466818358953425,3.306952454179657,0.31026161244255224,0.0030811362229517998,0.022393491084986037,0.3160660935333897
1750759629.732747,-2.001238406286287,-1.795274,-0.9508066249039295,1.5678991646066163,-0.8700039780841697,-2.440102125917041,0.1056419205547001,-0.20500000000000015,0.10005548827351707,0.00567885173959194,0.1629610825162449,0.16310670284370146,5.845019956862169,3.3063740492743707,0.3102575432671144,0.003079292491051106,0.02239349108046951,0.3158289514244233
1750759629.7348592,-2.0010266071187353,-1.7956850000000006,-0.9506060258518296,1.5679105500118113,-0.8696772609870278,-2.4397751168689004,0.10615724699643034,-0.20600000000000016,0.10054356382607081,0.005706553455394827,0.16375601462608025,0.16390234529659758,5.843349692882928,3.305792700514063,0.31025345583080854,0.0030774388558690207,0.022393491075939808,0.31559070804761535
1750759629.7367427,-2.0008137772983012,-1.7960980000000006,-0.9504044506486249,1.5679219908204378,-0.869348954025666,-2.4394465165358543,0.10667257343816058,-0.20700000000000016,0.10103163937862455,0.005734255171197715,0.16455094673591558,0.16469798774949368,5.841671040243507,3.3052084062763787,0.31024935015804345,0.0030755753047762954,0.02239349107139471,0.3153513643450056
1750759629.7389228,-2.0005999168249833,-1.796513,-0.9502018992943153,1.5679334870324961,-0.8690190572000844,-2.4391163249179026,0.10718789987989083,-0.20800000000000016,0.10151971493117828,0.005761956887000603,0.16534587884575092,0.16549363020238977,5.8399839952133155,3.304621164932712,0.31024522627335743,0.003073701825091599,0.022393491066836684,0.3151109212654231
1750759629.7407227,-2.0003850256987814,-1.7969300000000006,-0.9499983717889,1.5679450386479858,-0.868687570510283,-2.438784542015045,0.10770322632162108,-0.20900000000000016,0.10200779048373203,0.00578965860280349,0.16614081095558625,0.1662892726552859,5.838288554045401,3.3040309748482253,0.31024108420141944,0.003071818404080623,0.022393491062265056,0.31486937976439877
1750759629.7429545,-2.0001691039196965,-1.7973490000000005,-0.9497938681323799,1.5679566456669074,-0.8683544939562617,-2.4384511678272816,0.10821855276335132,-0.21000000000000016,0.10249586603628577,0.005817360318606377,0.1669357430654216,0.167084915108182,5.836584712976464,3.303437834381886,0.3102369239670266,0.003069925028956615,0.02239349105768074,0.31462674080419756
1750759629.7448165,-1.9999521514877276,-1.7977699999999999,-0.9495883883247549,1.5679683080892604,-0.8680198275380206,-2.438116202354612,0.10873387920508157,-0.21100000000000016,0.10298394158883951,0.005845062034409265,0.16773067517525694,0.1678805575610781,5.834872468226829,3.302841741886478,0.3102327455951072,0.003068021686880972,0.02239349105308151,0.31438300535396385
1750759629.746941,-1.9997341684028758,-1.7981930000000004,-0.9493819323660251,1.567980025915045,-0.8676835712555606,-2.437779645597037,0.10924920564681181,-0.21200000000000016,0.10347201714139326,0.005872763750212152,0.16852560728509228,0.1686762000139742,5.833151816000534,3.3022426957086273,0.31022854911071984,0.003066108364962654,0.022393491048469827,0.3141381743896359
1750759629.748864,-1.9995151546651408,-1.7986180000000003,-0.9491745002561895,1.5679917991442611,-0.8673457251088807,-2.4374414975545564,0.10976453208854206,-0.21300000000000016,0.103960092693947,0.00590046546601504,0.1693205393949276,0.1694718424668703,5.8314227524853175,3.301640694188837,0.3102243345390528,0.003064185050258467,0.02239349104384504,0.31389224889397904
1750759629.7591765,-1.999295110274522,-1.7990450000000004,-0.9489660919952492,1.568003627776909,-0.867006289097981,-2.4371017582271697,0.11027985853027229,-0.21400000000000016,0.10444816824650074,0.005928167181817928,0.17011547150476297,0.17026748491976643,5.829685273852643,3.3010357356615017,0.31022010190542487,0.0030622517297739468,0.022393491039208048,0.31364522985674215
1750759629.7595708,-1.9986287931853646,-1.800338,-0.9483350103057973,1.568039446095442,-0.8659784418799639,-2.436072992535575,0.11182583785546303,-0.21700000000000016,0.10591239490416196,0.00601127232922659,0.172500267834269,0.17265441227845474,5.824422308721312,3.299203101287113,0.31020729588792884,0.003056391602913114,0.022393491025218065,0.3128976214964133
1750759629.7598648,-1.9984046261832118,-1.8007730000000004,-0.9481226974404358,1.5680514963418164,-0.8656326464121857,-2.435726888068565,0.11234116429719328,-0.21800000000000017,0.1064004704567157,0.0060389740450294774,0.17329519994410433,0.17345005473135083,5.822651131009249,3.298586297952301,0.3102029912622644,0.003054418128325112,0.022393491020528813,0.3126462383286967
1750759629.760786,-1.998179428528176,-1.8012100000000002,-0.9479094084239703,1.5680636019916223,-0.8652852610801869,-2.4353791923166495,0.11285649073892352,-0.21900000000000017,0.10688854600926945,0.0060666757608323655,0.17409013205393967,0.17424569718424693,5.82087151879407,3.2979665291912066,0.3101986687031966,0.0030524345822092306,0.022393491015827986,0.31239376667239455
1750759629.7628422,-1.9979532002202562,-1.8016490000000003,-0.9476951432563991,1.5680757630448598,-0.86493628588397,-2.435029905279828,0.11337181718065377,-0.22000000000000017,0.10737662156182319,0.006094377476635253,0.174885064163775,0.17504133963714305,5.8190834681502155,3.2973437933021144,0.3101943282368314,0.003050440951262191,0.022393491011114923,0.31214020755923183
1750759629.7647398,-1.9977259412594535,-1.8020900000000006,-0.9474799019377231,1.5680879795015288,-0.8645857208235324,-2.434679026958101,0.11388714362238402,-0.22100000000000017,0.10786469711437693,0.00612207919243814,0.17567999627361036,0.17583698209003915,5.817286975136052,3.2967180885773772,0.3101899698894051,0.0030484372221296677,0.02239349100639054,0.3118855620280122
1750759629.7682645,-1.9977259412594535,-1.8020900000000006,-0.9474799019377231,1.5680879795015288,-0.8645857208235324,-2.434679026958101,0.11388714362238402,-0.22100000000000017,0.10786469711437693,0.00612207919243814,0.17567999627361036,0.17583698209003915,5.817286975136052,3.2967180885773772,0.3101899698894051,0.0030484372221296677,0.02239349100639054,0.3118855620280122
1750759629.7687347,-1.997268331379197,-1.8029780000000004,-0.9470464908470548,1.5681125786251617,-0.8638798211099985,-2.4339724964599294,0.1149177965058445,-0.22300000000000017,0.10884084821948442,0.006177482624043915,0.17726986049328103,0.17742826699583136,5.813668646149973,3.2954577657609,0.31018119965697594,0.0030443994156389713,0.022393490996903614,0.31137301590264915
1750759629.770933,-1.9970379804597433,-1.8034250000000007,-0.9468283210750634,1.5681249612921258,-0.8635244864569023,-2.4336168442834847,0.11543312294757474,-0.22400000000000017,0.10932892377203816,0.0062051843398468025,0.17806479260311636,0.17822390944872746,5.8118468022146335,3.2948231442244524,0.31017678782510605,0.0030423653113190504,0.022393490992142898,0.31111511742201436
1750759629.772779,-1.9968065988874066,-1.8038740000000004,-0.9466091751519672,1.5681373993625212,-0.8631675619395862,-2.4332596008221343,0.11594844938930499,-0.22500000000000017,0.10981699932459191,0.006232886055649691,0.17885972471295172,0.17901955190162358,5.810016499982146,3.294185546962996,0.3101723582184411,0.0030403210548913947,0.02239349098737137,0.3108561367505335
1750759629.7748306,-1.996574186662186,-1.8043250000000004,-0.9463890530777652,1.5681498928363482,-0.8628090475580503,-2.4329007660758784,0.11646377583103523,-0.22600000000000017,0.11030507487714564,0.006260587771452578,0.17965465682278706,0.17981519435451968,5.808177735430883,3.293544972239624,0.310167910863878,0.0030382666327490454,0.02239349098258682,0.31059607496305663
1750759629.7768385,-1.9963407437840823,-1.8047780000000007,-0.9461679548524584,1.568162441713607,-0.8624489433122946,-2.4325403400447163,0.11697910227276548,-0.22700000000000017,0.11079315042969938,0.006288289487255465,0.1804495889326224,0.18061083680741577,5.8063305045232845,3.2929014183116454,0.31016344578844746,0.003036202031235804,0.022393490977791718,0.310334933141831
1750759629.7788029,-1.9961062702530956,-1.8052330000000003,-0.9459458804760468,1.5681750459942974,-0.8620872492023199,-2.4321783227286486,0.11749442871449572,-0.22800000000000017,0.11128122598225312,0.006315991203058353,0.18124452104245775,0.1814064792603119,5.80447480320591,3.2922548834306387,0.31015896301931084,0.003034127236645142,0.0223934909729862,0.3100727123764091
1750759629.780879,-1.9961062702530956,-1.8052330000000003,-0.9459458804760468,1.5681750459942974,-0.8620872492023199,-2.4321783227286486,0.11749442871449572,-0.22800000000000017,0.11128122598225312,0.006315991203058353,0.18124452104245775,0.1814064792603119,5.80447480320591,3.2922548834306387,0.31015896301931084,0.003034127236645142,0.0223934909729862,0.3100727123764091
1750759629.7830195,-1.995870766069224,-1.8056900000000002,-0.9457228299485294,1.5681877056784193,-0.8617239652281246,-2.431814714127675,0.11800975515622597,-0.22900000000000018,0.11176930153480687,0.00634369291886124,0.18203945315229308,0.182202121713208,5.8026106274094404,3.2916053658424445,0.3101544625837638,0.00303204223522045,0.022393490968168048,0.30980941376368043
1750759629.784806,-1.9956342312324704,-1.8061490000000004,-0.9454988032699072,1.5682004207659728,-0.8613590913897102,-2.4314495142417956,0.11852508159795622,-0.23000000000000018,0.11225737708736061,0.0063713946346641275,0.18283438526212842,0.18299776416610408,5.8007379730487445,3.290952863787208,0.31014994450923417,0.003029947013156202,0.022393490963339743,0.3095450384080171
1750759629.7868485,-1.9953966657428328,-1.80661,-0.9452738004401802,1.568213191256958,-0.860992627687077,-2.4310827230710106,0.11904040803968645,-0.23100000000000018,0.11274545263991435,0.006399096350467016,0.18362931737196375,0.1837934066190002,5.798856836022852,3.290297375499412,0.3101454088232836,0.0030278415565970266,0.022393490958500642,0.30927958742119543
1750759629.788855,-1.9951580696003113,-1.8070730000000008,-0.9450478214593474,1.5682260171513747,-0.860624574120223,-2.4307143406153195,0.1195557344814167,-0.23200000000000018,0.1132335281924681,0.006426798066269903,0.1844242494817991,0.1845890490718963,5.796967212215062,3.289638899207897,0.31014085555360726,0.0030257258516378656,0.022393490953651646,0.3090130619224275
1750759629.790876,-1.9949184428049067,-1.807538,-0.9448208663274098,1.568238898449223,-0.8602549306891492,-2.430344366874723,0.12007106092314694,-0.23300000000000018,0.11372160374502184,0.00645449978207279,0.18521918159163445,0.1853846915247924,5.795069097492878,3.288977433135885,0.3101362847280334,0.003023599884325194,0.02239349094879056,0.3087454630385095
1750759629.792884,-1.994677785356619,-1.8080050000000005,-0.9445929350443674,1.5682518351505028,-0.8598836973938564,-2.4299728018492206,0.12058638736487719,-0.23400000000000018,0.11420967929757558,0.006482201497875678,0.18601411370146978,0.18618033397768852,5.793162487708097,3.288312975501001,0.31013169637452376,0.0030214636406560667,0.02239349094391985,0.30847679190374167
1750759629.7982488,-1.9944360972554476,-1.8084740000000004,-0.9443640276102201,1.5682648272552144,-0.8595108742343438,-2.4295996455388122,0.12110171380660743,-0.23500000000000018,0.11469775485012931,0.006509903213678565,0.1868090458113051,0.1869759764305846,5.791247378696828,3.287645524515323,0.31012709052117415,0.00301931710657835,0.02239349093903888,0.30820704965995926
1750759629.7986233,-1.9944360972554476,-1.8084740000000004,-0.9443640276102201,1.5682648272552144,-0.8595108742343438,-2.4295996455388122,0.12110171380660743,-0.23500000000000018,0.11469775485012931,0.006509903213678565,0.1868090458113051,0.1869759764305846,5.791247378696828,3.287645524515323,0.31012709052117415,0.00301931710657835,0.02239349093903888,0.30820704965995926
1750759629.8000221,-1.9944360972554476,-1.8084740000000004,-0.9443640276102201,1.5682648272552144,-0.8595108742343438,-2.4295996455388122,0.12110171380660743,-0.23500000000000018,0.11469775485012931,0.006509903213678565,0.1868090458113051,0.1869759764305846,5.791247378696828,3.287645524515323,0.31012709052117415,0.00301931710657835,0.02239349093903888,0.30820704965995926
1750759629.801729,-1.9944360972554476,-1.8084740000000004,-0.9443640276102201,1.5682648272552144,-0.8595108742343438,-2.4295996455388122,0.12110171380660743,-0.23500000000000018,0.11469775485012931,0.006509903213678565,0.1868090458113051,0.1869759764305846,5.791247378696828,3.287645524515323,0.31012709052117415,0.00301931710657835,0.02239349093903888,0.30820704965995926
1750759629.8037472,-1.993704849034632,-1.8098930000000006,-0.9436714484011457,1.5683041359899388,-0.858382865570487,-2.4284706288981526,0.12264769313179817,-0.23800000000000018,0.11616198150779054,0.006593008361087228,0.18919384214081114,0.18936290378927292,5.785451014430336,3.285625193491373,0.31011316824506113,0.0030128156206470505,0.02239349092433574,0.3073914078077873
1750759629.8051004,-1.9934590383219266,-1.8103700000000007,-0.9434386363625782,1.5683173497083767,-0.858003682954096,-2.4280911074481213,0.12316301957352842,-0.23900000000000018,0.11665005706034429,0.006620710076890115,0.1899887742506465,0.19015854624216905,5.7835018665613,3.2849457511129443,0.31010849267599666,0.0030106277834454336,0.022393490919415858,0.307117392699494
1750759629.8068016,-1.9934590383219266,-1.8103700000000007,-0.9434386363625782,1.5683173497083767,-0.858003682954096,-2.4280911074481213,0.12316301957352842,-0.23900000000000018,0.11665005706034429,0.006620710076890115,0.1899887742506465,0.19015854624216905,5.7835018665613,3.2849457511129443,0.31010849267599666,0.0030106277834454336,0.022393490919415858,0.307117392699494
1750759629.8088083,-1.9932121969563381,-1.8108490000000002,-0.943204848172905,1.5683306188302464,-0.8576229104734843,-2.427709994713184,0.12367834601525865,-0.24000000000000019,0.11713813261289803,0.006648411792693003,0.19078370636048184,0.19095418869506514,5.781544198411909,3.284263306361603,0.3101037997495865,0.0030084295848481846,0.022393490914484834,0.306842312306366
1750759629.8109734,-1.9929643249378657,-1.8113299999999999,-0.942970083832126,1.5683439433555475,-0.8572405481286536,-2.427327290693341,0.1241936724569889,-0.2410000000000002,0.11762620816545177,0.00667611350849589,0.19157863847031717,0.19174983114796124,5.779578005724727,3.2835778574166303,0.31009908949473386,0.0030062210105134984,0.022393490909545153,0.3065661678164741
1750759629.812671,-1.9927154222665102,-1.8118130000000008,-0.9427343433402431,1.5683573232842802,-0.8568565959196031,-2.4269429953885924,0.12470899889871914,-0.2420000000000002,0.11811428371800552,0.006703815224298778,0.1923735705801525,0.19254547360085736,5.777603284226802,3.2828894024519264,0.31009436194047585,0.0030040020460516655,0.022393490904596167,0.30628896042566955
1750759629.814858,-1.9924654889422708,-1.8122980000000002,-0.9424976266972545,1.5683707586164446,-0.8564710538463327,-2.4265571087989377,0.1252243253404494,-0.2430000000000002,0.11860235927055926,0.006731516940101666,0.19316850268998786,0.19334111605375345,5.775620029629746,3.282197939636062,0.31008961711598604,0.003001772677024933,0.022393490899638806,0.30601069133761205
1750759629.8175538,-1.9922145249651484,-1.8127849999999999,-0.942259933903161,1.5683842493520408,-0.8560839219088434,-2.426169630924377,0.12573965178217963,-0.2440000000000002,0.11909043482311299,0.006759218655904553,0.1939634347998232,0.19413675850664955,5.77362823762973,3.281503467132286,0.31008485505057237,0.0029995328889485333,0.022393490894670864,0.30573136176391974
1750759629.8189464,-1.991962530335142,-1.8132739999999998,-0.9420212649579618,1.5683977954910684,-0.8556952001071334,-2.425780561764911,0.12625497822390988,-0.2450000000000002,0.11957851037566673,0.00678692037170744,0.19475836690965853,0.19493240095954567,5.771627903907535,3.2808059830985705,0.3100800757736803,0.002997282667290159,0.022393490889694823,0.3054509729240907
1750759629.8207722,-1.9917095050522526,-1.813765,-0.9417816198616578,1.5684113970335276,-0.8553048884412044,-2.425389901320539,0.12677030466564013,-0.2460000000000002,0.12006658592822048,0.006814622087510328,0.19555329901949386,0.19572804341244177,5.769619024128557,3.280105485687619,0.31007527931488793,0.0029950219974699873,0.022393490884710043,0.3051695260455381
1750759629.8227215,-1.9914554491164793,-1.8142580000000006,-0.9415409986142489,1.5684250539794184,-0.8549129869110557,-2.424997649591261,0.12728563110737037,-0.2470000000000002,0.12055466148077422,0.006842323803313215,0.19634823112932923,0.19652368586533786,5.767601593942874,3.2794019730469253,0.31007046570391233,0.0029927508648616265,0.022393490879717454,0.3048870223637384
1750759629.8248253,-1.991200362527823,-1.8147530000000005,-0.9412994012157352,1.5684387663287407,-0.854519495516687,-2.424603806577078,0.12780095754910062,-0.2480000000000002,0.12104273703332796,0.0068700255191161035,0.19714316323916456,0.19731932831823398,5.765575608985237,3.2786954433187687,0.3100656349706046,0.002990469254791673,0.022393490874714848,0.3046034631221523
1750759629.826818,-1.9909442452862827,-1.8152500000000007,-0.9410568276661158,1.5684525340814948,-0.8541244142580995,-2.424208372277988,0.12831628399083087,-0.2490000000000002,0.1215308125858817,0.006897727234918991,0.1979380953489999,0.19811497077113008,5.763541064875131,3.277985894640265,0.31006078714495355,0.002988177152539557,0.022393490869704717,0.3043188495722628
