mathias31415/primitives_from_planned_trajectory_python/data/saved_trajectories/trajectory_20250618_094115_planned.csv
time_from_start,shoulder_pan_joint_pos,shoulder_lift_joint_pos,elbow_joint_pos,wrist_1_joint_pos,wrist_2_joint_pos,wrist_3_joint_pos,shoulder_pan_joint_vel,shoulder_lift_joint_vel,elbow_joint_vel,wrist_1_joint_vel,wrist_2_joint_vel,wrist_3_joint_vel,shoulder_pan_joint_acc,shoulder_lift_joint_acc,elbow_joint_acc,wrist_1_joint_acc,wrist_2_joint_acc,wrist_3_joint_acc,fk_x,fk_y,fk_z,fk_qx,fk_qy,fk_qz,fk_qw
0.0,-1.6006999999999998,-1.7271,-2.2029999999999994,-0.8079999999999998,1.5951,-0.030999999999999694,-0.0005,-8.00386734681332e-05,0.00023635539131445734,-0.00015679115066149387,-1.616187403835075e-05,-0.0004997884615209898,-0.5,-0.0800386734681332,0.23635539131445735,-0.15679115066149388,-0.01616187403835075,-0.49978846152098977,-0.18963153692348156,-0.6096838816511918,0.2609711486943511,-0.0003918678270918309,0.9998434779226772,0.01247829832752396,0.012536274005463676
0.1,-1.6031999999999997,-1.7275001933673408,-2.201818223043427,-0.8087839557533073,1.5950191906298083,-0.03349894230760464,-0.049999999999999926,-0.008003867346813307,0.023635539131445702,-0.015679115066149364,-0.0016161874038350724,-0.0499788461520989,-0.4999999999999445,-0.0800386734681225,0.23635539131443262,-0.1567911506614761,-0.01616187403834884,-0.49978846152093315,-0.19118266201853387,-0.6097659440344384,0.26124743987018006,-0.0003918443303320254,0.9998439527286305,0.012449447822141161,0.012527086609929777
0.2,-1.6106999999999998,-1.7287007734693627,-2.1982728921737102,-0.8111358230132296,1.5947767625192328,-0.04099576923041946,-0.10000000000000034,-0.016007734693626693,0.04727107826289163,-0.03135823013229888,-0.003232374807670161,-0.09995769230419829,-0.500000000000347,-0.08003867346818842,0.2363553913146269,-0.156791150661601,-0.016161874038362285,-0.4997884615213356,-0.195845506520537,-0.609986840557162,0.26207722041092113,-0.0003917744082002984,0.9998453673454699,0.012363639985441544,0.012499132646939838
0.30000000000000004,-1.6231999999999998,-1.730701740306066,-2.192364007390849,-0.815055601779767,1.594372715668274,-0.05349048076844423,-0.15000000000000355,-0.024011602040440526,0.07090661739433889,-0.04703734519844928,-0.004848562211505339,-0.14993653845630048,-0.5000000000029698,-0.08003867346860823,0.23635539131586203,-0.15679115066243018,-0.01616187403844642,-0.4997884615239585,-0.20364775298429422,-0.610270246161642,0.2634632001532397,-0.0003916597652488344,0.9998476923701012,0.012223114458813938,0.012451270527080248
0.4,-1.6407,-1.733503093877451,-2.1840915686948428,-0.8205432920529193,1.593807050076932,-0.07098307692167893,-0.2000000000000023,-0.032015469387253644,0.09454215652578402,-0.06271646026459826,-0.006464749615340373,-0.1999153846083982,-0.500000000001138,-0.08003867346831332,0.23635539131498773,-0.15679115066184732,-0.01616187403838744,-0.49978846152212664,-0.214633097777951,-0.6104874721402038,0.2654098580344757,-0.000391503242759348,0.9998508787972555,0.012031630943736608,0.012381710318064504
0.5,-1.6615548200527364,-1.736841478142326,-2.1742332703861287,-0.8270829945187332,1.5931329441273623,-0.09182907378058745,-0.20943951023931517,-0.03352652114274057,0.09900431479864327,-0.06567652360880391,-0.006769869966283367,-0.20935090120843383,4.38015252532512e-12,6.999927295218943e-13,-2.065325083143807e-12,1.3722629747062878e-12,1.4121140459414452e-13,4.38015252532512e-12,-0.22781377843743938,-0.6104696716879238,0.2677391940654244,-0.00039132277534914827,0.99985457154582,0.011811495001183597,0.012295170240669792
0.6000000000000001,-1.6824987710766681,-1.7401941302566002,-2.164332838906264,-0.8336506468796137,1.592455957130734,-0.11276416390143108,-0.20943951023931517,-0.03352652114274057,0.09900431479864327,-0.06567652360880391,-0.006769869966283367,-0.20935090120843383,4.38015252532512e-12,6.999927295218943e-13,-2.065325083143807e-12,1.3722629747062878e-12,1.4121140459414452e-13,4.38015252532512e-12,-0.24114168004255762,-0.6101451580732292,0.2700887736772508,-0.00039114817117439927,0.9998581656742707,0.011599294986083431,0.01220458493422788
0.7000000000000001,-1.7034427221005997,-1.7435467823708741,-2.1544324074263996,-0.8402182992404942,1.5917789701341056,-0.13369925402227467,-0.20943951023931517,-0.03352652114274057,0.09900431479864327,-0.06567652360880391,-0.006769869966283367,-0.20935090120843383,4.38015252532512e-12,6.999927295218943e-13,-2.065325083143807e-12,1.3722629747062878e-12,1.4121140459414452e-13,4.38015252532512e-12,-0.25455316113898824,-0.6095094644307328,0.27244855191193007,-0.0003909802167370769,0.9998616451560035,0.01139604483114495,0.012110649966318273
0.8,-1.7243866731245316,-1.7468994344851483,-2.144531975946535,-0.8467859516013747,1.5911019831374773,-0.15463434414311827,-0.20943951023931517,-0.03352652114274057,0.09900431479864327,-0.06567652360880391,-0.006769869966283367,-0.20935090120843383,4.38015252532512e-12,6.999927295218943e-13,-2.065325083143807e-12,1.3722629747062878e-12,1.4121140459414452e-13,4.38015252532512e-12,-0.2680405815111873,-0.6085588864766938,0.274818416364977,-0.0003908189130954208,0.9998650099907372,0.011201788714907042,0.012013699945753286
0.9,-1.7453306241484632,-1.7502520865994224,-2.1346315444666706,-0.8533536039622551,1.590424996140849,-0.17556943426396185,-0.20943951023931517,-0.03352652114274057,0.09900431479864327,-0.06567652360880391,-0.006769869966283367,-0.20935090120843383,4.38015252532512e-12,6.999927295218943e-13,-2.065325083143807e-12,1.3722629747062878e-12,1.4121140459414452e-13,4.38015252532512e-12,-0.28159617883050636,-0.6072899141887835,0.277198253987133,-0.0003906642613069043,0.9998682601782034,0.011016560737349685,0.011914069798676466
1.0,-1.7662745751723952,-1.7536047387136966,-2.1247311129868063,-0.8599212563231355,1.5897480091442207,-0.19650452438480548,-0.2094395102393616,-0.033526521142748004,0.09900431479866523,-0.06567652360881847,-0.0067698699662848685,-0.20935090120848027,-4.199956377131831e-11,-6.7227024518446804e-12,1.9863160027821498e-11,-1.3168180060314323e-11,-1.3584017325376881e-12,-4.199956377131831e-11,-0.2952120737113305,-0.6056992354215245,0.27958795108933876,-0.00039051626242669077,0.9998713957181469,0.010840384927318486,0.011812094493417096
1.1,-1.7872185261963291,-1.7569573908279708,-2.1148306815069406,-0.8664889086840167,1.589071022147592,-0.2174396145056514,-0.2094395102393616,-0.033526521142748004,0.09900431479866523,-0.06567652360881847,-0.0067698699662848685,-0.20935090120848027,-4.199956377131831e-11,-6.7227024518446804e-12,1.9863160027821498e-11,-1.3168180060314323e-11,-1.3584017325376881e-12,-4.199956377131831e-11,-0.308880274868846,-0.603783739388078,0.2819873933477395,-0.00039037491750905373,0.9998744166103255,0.010673275257048554,0.01170810876582282
1.2,-1.8081624772202631,-1.7603100429422454,-2.104930250027075,-0.8730565610448979,1.5883940351509636,-0.23837470462649735,-0.20943951023923404,-0.03352652114272781,0.09900431479860448,-0.06567652360877847,-0.006769869966280745,-0.20935090120835276,1.8099413038526336e-10,2.8491448632539023e-11,-8.647301523112874e-11,5.674791624542824e-11,5.848824442220962e-12,1.8087663987543844e-10,-0.3225926843748682,-0.6015405200056022,0.2843964658087147,-0.0003902402276063033,0.9998773228545106,0.010515235663771386,0.011602446845247789
1.3,-1.8291064282441973,-1.76366269505652,-2.09502981854721,-0.8796242134057791,1.5877170481543355,-0.2593097947473432,-0.20943951023936175,-0.033526521142748254,0.09900431479866485,-0.06567652360881852,-0.006769869966284873,-0.2093509012084804,-4.213817619300583e-11,-6.7504249361821844e-12,1.993246623866526e-11,-1.322362502898933e-11,-1.362733370715423e-12,-4.213817619300583e-11,-0.33634110300809356,-0.5989668791015033,0.28681505289394366,-0.00039011219376919586,0.9998801144504867,0.010366260078379435,0.011495442181370896
1.4,-1.8500503792681313,-1.7670153471707946,-2.0851293870673446,-0.8861918657666603,1.587040061157707,-0.2802448848681892,-0.20943951023936175,-0.033526521142748254,0.09900431479866485,-0.06567652360881852,-0.006769869966284873,-0.2093509012084804,-4.213817619300583e-11,-6.7504249361821844e-12,1.993246623866526e-11,-1.322362502898933e-11,-1.362733370715423e-12,-4.213817619300583e-11,-0.3501172356950491,-0.5960603294779947,0.2892430384054964,-0.0003899908170474703,0.9998827913980514,0.010226332461126048,0.011387427172019694
1.5,-1.8709943302920653,-1.770367999285069,-2.075228955587479,-0.8927595181275415,1.5863630741610786,-0.3011799749890351,-0.20943951023936175,-0.033526521142748254,0.09900431479866485,-0.06567652360881852,-0.006769869966284873,-0.2093509012084804,-4.213817619300583e-11,-6.7504249361821844e-12,1.993246623866526e-11,-1.322362502898933e-11,-1.362733370715423e-12,-4.213817619300583e-11,-0.3639126970379589,-0.5928185978324805,0.2916803055309539,-0.00038987609848865597,0.9998853536970154,0.01009542684432937,0.011278732892177465
1.6,-1.8919382813159993,-1.7737206513993433,-2.0653285241076134,-0.8993271704884227,1.58568608716445,-0.322115065109881,-0.20943951023936175,-0.033526521142748254,0.09900431479866485,-0.06567652360881852,-0.006769869966284873,-0.2093509012084804,-4.213817619300583e-11,-6.7504249361821844e-12,1.993246623866526e-11,-1.322362502898933e-11,-1.362733370715423e-12,-4.213817619300583e-11,-0.37771901692567367,-0.589239627531384,0.29412673684855645,-0.00038976803913929453,0.9998878013472028,0.009973507382046753,0.011169688824342676
1.7000000000000002,-1.9128822323399337,-1.777073303513618,-2.055428092627748,-0.9058948228493039,1.5850091001678215,-0.34305015523072696,-0.20943951023936175,-0.033526521142748254,0.09900431479866485,-0.06567652360881852,-0.006769869966284873,-0.2093509012084804,-4.213817619300583e-11,-6.7504249361821844e-12,1.993246623866526e-11,-1.322362502898933e-11,-1.362733370715423e-12,-4.213817619300583e-11,-0.39152764622374797,-0.5853215812351408,0.29658221433238313,-0.00038966664004380327,0.9998901343484509,0.009860528406678039,0.011060622590417523
1.8,-1.9338261833638672,-1.780425955627892,-2.0455276611478825,-0.9124624752101849,1.5843321131711932,-0.36398524535157256,-0.20943951023934124,-0.03352652114274497,0.09900431479865515,-0.06567652360881208,-0.00676986996628421,-0.2093509012084599,-2.1651260267585695e-11,-3.4722411632715855e-12,1.0243457962705397e-11,-6.792008662686934e-12,-7.008590571573635e-13,-2.1651260267585695e-11,-0.4053299625396862,-0.5810628433721894,0.29904661935755794,-0.00038957190224600356,0.9998923527006099,0.009756434492457175,0.010951859685294895
1.9,-1.9547701343878001,-1.7837786077421667,-2.035627229668018,-0.9190301275710657,1.5836551261745648,-0.38492033547241744,-0.20943951023934124,-0.03352652114274497,0.09900431479865515,-0.06567652360881208,-0.00676986996628421,-0.2093509012084599,-2.1651260267585695e-11,-3.4722411632715855e-12,1.0243457962705397e-11,-6.792008662686934e-12,-7.008590571573635e-13,-2.1651260267585695e-11,-0.4191172760593242,-0.5764620224598852,0.30151983270548194,-0.0003894838267872478,0.9998944564035438,0.009661160525789213,0.010843723212316891
2.0,-1.9757140854117332,-1.7871312598564408,-2.0257267981881526,-0.9255977799319467,1.5829781391779365,-0.4058554255932624,-0.2094395102392483,-0.033526521142730095,0.09900431479861123,-0.06567652360878296,-0.0067698699662812065,-0.20935090120836702,7.116361729434079e-11,1.138701044162465e-11,-3.362737350137724e-11,2.2302738649511943e-11,2.2992335447407046e-12,7.110817232566581e-11,-0.432880835450253,-0.57151795327039,0.30400173456909907,-0.0003894024147076704,0.9998964454571291,0.009574631782370058,0.010736533620771255
2.1,-1.9966580364356616,-1.7904839119707145,-2.01582636670829,-0.9321654322928261,1.5823011521813082,-0.4267905157141026,-0.2094395102392483,-0.033526521142730095,0.09900431479861123,-0.06567652360878296,-0.0067698699662812065,-0.20935090120836702,7.116361729434079e-11,1.138701044162465e-11,-3.362737350137724e-11,2.2302738649511943e-11,2.2992335447407046e-12,7.110817232566581e-11,-0.44661183382813635,-0.5662296988396831,0.30649220455818094,-0.00038932766704593836,0.999898319861256,0.009496764011049756,0.010630608445597866
2.2,-2.01760198745959,-1.793836564084988,-2.0059259352284267,-0.9387330846537055,1.58162416518468,-0.447725605834943,-0.20943951023924817,-0.033526521142729845,0.0990043147986116,-0.06567652360878301,-0.006769869966281202,-0.20935090120836683,7.130222971602825e-11,1.1414732925962142e-11,-3.369667971222097e-11,2.235818361818693e-11,2.3035651829184377e-12,7.127450723169076e-11,-0.46030141478174796,-0.560596552317958,0.3089911217046499,-0.00038925958483936415,0.9999000796158276,0.009427463524363916,0.010526262049467949
2.3,-2.0385459384835185,-1.7971892161992615,-1.996025503748564,-0.9453007370145848,1.5809471781880517,-0.4686606959557832,-0.20943951023924817,-0.033526521142729845,0.0990043147986116,-0.06567652360878301,-0.006769869966281202,-0.20935090120836683,7.130222971602825e-11,1.1414732925962142e-11,-3.369667971222097e-11,2.235818361818693e-11,2.3035651829184377e-12,7.127450723169076e-11,-0.4739406784524564,-0.554618038659788,0.31149836446791784,-0.0003891981691232961,0.9999017247207604,0.009366627295684686,0.010423805367404391
2.4,-2.059489889507447,-1.8005418683135352,-1.9861250722687014,-0.9518683893754645,1.5802701911914236,-0.48959578607662346,-0.20943951023924817,-0.033526521142729845,0.0990043147986116,-0.06567652360878301,-0.006769869966281202,-0.20935090120836683,7.130222971602825e-11,1.1414732925962142e-11,-3.369667971222097e-11,2.235818361818693e-11,2.3035651829184377e-12,7.127450723169076e-11,-0.487520687663904,-0.5482939161525426,0.31401381074026014,-0.00038914342093181333,0.9999032551759842,0.009314143062911508,0.010323545654104956
2.5,-2.0804338405313754,-1.8038945204278087,-1.9762246407888382,-0.9584360417363438,1.5795932041947953,-0.5105308761974636,-0.20943951023924817,-0.033526521142729845,0.0990043147986116,-0.06567652360878301,-0.006769869966281202,-0.20935090120836683,7.130222971602825e-11,1.1414732925962142e-11,-3.369667971222097e-11,2.235818361818693e-11,2.3035651829184377e-12,7.127450723169076e-11,-0.5010324740975424,-0.5416241777816659,0.3165373378522144,-0.0003890953412975054,0.9999046709814413,0.009269889438638471,0.010225786234129952
2.6,-2.101377791555304,-1.8072471725420824,-1.9663242093089757,-0.9650036940972232,1.578916217198167,-0.531465966318304,-0.20943951023924817,-0.033526521142729845,0.0990043147986116,-0.06567652360878301,-0.006769869966281202,-0.20935090120836683,7.130222971602825e-11,1.1414732925962142e-11,-3.369667971222097e-11,2.235818361818693e-11,2.3035651829184377e-12,7.127450723169076e-11,-0.514467044509664,-0.5346090524315326,0.31906882257800173,-0.0003890539312513758,0.9999059721370884,0.009233736026723078,0.010130826255118169
2.7,-2.1223217425792322,-1.810599824656356,-1.9564237778291127,-0.9715713464581026,1.5782392302015387,-0.5524010564391442,-0.20943951023924817,-0.033526521142729845,0.0990043147986116,-0.06567652360878301,-0.006769869966281202,-0.20935090120836683,7.130222971602825e-11,1.1414732925962142e-11,-3.369667971222097e-11,2.235818361818693e-11,2.3035651829184377e-12,7.127450723169076e-11,-0.5278153869855379,-0.5272490059207255,0.3216081411409809,-0.00038901919182273234,0.9999071586428945,0.009205543545170202,0.010038960444182374
2.8,-2.1432656936031607,-1.8139524767706297,-1.9465233463492497,-0.9781389988189821,1.5775622432049106,-0.5733361465599844,-0.20943951023924817,-0.033526521142729845,0.0990043147986116,-0.06567652360878301,-0.006769869966281202,-0.20935090120836683,7.130222971602825e-11,1.1414732925962142e-11,-3.369667971222097e-11,2.235818361818693e-11,2.3035651829184377e-12,7.127450723169076e-11,-0.5410684772262204,-0.5195447418706873,0.3241551692191222,-0.00038899112403952164,0.9999082304988418,0.009185163955258683,0.009950478867648306
2.9,-2.164209644627089,-1.8173051288849031,-1.936622914869387,-0.9847066511798614,1.5768852562082822,-0.5942712366808248,-0.20943951023924817,-0.033526521142729845,0.0990043147986116,-0.06567652360878301,-0.006769869966281202,-0.20935090120836683,7.130222971602825e-11,1.1414732925962142e-11,-3.369667971222097e-11,2.235818361818693e-11,2.3035651829184377e-12,7.127450723169076e-11,-0.5542172848635873,-0.5114972024068206,0.3267097819505112,-0.0003889697289281774,0.9999091877049261,0.009172440596815533,0.009865666694284627
3.0,-2.185153595651017,-1.8206577809991766,-1.926722483389524,-0.991274303540741,1.5762082692116541,-0.615206326801665,-0.20943951023924817,-0.033526521142729845,0.0990043147986116,-0.06567652360878301,-0.006769869966281202,-0.20935090120836683,7.130222971602825e-11,1.1414732925962142e-11,-3.369667971222097e-11,2.235818361818693e-11,2.3035651829184377e-12,7.127450723169076e-11,-0.5672527797991086,-0.5031075686912343,0.32927185393887654,-0.00038895500751355214,0.9999100302611562,0.009167208329552375,0.009784803962181015
3.1,-2.2060975466749455,-1.8240104331134501,-1.9168220519096613,-0.9978419559016204,1.5755312822150258,-0.6361414169225053,-0.20943951023924817,-0.033526521142729845,0.0990043147986116,-0.06567652360878301,-0.006769869966281202,-0.20935090120836683,7.130222971602825e-11,1.1414732925962142e-11,-3.369667971222097e-11,2.235818361818693e-11,2.3035651829184377e-12,7.127450723169076e-11,-0.5801659385618672,-0.4943772612864431,0.331841259259143,-0.0003889469608187104,0.9999107581675543,0.009169293680368892,0.009708165349420043
3.2,-2.227041497698874,-1.8273630852277236,-1.9069216204297985,-1.0044096082624998,1.5748542952183977,-0.6570765070433456,-0.20943951023924817,-0.033526521142729845,0.0990043147986116,-0.06567652360878279,-0.006769869966281202,-0.2093509012083669,7.130222971602825e-11,1.1414732925962142e-11,-3.369667971222097e-11,2.235818361818693e-11,2.3035651829184377e-12,7.124678474735325e-11,-0.5929477506812948,-0.48530794034946473,0.33441787146300933,-0.0003889455898654713,0.9999113714241553,0.0091785149965247,0.00963601994869294
3.3,-2.2479854487228024,-1.830715737341997,-1.8970211889499355,-1.0109772606233791,1.5741773082217694,-0.6780115971641858,-0.20943951023924817,-0.033526521142729845,0.0990043147986116,-0.06567652360878279,-0.006769869966281202,-0.2093509012083669,7.130222971602825e-11,1.1414732925962142e-11,-3.369667971222097e-11,2.235818361818693e-11,2.3035651829184377e-12,7.124678474735325e-11,-0.6055892250701045,-0.4759015056558611,0.33700156358455213,-0.0003889508956740346,0.9999118700310079,0.009194682604580876,0.009568631046002236
3.4,-2.2689293997467326,-1.834068389456271,-1.887120757470072,-1.017544912984259,1.573500321225141,-0.6989466872850276,-0.20943951023928922,-0.03352652114273642,0.099004314798631,-0.06567652360879567,-0.006769869966282528,-0.20935090120840794,3.030067538089169e-11,4.8514347590631716e-12,-1.4318663160320732e-11,9.494950885595064e-12,9.789502281681043e-13,3.027295289655419e-11,-0.6180813964128617,-0.46616009645340456,0.33959220814585284,-0.00038896287926303767,0.9999122539881737,0.009217598975004905,0.009506255903596059
3.5,-2.2898733507706632,-1.837421041570545,-1.8772203259902083,-1.0241125653451393,1.572823334228513,-0.7198817774058699,-0.20943951023928922,-0.03352652114273642,0.099004314798631,-0.06567652360879567,-0.006769869966282528,-0.20935090120840794,3.030067538089169e-11,4.8514347590631716e-12,-1.4318663160320732e-11,9.494950885595064e-12,9.789502281681043e-13,3.027295289655419e-11,-0.6304153315556423,-0.45608609114517185,0.3421896771626497,-0.0003889815416496538,0.9999125232957273,0.009247058892330823,0.009449145547270341
3.6,-2.310817301794593,-1.8407736936848187,-1.8673198945103442,-1.030680217706019,1.5721463472318844,-0.7408168675267122,-0.20943951023928922,-0.03352652114273642,0.099004314798631,-0.06567652360879567,-0.006769869966282528,-0.20935090120840794,3.030067538089169e-11,4.8514347590631716e-12,-1.4318663160320732e-11,9.494950885595064e-12,9.789502281681043e-13,3.027295289655419e-11,-0.6425821358922262,-0.44568210680197934,0.3447938421500144,-0.0003890068838499678,0.999912677953757,0.00928284963076512,0.009397544558178825
3.7,-2.3317612528185236,-1.8441263457990926,-1.8574194630304806,-1.0372478700668992,1.5714693602352563,-0.7617519576475545,-0.20943951023928922,-0.03352652114273642,0.099004314798631,-0.06567652360879567,-0.006769869966282528,-0.20935090120840794,3.030067538089169e-11,4.8514347590631716e-12,-1.4318663160320732e-11,9.494950885595064e-12,9.789502281681043e-13,3.027295289655419e-11,-0.6545729597422532,-0.43495099850420305,0.34740457412805,-0.0003890389068772981,0.999912717962364,0.009324751135123096,0.009351690869287416
3.8,-2.3527052038424543,-1.8474789979133668,-1.847519031550617,-1.0438155224277792,1.570792373238628,-0.7826870477683969,-0.20943951023928922,-0.03352652114273642,0.099004314798631,-0.06567652360879567,-0.006769869966282528,-0.20935090120840794,3.030067538089169e-11,4.8514347590631716e-12,-1.4318663160320732e-11,9.494950885595064e-12,9.789502281681043e-13,3.027295289655419e-11,-0.6663790047167887,-0.4238958585131584,0.3500217436276171,-0.000389077611744502,0.9999126433216627,0.009372536206975039,0.009311815566595376
3.9,-2.373649154866385,-1.8508316500276405,-1.837618600070753,-1.0503831747886592,1.5701153862419996,-0.8036221378892392,-0.20943951023928922,-0.03352652114273642,0.099004314798631,-0.06567652360879567,-0.006769869966282528,-0.20935090120840794,3.030067538089169e-11,4.8514347590631716e-12,-1.4318663160320732e-11,9.494950885595064e-12,9.789502281681043e-13,3.027295289655419e-11,-0.6779915300667385,-0.41252001527231136,0.3526452206960792,-0.00038912299946232474,0.9999124540317806,0.009425970695886047,0.009278142695263874
4.0,-2.3945931058903147,-1.8541843021419144,-1.827718168590889,-1.0569508271495394,1.5694383992453713,-0.8245572280100814,-0.20943951023928922,-0.03352652114273642,0.099004314798631,-0.06567652360879567,-0.006769869966282528,-0.20935090120840794,3.030067538089169e-11,4.8514347590631716e-12,-1.4318663160320732e-11,9.494950885595064e-12,9.789502281681043e-13,3.027295289655419e-11,-0.6894018590095689,-0.4008270322387425,0.35527487490307175,-0.00038917507104081663,0.9999121500928587,0.009484813695622419,0.00925088907076972
4.1,-2.4155370569142547,-1.8575369542561897,-1.817817737111021,-1.0635184795104222,1.5687614122487425,-0.845492318130933,-0.20943951023947505,-0.033526521142766164,0.09900431479871885,-0.06567652360885394,-0.006769869966288535,-0.20935090120859368,-1.5530135725876538e-10,-2.4860137829667593e-11,7.342299976791148e-11,-4.8708404981015845e-11,-5.0203686479970625e-12,-1.5524591229009035e-10,-0.7006013850297963,-0.38882070654537665,0.357910575346297,-0.00038923382748715503,0.9999117315050511,0.009548817745197091,0.009230264095207797
4.2,-2.436481007938194,-1.8608896063704652,-1.8079173056311526,-1.070086131871305,1.5680844252521142,-0.8664274082517844,-0.20943951023947505,-0.03352652114276639,0.09900431479871863,-0.06567652360885416,-0.006769869966288535,-0.20935090120859368,-1.5530135725876538e-10,-2.4860137829667593e-11,7.340913852574273e-11,-4.8708404981015845e-11,-5.0203686479970625e-12,-1.5524591229009035e-10,-0.7115815781486987,-0.3765050674946733,0.3605521906573357,-0.0003892992698080607,0.9999111982685247,0.00961772903462571,0.009216469578864976
4.3,-2.457424958962134,-1.8642422584847405,-1.7980168741512847,-1.0766537842321882,1.5674074382554855,-0.887362498372636,-0.20943951023947505,-0.03352652114276639,0.09900431479871863,-0.06567652360885416,-0.006769869966288535,-0.20935090120859368,-1.5530135725876538e-10,-2.4860137829667593e-11,7.340913852574273e-11,-4.8708404981015845e-11,-5.0203686479970625e-12,-1.5524591229009035e-10,-0.7223339911588001,-0.36388437488447667,0.36319958900748756,-0.0003893713990081883,0.9999105503834602,0.009691287615260512,0.009209699567177583
4.4,-2.4783689099860737,-1.8675949105990157,-1.7881164426714162,-1.083221436593071,1.566730451258857,-0.9082975884934876,-0.20943951023947505,-0.03352652114276639,0.09900431479871863,-0.06567652360885416,-0.006769869966288535,-0.20935090120859368,-1.5530135725876538e-10,-2.4860137829667593e-11,7.340913852574273e-11,-4.8708404981015845e-11,-5.0203686479970625e-12,-1.5524591229009035e-10,-0.7328502658185805,-0.3509631171669882,0.36585263811363156,-0.0003894502160911556,0.9999097878500511,0.009769227614562781,0.009210140173188682
4.5,-2.4993128610100133,-1.8709475627132912,-1.7782160111915484,-1.089789088953954,1.5660534642622284,-0.9292326786143391,-0.20943951023947505,-0.03352652114276639,0.09900431479871863,-0.06567652360885416,-0.006769869966288535,-0.20935090120859368,-1.5530135725876538e-10,-2.4860137829667593e-11,7.340913852574273e-11,-4.8708404981015845e-11,-5.0203686479970625e-12,-1.5524591229009035e-10,-0.7431221390029916,-0.3377460094418357,0.36851120524410363,-0.0003895357220584751,0.9999089106685044,0.009851277455182553,0.009217969415614343
4.6,-2.5202568120339537,-1.874300214827567,-1.76831557971168,-1.0963567413148372,1.5653764772655998,-0.950167768735191,-0.20943951023947505,-0.03352652114276639,0.09900431479871863,-0.06567652360885416,-0.006769869966288535,-0.20935090120859368,-1.5530135725876538e-10,-2.4860137829667593e-11,7.340913852574273e-11,-4.8708404981015845e-11,-5.0203686479970625e-12,-1.5524591229009035e-10,-0.7531414488053267,-0.324237991284385,0.37117515722460437,-0.0003896279179100133,0.99990791883904,0.00993716007819493,0.009233357062621317
4.7,-2.5412007630578928,-1.8776528669418422,-1.7584151482318118,-1.10292439367572,1.5646994902689713,-0.9711028588560424,-0.20943951023947505,-0.03352652114276639,0.09900431479871863,-0.06567652360885416,-0.006769869966288535,-0.20935090120859368,-1.5530135725876538e-10,-2.4860137829667593e-11,7.340913852574273e-11,-4.8708404981015845e-11,-5.0203686479970625e-12,-1.5524591229009035e-10,-0.7629001405860466,-0.3104442244105402,0.37384436044412106,-0.00038972680464524135,0.999906812361891,0.010026593170358693,0.009256464481425794
4.8,-2.5621447140818328,-1.8810055190561175,-1.7485147167519435,-1.1094920460366031,1.5640225032723425,-0.9920379489768941,-0.20943951023947505,-0.03352652114276639,0.09900431479871863,-0.06567652360885416,-0.006769869966288535,-0.20935090120859368,-1.5530135725876538e-10,-2.4860137829667593e-11,7.340913852574273e-11,-4.8708404981015845e-11,-5.0203686479970625e-12,-1.5524591229009035e-10,-0.7723902729641997,-0.29637009017939353,0.3765186808608718,-0.0003898323832605155,0.999905591237304,0.010119289395245196,0.009287444493806744
4.9,-2.5830886651057723,-1.884358171170393,-1.7386142852720754,-1.116059698397486,1.5633455162757137,-1.0129730390977456,-0.20943951023947505,-0.03352652114276639,0.09900431479871863,-0.06567652360885416,-0.006769869966288535,-0.20935090120859368,-1.5530135725876538e-10,-2.4860137829667593e-11,7.340913852574273e-11,-4.8708404981015845e-11,-5.0203686479970625e-12,-1.5524591229009035e-10,-0.7816040237470848,-0.2820211869352263,0.3791979840082741,-0.00038994465475178434,0.9999042554655387,0.010214956628090176,0.009326441237631726
5.0,-2.6040326161297123,-1.8877108232846682,-1.728713853792207,-1.122627350758369,1.5626685292790852,-1.0339081292185972,-0.20943951023947505,-0.03352652114276639,0.09900431479871863,-0.06567652360885416,-0.006769869966288535,-0.20935090120859368,-1.5530135725876538e-10,-2.4860137829667593e-11,7.340913852574273e-11,-4.8708404981015845e-11,-5.0203686479970625e-12,-1.5524591229009035e-10,-0.7905336957938874,-0.2674033271904404,0.3818821350009313,-0.00039006362011296706,0.9999028050468679,0.01031329819421946,0.009373590034487409
5.1,-2.6249765671536522,-1.8910634753989437,-1.7188134223123392,-1.1291950031192521,1.5619915422824566,-1.0548432193394488,-0.20943951023947505,-0.03352652114276639,0.09900431479871863,-0.06567652360885416,-0.006769869966288535,-0.20935090120859368,-1.5530135725876538e-10,-2.4860137829667593e-11,7.340913852574273e-11,-4.8708404981015845e-11,-5.0203686479970625e-12,-1.5524591229009035e-10,-0.7991717228090164,-0.25252253465114943,0.38457099854063814,-0.0003901892803364254,0.9999012399815774,0.010414013110894425,0.009429017263503214
5.2,-2.6459205181775913,-1.8944161275132192,-1.708912990832471,-1.135762655480135,1.561314555285828,-1.0757783094603004,-0.20943951023947519,-0.03352652114276619,0.0990043147987187,-0.06567652360885398,-0.00676986996628854,-0.2093509012085937,-1.5543996968045297e-10,-2.4887860314005108e-11,7.347844473658651e-11,-4.874998870752212e-11,-5.025566613810347e-12,-1.5538452471177792e-10,-0.8075106750609553,-0.2373850410872509,0.3872644389224097,-0.00039032163641381174,0.9998995602699667,0.010516796332420529,0.009492840241451075
5.3,-2.6668644692015313,-1.8977687796274945,-1.6990125593526029,-1.1423303078410179,1.5606375682891995,-1.0967133995811522,-0.20943951023947519,-0.03352652114276619,0.0990043147987187,-0.06567652360885398,-0.00676986996628854,-0.2093509012085937,-1.5543996968045297e-10,-2.4887860314005108e-11,7.347844473658651e-11,-4.874998870752212e-11,-5.025566613810347e-12,-1.5538452471177792e-10,-0.8155432650224598,-0.22199728304891536,0.38996232004052755,-0.00039046068933365567,0.999897765912348,0.010621338998365468,0.00956516710920641
5.4,-2.687808420225471,-1.9011214317417697,-1.6891121278727343,-1.148897960201901,1.5599605812925708,-1.1176484897020036,-0.20943951023947519,-0.03352652114276619,0.0990043147987187,-0.06567652360885398,-0.00676986996628854,-0.2093509012085937,-1.5543996968045297e-10,-2.4887860314005108e-11,7.347844473658651e-11,-4.874998870752212e-11,-5.025566613810347e-12,-1.5538452471177792e-10,-0.823262352928006,-0.20636589843155675,0.3926645053946055,-0.0003906064400842373,0.9998958569090471,0.010727328684723886,0.00964609672464126
5.5,-2.7087523712494104,-1.904474083856045,-1.6792116963928663,-1.1554656125627838,1.559283594295942,-1.1385835798228552,-0.20943951023947519,-0.03352652114276619,0.0990043147987187,-0.06567652360885398,-0.00676986996628854,-0.2093509012085937,-1.5543996968045297e-10,-2.4887860314005108e-11,7.347844473658651e-11,-4.874998870752212e-11,-5.025566613810347e-12,-1.5538452471177792e-10,-0.8306609522444378,-0.19049772289142433,0.3953708580956758,-0.0003907588896518538,0.9998938332604028,0.010834449657870268,0.009735718562028602
5.6,-2.7296963222733504,-1.9078267359703203,-1.669311264912998,-1.1620332649236667,1.5586066072993137,-1.1595186699437066,-0.20943951023947519,-0.03352652114276619,0.0990043147987187,-0.06567652360885398,-0.00676986996628854,-0.2093509012085937,-1.5543996968045297e-10,-2.4887860314005108e-11,7.347844473658651e-11,-4.874998870752212e-11,-5.025566613810347e-12,-1.5538452471177792e-10,-0.8377322350508215,-0.17439978611410034,0.3980812408722941,-0.0003909180390208903,0.9998916949667669,0.0109423831311358,0.009834112618022408
5.7,-2.7506402732972903,-1.9111793880845958,-1.65941083343313,-1.1686009172845497,1.5579296203026851,-1.1804537600645584,-0.20943951023947519,-0.03352652114276619,0.0990043147987187,-0.06567652360885398,-0.00676986996628854,-0.2093509012085937,-1.5543996968045297e-10,-2.4887860314005108e-11,7.347844473658651e-11,-4.874998870752212e-11,-5.025566613810347e-12,-1.5538452471177792e-10,-0.8444695373235795,-0.15807930793826813,0.40079551607666175,-0.00039108388917527727,0.9998894420285049,0.011050807523847288,0.009941349324282733
5.8,-2.77158422432123,-1.9145320401988712,-1.6495104019532616,-1.1751685696454328,1.5572526333060566,-1.2013888501854102,-0.20943951023947519,-0.03352652114276619,0.0990043147987187,-0.06567652360885398,-0.00676986996628854,-0.2093509012085937,-1.5543996968045297e-10,-2.4887860314005108e-11,7.347844473658651e-11,-4.874998870752212e-11,-5.025566613810347e-12,-1.5538452471177792e-10,-0.8508663641230373,-0.14154369433723188,0.40351354569076936,-0.0003912564410964941,0.9998870744459952,0.011159398722657275,0.010057489466802967
5.9,-2.7925281753451694,-1.9178846923131465,-1.6396099704733935,-1.1817362220063157,1.5565756463094278,-1.2223239403062613,-0.20943951023947519,-0.03352652114276619,0.0990043147987187,-0.06567652360885398,-0.00676986996628854,-0.2093509012085937,-1.5543996968045297e-10,-2.4887860314005108e-11,7.347844473658651e-11,-4.874998870752212e-11,-5.025566613810347e-12,-1.5538452471177792e-10,-0.8569163946775773,-0.12480053326076786,0.4062351913325547,-0.00039143569576427745,0.9998845922196292,0.011267830345003985,0.01018258411200096
6.0,-2.8134721263691094,-1.921237344427422,-1.6297095389935254,-1.1883038743671985,1.5558986593127995,-1.243259030427113,-0.20943951023947519,-0.03352652114276619,0.0990043147987187,-0.06567652360885398,-0.00676986996628854,-0.2093509012085937,-1.5543996968045297e-10,-2.4887860314005108e-11,7.347844473658651e-11,-4.874998870752212e-11,-5.025566613810347e-12,-1.5538452471177792e-10,-0.8626134873616779,-0.10785759033999208,0.40896031426208107,-0.00039162165415757987,0.9998819953498119,0.011375774004527349,0.010316674539623875
6.1,-2.8344160773930493,-1.9245899965416975,-1.6198091075136571,-1.1948715267280816,1.5552216723161707,-1.2641941205479648,-0.20943951023947519,-0.03352652114276619,0.0990043147987187,-0.06567652360885398,-0.00676986996628854,-0.2093509012085937,-1.5543996968045297e-10,-2.4887860314005108e-11,7.347844473658651e-11,-4.874998870752212e-11,-5.025566613810347e-12,-1.5538452471177792e-10,-0.8679516845641678,-0.09072280445802477,0.4116887753877344,-0.0003918143172535164,0.9998792838369613,0.011482899578274544,0.010459792182515585
6.2,-2.855360028416989,-1.9279426486559725,-1.609908676033789,-1.2014391790889642,1.554544685319542,-1.285129210668816,-0.20943951023947488,-0.03352652114276614,0.09900431479871875,-0.0656765236088541,-0.00676986996628853,-0.20935090120859362,-1.5519046732141532e-10,-2.4839345966414456e-11,7.333983231489893e-11,-4.866682125450957e-11,-5.016037009819325e-12,-1.5510729986840276e-10,-0.8729252174431166,-0.07340428318932851,0.41442043527243433,-0.0003920136860274488,0.9998764576815086,0.011588875475520049,0.010611958573294368
6.3,-2.8763039794409284,-1.931295300770248,-1.6000082445539208,-1.2080068314498473,1.5538676983229136,-1.3060643007896677,-0.20943951023947488,-0.03352652114276614,0.09900431479871875,-0.0656765236088541,-0.00676986996628853,-0.20935090120859362,-1.5519046732141532e-10,-2.4839345966414456e-11,7.333983231489893e-11,-4.866682125450957e-11,-5.016037009819325e-12,-1.5510729986840276e-10,-0.8775285105638501,-0.05591029811069617,0.4171551541398639,-0.0003922197614537078,0.999873516883898,0.011693368908032187,0.010773185297980424
6.4,-2.8972479304648684,-1.9346479528845233,-1.5901078130740527,-1.2145744838107304,1.5531907113262848,-1.3269993909105193,-0.20943951023947488,-0.03352652114276614,0.09900431479871875,-0.0656765236088541,-0.00676986996628853,-0.20935090120859362,-1.5519046732141532e-10,-2.4839345966414456e-11,7.333983231489893e-11,-4.866682125450957e-11,-5.016037009819325e-12,-1.5510729986840276e-10,-0.8817561864166611,-0.0382492799869566,0.4198927918807184,-0.00039243254450411,0.9998704614445874,0.011796046161609815,0.010943473956606178
6.5,-2.9181918814888084,-1.9380006049987988,-1.5802073815941846,-1.2211421361716135,1.5525137243296563,-1.3479344810313711,-0.20943951023947488,-0.03352652114276614,0.09900431479871875,-0.0656765236088541,-0.00676986996628853,-0.20935090120859362,-1.5519046732141532e-10,-2.4839345966414456e-11,7.333983231489893e-11,-4.866682125450957e-11,-5.016037009819325e-12,-1.5510729986840276e-10,-0.8856030698108701,-0.020429813834556512,0.4226332080589671,-0.0003926520361499985,0.9998672913640476,0.01189657286871449,0.011122816130848373
6.6,-2.939135832512748,-1.9413532571130743,-1.570306950114316,-1.2277097885324963,1.5518367373330277,-1.3688695711522225,-0.20943951023947488,-0.03352652114276614,0.09900431479871875,-0.0656765236088541,-0.00676986996628853,-0.20935090120859362,-1.5519046732141532e-10,-2.4839345966414456e-11,7.333983231489893e-11,-4.866682125450957e-11,-5.016037009819325e-12,-1.5510729986840276e-10,-0.8890641921419699,-0.0024606338662626834,0.4253762619181344,-0.00039287823736059265,0.9998640066427624,0.011994614282026427,0.01131119335870377
6.7,-2.9600797835366874,-1.9447059092273498,-1.5604065186344478,-1.2342774408933794,1.551159750336399,-1.3898046612730743,-0.20943951023947488,-0.03352652114276614,0.09900431479871875,-0.0656765236088541,-0.00676986996628853,-0.20935090120859362,-1.5519046732141532e-10,-2.4839345966414456e-11,7.333983231489893e-11,-4.866682125450957e-11,-5.016037009819325e-12,-1.5510729986840276e-10,-0.8921347955286788,0.015649381679679726,0.42812181238759306,-0.0003931111491039047,0.9998606072812292,0.012089835548745296,0.011508577116237755
6.8,-2.981023734560627,-1.9480585613416248,-1.5505060871545797,-1.2408450932542623,1.5504827633397702,-1.4107397513939257,-0.20943951023947488,-0.03352652114276614,0.09900431479871875,-0.0656765236088541,-0.00676986996628853,-0.20935090120859362,-1.5519046732141532e-10,-2.4839345966414456e-11,7.333983231489893e-11,-4.866682125450957e-11,-5.016037009819325e-12,-1.5510729986840276e-10,-0.8948103368168148,0.03389121582251136,0.4308697180888788,-0.0003933507723457284,0.9998570932799582,0.01218190198546024,0.011714928806418685
6.9,-3.0019676855845665,-1.9514112134559003,-1.5406056556747116,-1.2474127456151454,1.5498057763431419,-1.431674841514777,-0.20943951023947488,-0.03352652114276614,0.09900431479871875,-0.0656765236088541,-0.00676986996628853,-0.20935090120859362,-1.5519046732141532e-10,-2.4839345966414456e-11,7.333983231489893e-11,-4.866682125450957e-11,-5.016037009819325e-12,-1.5510729986840276e-10,-0.8970864914469947,0.0522557182305513,0.43361983734201465,-0.0003935971080510269,0.9998534646394732,0.012270479353413995,0.011930199755061661
7.0,-3.0219114449498354,-1.954603757543028,-1.5311780255765928,-1.253666755573938,1.5491611192897166,-1.451610163135002,-0.17749999999996594,-0.028413729081181834,0.08390616391661626,-0.05566085848481974,-0.0057374652836134155,-0.17742490383991746,0.5000000000351941,0.08003867347376661,-0.2363553913310784,0.1567911506725231,0.016161874039487552,0.4997884615561271,-0.8988789594185066,0.0698487476709264,0.4362405505553899,-0.00039383792000018814,0.9998499027295711,0.012351278456481232,0.012143427187181362
7.1,-3.037192815333305,-1.9570499587715642,-1.5239543570229803,-1.2584587228661557,1.5486671681231745,-1.4668850683227757,-0.12749999999991987,-0.020409861734361143,0.060270624785148746,-0.03998174341865588,-0.004121277879776851,-0.1274460576877724,0.500000000079825,0.0800386734809068,-0.236355391352183,0.15679115068652483,0.016161874040930755,0.49978846160075846,-0.9000027199649283,0.0833934488583333,0.438249796160623,-0.0003940265554029445,0.9998471031725648,0.012410663955232625,0.012312206979027239
7.2,-3.0474741857167755,-1.958695773265419,-1.5190942423825124,-1.2616827786517582,1.548334835697016,-1.4771620888953403,-0.07750000000006362,-0.012405994387570831,0.036635085653770966,-0.024302628352551543,-0.0025050904759464226,-0.07746721153581707,0.4999999999360234,0.08003867345789047,-0.23635539128421135,0.15679115064142943,0.016161874036282605,0.49978846145703987,-0.9006360828415858,0.09253582260858396,0.4396021773451742,-0.00039415548175898376,0.9998451852757536,0.012449314142683068,0.012428382828307194
7.3,-3.0527555561002457,-1.9595412010245927,-1.5165976816551892,-1.263338922930746,1.548164122011241,-1.4824412248526944,-0.02749999999997973,-0.004402127040744081,0.012999546522285573,-0.008623513286375822,-0.000888903072108636,-0.027488365383634195,0.5000000000201401,0.08003867347135712,-0.23635539132397815,0.15679115066780938,0.016161874039001784,0.4997884615411254,-0.9009228915623375,0.09724087729383747,0.44029703940830933,-0.0003942223382595821,0.999844189343599,0.012468744890808564,0.01248887606781857
7.355627407,-3.0535291582212505,-1.9596650371997075,-1.5162319915911255,-1.2635815108641588,1.54813911629117,-1.4832144996804668,1.6508657735904097e-16,2.6426621318423986e-17,-7.803820518492113e-17,5.17682288457836e-17,5.3362169373985334e-18,1.65016733032082e-16,0.499999999979126,0.08003867346479175,-0.23635539130458996,0.15679115065494842,0.01616187403767602,0.49978846150012496,-0.9009627014053209,0.09793054848389762,0.4403988303622377,-0.00039423216709188406,0.99984404284983,0.012471566481479382,0.0124977833316059
