mathias31415/primitives_from_planned_trajectory_python/data/saved_trajectories/trajectory_20250624_104503_executed.csv
timestamp,shoulder_lift_joint_pos,elbow_joint_pos,wrist_1_joint_pos,wrist_2_joint_pos,wrist_3_joint_pos,shoulder_pan_joint_pos,shoulder_lift_joint_vel,elbow_joint_vel,wrist_1_joint_vel,wrist_2_joint_vel,wrist_3_joint_vel,shoulder_pan_joint_vel,shoulder_lift_joint_eff,elbow_joint_eff,wrist_1_joint_eff,wrist_2_joint_eff,wrist_3_joint_eff,shoulder_pan_joint_eff
1750754737.3647702,-2.1142498189901744,-1.648012101856061,-0.9849703511631303,1.5646657061033535,-0.9622125693923866,-2.5323320854415328,0.0,0.0,0.0,0.0,0.0,0.0,6.427761364412073,3.55042910845575,0.2997155495236068,-0.0005058042631780825,0.0,1.4834807277545e-16
1750754737.3663833,-2.1142498189901744,-1.648012101856061,-0.9849703511631303,1.5646657061033535,-0.9622125693923866,-2.5323320854415328,0.0,0.0,0.0,0.0,0.0,0.0,6.427761364412073,3.55042910845575,0.2997155495236068,-0.0005058042631780825,0.0,1.4834807277545e-16
1750754737.3667688,-2.1142498189901744,-1.648012101856061,-0.9849703511631303,1.5646657061033535,-0.9622125693923866,-2.5323320854415328,0.0,0.0,0.0,0.0,0.0,0.0,6.427761364412073,3.55042910845575,0.2997155495236068,-0.0005058042631780825,0.0,1.4834807277545e-16
1750754737.3677633,-2.1142498189901744,-1.648012101856061,-0.9849703511631303,1.5646657061033535,-0.9622125693923866,-2.5323320854415328,0.0,0.0,0.0,0.0,0.0,0.0,6.427761364412073,3.55042910845575,0.2997155495236068,-0.0005058042631780825,0.0,1.4834807277545e-16
1750754737.3700907,-2.1142498189901744,-1.648012101856061,-0.9849703511631303,1.5646657061033535,-0.9622125693923866,-2.5323320854415328,0.0,0.0,0.0,0.0,0.0,0.0,6.427761364412073,3.55042910845575,0.2997155495236068,-0.0005058042631780825,0.0,1.4834807277545e-16
1750754737.3718536,-2.1142498189901744,-1.648012101856061,-0.9849703511631303,1.5646657061033535,-0.9622125693923866,-2.5323320854415328,0.0,0.0,0.0,0.0,0.0,0.0,6.427761364412073,3.55042910845575,0.2997155495236068,-0.0005058042631780825,0.0,1.4834807277545e-16
1750754737.3736877,-2.1142498189901744,-1.648012101856061,-0.9849703511631303,1.5646657061033535,-0.9622125693923866,-2.5323320854415328,0.0,0.0,0.0,0.0,0.0,0.0,6.427761364412073,3.55042910845575,0.2997155495236068,-0.0005058042631780825,0.0,1.4834807277545e-16
1750754737.3766387,-2.1142498189901744,-1.648012101856061,-0.9849703511631303,1.5646657061033535,-0.9622125693923866,-2.5323320854415328,0.0,0.0,0.0,0.0,0.0,0.0,6.427761364412073,3.55042910845575,0.2997155495236068,-0.0005058042631780825,0.0,1.4834807277545e-16
1750754737.3783486,-2.114249465767788,-1.648012888936444,-0.9849699117858517,1.564665740351425,-0.9622115698592149,-2.5323310854415326,0.0003532223869863806,-0.0007870803836448193,0.0004393772782520861,3.4248071417855755e-05,0.0009995331714324211,0.001,6.516269111096883,3.4359923736610547,0.31000040673069323,0.004228200961739458,0.028157175844885377,0.47535795466174313
1750754737.379907,-2.114248406100627,-1.648015250177595,-0.9849685936540169,1.5646658430956393,-0.9622085712597013,-2.5323280854415327,0.0007064447739727612,-0.0015741607672896385,0.0008787545565041722,6.849614283571151e-05,0.0019990663428648423,0.002,6.5162610273501285,3.4359885963483605,0.3100003769303397,0.004228193067154376,0.02815717584480229,0.4753562299110785
1750754737.381552,-2.114248406100627,-1.648015250177595,-0.9849685936540169,1.5646658430956393,-0.9622085712597013,-2.5323280854415327,0.0007064447739727612,-0.0015741607672896385,0.0008787545565041722,6.849614283571151e-05,0.0019990663428648423,0.002,6.5162610273501285,3.4359885963483605,0.3100003769303397,0.004228193067154376,0.02815717584480229,0.4753562299110785
1750754737.3832633,-2.114246639988691,-1.648019185579514,-0.9849663967676259,1.5646660143359963,-0.9622035735938441,-2.532323085441533,0.0010596671609591419,-0.0023612411509344577,0.0013181318347562584,0.00010274421425356727,0.002998599514297263,0.003,6.516247554415998,3.435982300813704,0.31000032726327603,0.004228179909414942,0.028157175844663807,0.47535335532812006
1750754737.385226,-2.1142441674319823,-1.6480246951421993,-0.9849633211266777,1.5646662540724963,-0.9621965768616434,-2.5323160854415327,0.0014128895479455224,-0.003148321534579277,0.0017575091130083444,0.00013699228567142302,0.003998132685729685,0.004,6.516228692260214,3.435973487036849,0.31000025772979056,0.004228161488374748,0.028157175844469983,0.47534933091509274
1750754737.3869526,-2.1142409884305,-1.6480317788656524,-0.9849593667311742,1.564666562305139,-0.9621875810631009,-2.532307085441533,0.001766111934931903,-0.003935401918224096,0.0021968863912604306,0.00017124035708927877,0.004997665857162105,0.005,6.5162044408347555,3.4359621549894497,0.31000016833028693,0.004228137803828763,0.028157175844220724,0.47534415667511
1750754737.3889878,-2.1142371029842426,-1.6480404367498718,-0.9849545335811136,1.5646669390339245,-0.9621765861982148,-2.5322960854415326,0.0021193343219182838,-0.004722482301868915,0.002636263669512517,0.00020548842850713454,0.005997199028594526,0.006,6.51617480007789,3.4359483046350805,0.31000005906528477,0.0042281088555134174,0.02815717584391611,0.4753378326121777
1750754737.391057,-2.1142325110932116,-1.648050668794859,-0.9849488216764959,1.564667384258853,-0.962163592266986,-2.5322830854415326,0.002472556708904664,-0.005509562685513735,0.003075640947764603,0.0002397364999249903,0.0069967322000269476,0.007,6.516139769914171,3.435931935929203,0.3099999299354184,0.004228074643106575,0.028157175843556162,0.47533035873119117
1750754737.3930948,-2.1142272127574078,-1.6480624750006143,-0.9849422310173219,1.5646678979799242,-0.9621485992694154,-2.5322680854415327,0.0028257790958910447,-0.006296643069158554,0.003515018226016689,0.00027398457134284604,0.00799626537145937,0.008,6.51609935025444,3.435913048819191,0.3099997809414376,0.004228035166227512,0.028157175843140824,0.4753217350379383
1750754737.3956323,-2.1142212079768283,-1.6480758553671357,-0.9849347616035917,1.5646684801971384,-0.9621316072055004,-2.5322510854415325,0.003179001482877426,-0.007083723452803374,0.0039543955042687755,0.00030823264276070184,0.00899579854289179,0.009000000000000001,6.516053540995806,3.435891643244331,0.309999612084208,0.0042279904244369665,0.028157175842670103,0.4753119615390964
1750754737.3970785,-2.114214496751476,-1.6480908098944251,-0.9849264134353053,1.5646691309104954,-0.9621126160752436,-2.5322320854415326,0.0035322238698638066,-0.007870803836448195,0.004393772782520862,0.00034248071417855764,0.009995331714324212,0.010000000000000002,6.516002342021676,3.4358677191357976,0.30999942336470965,0.004227940417237075,0.02815717584214412,0.4753010382422383
1750754737.3990602,-2.114207079081349,-1.6481073385824825,-0.9849171865124617,1.5646698501199952,-0.9620916258786432,-2.5322110854415327,0.0038854462568501873,-0.008657884220093014,0.004833150060772949,0.0003767287855964134,0.010994864885756635,0.011000000000000003,6.515945753201733,3.4358412764166903,0.3099992147840392,0.004227885144071436,0.028157175841562753,0.47528896515582936
1750754737.4075372,-2.114198954966448,-1.648125441431306,-0.984907080835062,1.5646706378256376,-0.9620686366157001,-2.5321880854415326,0.004238668643836568,-0.009444964603737834,0.0052725273390250346,0.0004109768570142692,0.011994398057189055,0.012000000000000004,6.5158837743919475,3.4358123150020043,0.30999898634340767,0.0042278246043250985,0.02815717584092601,0.47527574228922764
1750754737.4080338,-2.114170343953102,-1.6481891949423808,-0.9848714912755234,1.5646734119194226,-0.9619876744288147,-2.532107085441533,0.005298335804795711,-0.011806205754672294,0.0065906591737812945,0.0005137210712678365,0.014992997571486323,0.015000000000000006,6.5156654963775,3.4357103176131085,0.30999818187559347,0.004227611378574093,0.0281571758386842,0.47522917511530377
1750754737.409206,-2.114159394059106,-1.6482135944342744,-0.9848578705798978,1.5646744736096365,-0.9619566889005,-2.532076085441533,0.005651558191782092,-0.012593286138317113,0.007030036452033381,0.0005479691426856923,0.015992530742918745,0.016000000000000007,6.515581955893735,3.4356712804042866,0.3099978740095406,0.004227529765184401,0.02815717583782637,0.47521135323945257
1750754737.4110687,-2.1141477377203355,-1.6482395680869342,-0.9848433711297151,1.5646756037959932,-0.9619237043058426,-2.532043085441533,0.006004780578768473,-0.013380366521961933,0.007469413730285468,0.0005822172141035481,0.016992063914351166,0.017000000000000008,6.515493024494246,3.435629723953532,0.30999754629131515,0.0042274428812610135,0.02815717583691324,0.47519238164365907
1750754737.413066,-2.11413537493679,-1.648267115900362,-0.984827992924977,1.564676802478493,-0.9618887206448425,-2.5320080854415328,0.0063580029657548534,-0.014167446905606753,0.007908791008537554,0.0006164652855214039,0.017991597085783587,0.01800000000000001,6.51539870195272,3.435585648127314,0.3099971987228209,0.004227350725837725,0.028157175835944934,0.4751722603426727
1750754737.4147973,-2.114122305708472,-1.6482962378745567,-0.984811735965681,1.5646780696571354,-0.9618517379174998,-2.531971085441533,0.006711225352741235,-0.014954527289251573,0.00834816828678964,0.0006507133569392596,0.01899113025721601,0.01900000000000001,6.515298988029132,3.435539052784012,0.3099968313060772,0.004227253297889794,0.028157175834921524,0.47515098935214695
1750754737.4177961,-2.11410853003538,-1.6483269340095186,-0.9847946002518295,1.5646794053319206,-0.9618127561238135,-2.531932085441533,0.007064447739727616,-0.015741607672896393,0.008787545565041728,0.0006849614283571155,0.01999066342864843,0.02000000000000001,6.515193882469739,3.4354899377739248,0.3099964440432186,0.004227150596333967,0.028157175833842727,0.4751285686886383
1750754737.4189408,-2.11410853003538,-1.6483269340095186,-0.9847946002518295,1.5646794053319206,-0.9618127561238135,-2.531932085441533,0.007064447739727616,-0.015741607672896393,0.008787545565041728,0.0006849614283571155,0.01999066342864843,0.02000000000000001,6.515193882469739,3.4354899377739248,0.3099964440432186,0.004227150596333967,0.028157175833842727,0.4751285686886383
1750754737.4209182,-2.1140788593548727,-1.6483930487617453,-0.9847576925604562,1.5646822821699198,-0.9617287953374136,-2.5318480854415326,0.007770892513700377,-0.017315768440186032,0.0096663001215459,0.000753457571192827,0.021989729771513276,0.022000000000000013,6.51496749536001,3.4353841481142045,0.3099956099882732,0.004226929367773071,0.028157175831519953,0.4750802784134341
1750754737.4229536,-2.1140629643474584,-1.6484284673790093,-0.9847379205829352,1.5646838233331335,-0.9616838163446992,-2.531803085441533,0.008124114900686758,-0.018102848823830852,0.010105677399797987,0.0007877056426106829,0.022989262942945697,0.023000000000000013,6.51484621323365,3.4353274731247745,0.30999516320103315,0.0042268108383089606,0.028157175830275737,0.4750544088393942
1750754737.426076,-2.1140629643474584,-1.6484284673790093,-0.9847379205829352,1.5646838233331335,-0.9616838163446992,-2.531803085441533,0.008124114900686758,-0.018102848823830852,0.010105677399797987,0.0007877056426106829,0.022989262942945697,0.023000000000000013,6.51484621323365,3.4353274731247745,0.30999516320103315,0.0042268108383089606,0.028157175830275737,0.4750544088393942
1750754737.4274595,-2.1140290549983085,-1.6485040270958393,-0.9846957403642227,1.5646871111479896,-0.9615878611602415,-2.531707085441533,0.008830559674659521,-0.01967700959112049,0.01098443195630216,0.0008562017854463944,0.024988329285810542,0.025000000000000015,6.514587470295038,3.4352065619167176,0.3099942101200015,0.004226557942427133,0.02815717582762234,0.47499922091941343
1750754737.4294631,-2.1140290549983085,-1.6485040270958393,-0.9846957403642227,1.5646871111479896,-0.9615878611602415,-2.531707085441533,0.008830559674659521,-0.01967700959112049,0.01098443195630216,0.0008562017854463944,0.024988329285810542,0.025000000000000015,6.514587470295038,3.4352065619167176,0.3099942101200015,0.004226557942427133,0.02815717582762234,0.47499922091941343
1750754737.4312696,-2.1139923198700608,-1.6485858834557376,-0.9846500451272844,1.5646906729474173,-0.9614839097104122,-2.5316030854415326,0.009537004448632282,-0.021251170358410135,0.011863186512806333,0.000924697928282106,0.026987395628675387,0.027000000000000017,6.514307153558124,3.4350755677621545,0.30999317771555873,0.004226283921143185,0.0281571758247487,0.47493943478220985
1750754737.4334974,-2.1139728926387775,-1.6486291728768387,-0.9846258793769804,1.5646925565913452,-0.9614289353859835,-2.531548085441533,0.009890226835618663,-0.022038250742054954,0.01230256379105842,0.0009589459996999617,0.027986928800107808,0.028000000000000018,6.514158904132496,3.435006289059322,0.3099926317744877,0.004226138984707153,0.028157175823229293,0.4749078174400872
1750754737.4352171,-2.1139728926387775,-1.6486291728768387,-0.9846258793769804,1.5646925565913452,-0.9614289353859835,-2.531548085441533,0.009890226835618663,-0.022038250742054954,0.01230256379105842,0.0009589459996999617,0.027986928800107808,0.028000000000000018,6.514158904132496,3.435006289059322,0.3099926317744877,0.004226138984707153,0.028157175823229293,0.4749078174400872
1750754737.4374588,-2.1139527589627187,-1.648674036458706,-0.9846008348721202,1.564694508731416,-0.9613719619952121,-2.531491085441533,0.010243449222605044,-0.022825331125699774,0.012741941069310505,0.0009931940711178176,0.02898646197154023,0.02900000000000002,6.514005260170504,3.4349344889790117,0.30999206601171125,0.004225988762281781,0.02815717582165504,0.47487505061502866
1750754737.4392006,-2.113931918841887,-1.6487204742013413,-0.9845749116127038,1.5646965293676296,-0.9613129895380972,-2.5314320854415326,0.010596671609591424,-0.023612411509344594,0.013181318347562592,0.0010274421425356733,0.029985995142972652,0.03000000000000002,6.513846221281347,3.434860167290794,0.3099914804305179,0.004225833252199045,0.028157175820025967,0.4748411343327495
1750754737.441213,-2.1139103722762806,-1.6487684861047436,-0.9845481095987303,1.564698618499986,-0.9612520180146404,-2.5313710854415326,0.010949893996577805,-0.024399491892989414,0.013620695625814678,0.001061690213953529,0.030985528314405073,0.03100000000000002,6.513681787060505,3.434783323756201,0.3099908750343134,0.00422567245273247,0.02815717581834181,0.474806068619895
1750754737.4433534,-2.1138881192659005,-1.648818072168913,-0.9845204288301996,1.5647007761284855,-0.9611890474248401,-2.5313080854415326,0.011303116383564186,-0.025186572276634234,0.014060072904066766,0.0010959382853713848,0.0319850614858375,0.03200000000000002,6.5135119570897775,3.4347039581286958,0.30999024982661877,0.004225506362097195,0.028157175816603,0.4747698535040406
1750754737.4454343,-2.1138651598107465,-1.6488692323938503,-0.9844918693071136,1.5647030022531276,-0.9611240777686962,-2.531243085441533,0.011656338770550567,-0.025973652660279054,0.014499450182318852,0.0011301863567892408,0.03298459465726992,0.03300000000000002,6.513336730937246,3.4346220701536905,0.30998960481106974,0.00422533497844991,0.02815717581480919,0.474732489013698
1750754737.4468818,-2.1138414939108188,-1.6489219667795538,-0.9844624310294705,1.5647052968739126,-0.9610571090462106,-2.531176085441533,0.012009561157536949,-0.026760733043923873,0.014938827460570937,0.0011644344282070965,0.03398412782870234,0.03400000000000002,6.513156108157306,3.4345376595685493,0.3099889399914186,0.004225158299888913,0.02815717581296069,0.4746939751783152
1750754737.4489472,-2.1138171215661163,-1.6489762753260262,-0.9844321139972712,1.5647076599908405,-0.9609881412573822,-2.531107085441533,0.01236278354452333,-0.027547813427568693,0.015378204738823025,0.0011986824996249523,0.03498366100013476,0.035000000000000024,6.512970088290643,3.43445072610258,0.3099882553715326,0.004224976324454152,0.028157175811057457,0.4746543120282798
1750754737.4508421,-2.11379204277664,-1.6490321580332647,-0.9844009182105156,1.5647100916039112,-0.9609171744022103,-2.531036085441533,0.01271600593150971,-0.028334893811213513,0.015817582017075112,0.001232930571042808,0.03598319417156718,0.036000000000000025,6.512778670864268,3.4343612694770576,0.30998755095539493,0.004224789050127158,0.028157175809099516,0.4746134995949264
1750754737.4529264,-2.11376625754239,-1.6490896149012713,-0.9843688436692029,1.5647125917131246,-0.9608442084806956,-2.530963085441533,0.013069228318496091,-0.029121974194858333,0.016256959295327198,0.0012671786424606638,0.03698272734299961,0.037000000000000026,6.512581855391482,3.4342692894052034,0.3099868267471042,0.004224596474831107,0.02815717580708711,0.47457153791053247
1750754737.4550722,-2.1137397658633663,-1.649148645930044,-0.9843358903733339,1.564715160318481,-0.9607692434928383,-2.5308880854415325,0.013422450705482472,-0.029909054578503153,0.016696336573579284,0.0013014267138785195,0.03798226051443203,0.03800000000000003,6.512379641371901,3.4341747855922087,0.30998608275087497,0.004224398596430848,0.028157175805019693,0.4745284270083286
1750754737.4571092,-2.1137125677395687,-1.6492092511195846,-0.9843020583229087,1.5647177974199802,-0.9606922794386374,-2.530811085441533,0.013775673092468852,-0.030696134962147972,0.01713571385183137,0.0013356747852963755,0.03898179368586445,0.03900000000000003,6.512172028291446,3.434077757735222,0.3099853189710373,0.0042241954127328575,0.028157175802897897,0.4744841669224973
1750754737.4588215,-2.1136846631709965,-1.6492714304698932,-0.9842673475179264,1.564720503017622,-0.9606133163180948,-2.530732085441533,0.014128895479455233,-0.03148321534579279,0.017575091130083455,0.0013699228567142312,0.03998132685729687,0.04000000000000003,6.511959015622341,3.4339782055233634,0.3099845354120368,0.004223986921485276,0.028157175800721565,0.47443875768817856
1750754737.46108,-2.1136560521576504,-1.649335183980968,-0.9842317579583888,1.564723277111407,-0.9605323541312085,-2.5306510854415327,0.014482117866441614,-0.03227029572943761,0.018014468408335545,0.001404170928132087,0.04098086002872929,0.04100000000000003,6.511740602823143,3.433876128637727,0.3099837320784351,0.004223773120377994,0.028157175798490742,0.4743921993414742
1750754737.4628754,-2.1136267346995306,-1.6494005116528108,-0.984195289644294,1.5647261197013347,-0.9604493928779796,-2.5305680854415327,0.014835340253427995,-0.03305737611308243,0.01845384568658763,0.0014384189995499427,0.04198039320016171,0.04200000000000003,6.511516789338705,3.433771526751375,0.30998290897490893,0.0042235540070425315,0.02815717579620547,0.47434449191944844
1750754737.470818,-2.113596710796637,-1.6494674134854197,-0.9841579425756422,1.564729030787405,-0.960364432558408,-2.5304830854415328,0.015188562640414377,-0.03384445649672725,0.018893222964839716,0.0014726670709677985,0.04297992637159414,0.04300000000000003,6.511287574600198,3.4336643995293525,0.30998206610625134,0.004223329579052153,0.028157175793865997,0.4742956354601349
1750754737.4712932,-2.1135659804489686,-1.6495358894787975,-0.984119716752434,1.5647320103696185,-0.9602774731724937,-2.5303960854415326,0.015541785027400758,-0.03463153688037207,0.019332600243091802,0.0015069151423856542,0.04397945954302656,0.04400000000000003,6.511052958025108,3.433554746628684,0.30998120347737107,0.004223099833921859,0.028157175791471784,0.4742456300025384
1750754737.4716048,-2.1135345436565274,-1.6496059396329414,-0.9840806121746697,1.5647350584479747,-0.9601885147202358,-2.5303070854415326,0.01589500741438714,-0.03541861726401689,0.01977197752134389,0.0015411632138035102,0.04497899271445898,0.04500000000000003,6.510812939017256,3.4334425676983864,0.3099803210932925,0.004222864769108375,0.028157175789023464,0.47419447558664196
1750754737.4719129,-2.1135024004193106,-1.6496775639478534,-0.9840406288423491,1.5647381750224738,-0.9600975572016353,-2.5302160854415328,0.01624822980137352,-0.03620569764766171,0.020211354799595977,0.001575411285221366,0.0459785258858914,0.046000000000000034,6.510567516966751,3.4333278623794596,0.3099794189591551,0.004222624382010189,0.02815717578652089,0.47414217225340566
1750754737.4730568,-2.113469550737321,-1.6497507624235324,-0.9839997667554714,1.5647413600931155,-0.960004600616692,-2.5301230854415326,0.0166014521883599,-0.03699277803130653,0.020650732077848063,0.0016096593566392217,0.04697805905732382,0.047000000000000035,6.51031669125006,3.433210630304898,0.3099784970802158,0.004222378669967541,0.028157175783964115,0.47408872004477565
1750754737.474772,-2.1134359946105583,-1.6498255350599784,-0.9839580259140375,1.5647446136599004,-0.9599096449654061,-2.5300280854415327,0.01695467457534628,-0.03777985841495135,0.02109010935610015,0.0016439074280570774,0.04797759222875624,0.048000000000000036,6.510060461229955,3.433090871099694,0.3099775554618455,0.004222127630262534,0.028157175781353194,0.47403411900368625
1750754737.4767408,-2.11340173203902,-1.6499018818571924,-0.9839154063180473,1.5647479357228278,-0.9598126902477775,-2.529931085441533,0.01730789696233266,-0.03856693879859617,0.021529486634352234,0.0016781554994749332,0.04897712540018867,0.04900000000000004,6.509798826255524,3.4329685843808497,0.3099765941095325,0.004221871260118959,0.02815717577868837,0.47397836917406344
1750754737.4788344,-2.113366763022709,-1.6499798028151726,-0.9838719079675,1.5647513262818982,-0.9597137364638053,-2.529832085441533,0.017661119349319042,-0.03935401918224099,0.021968863912604324,0.0017124035708927891,0.04997665857162109,0.05000000000000004,6.509531785662205,3.432843769757366,0.30997561302888016,0.004221609556702541,0.02815717577596912,0.4739214706008327
1750754737.4808118,-2.1133310875616225,-1.6500592979339208,-0.9838275308623965,1.5647547853371113,-0.9596127836134904,-2.529731085441533,0.018014341736305423,-0.04014109956588581,0.02240824119085641,0.0017466516423106449,0.05097619174305351,0.05100000000000004,6.509259338771741,3.432716426830257,0.30997461222560746,0.004221342517120742,0.02815717577319607,0.47386342332991876
1750754737.4826932,-2.113294705655763,-1.650140367213437,-0.9837822750027367,1.5647583128884675,-0.9595098316968329,-2.5296280854415327,0.018367564123291803,-0.04092817994953063,0.022847618469108495,0.0017808997137285006,0.05197572491448593,0.05200000000000004,6.508981484892226,3.432586555192544,0.30997359170554967,0.00422107013842297,0.028157175770369098,0.47380422740825495
1750754737.4846134,-2.1132576173051296,-1.6502230106537192,-0.9837361403885199,1.5647619089359663,-0.9594048807138327,-2.5295230854415327,0.018720786510278184,-0.04171526033317545,0.02328699574736058,0.0018151477851463564,0.05297525808591835,0.05300000000000004,6.508698223318085,3.4324541544292835,0.3099725514746584,0.004220792417600433,0.028157175767488257,0.47374388288378444
1750754737.4867435,-2.1132198225097216,-1.6503072282547695,-0.9836891270197476,1.564765573479608,-0.9592979306644898,-2.529416085441533,0.019074008897264565,-0.04250234071682027,0.023726373025612667,0.0018493958565642121,0.05397479125735078,0.05400000000000004,6.508409553330063,3.432319224117545,0.30997149153900055,0.004220509351586256,0.028157175764553795,0.47368238980546573
1750754737.4891522,-2.1132198225097216,-1.6503072282547695,-0.9836891270197476,1.564765573479608,-0.9592979306644898,-2.529416085441533,0.019074008897264565,-0.04250234071682027,0.023726373025612667,0.0018493958565642121,0.05397479125735078,0.05400000000000004,6.508409553330063,3.432319224117545,0.30997149153900055,0.004220509351586256,0.028157175764553795,0.47368238980546573
1750754737.4909806,-2.1131813212695407,-1.6503930200165868,-0.9836412348964174,1.5647693065193926,-0.9591889815488033,-2.5293070854415327,0.01942723128425095,-0.04328942110046509,0.024165750303864756,0.0018836439279820679,0.0549743244287832,0.05500000000000004,6.508115474195259,3.432181763826428,0.30997041190475894,0.004220220937255484,0.02815717576156519,0.4736197482232798
1750754737.492634,-2.113142113584585,-1.6504803859391712,-0.9835924640185318,1.56477310805532,-0.9590780333667741,-2.5291960854415327,0.01978045367123733,-0.04407650148410991,0.024605127582116842,0.0019178919993999238,0.05597385760021562,0.05600000000000004,6.507815985167099,3.4320417731170743,0.30996931257823307,0.004219927171425064,0.028157175758523095,0.47355595818823293
1750754737.4947498,-2.113102199454856,-1.6505693260225227,-0.9835428143860891,1.5647769780873901,-0.9589650861184023,-2.529083085441533,0.02013367605822371,-0.04486358186775473,0.025044504860368928,0.0019521400708177796,0.05697339077164804,0.057000000000000044,6.507511085485362,3.431899251542653,0.30996819356583766,0.004219628050853872,0.028157175755427363,0.4734910197523614
1750754737.4968777,-2.1130615788803517,-1.6506598402666421,-0.9834922859990902,1.5647809166156033,-0.9588501398036877,-2.528968085441533,0.02048689844521009,-0.04565066225139955,0.025483882138621013,0.001986388142235635,0.057972923943080464,0.058000000000000045,6.507200774376155,3.4317541986483846,0.3099670548741044,0.0042193235722428005,0.02815717575227807,0.47342493296873794
1750754737.498712,-2.113020251861075,-1.6507519286715286,-0.9834408788575351,1.5647849236399591,-0.9587331944226305,-2.528851085441533,0.02084012083219647,-0.04643774263504437,0.0259232594168731,0.0020206362136534913,0.058972457114512884,0.059000000000000045,6.506885051051959,3.4316066139715358,0.30996589650968004,0.0042190137322347014,0.028157175749075277,0.47335769789147764
1750754737.5009212,-2.112978218397023,-1.6508455912371822,-0.9833885929614228,1.5647889991604578,-0.9586142499752297,-2.5287320854415327,0.021193343219182852,-0.04722482301868919,0.02636263669512519,0.002054884285071347,0.05997199028594531,0.060000000000000046,6.50656391471157,3.4314564970414283,0.3099647184793282,0.004218698527414363,0.028157175745819246,0.4732893145757406
1750754737.5027025,-2.1129354784881986,-1.6509408279636038,-0.9833354283107543,1.5647931431770994,-0.9584933064614862,-2.5286110854415327,0.021546565606169233,-0.04801190340233401,0.026802013973377274,0.002089132356489203,0.06097152345737773,0.06100000000000005,6.506237364540154,3.431303847379439,0.3099635207899278,0.00421837795430871,0.028157175742509456,0.4732197830777401
1750754737.5046887,-2.1128920321345985,-1.6510376388507915,-0.9832813849055295,1.5647973556898838,-0.9583703638814001,-2.528488085441533,0.021899787993155614,-0.04879898378597883,0.02724139125162936,0.0021233804279070585,0.06197105662881015,0.06200000000000005,6.505905399709221,3.431148664499019,0.3099623034484748,0.004218052009386626,0.02815717573914656,0.473149103454748
1750754737.5067043,-2.1128478793362255,-1.6511360238987471,-0.9832264627457477,1.5648016366988111,-0.9582454222349712,-2.5283630854415327,0.02225301038014199,-0.04958606416962365,0.027680768529881442,0.002157628499324914,0.06297058980024257,0.06300000000000004,6.505568019376648,3.430990947905676,0.3099610664620806,0.004217720689059058,0.028157175735730434,0.4730772757650936
1750754737.5087335,-2.1128030200930787,-1.6512359831074699,-0.9831706618314096,1.564805986203881,-0.9581184815221997,-2.5282360854415327,0.02260623276712837,-0.05037314455326847,0.02812014580813353,0.0021918765707427696,0.063970122971675,0.06400000000000004,6.505225222686667,3.4308306970970084,0.3099598098379737,0.004217383989679144,0.028157175732261147,0.4730043000681918
1750754737.5107346,-2.1127574544051573,-1.6513375164769606,-0.9831139821625152,1.5648104042050939,-0.9579895417430846,-2.528107085441533,0.022959455154114752,-0.05116022493691329,0.028559523086385617,0.002226124642160626,0.06496965614310742,0.06500000000000004,6.504877008769848,3.430667911562682,0.30995853358349756,0.004217041907541978,0.02815717572873877,0.4729301764245111
1750754737.5126643,-2.112711182272461,-1.6514406240072175,-0.9830564237390647,1.5648148907024497,-0.9578586028976268,-2.5279760854415327,0.023312677541101133,-0.05194730532055811,0.028998900364637703,0.0022603727135784815,0.06596918931453984,0.06600000000000004,6.504523376743152,3.4305025907844615,0.3099572377061128,0.0042166944388848495,0.028157175725163377,0.4728549048956126
1750754737.5146847,-2.112664203694992,-1.6515453056982423,-0.982997986561057,1.5648194456959483,-0.9577256649858263,-2.527843085441533,0.023665899928087517,-0.05273438570420293,0.02943827764288979,0.0022946207849963373,0.06696872248597226,0.06700000000000005,6.5041643257099,3.4303347342361916,0.30995592221339613,0.004216341579887214,0.028157175721535043,0.4727784855441434
1750754737.5166667,-2.1126165186727492,-1.6516515615500342,-0.9829386706284922,1.5648240691855897,-0.9575907280076832,-2.5277080854415326,0.024019122315073898,-0.05352146608784775,0.029877654921141875,0.002328868856414193,0.06796825565740468,0.06800000000000005,6.503799854759767,3.4301643413838265,0.30995458711304025,0.004215983326670672,0.028157175717853835,0.47270091843384243
1750754737.5186775,-2.1125681272057317,-1.651759391562594,-0.982878475941372,1.564828761171374,-0.9574537919631965,-2.527571085441533,0.02437234470206028,-0.054308546471492566,0.030317032199393964,0.0023631169278320488,0.0689677888288371,0.06900000000000005,6.503429962968808,3.4299914116854184,0.3099532324128547,0.004215619675299041,0.02815717571411984,0.47262220362954854
1750754737.526182,-2.1125190292939413,-1.6518687957359202,-0.9828174024996947,1.5648335216533011,-0.957314856852368,-2.5274320854415326,0.02472556708904666,-0.055095626855137386,0.03075640947764605,0.0023973649992499045,0.06996732200026952,0.07000000000000005,6.503054649399456,3.4298159445911325,0.30995185812076487,0.004215250621778334,0.028157175710333125,0.4725423411972047
1750754737.5266051,-2.1124187141360373,-1.6520923265648761,-0.9826926193526715,1.5648432481055836,-0.9570309894316811,-2.527148085441533,0.02543201186301942,-0.056669787622427026,0.031635164034150225,0.002465861142085616,0.07196638834313436,0.07200000000000005,6.502287753107146,3.4294573959761854,0.30994905079315715,0.004214496292024987,0.028157175702601855,0.47237917371771043
1750754737.526871,-2.1123674968899238,-1.6522064532205043,-0.9826289096473246,1.5648482140759392,-0.9568860571218236,-2.5270030854415326,0.0257852342500058,-0.057456868006071846,0.03207454131240231,0.0025001092135034718,0.07296592151456678,0.07300000000000005,6.501896168440932,3.4292743133164643,0.3099476177740724,0.0042141110075157185,0.028157175698657468,0.4722958688080331
1750754737.5287485,-2.1123155731990373,-1.6523221540369004,-0.9825643211874215,1.5648532485424378,-0.9567391257456226,-2.526856085441533,0.026138456636992182,-0.058243948389716665,0.032513918590654396,0.0025343572849213275,0.07396545468599922,0.07400000000000005,6.501499158109818,3.4290886909827556,0.3099461651959501,0.004213720304304133,0.028157175694661075,0.4722114165452666
1750754737.5306623,-2.112262943063376,-1.6524394290140627,-0.9824988539729622,1.564858351505079,-0.9565901953030789,-2.5267070854415326,0.026491679023978563,-0.059031028773361485,0.03295329586890648,0.0025686053563391833,0.07496498785743164,0.07500000000000005,6.501096721108138,3.428900528385881,0.30994469306729827,0.004213324178107662,0.02815717569061158,0.47212581700098055
1750754737.5326376,-2.112209606482941,-1.652558278151993,-0.9824325080039458,1.564863522963863,-0.9564392657941934,-2.5265560854415328,0.026844901410964944,-0.059818109157006305,0.03339267314715857,0.002602853427757039,0.07596452102886406,0.07600000000000005,6.500688856416611,3.428709824928793,0.30994320139674125,0.0042129226245861805,0.028157175686510248,0.4720390702478881
1750754737.534666,-2.1121555634577316,-1.6526787014506912,-0.982365283280374,1.56486876291879,-0.9562863372189643,-2.5264030854415327,0.027198123797951324,-0.060605189540651125,0.033832050425410654,0.002637101499174895,0.07696405420029648,0.07700000000000005,6.500275563002358,3.428516580006614,0.3099416901930196,0.004212515639341922,0.028157175682356768,0.4719511763598568
1750754737.5366333,-2.112100813987749,-1.6528006989101556,-0.9822971798022442,1.5648740713698597,-0.9561314095773916,-2.526248085441533,0.027551346184937705,-0.061392269924295945,0.03427142770366274,0.002671349570592751,0.0779635873717289,0.07800000000000006,6.499856839818894,3.428320793006621,0.30994015946499104,0.004212103217919461,0.02815717567815123,0.4718621354119128
1750754737.5386176,-2.112045358072992,-1.652924270530388,-0.982228197569559,1.5648794483170725,-0.9559744828694772,-2.5260910854415326,0.027904568571924086,-0.062179350307940764,0.034710804981914825,0.0027055976420106067,0.07896312054316132,0.07900000000000006,6.499432685806128,3.428122463308266,0.30993860922162997,0.004211685355805967,0.02815717567389371,0.4717719474802478
1750754737.5421784,-2.111989195713461,-1.6530494163113882,-0.9821583365823168,1.5648848937604278,-0.9558155570952191,-2.5259320854415326,0.028257790958910466,-0.06296643069158558,0.03515018226016691,0.0027398457134284624,0.07996265371459374,0.08000000000000006,6.4990030998903725,3.427921590283169,0.3099370394720271,0.004211262048430927,0.028157175669584315,0.47168061264222905
1750754737.5427065,-2.111932326909157,-1.6531761362531547,-0.9820875968405183,1.5648904076999262,-0.9556546322546184,-2.5257710854415327,0.028611013345896847,-0.0637535110752304,0.035589559538419004,0.002774093784846318,0.08096218688602616,0.08100000000000006,6.4985680809843585,3.4277181732951436,0.30993545022539015,0.00421083329116643,0.028157175665223123,0.47158813097640384
1750754737.5450044,-2.1118747516600784,-1.6533044303556892,-0.9820159783441635,1.5648959901355672,-0.955491708347675,-2.5256080854415326,0.028964235732883228,-0.06454059145887522,0.03602893681667109,0.002808341856264174,0.08196172005745858,0.08200000000000006,6.498127627987199,3.427512211700187,0.3099338414910428,0.004210399079327022,0.02815717566081022,0.47149450256250525
1750754737.5467982,-2.111816469966225,-1.6534342986189898,-0.9819434810932517,1.564901641067351,-0.955326785374389,-2.5254430854415326,0.02931745811986961,-0.06532767184252004,0.036468314094923175,0.0028425899276820297,0.082961253228891,0.08300000000000006,6.497681739784446,3.4273037048465023,0.309932213278427,0.004209959408169829,0.02815717565634571,0.4713997274814669
1750754737.548881,-2.111757481827599,-1.6535657410430584,-0.9818701050877836,1.564907360495278,-0.9551598633347593,-2.525276085441533,0.02967068050685599,-0.06611475222616486,0.03690769137317526,0.0028768379990998854,0.08396078640032342,0.08400000000000006,6.497230415248048,3.427092652074483,0.3099305655971001,0.004209514272894571,0.02815717565182967,0.47130380581542225
1750754737.5509405,-2.111697787244198,-1.653698757627895,-0.9817958503277593,1.5649131484193475,-0.9549909422287879,-2.5251070854415327,0.030023902893842373,-0.06690183260980968,0.03734706865142735,0.002911086070517741,0.08496031957175584,0.08500000000000006,6.496773653236384,3.4268790527167505,0.30992889845673705,0.004209063668643532,0.028157175647262205,0.4712067376477184
1750754737.5528245,-2.1116373862160227,-1.6538333483734977,-0.9817207168131779,1.56491900483956,-0.954820022056472,-2.524936085441533,0.030377125280828754,-0.0676889129934545,0.03778644592967943,0.002945334141935597,0.08595985274318828,0.08600000000000006,6.496311452594236,3.42666290609814,0.30992721186712924,0.004208607590501683,0.02815717564264381,0.4711085230629201
1750754737.5548055,-2.1115762787430743,-1.6539695132798684,-0.9816447045440402,1.5649249297559154,-0.9546471028178143,-2.5247630854415326,0.030730347667815135,-0.06847599337709932,0.03822582320793152,0.0029795822133534527,0.0869593859146207,0.08700000000000006,6.495843812152835,3.4264442115357046,0.30992550583818496,0.0042081460334966085,0.02815717563797338,0.4710091621468181
1750754737.5567484,-2.111514464825351,-1.6541072523470062,-0.9815678135203463,1.5649309231684134,-0.9544721845128139,-2.5245880854415326,0.031083570054801515,-0.06926307376074414,0.038665200486183604,0.0030138302847713084,0.08795891908605312,0.08800000000000006,6.495370730729818,3.4262229683387524,0.3099237803799299,0.004207678992598616,0.028157175633252207,0.4709086549864403
1750754737.5587447,-2.1114519444628552,-1.654246565574912,-0.9814900437420953,1.5649369850770545,-0.95429526714147,-2.5244110854415327,0.031436792441787896,-0.07005015414438896,0.03910457776443569,0.0030480783561891646,0.08895845225748554,0.08900000000000007,6.494892207129282,3.4259991758088177,0.30992203550250635,0.004207206462720763,0.028157175628479997,0.47080700167005685
1750754737.56124,-2.1114519444628552,-1.654246565574912,-0.9814900437420953,1.5649369850770545,-0.95429526714147,-2.5244110854415327,0.031436792441787896,-0.07005015414438896,0.03910457776443569,0.0030480783561891646,0.08895845225748554,0.08900000000000007,6.494892207129282,3.4259991758088177,0.30992203550250635,0.004207206462720763,0.028157175628479997,0.47080700167005685
1750754737.5628572,-2.1113887176555846,-1.6543874529635838,-0.981411395209288,1.564943115481838,-0.9541163507037842,-2.5242320854415325,0.03179001482877428,-0.07083723452803378,0.03954395504268778,0.0030823264276070204,0.08995798542891796,0.09000000000000007,6.494408240141724,3.425772833239698,0.30992027121617416,0.004206728438718762,0.02815717562365684,0.47070420228718657
1750754737.5648491,-2.11132478440354,-1.6545299145130237,-0.9813318679219245,1.5649493143827649,-0.9539354351997549,-2.5240510854415326,0.03214323721576066,-0.0716243149116786,0.03998333232093987,0.003116574499024876,0.09095751860035038,0.09100000000000007,6.493918828544104,3.42554393991744,0.3099184875313088,0.004206244915391269,0.02815717561878284,0.47060025692861057
1750754737.5668318,-2.111260144706722,-1.6546739502232306,-0.9812514618800048,1.5649555817798342,-0.9537525206293829,-2.5238680854415327,0.03249645960274704,-0.07241139529532342,0.040422709599191954,0.003150822570442732,0.0919570517717828,0.09200000000000007,6.493423971099818,3.425312495120366,0.30991668445840487,0.004205755887479604,0.028157175613858103,0.4704951656863772
1750754737.5688536,-2.11119479856513,-1.6548195600942055,-0.9811701770835279,1.5649619176730465,-0.9535676069926673,-2.5236830854415326,0.03284968198973342,-0.07319847567896824,0.04086208687744404,0.0031850706418605876,0.09295658494321522,0.09300000000000007,6.492923666558705,3.4250784981190634,0.3099148620080726,0.004205261349668029,0.02815717560888273,0.47038892865380877
1750754737.5707412,-2.111128745978762,-1.6549667441259466,-0.9810880135324949,1.5649683220624018,-0.9533806942896099,-2.5234960854415327,0.0332029043767198,-0.07398555606261306,0.041301464155696126,0.0032193187132784433,0.09395611811464764,0.09400000000000007,6.492417913657054,3.424841948176421,0.3099130201910404,0.004204761296583663,0.02815717560385682,0.4702815459255148
1750754737.5727832,-2.1110619869476217,-1.6551155023184556,-0.9810049712269056,1.5649747949478996,-0.953191782520209,-2.523307085441533,0.03355612676370618,-0.07477263644625788,0.04174084143394821,0.003253566784696299,0.09495565128608006,0.09500000000000007,6.491906711117615,3.424602844547598,0.30991115901815264,0.004204255722796482,0.028157175598780487,0.470173017597397
1750754737.57745,-2.1109945214717083,-1.6552658346717317,-0.9809210501667591,1.5649813363295404,-0.9530008716844653,-2.523116085441533,0.03390934915069256,-0.0755597168299027,0.0421802187122003,0.003287814856114155,0.09595518445751249,0.09600000000000007,6.49139005764959,3.4243611864800605,0.30990927850037164,0.004203744622819491,0.028157175593653824,0.4700633437666592
1750754737.579567,-2.1109263495510193,-1.655417741185775,-0.9808362503520565,1.5649879462073242,-0.952807961782379,-2.5229230854415325,0.03426257153767894,-0.07634679721354752,0.04261959599045238,0.0033220629275320106,0.09695471762894492,0.09700000000000007,6.490867951948634,3.4241169732135956,0.3099073786487779,0.004203227991108629,0.02815717558847735,0.46995252453181496
1750754737.580677,-2.1108574711855574,-1.655571221860586,-0.9807505717827976,1.5649946245812507,-0.95261305281395,-2.522728085441533,0.03461579392466532,-0.07713387759719234,0.04305897326870447,0.0033563109989498663,0.09795425080037734,0.09800000000000007,6.490340392696879,3.423870203980289,0.30990545947456755,0.004202705822062822,0.028157175583249972,0.46984055999269975
1750754737.5828059,-2.110787886375321,-1.6557262766961642,-0.9806640144589815,1.56500137145132,-0.9524161447791775,-2.522531085441533,0.0349690163116517,-0.07792095798083716,0.043498350546956555,0.003390559070367722,0.09895378397180976,0.09900000000000007,6.489807378562918,3.4236208780045705,0.3099035209890552,0.004202178110024062,0.028157175577972995,0.4697274502504762
1750754737.5847158,-2.1107175951203105,-1.6558829056925095,-0.9805765783806093,1.565008186817532,-0.9522172376780622,-2.5223320854415325,0.035322238698638084,-0.07870803836448198,0.04393772782520865,0.0034248071417855783,0.09995331714324218,0.10000000000000007,6.4892689082018205,3.4233689945031913,0.30990156320367285,0.004201644849277425,0.02815717557264613,0.46961319540764496
1750754737.5866663,-2.1106465974205264,-1.6560411088496219,-0.9804882635476808,1.565015070679887,-0.9520163315106043,-2.522131085441533,0.035675461085624464,-0.0794951187481268,0.04437710510346073,0.003459055213203434,0.1009528503146746,0.10100000000000008,6.488724980255129,3.42311455268525,0.30989958612996876,0.004201106034051069,0.02815717556726949,0.46949779556805316
1750754737.5886421,-2.1105748932759685,-1.6562008861675022,-0.9803990699601952,1.565022023038385,-0.9518134262768037,-2.521928085441533,0.036028683472610845,-0.08028219913177162,0.04481648238171282,0.0034933032846212898,0.10195238348610702,0.10200000000000008,6.48817559335087,3.422857551752203,0.30989758977961074,0.00420056165851633,0.02815717556184319,0.4693812508369068
1750754737.5908206,-2.110502482686636,-1.6563622376461486,-0.9803089976181543,1.5650290438930257,-0.9516085219766603,-2.5217230854415327,0.036381905859597226,-0.08106927951541644,0.045255859659964905,0.0035275513560391455,0.10295191665753944,0.10300000000000008,6.487620746103553,3.4225979908978656,0.30989557416438257,0.0042000117167877125,0.028157175556367344,0.46926356132077346
1750754737.5926356,-2.1104293656525295,-1.656525163285563,-0.9802180465215553,1.565036133243809,-0.9514016186101735,-2.5215160854415326,0.03673512824658361,-0.08185635989906126,0.04569523693821699,0.0035617994274570013,0.10395144982897186,0.10400000000000008,6.4870604371141685,3.422335869308419,0.3098935392961859,0.0041994562029228875,0.028157175550842063,0.46914472712759897
1750754737.5962172,-2.11035554217365,-1.6566896630857446,-0.980126216670401,1.5650432910907355,-0.9511927161773439,-2.5213070854415327,0.03708835063356999,-0.08264344028270608,0.046134614216469076,0.003596047498874857,0.10495098300040429,0.10500000000000008,6.486494664970218,3.4220711861624262,0.3098914851870401,0.004198895110922875,0.028157175545267463,0.4690247483667134
1750754737.596939,-2.1102810122499953,-1.656855737046694,-0.9800335080646896,1.5650505174338045,-0.9509818146781717,-2.521096085441533,0.03744157302055637,-0.0834305206663509,0.04657399149472116,0.0036302955702927128,0.1059505161718367,0.10600000000000008,6.485923428245675,3.4218039406308485,0.3098894118490827,0.00419832843473186,0.028157175539643666,0.4689036251488393
1750754737.5989382,-2.1102057758815675,-1.6570233851684106,-0.9799399207044219,1.5650578122730165,-0.9507689141126567,-2.520883085441533,0.03779479540754275,-0.08421760104999572,0.04701336877297325,0.0036645436417105685,0.10695004934326913,0.10700000000000008,6.485346725501041,3.421534131877036,0.30988731929456814,0.00419775616823745,0.028157175533970784,0.4687813575861049
1750754737.600656,-2.110129833068365,-1.6571926074508943,-0.979845454589598,1.5650651756083713,-0.9505540144807991,-2.5206680854415326,0.03814801779452913,-0.08500468143364054,0.047452746051225334,0.0036987917131284243,0.10794958251470156,0.10800000000000008,6.484764555283302,3.4212617590567547,0.30988520753586923,0.004197178305270553,0.028157175528249336,0.4686579457920518
1750754737.6027057,-2.1100531838103898,-1.657363403894145,-0.979750109720217,1.565072607439869,-0.9503371157825979,-2.520451085441533,0.03850124018151551,-0.08579176181728536,0.04789212332947742,0.00373303978454628,0.10894911568613398,0.10900000000000008,6.484176916125964,3.4209868213181798,0.30988307658547604,0.004196594839605503,0.02815717552247826,0.46853338988164633
1750754737.6046562,-2.1099758281076397,-1.6575357744981636,-0.9796538860962798,1.5650801077675096,-0.9501182180180541,-2.5202320854415325,0.0388544625685019,-0.08657884220093018,0.04833150060772951,0.0037672878559641357,0.1099486488575664,0.11000000000000008,6.483583806549041,3.4207093178019212,0.3098809264559971,0.004196005764960032,0.028157175516658865,0.4684076899712866
1750754737.6066382,-2.109897765960115,-1.6577097192629484,-0.9795567837177863,1.5650876765912929,-0.9498973211871675,-2.5200110854415327,0.03920768495548828,-0.087365922584575,0.0487708778859816,0.0038015359273819915,0.11094818202899882,0.11100000000000008,6.482985225059057,3.4204292476410316,0.30987875716015784,0.004195411074995364,0.028157175510790868,0.46828084617881743
1750754737.608745,-2.1098189973678174,-1.657885238188502,-0.9794588025847357,1.5650953139112191,-0.9496744252899383,-2.5197880854415327,0.03956090734247466,-0.08815300296821982,0.049210255164233684,0.0038357839987998477,0.11194771520043124,0.11200000000000009,6.482381170149087,3.4201466099609914,0.3098765687108028,0.004194810763316252,0.0281571755048744,0.468152858623535
1750754737.6108818,-2.109739522330745,-1.658062331274822,-0.9793599426971298,1.5651030197272882,-0.9494495303263664,-2.5195630854415327,0.03991412972946104,-0.08894008335186464,0.04964963244248577,0.0038700320702177034,0.11294724837186366,0.11300000000000009,6.481771640298706,3.4198614038797612,0.309874361120894,0.004194204823470922,0.028157175498909587,0.4680237274262018
1750754737.6126616,-2.1096593408489,-1.6582409985219089,-0.9792602040549658,1.5651107940395,-0.9492226362964509,-2.5193360854415325,0.04026735211644742,-0.08972716373550946,0.050089009720737855,0.003904280141635559,0.11394678154329609,0.11400000000000009,6.481156633974041,3.419573628507757,0.3098721344035116,0.004193593248951264,0.02815717549289655,0.4678934527090546
1750754737.6147094,-2.10957845292228,-1.6584212399297638,-0.9791595866582465,1.5651186368478547,-0.9489937432001927,-2.519107085441533,0.0406205745034338,-0.09051424411915428,0.05052838699898994,0.0039385282130534145,0.1149463147147285,0.11500000000000009,6.4805361496277305,3.4192832829478736,0.30986988857185327,0.004192976033192754,0.028157175486835422,0.46776203459581495
1750754737.6167493,-2.1094968585508855,-1.6586030554983857,-0.9790580905069701,1.5651265481523522,-0.9487628510375918,-2.5188760854415326,0.04097379689042018,-0.0913013245027991,0.05096776427724203,0.00397277628447127,0.11594584788616093,0.11600000000000009,6.479910185698971,3.4189903662954966,0.3098676236392357,0.004192353169574556,0.02815717548072633,0.467629473211701
1750754737.6188135,-2.109414557734718,-1.6587864452277747,-0.9789557156011375,1.5651345279529925,-0.9485299598086483,-2.518643085441533,0.04132701927740656,-0.09208840488644392,0.05140714155549411,0.004007024355889126,0.11694538105759335,0.11700000000000009,6.479278740613505,3.418694877638504,0.3098653396190926,0.004191724651419479,0.0281571754745694,0.4674957686834376
1750754737.6207867,-2.109414557734718,-1.6587864452277747,-0.9789557156011375,1.5651345279529925,-0.9485299598086483,-2.518643085441533,0.04132701927740656,-0.09208840488644392,0.05140714155549411,0.004007024355889126,0.11694538105759335,0.11700000000000009,6.479278740613505,3.418694877638504,0.3098653396190926,0.004191724651419479,0.0281571754745694,0.4674957686834376
1750754737.6258147,-2.10924783676806,-1.6591579471688558,-0.9787483295258026,1.5651506930427017,-0.9480581801517323,-2.5181710854415327,0.042033464051379324,-0.09366256565373356,0.05228589611199829,0.004075520498724838,0.11894444740045819,0.11900000000000009,6.477999400608156,3.4180961806247656,0.3098607143705606,0.004190450624508899,0.02815717546211257,0.467224930708958
1750754737.6279805,-2.1091634166175703,-1.659346059380546,-0.9786433183563004,1.5651588783317707,-0.9478192917237598,-2.5179320854415326,0.042386686438365705,-0.09444964603737838,0.05272527339025038,0.004109768570142694,0.11994398057189062,0.12000000000000009,6.477351502472525,3.4177929704063716,0.3098583731696313,0.004189805102117968,0.028157175455813324,0.46708779752382085
1750754737.6289158,-2.109078290022307,-1.6595357457530042,-0.9785374284322419,1.5651671321169824,-0.9475784042294446,-2.5176910854415326,0.042739908825352085,-0.0952367264210232,0.05316465066850246,0.00414401664156055,0.12094351374332304,0.1210000000000001,6.476698116748685,3.4174871844600854,0.30985601293609727,0.004189153897919393,0.02815717544946598,0.46694952171671494
1750754737.630716,-2.1089924569822696,-1.6597270062862304,-0.9784306597536263,1.565175454398337,-0.9473355176687868,-2.517448085441533,0.043093131212338466,-0.09602380680466802,0.05360402794675455,0.004178264712978406,0.12194304691475547,0.1220000000000001,6.476039241795175,3.4171788218364356,0.30985363368398416,0.004188497004955135,0.02815717544307187,0.4668101034220603
1750754737.632771,-2.1089059174974576,-1.6599198409802236,-0.9783230123204545,1.5651838451758342,-0.9470906320417853,-2.517203085441533,0.04344635359932485,-0.09681088718831284,0.054043405225006634,0.004212512784396261,0.12294258008618789,0.1230000000000001,6.475374875957104,3.4168678815785234,0.30985123542743687,0.004187834416211115,0.02815717543663072,0.4666695427758507
1750754737.6346812,-2.108818671567872,-1.660114249834984,-0.9782144861327264,1.5651923044494744,-0.9468437473484421,-2.516956085441533,0.04379957598631123,-0.09759796757195766,0.05448278250325872,0.004246760855814117,0.1239421132576203,0.1240000000000001,6.474705017566166,3.416554362722013,0.30984881818071824,0.004187166124617256,0.028157175430142675,0.46652783991566293
1750754737.6366677,-2.1087307191935123,-1.6603102328505113,-0.9781050811904413,1.5652008322192574,-0.9465948635887553,-2.5167070854415328,0.0441527983732976,-0.09838504795560248,0.0549221597815108,0.004281008927231972,0.12494164642905271,0.12500000000000008,6.474029664940631,3.4162382642951554,0.30984638195820935,0.004186492123047409,0.02815717542360749,0.4663849949806622
1750754737.638749,-2.108642060374379,-1.6605077900268057,-0.9779947974935999,1.5652094284851834,-0.9463439807627259,-2.5164560854415328,0.04450602076028398,-0.0991721283392473,0.055361537059762884,0.004315256998649828,0.12594117960048515,0.12600000000000008,6.473348816385372,3.4159195853188025,0.30984392677441147,0.004185812404319835,0.02815717541702685,0.46624100811164837
1750754737.6413312,-2.108642060374379,-1.6605077900268057,-0.9779947974935999,1.5652094284851834,-0.9463439807627259,-2.5164560854415328,0.04450602076028398,-0.0991721283392473,0.055361537059762884,0.004315256998649828,0.12594117960048515,0.12600000000000008,6.473348816385372,3.4159195853188025,0.30984392677441147,0.004185812404319835,0.02815717541702685,0.46624100811164837
1750754737.642877,-2.10846262340179,-1.6609076268616976,-0.9777715938362483,1.5652268265054636,-0.945836217911638,-2.515948085441533,0.04521246553425674,-0.10074628910653693,0.05624029161626706,0.004383753141485539,0.12794024594335,0.12800000000000009,6.4719706246380735,3.415274481764029,0.3098389595815399,0.004184435786383546,0.028157175403724335,0.46594960914274736
1750754737.6448474,-2.1083718452483335,-1.661109906520294,-0.9776586738757373,1.565235628259818,-0.9455793378865796,-2.515691085441533,0.045565687921243124,-0.10153336949018175,0.05667966889451915,0.004418001212903395,0.1289397791147824,0.1290000000000001,6.471273277988752,3.4149480551903872,0.3098364476020603,0.004183738872531735,0.02815717539700392,0.4658021973325637
1750754737.6466866,-2.108280360650104,-1.6613137603396586,-0.9775448751606701,1.5652444985103153,-0.9453204587951785,-2.5154320854415326,0.045918910308229505,-0.10232044987382657,0.057119046172771235,0.004452249284321252,0.12993931228621483,0.1300000000000001,6.4705704284951455,3.414619044076814,0.3098339167204787,0.004183036212235752,0.02815717539023745,0.46565364416777033
1750754737.6488314,-2.108188169607101,-1.6615191883197902,-0.9774301976910458,1.5652534372569553,-0.9450595806374347,-2.5151710854415326,0.046272132695215885,-0.1031075302574714,0.05755842345102332,0.004486497355739107,0.13093884545764725,0.1310000000000001,6.469862074395136,3.414287447407307,0.30983136695188934,0.0041823277980345816,0.028157175383425086,0.46550394979735676
1750754737.6507046,-2.108095272119323,-1.6617261904606888,-0.9773146414668661,1.5652624444997383,-0.9447967034133482,-2.5149080854415327,0.046625355082202266,-0.10389461064111621,0.057997800729275406,0.004520745427156963,0.13193837862907967,0.1320000000000001,6.469148213913229,3.413953264158532,0.3098287983115051,0.004181613622411708,0.028157175376566965,0.46535311437198856
1750754737.6527033,-2.1080016681867724,-1.6619347667623536,-0.9771982064881293,1.565271520238664,-0.9445318271229182,-2.514643085441533,0.04697857746918865,-0.10468169102476103,0.05843717800752749,0.004554993498574819,0.1329379118005121,0.1330000000000001,6.468428845260559,3.413616493299819,0.309826210814658,0.004180893677794882,0.028157175369663237,0.46520113804402224
1750754737.6547878,-2.107907357809447,-1.6621449172247873,-0.9770808927548362,1.5652806644737325,-0.9442649517661463,-2.514376085441533,0.047331799856175034,-0.10546877140840585,0.05887655528577958,0.004589241569992675,0.1339374449719445,0.1340000000000001,6.467703966634881,3.4132771337931915,0.30982360447679896,0.00418016795655631,0.028157175362714053,0.4650480209675162
1750754737.6566758,-2.1078123409873477,-1.662356641847988,-0.9769627002669861,1.565289877204944,-0.9439960773430309,-2.5141070854415326,0.047685022243161415,-0.10625585179205067,0.05931593256403166,0.00462348964141053,0.13493697814337693,0.1350000000000001,6.466973576220588,3.4129351845933766,0.309820979313498,0.004179436451012714,0.028157175355719558,0.46489376329824406
1750754737.6587386,-2.107716617720474,-1.6625699406319558,-0.9768436290245797,1.5652991584322982,-0.9437252038535728,-2.513836085441533,0.048038244630147796,-0.1070429321756955,0.05975530984228375,0.004657737712828386,0.13593651131480936,0.1360000000000001,6.46623767218873,3.4125906446478145,0.30981833534044456,0.0041786991534252995,0.028157175348679907,0.4647383651937046
1750754737.6608622,-2.107620188008827,-1.6627848135766907,-0.976723679027617,1.5653085081557954,-0.9434523312977712,-2.513563085441533,0.04839146701713418,-0.10783001255934031,0.06019468712053584,0.004691985784246242,0.13693604448624178,0.1370000000000001,6.465496252696992,3.4122435128966617,0.30981567257344705,0.0041779560559998775,0.028157175341595248,0.464581826813137
1750754737.6628356,-2.1075230518524055,-1.6630012606821927,-0.9766028502760973,1.565317926375435,-0.9431774596756277,-2.5132880854415327,0.04874468940412056,-0.10861709294298513,0.06063406439878793,0.0047262338556640976,0.1379355776576742,0.1380000000000001,6.46474931588971,3.4118937882728173,0.30981299102843285,0.0041772071508868296,0.028157175334465743,0.4644241483175329
1750754737.664676,-2.107425209251211,-1.6632192819484626,-0.9764811427700213,1.565327413091218,-0.9429005889871407,-2.5130110854415326,0.04909791179110694,-0.10940417332662995,0.061073441677040013,0.004760481927081953,0.13893511082910662,0.1390000000000001,6.4639968598978905,3.411541469701928,0.30981029072144944,0.004176452430181293,0.028157175327291537,0.46426532986964775
1750754737.6668148,-2.107326660205241,-1.6634388773754996,-0.9763585565093891,1.5653369683031435,-0.942621719232311,-2.5127320854415327,0.04945113417809332,-0.11019125371027477,0.0615128189552921,0.004794729998499809,0.13993464400053904,0.1400000000000001,6.463238882839179,3.4111865561024053,0.30980757166866296,0.004175691885923015,0.028157175320072787,0.4641053716340156
1750754737.6740062,-2.107326660205241,-1.6634388773754996,-0.9763585565093891,1.5653369683031435,-0.942621719232311,-2.5127320854415327,0.04945113417809332,-0.11019125371027477,0.0615128189552921,0.004794729998499809,0.13993464400053904,0.1400000000000001,6.463238882839179,3.4111865561024053,0.30980757166866296,0.004175691885923015,0.028157175320072787,0.4641053716340156
1750754737.6744723,-2.1072274047144983,-1.6636600469633036,-0.9762350914942006,1.565346592011212,-0.9423408504111386,-2.512451085441533,0.0498043565650797,-0.11097833409391959,0.061952196233544185,0.004828978069917665,0.14093417717197146,0.1410000000000001,6.462475382817923,3.4108290463854285,0.3098048338863596,0.004174925510096594,0.028157175312809656,0.46394427377695957
1750754737.6747787,-2.107127442778981,-1.6638827907118756,-0.976110747724455,1.5653562842154232,-0.9420579825236235,-2.512168085441533,0.05015757895206608,-0.11176541447756441,0.06239157351179627,0.0048632261413355206,0.14193371034340388,0.1420000000000001,6.4617063579251175,3.4104689394549674,0.3098020773909443,0.0041741532946313895,0.028157175305502297,0.46378203646660693
1750754737.6768532,-2.1070267743986903,-1.6641071086212138,-0.9759855252001532,1.5653660449157774,-0.9417731155697648,-2.5118830854415326,0.05051080133905246,-0.11255249486120923,0.06283095079004836,0.004897474212753376,0.1429332435148363,0.1430000000000001,6.4609318062384595,3.4101062342077944,0.30979930219894225,0.004173375231401666,0.028157175298150865,0.4636186598729016
1750754737.6789715,-2.1069253995736243,-1.66433300069132,-0.9758594239212952,1.5653758741122743,-0.9414862495495644,-2.511596085441533,0.05086402372603884,-0.11333957524485405,0.06327032806830045,0.004931722284171232,0.14393277668626872,0.1440000000000001,6.46015172582232,3.4097409295334913,0.3097965083269982,0.004172591312226548,0.028157175290755527,0.46345414416761566
1750754737.6808136,-2.1068233183037854,-1.6645604669221932,-0.97573244388788,1.565385771804914,-0.9411973844630204,-2.511307085441533,0.05121724611302522,-0.11412665562849887,0.06370970534655253,0.004965970355589088,0.14493230985770114,0.1450000000000001,6.459366114727771,3.4093730243144584,0.30979369579187527,0.004171801528870156,0.02815717528331644,0.4632884895243676
1750754737.6827452,-2.1067205305891727,-1.6647895073138343,-0.9756045850999087,1.5653957379936965,-0.9409065203101328,-2.5110160854415327,0.0515704685000116,-0.11491373601214369,0.06414908262480462,0.0050002184270069435,0.14593184302913356,0.1460000000000001,6.458574970992578,3.4090025174259435,0.3097908646104588,0.004171005873041613,0.028157175275833772,0.4631216961186277
1750754737.684631,-2.1066170364297854,-1.6650201218662417,-0.975475847557381,1.565405772678622,-0.9406136570909034,-2.5107230854415326,0.051923690886997984,-0.11570081639578851,0.0645884599030567,0.005034466498424799,0.14693137620056598,0.1470000000000001,6.457778292641211,3.4086294077360466,0.30978801479975127,0.004170204336395126,0.02815717526830768,0.46295376412773837
1750754737.6881442,-2.106512835825624,-1.665252310579417,-0.9753462312602963,1.5654158758596903,-0.9403187948053304,-2.5104280854415326,0.052276913273984364,-0.11648789677943333,0.06502783718130879,0.005068714569842655,0.14793090937199843,0.1480000000000001,6.456976077684855,3.4082536941057233,0.3097851463768772,0.0041693969105299974,0.02815717526073911,0.46278469373092535
1750754737.68863,-2.10640792877669,-1.6654860734533594,-0.9752157362086553,1.5654260475369013,-0.9400219334534157,-2.510131085441533,0.052630135660970745,-0.11727497716307815,0.06546721445956087,0.005102962641260511,0.14893044254343085,0.1490000000000001,6.456168324121413,3.407875375388812,0.3097822593590789,0.004168583586990657,0.028157175253125888,0.46261448510931025
1750754737.6908717,-2.1063023152829814,-1.6657214104880698,-0.9750843624024581,1.5654362877102552,-0.9397230730351573,-2.509832085441533,0.052983358047957126,-0.11806205754672297,0.06590659173781296,0.0051372107126783665,0.14992997571486327,0.1500000000000001,6.455355029935499,3.407494450432046,0.30977935376372107,0.0041677643572668255,0.028157175245470522,0.46244313844592655
1750754737.6929483,-2.106195995344498,-1.6659583216835463,-0.9749521098417047,1.5654465963797521,-0.9394222135505563,-2.509531085441533,0.053336580434943506,-0.11884913793036779,0.06634596901606504,0.005171458784096222,0.1509295088862957,0.1510000000000001,6.4545361930984715,3.407110918075063,0.30977642960828594,0.004166939212793457,0.0281571752377724,0.46227065392573
1750754737.694729,-2.1060889689612416,-1.6661968070397908,-0.9748189785263941,1.5654569735453916,-0.9391193549996117,-2.5092280854415328,0.05368980282192989,-0.11963621831401261,0.06678534629431714,0.005205706855514078,0.15192904205772811,0.1520000000000001,6.453711811568415,3.4067247771504054,0.30977348691037804,0.004166108144950788,0.028157175230031688,0.46209703173561617
1750754737.6967347,-2.1059812361332106,-1.6664368665568023,-0.9746849684565273,1.565467419207174,-0.9388144973823254,-2.5089230854415328,0.05404302520891627,-0.12042329869765743,0.06722472357256923,0.005239954926931934,0.15292857522916053,0.1530000000000001,6.452881883290158,3.4063360264835687,0.30977052568772045,0.004165271145064504,0.02815717522224856,0.46192227206443326
1750754737.6987734,-2.105872796860405,-1.6666785002345819,-0.9745500796321034,1.5654779333650994,-0.9385076406986954,-2.508616085441533,0.05439624759590265,-0.12121037908130225,0.06766410085082131,0.00527420299834979,0.15392810840059296,0.1540000000000001,6.452046406195275,3.4059446648929756,0.3097675459581567,0.004164428204405703,0.028157175214423184,0.46174637510299393
1750754737.7007835,-2.1057636511428264,-1.6669217080731276,-0.9744143120531241,1.5654885160191676,-0.9381987849487228,-2.508307085441533,0.05474946998288903,-0.12199745946494707,0.0681034781290734,0.005308451069767646,0.15492764157202538,0.1550000000000001,6.451205378202106,3.405550691190023,0.30976454773965223,0.0041635793141908545,0.028157175206555734,0.46156934104409336
1750754737.7027688,-2.105653798980474,-1.6671664900724412,-0.9742776657195877,1.5654991671693785,-0.9378879301324075,-2.507996085441533,0.05510269236987541,-0.12278453984859189,0.06854285540732548,0.005342699141185502,0.1559271747434578,0.1560000000000001,6.450358797215734,3.4051541041790667,0.30976153105028964,0.004162724465582121,0.02815717519864638,0.46139117008252073
1750754737.7047083,-2.105543240373347,-1.667412846232522,-0.9741401406314942,1.5655098868157322,-0.9375750762497486,-2.5076830854415326,0.05545591475686179,-0.12357162023223671,0.06898223268557757,0.005376947212603358,0.15692670791489022,0.1570000000000001,6.449506661128014,3.4047549026574635,0.30975849590827614,0.004161863649687159,0.028157175190695303,0.4612118624150734
1750754737.706786,-2.105431975321446,-1.6676607765533706,-0.9740017367888454,1.5655206749582289,-0.9372602233007479,-2.5073680854415326,0.05580913714384817,-0.12435870061588153,0.06942160996382965,0.005411195284021213,0.15792624108632264,0.1580000000000001,6.448648967817581,3.4043530854155626,0.3097554423319345,0.004160996857559307,0.028157175182702672,0.46103141824057475
1750754737.7087328,-2.1053200038247715,-1.6679102810349855,-0.9738624541916394,1.5655315315968683,-0.9369433712854036,-2.5070510854415327,0.05616235953083455,-0.12514578099952636,0.06986098724208174,0.005445443355439069,0.15892577425775506,0.1590000000000001,6.44778571514985,3.4039486512367354,0.30975237033971303,0.004160124080197581,0.02815717517466867,0.4608498377598836
1750754737.7107532,-2.105207325883323,-1.6681613596773683,-0.9737222928398772,1.5655424567316507,-0.9366245202037167,-2.506732085441533,0.05651558191782093,-0.12593286138317117,0.07030036452033382,0.005479691426856925,0.15992530742918748,0.16000000000000011,6.446916900977018,3.4035415988973865,0.3097492799501765,0.004159245308546768,0.028157175166593475,0.46066712117591435
1750754737.7127843,-2.105093941497101,-1.6684140124805182,-0.9735812527335579,1.5655534503625759,-0.936303670055687,-2.506411085441533,0.05686880430480731,-0.126719941766816,0.07073974179858591,0.005513939498274781,0.1609248406006199,0.16100000000000012,6.446042523138069,3.4031319271669407,0.3097461711820127,0.004158360533497447,0.02815717515847726,0.46048326869364475
1750754737.7150433,-2.105093941497101,-1.6684140124805182,-0.9735812527335579,1.5655534503625759,-0.936303670055687,-2.506411085441533,0.05686880430480731,-0.126719941766816,0.07073974179858591,0.005513939498274781,0.1609248406006199,0.16100000000000012,6.446042523138069,3.4031319271669407,0.3097461711820127,0.004158360533497447,0.02815717515847726,0.46048326869364475
1750754737.7175274,-2.104979850666104,-1.668668239444436,-0.9734393338726823,1.5655645124896438,-0.9359808208413138,-2.5060880854415326,0.057222026691793694,-0.1275070221504608,0.07117911907683801,0.005548187569692636,0.16192437377205232,0.16200000000000012,6.445162579458798,3.402719634807925,0.30974304405402975,0.004157469745886063,0.028157175150320207,0.46029828052014016
1750754737.7190251,-2.1048650533903333,-1.6689240405691201,-0.9732965362572505,1.5655756431128545,-0.9356559725605988,-2.505763085441533,0.057575249078780075,-0.12829410253410564,0.07161849635509009,0.005582435641110492,0.16292390694348474,0.16300000000000012,6.444277067751803,3.4023047205758945,0.309739898585155,0.004156572936495003,0.028157175142122504,0.4601121568645583
1750754737.7214499,-2.1047495496697888,-1.6691814158545721,-0.9731528598872625,1.5655868422322081,-0.9353291252135403,-2.5054360854415325,0.057928471465766455,-0.12908118291775045,0.07205787363334218,0.005616683712528348,0.16392344011491716,0.16400000000000012,6.443385985816495,3.401887183219533,0.30973673479444014,0.004155670096052641,0.028157175133884323,0.4599248979381737
1750754737.7228162,-2.1046333395044705,-1.6694403653007912,-0.9730083047627174,1.5655981098477048,-0.935000278800139,-2.5051070854415327,0.058281693852752836,-0.12986826330139528,0.07249725091159426,0.005650931783946204,0.16492297328634958,0.16500000000000012,6.442489331439095,3.401467021480584,0.3097335527010525,0.004154761215233372,0.02815717512560586,0.45973650395438376
1750754737.7248209,-2.1045164228943776,-1.6697008889077773,-0.972862870883616,1.565609445959344,-0.9346694333203951,-2.5047760854415326,0.05863491623973922,-0.1306553436850401,0.07293662818984635,0.005685179855364059,0.165922506457782,0.16600000000000012,6.441587102392673,3.4010442340939666,0.3097303523242873,0.004153846284657651,0.028157175117287284,0.4595469751287327
1750754737.7267456,-2.1043987998395117,-1.6699629866755314,-0.9727165582499575,1.565620850567126,-0.9343365887743076,-2.5044430854415327,0.0589881386267256,-0.13144242406868492,0.07337600546809843,0.005719427926781915,0.16692203962921442,0.16700000000000012,6.440679296437108,3.40061881978766,0.3097271336835528,0.0041529252948921585,0.028157175108928796,0.4593563116789179
1750754737.7287142,-2.104280470339871,-1.6702266586040526,-0.9725693668617437,1.5656323236710512,-0.9340017451618783,-2.5041080854415325,0.05934136101371198,-0.13222950445232973,0.07381538274635052,0.005753675998199771,0.16792157280064685,0.16800000000000012,6.4397659113191414,3.4001907772828694,0.30972389679838624,0.004151998236449747,0.028157175100530576,0.4591645138248149
1750754737.7306776,-2.104161434395456,-1.6704919046933409,-0.9724212967189727,1.5656438652711189,-0.9336649024831054,-2.503771085441533,0.059694583400698366,-0.13301658483597456,0.0742547600246026,0.005787924069617627,0.16892110597207927,0.16900000000000012,6.438846944772339,3.399760105293897,0.30972064168843944,0.0041510650997895115,0.02815717509209281,0.45897158178848313
1750754737.7326756,-2.104041692006268,-1.6707587249433962,-0.9722723478216446,1.5656554753673295,-0.9333260607379898,-2.5034320854415326,0.060047805787684747,-0.13380366521961937,0.0746941373028547,0.005822172141035482,0.1699206391435117,0.17000000000000012,6.4379223945171455,3.399326802528272,0.30971736837349084,0.004150125875316938,0.028157175083615694,0.4587775157941918
1750754737.7360203,-2.1038000878935694,-1.6712970879258098,-0.9719718137633206,1.5656789010481793,-0.9326423800487298,-2.502748085441533,0.06075425056165751,-0.135377825986909,0.07557289185935886,0.005890668283871194,0.17191970548637656,0.17200000000000013,6.436056533697619,3.3984522994630395,0.3097107672082931,0.004148229124288576,0.02815717506654415,0.4583859828399015
1750754737.7368066,-2.1038000878935694,-1.6712970879258098,-0.9719718137633206,1.5656789010481793,-0.9326423800487298,-2.502748085441533,0.06075425056165751,-0.135377825986909,0.07557289185935886,0.005890668283871194,0.17191970548637656,0.17200000000000013,6.436056533697619,3.3984522994630395,0.3097107672082931,0.004148229124288576,0.02815717506654415,0.4583859828399015
1750754737.7386196,-2.103678226170059,-1.6715686306581663,-0.9718202286023239,1.5656907166328184,-0.9322975411045853,-2.5024030854415327,0.06110747294864389,-0.13616490637055384,0.07601226913761096,0.00592491635528905,0.17291923865780898,0.17300000000000013,6.43511521850849,3.3980110965444865,0.3097074393982042,0.004147271578275886,0.028157175057950123,0.4581885163395978
1750754737.7406218,-2.103555658001775,-1.6718417475512917,-0.97166776468677,1.5657026007136006,-0.931950703094099,-2.5020560854415326,0.06146069533563027,-0.13695198675419865,0.07645164641586304,0.005959164426706905,0.1739187718292414,0.17400000000000013,6.43416831036139,3.3975672576114078,0.30970409346342975,0.00414630790553717,0.0281571750493175,0.4579899168007535
1750754737.7427742,-2.103432383388716,-1.6721164386051832,-0.9715144220166598,1.5657145532905254,-0.9316018660172691,-2.5017070854415326,0.06181391772261665,-0.13773906713784348,0.07689102369411513,0.005993412498124761,0.17491830500067382,0.17500000000000013,6.433215806911122,3.3971207813374176,0.3097007294243536,0.00414533809621042,0.028157175040646493,0.45779018445889047
1750754737.7448497,-2.1033084023308843,-1.6723927038198427,-0.9713602005919935,1.565726574363593,-0.9312510298740957,-2.501356085441533,0.06216714010960303,-0.13852614752148829,0.07733040097236721,0.006027660569542617,0.17591783817210624,0.17600000000000013,6.432257705799414,3.396671666389442,0.3096973473014798,0.004144362140380329,0.028157175031937286,0.45758931955183396
1750754737.7465594,-2.103183714828278,-1.6726705431952693,-0.9712051004127709,1.5657386639328035,-0.9308981946645805,-2.501003085441533,0.0625203624965894,-0.13931322790513312,0.0777697782506193,0.0060619086409604735,0.17691737134353866,0.17700000000000013,6.431294004654864,3.396219911427652,0.3096939471154358,0.0041433800280783785,0.028157175023190078,0.45738732231972
1750754737.748695,-2.1030583208808977,-1.672949956731463,-0.9710491214789911,1.5657508219981568,-0.9305433603887217,-2.500648085441533,0.06287358488357579,-0.14010030828877792,0.07820915552887138,0.006096156712378329,0.17791690451497108,0.17800000000000013,6.430324701093023,3.395765515105569,0.30969052888696985,0.004142391749282778,0.028157175014405077,0.4571841930050215
1750754737.750704,-2.1029322204887437,-1.6732309444284246,-0.9708922637906552,1.565763048559653,-0.9301865270465202,-2.500291085441533,0.06322680727056217,-0.14088738867242276,0.07864853280712347,0.006130404783796185,0.1789164376864035,0.17900000000000013,6.429349792716308,3.3953084760699794,0.30968709263695177,0.00414139729391873,0.028157175005582475,0.45697993185255603
1750754737.7526762,-2.102805413651815,-1.6735135062861533,-0.970734527347763,1.565775343617292,-0.929827694637976,-2.499932085441533,0.06358002965754855,-0.14167446905606756,0.07908791008537557,0.006164652855214041,0.17991597085783592,0.18000000000000013,6.428369277114131,3.394848792961068,0.309683638386375,0.004140396651858317,0.028157174996722472,0.4567745391095068
1750754737.7547994,-2.1026779003701135,-1.673797642304649,-0.9705759121503137,1.565787707171074,-0.9294668631630891,-2.4995710854415325,0.06393325204453493,-0.1424615494397124,0.07952728736362764,0.0061989009266318965,0.18091550402926834,0.18100000000000013,6.427383151862773,3.394386464412311,0.3096801661563518,0.004139389812920621,0.02815717498782527,0.45656801502544053
1750754737.756719,-2.1025496806436372,-1.6740833524839118,-0.9704164181983082,1.5658001392209986,-0.9291040326218587,-2.499208085441533,0.06428647443152131,-0.1432486298233572,0.07996666464187974,0.006233148998049752,0.18191503720070076,0.18200000000000013,6.426391414525518,3.393921489050612,0.3096766759681215,0.004138376766871804,0.02815717497889107,0.4563603598523191
1750754737.7588203,-2.102420754472387,-1.6743706368239426,-0.9702560454917464,1.5658126397670662,-0.9287392030142865,-2.498843085441533,0.06463969681850769,-0.14403571020700204,0.08040604192013182,0.006267397069467608,0.18291457037213318,0.18300000000000013,6.425394062652533,3.393453865496197,0.3096731678430389,0.004137357503425182,0.028157174969920075,0.456151573844519
1750754737.7609193,-2.1022911218563634,-1.6746594953247396,-0.9700947940306275,1.5658252088092766,-0.9283723743403707,-2.4984760854415327,0.06499291920549408,-0.14482279059064684,0.08084541919838391,0.006301645140885464,0.1839141035435656,0.18400000000000014,6.424391093781026,3.392983592362762,0.30966964180258894,0.004136332012241239,0.0281571749609125,0.4559416572588512
1750754737.7657497,-2.102160782795565,-1.6749499279863045,-0.9699326638149524,1.5658378463476297,-0.9280035466001122,-2.4981070854415326,0.06534614159248045,-0.14560987097429168,0.08128479647663599,0.0063358932123033194,0.18491363671499803,0.18500000000000014,6.423382505435075,3.392510668257353,0.3096660978683706,0.004135300282927731,0.028157174951868542,0.45573061035457235
1750754737.767252,-2.1018979853396473,-1.6755355157917364,-0.9696057671199334,1.5658633269127646,-0.9272598939205663,-2.4973630854415325,0.06605258636645323,-0.14718403174158132,0.08216355103314016,0.006404389355139031,0.18691270305786287,0.18700000000000014,6.421348460351347,3.3915568615261815,0.30965895640566093,0.004133218068079804,0.028157174933672313,0.4553051266395577
1750754737.7689223,-2.1017655269445275,-1.6758306709356035,-0.9694410006405887,1.5658761699395463,-0.9268850689812789,-2.4969880854415325,0.0664058087534396,-0.14797111212522612,0.08260292831139225,0.006438637426556887,0.1879122362292953,0.18800000000000014,6.420322998596697,3.3910759760818188,0.30965535892098733,0.004132167561497794,0.028157174924520464,0.45509069035973426
1750754737.770925,-2.1016323621046338,-1.6761274002402375,-0.9692753554066877,1.5658890814624709,-0.9265082449756488,-2.4966110854415327,0.06675903114042599,-0.14875819250887096,0.08304230558964433,0.0064728854979747424,0.1889117694007277,0.18900000000000014,6.419291907333966,3.390592434028326,0.3096517436301829,0.0041311107746912195,0.028157174915333063,0.454875124823155
1750754737.7727537,-2.1014984908199654,-1.6764257037056387,-0.9691088314182297,1.5659020614815382,-0.926129421903676,-2.4962320854415325,0.06711225352741236,-0.14954527289251576,0.08348168286789642,0.006507133569392598,0.18991130257216013,0.19000000000000014,6.418255184022212,3.39010623394015,0.3096481105554661,0.004130047697005127,0.02815717490611033,0.4546584303015808
1750754737.775015,-2.1014984908199654,-1.6764257037056387,-0.9691088314182297,1.5659020614815382,-0.926129421903676,-2.4962320854415325,0.06711225352741236,-0.14954527289251576,0.08348168286789642,0.006507133569392598,0.18991130257216013,0.19000000000000014,6.418255184022212,3.39010623394015,0.3096481105554661,0.004130047697005127,0.02815717490611033,0.4546584303015808
1750754737.7766726,-2.101363913090524,-1.6767255813318078,-0.9689414286752154,1.5659151099967483,-0.9257485997653605,-2.4958510854415326,0.06746547591439875,-0.1503323532761606,0.08392106014614852,0.006541381640810454,0.19091083574359255,0.19100000000000014,6.417212826107544,3.389617374385209,0.30964445971917276,0.004128978317732237,0.02815717489685248,0.4544406070693175
1750754737.7786624,-2.1012286289163082,-1.677027033118744,-0.9687731471776448,1.5659282270081014,-0.9253657785607015,-2.4954680854415328,0.06781869830138512,-0.1511194336598054,0.0843604374244006,0.00657562971222831,0.19191036891502497,0.19200000000000014,6.416164831023049,3.389125853925012,0.3096407911437652,0.004127902626113023,0.028157174887559724,0.4542216554032465
1750754737.7818186,-2.1010926382973185,-1.6773300590664473,-0.9686039869255181,1.5659414125155973,-0.9249809582897006,-2.4950830854415327,0.06817192068837151,-0.15190651404345024,0.08479981470265269,0.006609877783646165,0.1929099020864574,0.19300000000000014,6.4151111961888905,3.388631671114576,0.3096371048518284,0.004126820611335708,0.02815717487823227,0.4540015755828296
1750754737.7830071,-2.100955941233555,-1.6776346591749176,-0.9684339479188351,1.5659546665192359,-0.9245941389523562,-2.4946960854415328,0.06852514307535788,-0.15269359442709504,0.08523919198090477,0.006644125855064021,0.19390943525788984,0.19400000000000014,6.4140519190122225,3.3881348245025276,0.30963340086606805,0.004125732262536409,0.028157174868871124,0.45378036789014137
1750754737.784646,-2.100818537725017,-1.677940833444155,-0.968263030157595,1.5659679890190175,-0.9242053205486691,-2.4943070854415326,0.06887836546234427,-0.15348067481073988,0.08567856925915686,0.006678373926481877,0.19490896842932226,0.19500000000000015,6.412986996887291,3.3876353126310543,0.309629679209316,0.004124637568799189,0.02815717485947416,0.45355803260987104
1750754737.7865703,-2.1006804277717057,-1.6782485818741604,-0.9680912336417977,1.5659813800149418,-0.9238145030786384,-2.4939160854415325,0.06923158784933064,-0.15426775519438468,0.08611794653740894,0.006712621997899733,0.19590850160075468,0.19600000000000015,6.4119164271953535,3.387133134035971,0.30962593990452375,0.004123536519156076,0.028157174850043938,0.45333457002935557
1750754737.7887502,-2.10054161137362,-1.6785579044649328,-0.9679185583714451,1.5659948395070091,-0.923421686542266,-2.4935230854415327,0.06958481023631703,-0.15505483557802952,0.08655732381566103,0.006746870069317588,0.1969080347721871,0.19700000000000015,6.41084020730477,3.3866282872467077,0.30962218297476957,0.004122429102587207,0.028157174840579894,0.4531099804385845
1750754737.7906785,-2.1004020885307604,-1.6788688012164723,-0.9677450043465354,1.5660083674952192,-0.9230268709395499,-2.4931280854415325,0.0699380326233034,-0.15584191596167432,0.08699670109391311,0.006781118140735444,0.19790756794361952,0.19800000000000015,6.409758334570933,3.3861207707863503,0.3096184084432517,0.004121315308020826,0.028157174831082248,0.4528842641302296
1750754737.7926943,-2.100261859243126,-1.6791812721287798,-0.9675705715670695,1.566021963979572,-0.9226300562704912,-2.4927310854415325,0.0702912550102898,-0.15662899634531915,0.0874360783721652,0.0068153662121533,0.19890710111505194,0.19900000000000015,6.408670806336346,3.3856105831716232,0.3096146163332949,0.004120195124333408,0.02815717482155123,0.4526574213996518
1750754737.7949018,-2.100120923510719,-1.6794953172018534,-0.9673952600330464,1.5660356289600679,-0.9222312425350898,-2.4923320854415327,0.07064447739727617,-0.15741607672896396,0.0878754556504173,0.0068496142835711565,0.19990663428648436,0.20000000000000015,6.407577619930587,3.3850977229129633,0.3096108066683449,0.004119068540349754,0.028157174811987054,0.45242945254493155
1750754737.796693,-2.099979281333537,-1.679810936435695,-0.967219069744468,1.5660493624367062,-0.9218304297333457,-2.4919310854415326,0.07099769978426256,-0.1582031571126088,0.08831483292866937,0.006883862354989012,0.20090616745791678,0.20100000000000015,6.406478772670333,3.3845821885144654,0.309606979471971,0.00411793554484286,0.028157174802389953,0.452200357866874
1750754737.7987118,-2.0998369327115824,-1.6801281298303046,-0.9670420007013316,1.5660631644094878,-0.9214276178652581,-2.4915280854415327,0.07135092217124893,-0.1589902374962536,0.08875421020692147,0.006918110426406868,0.2019057006293492,0.20200000000000015,6.405374261859356,3.3840639784739786,0.3096031347678692,0.004116796126534395,0.02815717479276014,0.451970137669042
1750754737.8007483,-2.099693877644853,-1.6804468973856803,-0.9668640529036399,1.5660770348784119,-0.9210228069308277,-2.4911230854415325,0.07170414455823532,-0.15977731787989843,0.08919358748517354,0.006952358497824724,0.20290523380078163,0.20300000000000015,6.404264084788567,3.3835430912830615,0.3095992725798546,0.004115650274094314,0.02815717478309785,0.4517387922577584
1750754737.802733,-2.099550116133349,-1.680767239101824,-0.966685226351391,1.566090973843479,-0.9206159969300547,-2.490716085441533,0.07205736694522169,-0.16056439826354324,0.08963296476342564,0.0069866065692425795,0.20390476697221405,0.20400000000000015,6.403148238735958,3.383019525427043,0.3095953929318704,0.0041144979761412554,0.028157174773403307,0.4515063219421421
1750754737.8047495,-2.099405648177072,-1.6810891549787348,-0.9665055210445868,1.566104981304689,-0.920207187862939,-2.4903070854415326,0.07241058933220808,-0.16135147864718807,0.09007234204167772,0.007020854640660435,0.20490430014364647,0.20500000000000015,6.40202672096671,3.3824932793849958,0.3095914958479792,0.004113339221242464,0.028157174763676743,0.45127272703411053
1750754737.8103843,-2.0992604737760203,-1.6814126450164126,-0.9663249369832245,1.5661190572620416,-0.9197963797294806,-2.489896085441533,0.07276381171919445,-0.16213855903083288,0.09051171931992981,0.007055102712078291,0.2059038333150789,0.20600000000000016,6.400899528733082,3.3819643516298212,0.3095875813523728,0.004112173997913869,0.02815717475391839,0.4510380078484104
1750754737.812611,-2.0989680056395956,-1.6820643475740704,-0.9659611325968323,1.5661474146651757,-0.918968766263534,-2.4890680854415326,0.07347025649316721,-0.16371271979812252,0.09139047387643398,0.0071235988549140025,0.20790289965794373,0.20800000000000016,6.398628109817652,3.380898444840636,0.30957970022338377,0.004109824099775234,0.02815717473430722,0.4505651979172224
1750754737.81309,-2.0988207119042226,-1.6823925600940504,-0.9657779122718004,1.5661616961109568,-0.9185519609310466,-2.488651085441533,0.0738234788801536,-0.16449980018176735,0.09182985115468607,0.007157846926331858,0.20890243282937615,0.20900000000000016,6.397483877576204,3.3803614627215053,0.30957573363899993,0.004108639401741323,0.028157174724454868,0.4503271078155188
1750754737.8147259,-2.098672711724075,-1.6827223467747974,-0.9655938131922133,1.566176046052881,-0.9181331565322166,-2.4882320854415325,0.07417670126713997,-0.16528688056541216,0.09226922843293815,0.007192094997749714,0.20990196600080857,0.21000000000000016,6.396333959751112,3.379821792719043,0.30957174974089546,0.004107448188830137,0.02815717471457166,0.4500878947237563
1750754737.8168604,-2.0985240050991543,-1.6830537076163115,-0.965408835358069,1.566190464490948,-0.9177123530670439,-2.4878110854415327,0.07452992365412636,-0.166073960949057,0.09270860571119025,0.00722634306916757,0.210901499172241,0.21100000000000016,6.395178353530527,3.3792794332753466,0.3095677485538808,0.004106250449302272,0.02815717470465782,0.4498475589710875
1750754737.8187819,-2.098374592029458,-1.6833866426185935,-0.9652229787693685,1.5662049514251577,-0.9172895505355276,-2.4873880854415327,0.07488314604111274,-0.1668610413327018,0.09314798298944232,0.0072605911405854255,0.2119010323436734,0.21200000000000016,6.394017056089731,3.3787343828264502,0.3095637301028888,0.004105046171367571,0.02815717469471359,0.4496061008896084
1750754737.820712,-2.098224472514989,-1.6837211517816426,-0.9650362434261108,1.5662195068555103,-0.9168647489376696,-2.4869630854415328,0.07523636842809912,-0.16764812171634663,0.09358736026769442,0.007294839212003281,0.21290056551510583,0.21300000000000016,6.392850064591281,3.378186639802275,0.30955969441297915,0.0041038353431850725,0.02815717468473921,0.44936352081437025
1750754737.8226893,-2.098073646555746,-1.6840572351054597,-0.9648486293282978,1.5662341307820056,-0.916437948273467,-2.4865360854415326,0.0755895908150855,-0.16843520209999144,0.0940267375459465,0.007329087283421137,0.21390009868653825,0.21400000000000016,6.391677376184883,3.3776362026267184,0.30955564150933357,0.004102617952863132,0.028157174674734907,0.44911981908340826
1750754737.824652,-2.0979221141517286,-1.684394892590043,-0.9646601364759277,1.5662488232046439,-0.9160091485429227,-2.4861070854415326,0.07594281320207188,-0.16922228248363627,0.09446611482419859,0.007363335354838993,0.21489963185797067,0.21500000000000016,6.39049898800751,3.377083069717617,0.3095515714172613,0.004101393988459526,0.028157174664700937,0.44887499603774916
1750754737.8268096,-2.0977698753029372,-1.6847341242353941,-0.9644707648690005,1.566263584123425,-0.9155783497460357,-2.4856760854415327,0.07629603558905826,-0.17000936286728108,0.09490549210245067,0.0073975834262568485,0.21589916502940312,0.21600000000000016,6.38931489718333,3.376527239486805,0.3095474841621934,0.004100163437981458,0.02815717465463831,0.4486290520214442
1750754737.8288398,-2.097616930009373,-1.6850749300415124,-0.964280514507518,1.566278413538349,-0.9151455518828051,-2.4852430854415326,0.07664925797604465,-0.1707964432509259,0.09534486938070276,0.007431831497674704,0.21689869820083554,0.21700000000000016,6.388125100823795,3.3759687103400955,0.3095433797696884,0.004098926289385715,0.028157174644544928,0.44838198738157725
1750754737.8309152,-2.097463278271034,-1.685417310008397,-0.9640893853914783,1.5662933114494157,-0.9147107549532318,-2.4848080854415326,0.07700248036303102,-0.17158352363457072,0.09578424665895484,0.00746607956909256,0.21789823137226796,0.21800000000000017,6.386929596027554,3.375407480677358,0.30953925826542733,0.0040976825305786705,0.02815717463442338,0.4481338024682942
1750754737.8327093,-2.0973089200879205,-1.6857612641360502,-0.9638973775208814,1.5663082778566253,-0.9142739589573159,-2.484371085441533,0.07735570275001741,-0.17237060401821555,0.09622362393720693,0.007500327640510416,0.21889776454370038,0.21900000000000017,6.385728379880557,3.3748435488924593,0.3095351196752184,0.00409643214941641,0.028157174624273123,0.44788449763481286
1750754737.8347986,-2.097153855460034,-1.6861067924244697,-0.9637044908957293,1.5663233127599778,-0.9138351638950573,-2.4839320854415328,0.0777089251370038,-0.17315768440186036,0.09666300121545902,0.0075345757119282715,0.2198972977151328,0.22000000000000017,6.38452144945601,3.3742769133733703,0.3095309640249928,0.004095175133704828,0.02815717461409441,0.4476340732374568
1750754737.8367279,-2.096998084387373,-1.686453894873658,-0.96351072551602,1.5663384161594731,-0.9133943697664559,-2.483491085441533,0.07806214752399017,-0.1739447647855052,0.0971023784937111,0.007568823783346127,0.22089683088656523,0.22100000000000017,6.383308801814372,3.3737075725020964,0.3095267913408074,0.00409391147119964,0.02815717460388749,0.4473825296356595
1750754737.8387837,-2.096841606869937,-1.6868025714836126,-0.9633160813817545,1.5663535880551112,-0.912951576571511,-2.4830480854415327,0.07841536991097656,-0.17473184516915,0.0975417557719632,0.007603071854763983,0.22189636405799765,0.22200000000000017,6.382090434003451,3.3731355246548045,0.30952260164884704,0.00409264114960651,0.0281571745936526,0.44712986719199715
1750754737.8409433,-2.096684422907728,-1.6871528222543342,-0.9631205584929319,1.5663688284468922,-0.9125067843102235,-2.4826030854415326,0.07876859229796293,-0.17551892555279483,0.09798113305021527,0.00763731992618184,0.22289589722943007,0.22300000000000017,6.380866343058279,3.37256076820171,0.30951839497541644,0.004091364156581176,0.028157174583389993,0.44687608627220393
1750754737.8428507,-2.096684422907728,-1.6871528222543342,-0.9631205584929319,1.5663688284468922,-0.9125067843102235,-2.4826030854415326,0.07876859229796293,-0.17551892555279483,0.09798113305021527,0.00763731992618184,0.22289589722943007,0.22300000000000017,6.380866343058279,3.37256076820171,0.30951839497541644,0.004091364156581176,0.028157174583389993,0.44687608627220393
1750754737.845055,-2.0965265325007456,-1.6875046471858237,-0.9629241568495539,1.566384137334816,-0.9120599929825932,-2.4821560854415328,0.07912181468494932,-0.17630600593643964,0.09842051032846737,0.007671567997599695,0.2238954304008625,0.22400000000000017,6.379636526001274,3.3719833015072402,0.30951417134695186,0.004090080479729324,0.028157174573099922,0.4466211872451916
1750754737.8467996,-2.0963679356489884,-1.6878580462780803,-0.9627268764516188,1.5663995147188825,-0.9116112025886203,-2.4817070854415326,0.07947503707193569,-0.17709308632008447,0.09885988760671945,0.007705816069017551,0.2248949635722949,0.22500000000000017,6.378400979842082,3.371403122929927,0.30950993079000916,0.004088790106607001,0.028157174562782637,0.4463651704830726
1750754737.8487566,-2.0962086323524574,-1.688213019531104,-0.9625287172991266,1.566414960599092,-0.9111604131283038,-2.4812560854415326,0.07982825945892208,-0.17788016670372928,0.09929926488497154,0.007740064140435407,0.22589449674372733,0.22600000000000017,6.377159701577771,3.370820230822537,0.30950567333127593,0.004087493024720422,0.028157174552438387,0.44610803636117974
1750754737.8506565,-2.0960486226111534,-1.6885695669448948,-0.9623296793920781,1.5664304749754443,-0.9107076246016454,-2.480803085441533,0.08018148184590845,-0.1786672470873741,0.09973864216322362,0.007774312211853263,0.22689402991515975,0.22700000000000017,6.375912688192657,3.3702346235319816,0.3095013989975583,0.004086189221526142,0.028157174542067426,0.4458497852580854
1750754737.85283,-2.095887906425075,-1.6889276885194535,-0.9621297627304735,1.5664460578479393,-0.9102528370086436,-2.4803480854415327,0.08053470423289484,-0.17945432747101892,0.10017801944147571,0.007808560283271118,0.22789356308659217,0.22800000000000017,6.374659936658482,3.36964629939946,0.3094971078157954,0.004084878684431144,0.028157174531670014,0.4455904175556241
1750754737.8593175,-2.0957264837942216,-1.6892873842547793,-0.9619289673143125,1.5664617092165773,-0.909796050349299,-2.479891085441533,0.08088792661988121,-0.18024140785466375,0.1006173967197278,0.007842808354688974,0.2288930962580246,0.22900000000000018,6.373401443934265,3.369055256760356,0.30949279981304606,0.004083561400792949,0.0281571745212464,0.4453299336389131
1750754737.8596814,-2.0955643547185954,-1.6896486541508722,-0.9617272931435945,1.5664774290813581,-0.9093372646236118,-2.4794320854415326,0.0812411490068676,-0.18102848823830855,0.10105677399797988,0.007877056426106829,0.229892629429457,0.23000000000000018,6.372137206966486,3.3684614939443756,0.30948847501649934,0.0040822373579195975,0.028157174510796846,0.4450683338963729
1750754737.859915,-2.0954015191981945,-1.690011498207732,-0.9615247402183211,1.5664932174422816,-0.9088764798315809,-2.4789710854415326,0.08159437139385398,-0.1818155686219534,0.10149615127623197,0.007911304497524686,0.23089216260088943,0.23100000000000018,6.370867222688904,3.367865009275456,0.3094841334534681,0.004080906543069947,0.02815717450032161,0.44480561871974833
1750754737.8607621,-2.095237977233019,-1.69037591642536,-0.9613213085384897,1.5665090742993482,-0.9084136959732083,-2.4785080854415327,0.08194759378084036,-0.1826026490055982,0.10193552855448405,0.00794555256894254,0.23189169577232185,0.23200000000000018,6.369591488022752,3.3672658010718965,0.30947977515139186,0.004079568943453354,0.028157174489820948,0.444541788504129
1750754737.862752,-2.0950737288230705,-1.690741908803755,-0.961116998104103,1.5665249996525574,-0.9079489130484921,-2.4780430854415325,0.08230081616782674,-0.18338972938924303,0.10237490583273615,0.007979800640360397,0.23289122894375427,0.23300000000000018,6.3683099998765895,3.3666638676462703,0.30947540013783614,0.004078224546230348,0.028157174479295118,0.4442768436479745
1750754737.8646908,-2.0949087739683483,-1.691109475342917,-0.9609118089151591,1.5665409935019097,-0.9074821310574333,-2.4775760854415325,0.08265403855481313,-0.18417680977288783,0.10281428311098822,0.008014048711778252,0.2338907621151867,0.23400000000000018,6.367022755146455,3.366059207305561,0.30947100844049313,0.004076873338512027,0.028157174468744384,0.44401078455312887
1750754737.866689,-2.0947431126688514,-1.691478616042846,-0.9607057409716591,1.5665570558474047,-0.9070133500000308,-2.4771070854415327,0.0830072609417995,-0.18496389015653267,0.10325366038924032,0.008048296783196109,0.23489029528661912,0.23500000000000018,6.365729750715723,3.365451818351064,0.30946660008718097,0.004075515307360851,0.028157174458169006,0.4437436116248478
1750754737.8686657,-2.0945767449245807,-1.6918493309035432,-0.9604987942736019,1.5665731866890424,-0.9065425698762866,-2.4766360854415326,0.08336048332878589,-0.18575097054017747,0.1036930376674924,0.008082544854613965,0.23588982845805154,0.23600000000000018,6.36443098345528,3.364841699078519,0.3094621751058443,0.004074150439790044,0.028157174447569253,0.44347532527181677
1750754737.872093,-2.094409670735536,-1.6922216199250073,-0.9602909688209884,1.5665893860268232,-0.9060697906861988,-2.4761630854415326,0.08371370571577226,-0.1865380509238223,0.10413241494574449,0.00811679292603182,0.23688936162948396,0.23700000000000018,6.363126450223375,3.364228847778037,0.30945773352455425,0.004072778722764182,0.028157174436945386,0.443205925906177
1750754737.872725,-2.094241890101718,-1.6925954831072385,-0.9600822646138187,1.5666056538607465,-0.9055950124297683,-2.475688085441533,0.08406692810275865,-0.1873251313074671,0.10457179222399658,0.008151040997449677,0.23788889480091638,0.23800000000000018,6.361816147865792,3.363613262734214,0.3094532753715094,0.004071400143199193,0.02815717442629767,0.44293541394354036
1750754737.8748367,-2.094073403023126,-1.6929709204502368,-0.9598726816520928,1.566621990190813,-0.9051182351069951,-2.475211085441533,0.08442015048974502,-0.18811221169111195,0.10501116950224866,0.008185289068867532,0.23888842797234883,0.23900000000000018,6.360500073215678,3.3629949422260452,0.3094488006750324,0.004070014687962104,0.028157174415627158,0.44266378980301657
1750754737.8769197,-2.093904209499758,-1.693347931954003,-0.9596622199358098,1.566638395017022,-0.9046394587178792,-2.474732085441533,0.08477337287673141,-0.18889929207475675,0.10545054678050075,0.008219537140285388,0.23988796114378125,0.24000000000000019,6.359178223093735,3.3623738845270736,0.3094443094635777,0.004068622343871661,0.028157174404931762,0.4423910539072332
1750754737.8787339,-2.0937343095316185,-1.6937265176185363,-0.9594508794649705,1.566654868339374,-0.9041586832624198,-2.4742510854415327,0.08512659526371778,-0.1896863724584016,0.10588992405875283,0.008253785211703243,0.24088749431521367,0.2410000000000002,6.3578505943080925,3.3617500879052726,0.3094398017657198,0.004067223097697841,0.02815717439421411,0.4421172066823579
1750754737.8807366,-2.093563703118704,-1.6941066774438358,-0.959238660239575,1.566671410157869,-0.9036759087406185,-2.4737680854415327,0.08547981765070417,-0.1904734528420464,0.10632930133700493,0.0082880332831211,0.2418870274866461,0.2420000000000002,6.356517183654418,3.3611235506232147,0.3094352776101678,0.004065816936162584,0.028157174383473687,0.4418422485581204
1750754737.8828583,-2.093392390261016,-1.6944884114299041,-0.9590255622596224,1.5666880204725064,-0.9031911351524737,-2.473283085441533,0.08583304003769054,-0.19126053322569123,0.106768678615257,0.008322281354538955,0.2428865606580785,0.2430000000000002,6.355177987915818,3.3604942709379415,0.30943073702574997,0.004064403845939092,0.028157174372710755,0.44156617996783437
1750754737.884787,-2.0932203709585533,-1.6948717195767387,-0.9588115855251136,1.566704699283287,-0.9027043624979862,-2.4727960854415327,0.08618626242467693,-0.19204761360933603,0.1072080558935091,0.008356529425956811,0.24388609382951093,0.2440000000000002,6.3538330038629915,3.3598622471011406,0.30942618004142974,0.0040629838136528405,0.028157174361925597,0.4412890013484188
1750754737.8867564,-2.0930476452113167,-1.6952566018843411,-0.9585967300360485,1.5667214465902104,-0.9022155907771552,-2.4723070854415328,0.0865394848116633,-0.19283469399298087,0.10764743317176118,0.008390777497374666,0.24488562700094335,0.2450000000000002,6.352482228254087,3.3592274773590187,0.30942160668628976,0.00406155682588074,0.02815717435111848,0.44101071314042223
1750754737.8887887,-2.092874213019307,-1.6956430583527107,-0.9583809957924272,1.5667382623932764,-0.9017248199899823,-2.4718160854415325,0.0868927071986497,-0.19362177437662567,0.10808681045001327,0.008425025568792523,0.24588516017237577,0.2460000000000002,6.35112565783487,3.358589959952463,0.309417016989548,0.004060122869152024,0.02815717434028969,0.44073131578804553
1750754737.8908627,-2.092700074382522,-1.6960310889818473,-0.9581643827942488,1.5667551466924856,-0.9012320501364659,-2.4713230854415325,0.08724592958563607,-0.1944088547602705,0.10852618772826535,0.008459273640210378,0.2468846933438082,0.2470000000000002,6.349763289338552,3.357949693116933,0.30941241098054223,0.0040586819299476915,0.028157174329439486,0.44045080973916034
1750754737.892926,-2.092525229300964,-1.6964206937717519,-0.9579468910415141,1.5667720994878374,-0.9007372812166068,-2.4708280854415325,0.08759915197262245,-0.1951959351439153,0.10896556500651744,0.008493521711628234,0.2478842265152406,0.2480000000000002,6.348395119486007,3.3573066750826017,0.30940778868874436,0.004057233994701156,0.028157174318568155,0.44016919544533484
1750754737.894654,-2.0923496777746315,-1.6968118727224235,-0.9577285205342223,1.566789120779332,-0.900240513230405,-2.470331085441533,0.08795237435960883,-0.19598301552756014,0.10940494228476953,0.008527769783046089,0.24888375968667303,0.2490000000000002,6.34702114498559,3.3566609040742805,0.30940315014374864,0.004055779049797783,0.028157174307675975,0.4398864733618573
1750754737.8968852,-2.092173419803526,-1.6972046258338622,-0.9575092712723752,1.5668062105669696,-0.8997417461778605,-2.4698320854415328,0.0883055967465952,-0.19677009591120495,0.1098443195630216,0.008562017854463944,0.24988329285810543,0.25000000000000017,6.345641362533314,3.3560123783115254,0.30939849537528,0.004054317081575439,0.028157174296762448,0.43960264394774334
1750754737.9029405,-2.092173419803526,-1.6972046258338622,-0.9575092712723752,1.5668062105669696,-0.8997417461778605,-2.4698320854415328,0.0883055967465952,-0.19677009591120495,0.1098443195630216,0.008562017854463944,0.24988329285810543,0.25000000000000017,6.345641362533314,3.3560123783115254,0.30939849537528,0.004054317081575439,0.028157174296762448,0.43960264394774334
1750754737.9032493,-2.091640407221563,-1.6983923301327826,-0.9568462509594919,1.566857890906739,-0.8982334506221683,-2.468323085441533,0.08936526390755435,-0.1991313370621394,0.11116245139777786,0.008664762068717512,0.2528818923724027,0.25300000000000017,6.3414671342388935,3.3540502546129876,0.30938443402820165,0.004049888899660691,0.028157174263904364,0.4387445163686012
1750754737.9047759,-2.0914613234713606,-1.6987913798872905,-0.956623486679419,1.566875254678948,-0.8977266873042522,-2.4678160854415325,0.08971848629454073,-0.19991841744578423,0.11160182867602994,0.008699010140135367,0.25388142554383514,0.25400000000000017,6.340064086690837,3.353390691922691,0.309379714665642,0.0040483987005909845,0.028157174252912146,0.4384562622979218
1750754737.9068472,-2.0914613234713606,-1.6987913798872905,-0.956623486679419,1.566875254678948,-0.8977266873042522,-2.4678160854415325,0.08971848629454073,-0.19991841744578423,0.11160182867602994,0.008699010140135367,0.25388142554383514,0.25400000000000017,6.340064086690837,3.353390691922691,0.309379714665642,0.0040483987005909845,0.028157174252912146,0.4384562622979218
1750754737.9087696,-2.091281533276385,-1.6991920038025654,-0.956399843644788,1.5668926869472997,-0.8972179249199934,-2.467307085441533,0.09007170868152711,-0.20070549782942904,0.11204120595428203,0.008733258211553224,0.25488095871526756,0.25500000000000017,6.338655214484903,3.3527283654970104,0.3093749792301517,0.004046901409179812,0.028157174241900774,0.43816690324868557
1750754737.9108605,-2.091101036636635,-1.6995942018786074,-0.9561753218556017,1.5669101877117941,-0.896707163469391,-2.4667960854415325,0.09042493106851349,-0.20149257821307387,0.11248058323253413,0.008767506282971078,0.2558804918867,0.25600000000000017,6.337240514242742,3.352063273524172,0.3093702277522198,0.004045397011480727,0.028157174230870524,0.43787643970284973
