mathias31415/primitives_from_planned_trajectory_python/data/saved_trajectories/trajectory_20250624_120931_executed.csv
timestamp,shoulder_lift_joint_pos,elbow_joint_pos,wrist_1_joint_pos,wrist_2_joint_pos,wrist_3_joint_pos,shoulder_pan_joint_pos,shoulder_lift_joint_vel,elbow_joint_vel,wrist_1_joint_vel,wrist_2_joint_vel,wrist_3_joint_vel,shoulder_pan_joint_vel,shoulder_lift_joint_eff,elbow_joint_eff,wrist_1_joint_eff,wrist_2_joint_eff,wrist_3_joint_eff,shoulder_pan_joint_eff
1750759786.582918,-1.7890100000000002,-2.1248749999999994,-0.7879159999999992,1.604518,1.0824940000000005,-0.4877760000000002,0.0,0.0,0.0,0.0,0.0,0.0,4.073969387921267,3.1697591295966903,0.30363179122144307,0.002783216033627846,0.0,6.376622695364795e-17
1750759786.5847929,-1.7890100000000002,-2.1248749999999994,-0.7879159999999992,1.604518,1.0824940000000005,-0.4877760000000002,0.0,0.0,0.0,0.0,0.0,0.0,4.073969387921267,3.1697591295966903,0.30363179122144307,0.002783216033627846,0.0,6.376622695364795e-17
1750759786.5852938,-1.7890100000000002,-2.1248749999999994,-0.7879159999999992,1.604518,1.0824940000000005,-0.4877760000000002,0.0,0.0,0.0,0.0,0.0,0.0,4.073969387921267,3.1697591295966903,0.30363179122144307,0.002783216033627846,0.0,6.376622695364795e-17
1750759786.5856056,-1.7890100000000002,-2.1248749999999994,-0.7879159999999992,1.604518,1.0824940000000005,-0.4877760000000002,0.0,0.0,0.0,0.0,0.0,0.0,4.073969387921267,3.1697591295966903,0.30363179122144307,0.002783216033627846,0.0,6.376622695364795e-17
1750759786.5865777,-1.7890100000000002,-2.1248749999999994,-0.7879159999999992,1.604518,1.0824940000000005,-0.4877760000000002,0.0,0.0,0.0,0.0,0.0,0.0,4.073969387921267,3.1697591295966903,0.30363179122144307,0.002783216033627846,0.0,6.376622695364795e-17
1750759786.5870109,-1.7890100000000002,-2.1248749999999994,-0.7879159999999992,1.604518,1.0824940000000005,-0.4877760000000002,0.0,0.0,0.0,0.0,0.0,0.0,4.073969387921267,3.1697591295966903,0.30363179122144307,0.002783216033627846,0.0,6.376622695364795e-17
1750759786.5894098,-1.7890100000000002,-2.1248749999999994,-0.7879159999999992,1.604518,1.0824940000000005,-0.4877760000000002,0.0,0.0,0.0,0.0,0.0,0.0,4.073969387921267,3.1697591295966903,0.30363179122144307,0.002783216033627846,0.0,6.376622695364795e-17
1750759786.591937,-1.7890100000000002,-2.1248749999999994,-0.7879159999999992,1.604518,1.0824940000000005,-0.4877760000000002,0.0,0.0,0.0,0.0,0.0,0.0,4.073969387921267,3.1697591295966903,0.30363179122144307,0.002783216033627846,0.0,6.376622695364795e-17
1750759786.5930986,-1.7890100000000002,-2.1248749999999994,-0.7879159999999992,1.604518,1.0824940000000005,-0.4877760000000002,0.0,0.0,0.0,0.0,0.0,0.0,4.073969387921267,3.1697591295966903,0.30363179122144307,0.002783216033627846,0.0,6.376622695364795e-17
1750759786.5959067,-1.7890100000000002,-2.1248749999999994,-0.7879159999999992,1.604518,1.0824940000000005,-0.4877760000000002,0.0,0.0,0.0,0.0,0.0,0.0,4.073969387921267,3.1697591295966903,0.30363179122144307,0.002783216033627846,0.0,6.376622695364795e-17
1750759786.597706,-1.7890100000000002,-2.1248749999999994,-0.7879159999999992,1.604518,1.0824940000000005,-0.4877760000000002,0.0,0.0,0.0,0.0,0.0,0.0,4.073969387921267,3.1697591295966903,0.30363179122144307,0.002783216033627846,0.0,6.376622695364795e-17
1750759786.599845,-1.7890100000000002,-2.1248749999999994,-0.7879159999999992,1.604518,1.0824940000000005,-0.4877760000000002,0.0,0.0,0.0,0.0,0.0,0.0,4.073969387921267,3.1697591295966903,0.30363179122144307,0.002783216033627846,0.0,6.376622695364795e-17
1750759786.6011279,-1.7890100000000002,-2.1248749999999994,-0.7879159999999992,1.604518,1.0824940000000005,-0.4877760000000002,0.0,0.0,0.0,0.0,0.0,0.0,4.073969387921267,3.1697591295966903,0.30363179122144307,0.002783216033627846,0.0,6.376622695364795e-17
1750759786.6033494,-1.7890100000000002,-2.1248749999999994,-0.7879159999999992,1.604518,1.0824940000000005,-0.4877760000000002,0.0,0.0,0.0,0.0,0.0,0.0,4.073969387921267,3.1697591295966903,0.30363179122144307,0.002783216033627846,0.0,6.376622695364795e-17
1750759786.6055079,-1.7890100000000002,-2.1248749999999994,-0.7879159999999992,1.604518,1.0824940000000005,-0.4877760000000002,0.0,0.0,0.0,0.0,0.0,0.0,4.073969387921267,3.1697591295966903,0.30363179122144307,0.002783216033627846,0.0,6.376622695364795e-17
1750759786.6072757,-1.7890100000000002,-2.1248749999999994,-0.7879159999999992,1.604518,1.0824940000000005,-0.4877760000000002,0.0,0.0,0.0,0.0,0.0,0.0,4.073969387921267,3.1697591295966903,0.30363179122144307,0.002783216033627846,0.0,6.376622695364795e-17
1750759786.609155,-1.7890100000000002,-2.1248749999999994,-0.7879159999999992,1.604518,1.0824940000000005,-0.4877760000000002,0.0,0.0,0.0,0.0,0.0,0.0,4.073969387921267,3.1697591295966903,0.30363179122144307,0.002783216033627846,0.0,6.376622695364795e-17
1750759786.6114798,-1.7890100000000002,-2.1248749999999994,-0.7879159999999992,1.604518,1.0824940000000005,-0.4877760000000002,0.0,0.0,0.0,0.0,0.0,0.0,4.073969387921267,3.1697591295966903,0.30363179122144307,0.002783216033627846,0.0,6.376622695364795e-17
1750759786.6134012,-1.7890100000000002,-2.1248749999999994,-0.7879159999999992,1.604518,1.0824940000000005,-0.4877760000000002,0.0,0.0,0.0,0.0,0.0,0.0,4.073969387921267,3.1697591295966903,0.30363179122144307,0.002783216033627846,0.0,6.376622695364795e-17
1750759786.615228,-1.7890100000000002,-2.1248749999999994,-0.7879159999999992,1.604518,1.0824940000000005,-0.4877760000000002,0.0,0.0,0.0,0.0,0.0,0.0,4.073969387921267,3.1697591295966903,0.30363179122144307,0.002783216033627846,0.0,6.376622695364795e-17
1750759786.6169434,-1.7890100000000002,-2.1248749999999994,-0.7879159999999992,1.604518,1.0824940000000005,-0.4877760000000002,0.0,0.0,0.0,0.0,0.0,0.0,4.073969387921267,3.1697591295966903,0.30363179122144307,0.002783216033627846,0.0,6.376622695364795e-17
1750759786.6191823,-1.7890100000000002,-2.1248749999999994,-0.7879159999999992,1.604518,1.0824940000000005,-0.4877760000000002,0.0,0.0,0.0,0.0,0.0,0.0,4.073969387921267,3.1697591295966903,0.30363179122144307,0.002783216033627846,0.0,6.376622695364795e-17
1750759786.621015,-1.7890100000000002,-2.1248749999999994,-0.7879159999999992,1.604518,1.0824940000000005,-0.4877760000000002,0.0,0.0,0.0,0.0,0.0,0.0,4.073969387921267,3.1697591295966903,0.30363179122144307,0.002783216033627846,0.0,6.376622695364795e-17
1750759786.6306047,-1.7890100000000002,-2.1248749999999994,-0.7879159999999992,1.604518,1.0824940000000005,-0.4877760000000002,0.0,0.0,0.0,0.0,0.0,0.0,4.073969387921267,3.1697591295966903,0.30363179122144307,0.002783216033627846,0.0,6.376622695364795e-17
1750759786.6312494,-1.7890100000000002,-2.1248749999999994,-0.7879159999999992,1.604518,1.0824940000000005,-0.4877760000000002,0.0,0.0,0.0,0.0,0.0,0.0,4.073969387921267,3.1697591295966903,0.30363179122144307,0.002783216033627846,0.0,6.376622695364795e-17
1750759786.6317198,-1.7890100000000002,-2.1248749999999994,-0.7879159999999992,1.604518,1.0824940000000005,-0.4877760000000002,0.0,0.0,0.0,0.0,0.0,0.0,4.073969387921267,3.1697591295966903,0.30363179122144307,0.002783216033627846,0.0,6.376622695364795e-17
1750759786.6321237,-1.7890100000000002,-2.1248749999999994,-0.7879159999999992,1.604518,1.0824940000000005,-0.4877760000000002,0.0,0.0,0.0,0.0,0.0,0.0,4.073969387921267,3.1697591295966903,0.30363179122144307,0.002783216033627846,0.0,6.376622695364795e-17
1750759786.633232,-1.7890100000000002,-2.1248749999999994,-0.7879159999999992,1.604518,1.0824940000000005,-0.4877760000000002,0.0,0.0,0.0,0.0,0.0,0.0,4.073969387921267,3.1697591295966903,0.30363179122144307,0.002783216033627846,0.0,6.376622695364795e-17
1750759786.6337073,-1.7890100000000002,-2.1248749999999994,-0.7879159999999992,1.604518,1.0824940000000005,-0.4877760000000002,0.0,0.0,0.0,0.0,0.0,0.0,4.073969387921267,3.1697591295966903,0.30363179122144307,0.002783216033627846,0.0,6.376622695364795e-17
1750759786.6395724,-1.7890100000000002,-2.1248749999999994,-0.7879159999999992,1.604518,1.0824940000000005,-0.4877760000000002,0.0,0.0,0.0,0.0,0.0,0.0,4.073969387921267,3.1697591295966903,0.30363179122144307,0.002783216033627846,0.0,6.376622695364795e-17
1750759786.6401846,-1.7890100000000002,-2.1248749999999994,-0.7879159999999992,1.604518,1.0824940000000005,-0.4877760000000002,0.0,0.0,0.0,0.0,0.0,0.0,4.073969387921267,3.1697591295966903,0.30363179122144307,0.002783216033627846,0.0,6.376622695364795e-17
1750759786.6408696,-1.7890100000000002,-2.1248749999999994,-0.7879159999999992,1.604518,1.0824940000000005,-0.4877760000000002,0.0,0.0,0.0,0.0,0.0,0.0,4.073969387921267,3.1697591295966903,0.30363179122144307,0.002783216033627846,0.0,6.376622695364795e-17
1750759786.6414585,-1.7890100000000002,-2.1248749999999994,-0.7879159999999992,1.604518,1.0824940000000005,-0.4877760000000002,0.0,0.0,0.0,0.0,0.0,0.0,4.073969387921267,3.1697591295966903,0.30363179122144307,0.002783216033627846,0.0,6.376622695364795e-17
1750759786.643234,-1.7890100000000002,-2.1248749999999994,-0.7879159999999992,1.604518,1.0824940000000005,-0.4877760000000002,0.0,0.0,0.0,0.0,0.0,0.0,4.073969387921267,3.1697591295966903,0.30363179122144307,0.002783216033627846,0.0,6.376622695364795e-17
1750759786.645235,-1.7890100000000002,-2.1248749999999994,-0.7879159999999992,1.604518,1.0824940000000005,-0.4877760000000002,0.0,0.0,0.0,0.0,0.0,0.0,4.073969387921267,3.1697591295966903,0.30363179122144307,0.002783216033627846,0.0,6.376622695364795e-17
1750759786.6470273,-1.7890100000000002,-2.1248749999999994,-0.7879159999999992,1.604518,1.0824940000000005,-0.4877760000000002,0.0,0.0,0.0,0.0,0.0,0.0,4.073969387921267,3.1697591295966903,0.30363179122144307,0.002783216033627846,0.0,6.376622695364795e-17
1750759786.6489947,-1.7890100000000002,-2.1248749999999994,-0.7879159999999992,1.604518,1.0824940000000005,-0.4877760000000002,0.0,0.0,0.0,0.0,0.0,0.0,4.073969387921267,3.1697591295966903,0.30363179122144307,0.002783216033627846,0.0,6.376622695364795e-17
1750759786.6525915,-1.7890100000000002,-2.1248749999999994,-0.7879159999999992,1.604518,1.0824940000000005,-0.4877760000000002,0.0,0.0,0.0,0.0,0.0,0.0,4.073969387921267,3.1697591295966903,0.30363179122144307,0.002783216033627846,0.0,6.376622695364795e-17
1750759786.6534572,-1.7890100000000002,-2.1248749999999994,-0.7879159999999992,1.604518,1.0824940000000005,-0.4877760000000002,0.0,0.0,0.0,0.0,0.0,0.0,4.073969387921267,3.1697591295966903,0.30363179122144307,0.002783216033627846,0.0,6.376622695364795e-17
1750759786.6564844,-1.7890100000000002,-2.1248749999999994,-0.7879159999999992,1.604518,1.0824940000000005,-0.4877760000000002,0.0,0.0,0.0,0.0,0.0,0.0,4.073969387921267,3.1697591295966903,0.30363179122144307,0.002783216033627846,0.0,6.376622695364795e-17
1750759786.6571069,-1.7890099314300416,-2.1248739999999993,-0.7879163929481363,1.6045177377949127,1.0824940418651054,-0.4877759851735206,6.856995868637105e-05,0.001,-0.0003929481368086562,-0.00026220508750521537,4.1865104883916934e-05,1.4826479620805572e-05,4.1574902381982115,3.4013027636676183,0.30245752889827715,-0.004588391099129528,0.001179420363406117,0.019899591140447852
1750759786.659045,-1.789009725720165,-2.124870999999999,-0.787917571792546,1.60451695117965,1.08249416746042,-0.4877759406940818,0.0001371399173727421,0.002,-0.0007858962736173124,-0.0005244101750104307,8.373020976783387e-05,2.9652959241611144e-05,4.157497243840239,3.401311851440932,0.3024577275000761,-0.004588456863245335,0.0011794203876223663,0.01989942373999213
1750759786.6611066,-1.789009382870372,-2.124865999999999,-0.7879195365332308,1.6045156401542127,1.0824943767859445,-0.4877758665616838,0.00020570987605911318,0.003,-0.0011788444104259687,-0.0007866152625156461,0.0001255953146517508,4.4479438862416716e-05,4.157508919860342,3.4013269976617724,0.30245805850000235,-0.0045885664701876975,0.001179420427982796,0.01989914473702477
1750759786.6636016,-1.7890089028806617,-2.124858999999999,-0.7879222871701881,1.6045138047186,1.0824946698416786,-0.4877757627763266,0.0002742798347454842,0.004,-0.0015717925472346248,-0.0010488203500208615,0.00016746041953566773,5.930591848322229e-05,4.1575252661835975,3.401348202228136,0.3024585218934502,-0.00458871992008076,0.0011794204844874276,0.019898754128236256
1750759786.665257,-1.7890082857510325,-2.1248499999999995,-0.7879258237034197,1.6045114448728124,1.0824950466276226,-0.48777562933800933,0.0003428497934318553,0.005,-0.001964740684043281,-0.001311025437526077,0.00020932552441958467,7.413239810402787e-05,4.157546282705104,3.4013754649972006,0.302459117673969,-0.00458891721309822,0.0011794205571362916,0.019898251908990566
1750759786.667096,-1.789007531481488,-2.1248389999999997,-0.7879301461329247,1.6045085606168499,1.0824955071437763,-0.48777546624673374,0.00041141975211822637,0.006,-0.0023576888208519373,-0.0015732305250312922,0.0002511906293035016,8.895887772483343e-05,4.157571969290012,3.4014087857853337,0.30245984583326685,-0.00458915834946336,0.0011794206459294259,0.019897638073329737
1750759786.6692867,-1.7890066400720244,-2.1248259999999988,-0.787935254458703,1.6045051519507123,1.0824960513901398,-0.48777527350249894,0.0004799897108045974,0.007,-0.0027506369576605935,-0.0018354356125365077,0.00029305573418741856,0.00010378535734563901,4.157602325773474,3.401448164368112,0.3024607063612086,-0.004589443329449127,0.0011794207508668791,0.019896912613970263
1750759786.6711226,-1.7890056115226445,-2.1248109999999993,-0.7879411486807548,1.6045012188743997,1.082496679366713,-0.48777505110530406,0.0005485596694909684,0.008,-0.0031435850944692497,-0.002097640700041723,0.00033492083907133547,0.00011861183696644458,4.157637351960682,3.4014936004802716,0.30246169924581584,-0.004589772153377971,0.0011794208719487034,0.019896075522304713
1750759786.6739707,-1.7890044458333465,-2.1247939999999996,-0.7879478287990809,1.6044967613879122,1.082497391073496,-0.48777479905515087,0.0006171296281773396,0.009000000000000001,-0.0035365332312779062,-0.0023598457875469384,0.00037678594395525243,0.00013343831658725017,4.157677047626837,3.4015450938157534,0.3024628244732675,-0.004590144821621914,0.0011794210091749693,0.019895126788402176
1750759786.6759946,-1.7890044458333465,-2.1247939999999996,-0.7879478287990809,1.6044967613879122,1.082497391073496,-0.48777479905515087,0.0006171296281773396,0.009000000000000001,-0.0035365332312779062,-0.0023598457875469384,0.00037678594395525243,0.00013343831658725017,4.157677047626837,3.4015450938157534,0.3024628244732675,-0.004590144821621914,0.0011794210091749693,0.019895126788402176
1750759786.6772273,-1.7890031430041313,-2.1247749999999996,-0.7879552948136803,1.6044917794912497,1.082498186510489,-0.4877745173520385,0.0006856995868637107,0.010000000000000002,-0.003929481368086562,-0.0026220508750521543,0.0004186510488391694,0.00014826479620805576,4.157721412517173,3.4016026440276796,0.3024640820279001,-0.004590561334602494,0.0011794211625457446,0.019894066401007864
1750759786.679401,-1.789001703034999,-2.1247539999999994,-0.7879635467245532,1.604486273184412,1.0824990656776914,-0.487774205995966,0.0007542695455500818,0.011000000000000003,-0.004322429504895219,-0.00288425596255737,0.0004605161537230864,0.00016309127582886133,4.157770446346928,3.401666250728344,0.3024654718922068,-0.004591021692790686,0.0011794213320611144,0.019892894347542205
1750759786.6814423,-1.7890001259259494,-2.124730999999999,-0.7879725845316994,1.6044802424673994,1.0825000285751039,-0.4877738649869352,0.000822839504236453,0.012000000000000004,-0.0047153776417038756,-0.0031464610500625853,0.0005023812586070033,0.00017791775544966692,4.157824148801353,3.4017359134892193,0.30246699404683774,-0.004591525896706968,0.0011794215177211623,0.019891610614103845
1750759786.6830661,-1.7889984116769817,-2.1247059999999998,-0.7879824082351199,1.6044736873402117,1.082501075202726,-0.4877734943249443,0.0008914094629228241,0.013000000000000005,-0.005108325778512533,-0.003408666137567801,0.0005442463634909203,0.0001927442350704725,4.157882519535701,3.4018116318409453,0.30246864847059984,-0.004592073946921191,0.0011794217195259965,0.01989021518546584
1750759786.685137,-1.7889965602880977,-2.1246789999999995,-0.7879930178348138,1.604466607802849,1.0825022055605578,-0.48777309400999425,0.0009599794216091952,0.014000000000000005,-0.005501273915321189,-0.0036708712250730167,0.0005861114683748373,0.00020757071469127808,4.157945558175242,3.40189340527333,0.30247043514045735,-0.004592665844052486,0.0011794219374757211,0.019888708045079407
1750759786.6871612,-1.7889945717592957,-2.124649999999999,-0.7880044133307811,1.6044590038553115,1.0825034196485994,-0.48777266404208586,0.0010285493802955662,0.015000000000000006,-0.005894222052129846,-0.003933076312578232,0.0006279765732587543,0.00022239719431208367,4.158013264315224,3.4019812332353503,0.3024723540315315,-0.004593301588769408,0.0011794221715704448,0.019887089175071634
1750759786.6909626,-1.7889924460905764,-2.124618999999999,-0.7880165947230218,1.6044508754975988,1.0825047174668507,-0.4877722044212174,0.0010971193389819375,0.016000000000000007,-0.006287170188938502,-0.004195281400083448,0.0006698416781426713,0.00023722367393288926,4.158085637520895,3.4020751151351205,0.3024744051170997,-0.004593981181789691,0.0011794224218103007,0.0198853585562466
1750759786.6938105,-1.78899018328194,-2.124585999999999,-0.7880295620115367,1.604442222729711,1.082506099015312,-0.4877717151473897,0.0011656892976683085,0.017000000000000008,-0.006680118325747159,-0.004457486487588663,0.0007117067830265882,0.00025205015355369485,4.158162677327486,3.4021750503399173,0.3024765883685964,-0.004594704623880273,0.001179422688195419,0.01988351616808565
1750759786.6948364,-1.7889877833333863,-2.1245509999999994,-0.7880433151963251,1.6044330455516485,1.082507564293983,-0.48777119622060283,0.0012342592563546796,0.01800000000000001,-0.007073066462555815,-0.0047196915750938795,0.0007535718879105052,0.00026687663317450044,4.158244383240199,3.402281038176154,0.3024789037556125,-0.004595471915857218,0.0011794229707259413,0.019881561988747676
1750759786.6973455,-1.7889877833333863,-2.1245509999999994,-0.7880433151963251,1.6044330455516485,1.082507564293983,-0.48777119622060283,0.0012342592563546796,0.01800000000000001,-0.007073066462555815,-0.0047196915750938795,0.0007535718879105052,0.00026687663317450044,4.158244383240199,3.402281038176154,0.3024789037556125,-0.004595471915857218,0.0011794229707259413,0.019881561988747676
1750759786.6983597,-1.7889852462449145,-2.1245139999999996,-0.7880578542773868,1.6044233439634108,1.0825091133028637,-0.48777064764085676,0.0013028292150410509,0.01900000000000001,-0.007466014599364472,-0.004981896662599095,0.0007954369927944221,0.00028170311279530604,4.158330754734218,3.4023930779293883,0.30248135124589587,-0.004596283058585605,0.001179423269402018,0.019879495995068743
1750759786.6991882,-1.7889825720165256,-2.1244749999999994,-0.7880731792547229,1.604413117964998,1.082510746041954,-0.4877700694081515,0.001371399173727422,0.02000000000000001,-0.007858962736173128,-0.00524410175010431,0.0008373020976783391,0.0002965295924161116,4.158421791254684,3.402511168844298,0.3024839308053506,-0.004597138052979623,0.0011794235842238078,0.019877318162562663
1750759786.7014196,-1.7889797606482194,-2.124433999999999,-0.7880892901283314,1.6044023675564103,1.0825124625112543,-0.4877694615224879,0.001439969132413793,0.02100000000000001,-0.008251910872981785,-0.005506306837609526,0.0008791672025622561,0.00031135607203691717,4.1585174922167,3.4026353101246847,0.30248664239803685,-0.004598036900002291,0.0011794239151914777,0.019875028465420188
1750759786.7036605,-1.788976812139996,-2.1243909999999993,-0.7881061868982142,1.6043910927376477,1.0825142627107642,-0.48776882398386334,0.0015085390911001642,0.022000000000000013,-0.00864485900979044,-0.005768511925114741,0.000921032307446173,0.00032618255165772276,4.158617857005309,3.402765500933463,0.3024894859861717,-0.004598979600665471,0.001179424262305204,0.019872626876512613
1750759786.7103636,-1.7889705037037968,-2.124298999999999,-0.7881423381268009,1.604366969869597,1.0825181143004137,-0.4877674599477384,0.0016456790084729063,0.024000000000000014,-0.009430755283407755,-0.006292922100125172,0.001004762517214007,0.00035583551089933394,4.158832575452173,3.4030440275833778,0.3024955689884341,-0.0046009965672046795,0.0011794250049715742,0.019867487908270653
1750759786.7132897,-1.788967143775821,-2.12425,-0.7881615925855048,1.6043541218203095,1.082520165690553,-0.48776673345023713,0.0017142489671592774,0.025000000000000015,-0.009823703420216412,-0.006555127187630389,0.001046627622097924,0.00037066199052013954,4.158946927730177,3.40319236154583,0.30249880831777576,-0.004602070835347907,0.001179425400524607,0.01986475046806916
1750759786.7141569,-1.7889600125001177,-2.1241459999999996,-0.7882024591917327,1.6043268524912089,1.0825245196614608,-0.487765191496357,0.0018513888845320197,0.027000000000000017,-0.010609599693833724,-0.00707953736264082,0.001130357831865758,0.0004003149497617507,4.15918961471907,3.403507165742128,0.3025056824070847,-0.004604350947413423,0.001179426240071433,0.01985893951342945
1750759786.7178223,-1.7889600125001177,-2.1241459999999996,-0.7882024591917327,1.6043268524912089,1.0825245196614608,-0.487765191496357,0.0018513888845320197,0.027000000000000017,-0.010609599693833724,-0.00707953736264082,0.001130357831865758,0.0004003149497617507,4.15918961471907,3.403507165742128,0.3025056824070847,-0.004604350947413423,0.001179426240071433,0.01985893951342945
1750759786.724083,-1.788948287037183,-2.1239749999999997,-0.7882696533231268,1.6042820154212454,1.0825316785943961,-0.487762656168341,0.002057098760591133,0.03000000000000002,-0.011788444104259693,-0.007866152625156466,0.0012559531465175088,0.00044479438862416744,4.159588589352585,3.4040246964760525,0.30251698138489364,-0.004608100074504945,0.001179427620496966,0.019849382370043883
1750759786.72594,-1.7889397843623058,-2.1238509999999993,-0.7883183788920913,1.6042495019903948,1.0825368698674016,-0.4877608176848689,0.0021942386779638754,0.03200000000000002,-0.012574340377877007,-0.008390562800166897,0.0013396833562853427,0.00047444734786577863,4.159877858558256,3.404399919672235,0.30252517198639806,-0.004610818814886167,0.0011794286215203668,0.01984245002706007
1750759786.7274032,-1.7889353273149906,-2.123785999999999,-0.7883439205209841,1.604232458659707,1.082539591099219,-0.48775985396369315,0.0022628086366502462,0.03300000000000002,-0.012967288514685663,-0.008652767887672113,0.0013815484611692597,0.0004892738274865842,4.160029476248013,3.4045965883429417,0.30252946450336005,-0.004612243986258198,0.0011794291462547647,0.019838815460350625
1750759786.7296894,-1.788930733127759,-2.1237189999999995,-0.7883702480461503,1.604214890918844,1.0825423960612464,-0.4877588605895582,0.0023313785953366175,0.03400000000000002,-0.01336023665149432,-0.008914972975177328,0.0014234135660531767,0.0005041003071073898,4.160185748037287,3.4047992933043933,0.3025338884185208,-0.004613713027189116,0.001179429687137996,0.019835068573309224
1750759786.7320209,-1.7889260018006095,-2.1236499999999996,-0.7883973614675899,1.6041967987678063,1.0825452847534833,-0.48775783756246494,0.0023999485540229888,0.035000000000000024,-0.013753184788302977,-0.009177178062682544,0.0014652786709370936,0.0005189267867281954,4.160346672919505,3.4050080331870767,0.30253844367011834,-0.004615225939317027,0.0011794302441703473,0.019831209321647583
1750759786.7329102,-1.7889211333335426,-2.1235789999999994,-0.7884252607853028,1.6041781822065933,1.0825482571759302,-0.4877567848824116,0.0024685185127093596,0.036000000000000025,-0.014146132925111634,-0.00943938315018776,0.0015071437758210106,0.000533753266349001,4.160512249857887,3.40522280658042,0.3025431301945449,-0.004616782724327079,0.0011794308173521144,0.019827237659761028
1750759786.7351322,-1.7889161277265586,-2.123505999999999,-0.7884539459992901,1.6041590412352054,1.0825513133285867,-0.48775570254939904,0.002537088471395731,0.037000000000000026,-0.014539081061920289,-0.009701588237692975,0.0015490088807049275,0.0005485797459698065,4.1606824777854285,3.405443612032803,0.3025479479263468,-0.004618383383951697,0.0011794314066836007,0.01982315354072781
1750759786.7375736,-1.7889109849796574,-2.123430999999999,-0.7884834171095507,1.6041393758536426,1.0825544532114528,-0.4877545905634282,0.002605658430082102,0.03800000000000003,-0.014932029198728946,-0.009963793325198192,0.0015908739855888445,0.0005634062255906122,4.160857355604879,3.405670448051531,0.3025528967982245,-0.004620027919970536,0.001179432012165119,0.019818956916309433
1750759786.7425606,-1.788905705092838,-2.123353999999999,-0.7885136741160856,1.6041191860619046,1.0825576768245289,-0.48775344892449723,0.002674228388768473,0.03900000000000003,-0.015324977335537603,-0.010225998412703406,0.0016327390904727615,0.0005782327052114177,4.161036882188739,3.405903313102836,0.3025579767410331,-0.004621716334209855,0.0011794326337969895,0.01981464773695173
1750759786.7432349,-1.7889002880661025,-2.1232749999999996,-0.7885447170188931,1.6040984718599918,1.0825609841678148,-0.4877522776326071,0.0027427983474548443,0.04000000000000003,-0.01571792547234626,-0.010488203500208623,0.0016746041953566784,0.0005930591848322233,4.16122105637924,3.4061422056118325,0.30256318768378065,-0.0046234486285429924,0.001179433271579542,0.01981022595178435
1750759786.7455242,-1.7888890425928778,-2.1231109999999997,-0.7886091605133299,1.6040554702256409,1.0825678500450158,-0.4877498460899492,0.0028799382648275864,0.04200000000000003,-0.016503821745963574,-0.011012613675219054,0.0017583344051245123,0.0006227121440738344,4.161603342797604,3.406638066497811,0.30257400227589404,-0.004627044865215971,0.0011794345955980523,0.01980104435396564
1750759786.7471828,-1.7888832141463888,-2.1230259999999994,-0.7886425611049583,1.604033182793203,1.0825714085789309,-0.48774858583918146,0.0029485082235139576,0.04300000000000003,-0.01689676988277223,-0.01127481876272427,0.0018001995100084295,0.0006375386236946401,4.161801452558417,3.4068950315193978,0.30257960577404425,-0.004628908811534591,0.0011794352818347172,0.019796284433001243
1750759786.7490475,-1.7888772485599835,-2.122938999999999,-0.7886767475928611,1.60401037095059,1.0825750508430558,-0.4877472959354545,0.003017078182200329,0.04400000000000003,-0.017289718019580885,-0.011537023850229484,0.0018420646148923465,0.0006523651033154456,4.16200420499174,3.4071580172878457,0.3025853399697005,-0.004630816645904093,0.001179435984223454,0.019791411689600386
1750759786.7514546,-1.7888711458336601,-2.1228499999999997,-0.7887117199770364,1.603987034697802,1.0825787768373905,-0.4877459763787684,0.0030856481408866997,0.04500000000000003,-0.017682666156389543,-0.0117992289377347,0.0018839297197762634,0.0006671915829362513,4.162211598788178,3.4074270220225364,0.3025912047826376,-0.00463276837042917,0.001179436702764652,0.01978642606632366
1750759786.7530878,-1.7888649059674195,-2.1227589999999994,-0.7887474782574859,1.603963174034839,1.082582586561935,-0.48774462716912304,0.003154218099573071,0.046000000000000034,-0.0180756142931982,-0.012061434025239915,0.0019257948246601804,0.0006820180625570568,4.162423632607993,3.407702043901652,0.3025972001307829,-0.004634763987260018,0.001179437437458686,0.019781327504417016
1750759786.7551026,-1.7888585289612617,-2.122665999999999,-0.7887840224342098,1.6039387889617012,1.0825864800166891,-0.4877432483065176,0.0032227880582594423,0.047000000000000035,-0.018468562430006854,-0.012323639112745132,0.001967659929544097,0.0006968445421778624,4.162640305081036,3.407983081062148,0.3026033259302157,-0.004636803498592774,0.001179438188305938,0.019776115943815432
1750759786.7571146,-1.7888520148151867,-2.122570999999999,-0.7888213525072061,1.603913879478388,1.0825904572016531,-0.48774183979095387,0.003291358016945813,0.048000000000000036,-0.018861510566815513,-0.012585844200250348,0.002009525034428014,0.000711671021798668,4.162861614806741,3.40827013159974,0.3026095820951669,-0.004638886906668717,0.0011794389553068233,0.01977079132314208
1750759786.7593927,-1.7888453635291945,-2.1224739999999995,-0.7888594684764767,1.6038884455849,1.0825945181168268,-0.48774040162243093,0.0033599279756321844,0.04900000000000004,-0.019254458703624168,-0.012848049287755563,0.002051390139311931,0.0007264975014194735,4.163087560354119,3.408563193568893,0.3026159685380205,-0.004641014213774426,0.001179439738461729,0.019765353579708766
1750759786.761449,-1.7888453635291945,-2.1224739999999995,-0.7888594684764767,1.6038884455849,1.0825945181168268,-0.48774040162243093,0.0033599279756321844,0.04900000000000004,-0.019254458703624168,-0.012848049287755563,0.002051390139311931,0.0007264975014194735,4.163087560354119,3.408563193568893,0.3026159685380205,-0.004641014213774426,0.001179439738461729,0.019765353579708766
1750759786.7631576,-1.7888385751032843,-2.122375,-0.7888983703420207,1.603862487281237,1.0825986627622104,-0.4877389338009479,0.0034284979343185557,0.05000000000000004,-0.019647406840432823,-0.013110254375260779,0.002093255244195848,0.0007413239810402792,4.1633181402617305,3.408862264982805,0.30262248516931173,-0.004643185422241724,0.0011794405377710752,0.01975980264951789
1750759786.7651472,-1.7888316495374568,-2.122273999999999,-0.7889380581038381,1.603836004567399,1.0826028911378036,-0.48773743632650657,0.0034970678930049265,0.05100000000000004,-0.020040354977241482,-0.013372459462765994,0.002135120349079765,0.0007561504606610847,4.163553353037663,3.4091673438133614,0.302629131897727,-0.00464540053444693,0.001179441353235284,0.019754138467260783
1750759786.7671647,-1.788824586831712,-2.122171,-0.7889785317619298,1.603808997443386,1.0826072032436067,-0.48773590919910514,0.0035656378516912978,0.05200000000000004,-0.020433303114050137,-0.01363466455027121,0.002176985453963682,0.0007709769402818904,4.16379319715951,3.40947842799114,0.30263590863010453,-0.004647659552811377,0.0011794421848547862,0.019748360966321085
1750759786.7690048,-1.7888173869860502,-2.1220659999999993,-0.7890197913162948,1.603781465909198,1.0826115990796195,-0.4877343524187454,0.0036342078103776686,0.05300000000000004,-0.020826251250858796,-0.013896869637776425,0.002218850558847599,0.0007858034199026959,4.164037671074357,3.409795515405385,0.30264281527143305,-0.0046499624798004985,0.0011794430326300205,0.01974247007877233
1750759786.7713232,-1.788810050000471,-2.1219589999999995,-0.7890618367669333,1.603753409964835,1.082616078645842,-0.4877327659854256,0.00370277776906404,0.05400000000000004,-0.02121919938766745,-0.014159074725281641,0.0022607156637315163,0.0008006298995235014,4.164286773198746,3.410118603903975,0.30264985172485254,-0.004652309317924352,0.0011794438965614467,0.01973646573538114
1750759786.7730637,-1.788802575874974,-2.1218499999999993,-0.7891046681138452,1.6037248296102968,1.0826206419422744,-0.48773114989914745,0.003771347727750411,0.05500000000000004,-0.021612147524476107,-0.014421279812786857,0.0023025807686154333,0.0008154563791443071,4.164540501918665,3.410447691293422,0.30265701789165284,-0.004654700069736679,0.0011794447766494843,0.019730347865606727
1750759786.7749436,-1.7887949646095596,-2.121739,-0.7891482853570313,1.6036957248455836,1.0826252889689165,-0.48772950415990923,0.003839917686436782,0.05600000000000004,-0.022005095661284765,-0.014683484900292072,0.0023444458734993502,0.0008302828587651126,4.164798855589523,3.4107827753388222,0.3026643136712745,-0.004657134737835192,0.0011794456728946338,0.019724116397601296
1750759786.7768261,-1.788787216204228,-2.121625999999999,-0.7891926884964908,1.6036660956706956,1.0826300197257683,-0.4877278287677118,0.003908487645123153,0.057000000000000044,-0.02239804379809342,-0.014945689987797288,0.002386310978383267,0.0008451093383859183,4.165061832536138,3.411123853763868,0.30267173896130845,-0.004659613324861335,0.0011794465852973557,0.01971777125821113
1750759786.7788427,-1.7887793306589792,-2.121511,-0.7892378775322237,1.6036359420856325,1.08263483421283,-0.4877261237225561,0.003977057603809524,0.058000000000000045,-0.022790991934902076,-0.015207895075302503,0.002428176083267184,0.0008599358180067238,4.16532943105268,3.4114709242507804,0.30267929365749396,-0.004662135833499635,0.0011794475138581307,0.01971131237297744
1750759786.780855,-1.7887713079738132,-2.1213939999999996,-0.78928385246423,1.6036052640903944,1.0826397324301014,-0.48772438902444026,0.004045627562495896,0.059000000000000045,-0.023183940071710735,-0.01547010016280772,0.002470041188151101,0.0008747622976275295,4.165601649402696,3.411823984440343,0.30268697765372155,-0.004664702266478142,0.0011794484585774484,0.019704739666136797
1750759786.7827313,-1.7887631481487292,-2.121274999999999,-0.7893306132925106,1.6035740616849814,1.0826447143775826,-0.48772262467336525,0.004114197521182267,0.060000000000000046,-0.02357688820851939,-0.015732305250312936,0.002511906293035018,0.000889588777248335,4.165878485819035,3.412183031931829,0.3026947908420298,-0.004667312626567474,0.0011794494194558062,0.019698053060621053
1750759786.785799,-1.788754851183728,-2.121153999999999,-0.7893781600170637,1.6035423348693931,1.0826497800552735,-0.48772083066933103,0.0041827674798686374,0.06100000000000005,-0.023969836345328045,-0.01599451033781815,0.002553771397918935,0.0009044152568691405,4.166159938503866,3.412548064282994,0.30270273311260637,-0.004669966916581099,0.0011794503964937101,0.019691252478059914
1750759786.7909148,-1.788754851183728,-2.121153999999999,-0.7893781600170637,1.6035423348693931,1.0826497800552735,-0.48772083066933103,0.0041827674798686374,0.06100000000000005,-0.023969836345328045,-0.01599451033781815,0.002553771397918935,0.0009044152568691405,4.166159938503866,3.412548064282994,0.30270273311260637,-0.004669966916581099,0.0011794503964937101,0.019691252478059914
1750759786.793239,-1.788754851183728,-2.121153999999999,-0.7893781600170637,1.6035423348693931,1.0826497800552735,-0.48772083066933103,0.0041827674798686374,0.06100000000000005,-0.023969836345328045,-0.01599451033781815,0.002553771397918935,0.0009044152568691405,4.166159938503866,3.412548064282994,0.30270273311260637,-0.004669966916581099,0.0011794503964937101,0.019691252478059914
1750759786.7950463,-1.78872029192455,-2.1206499999999995,-0.7895762058780154,1.6034101835052905,1.082670880068135,-0.48771335812360217,0.004457047314614122,0.06500000000000004,-0.02554162889256267,-0.01704333068783901,0.0027212318174546024,0.0009637211753523628,4.167331874895576,3.4140679919853056,0.30273579075654644,-0.004681023433630135,0.0011794544662511969,0.019662908764377072
1750759786.7971575,-1.7887113092599627,-2.120519,-0.7896276820839372,1.6033758346388274,1.0826763643968749,-0.48771141585477196,0.0045256172733004925,0.06600000000000004,-0.025934577029371325,-0.017305535775344227,0.0027630969223385194,0.0009785476549731683,4.167636380879161,3.414462910546549,0.3027443767264724,-0.004683897416945277,0.0011794555240947115,0.01965553707546774
1750759786.7990649,-1.7887021894554573,-2.120386,-0.7896799441861333,1.6033409613621892,1.0826819324558243,-0.48770944393298254,0.004594187231986864,0.06700000000000005,-0.026327525166179984,-0.017567740862849443,0.0028049620272224364,0.000993374134593974,4.167945491698151,3.4148637984408405,0.30275309108090404,-0.0046868153479486495,0.0011794565981009828,0.019648050911962766
1750759786.8018866,-1.7886835384266941,-2.120113999999999,-0.7897868260793448,1.6032696415783878,1.082693319764353,-0.48770541113052523,0.004731327149359606,0.06900000000000005,-0.027113421439797298,-0.018092151037859872,0.0028886922369902703,0.0010230270938355853,4.168577519757717,3.4156834712526627,0.30277090445031907,-0.004692783065482583,0.0011794587946040583,0.019632734809980845
1750759786.8041472,-1.7886835384266941,-2.120113999999999,-0.7897868260793448,1.6032696415783878,1.082693319764353,-0.48770541113052523,0.004731327149359606,0.06900000000000005,-0.027113421439797298,-0.018092151037859872,0.0028886922369902703,0.0010230270938355853,4.168577519757717,3.4156834712526627,0.30277090445031907,-0.004692783065482583,0.0011794587946040583,0.019632734809980845
1750759786.805721,-1.7886740072024372,-2.1199749999999993,-0.789841445870362,1.6032331950712246,1.0826991390139318,-0.4877033502498582,0.0047998971080459776,0.07000000000000005,-0.027506369576605953,-0.01835435612536509,0.0029305573418741872,0.0010378535734563907,4.168900432878672,3.41610225057791,0.30278000321418547,-0.004695832858345837,0.0011794599171020157,0.01962490469266948
1750759786.807366,-1.7886643388382621,-2.119833999999999,-0.7898968515576517,1.6031962241538864,1.0827050419937203,-0.487701259716232,0.004868467066732348,0.07100000000000005,-0.02789931771341461,-0.018616561212870305,0.002972422446758104,0.0010526800530771963,4.169227942595733,3.416526988051594,0.30278922986032275,-0.0046989266115621655,0.001179461055765035,0.019616959743095425
1750759786.8090053,-1.78865453333417,-2.1196909999999995,-0.7899530431412156,1.6031587288263731,1.0827110287037187,-0.4876991395296457,0.004937037025418719,0.07200000000000005,-0.028292265850223267,-0.01887876630037552,0.003014287551642021,0.001067506532698002,4.169560046771668,3.4169576807731175,0.30279858425853723,-0.004702064328398119,0.0011794622105937135,0.019608899868603084
1750759786.8107684,-1.7886445906901605,-2.1195459999999997,-0.7900100206210521,1.6031207090886848,1.082717099143927,-0.4876969896901011,0.005005606984105091,0.07300000000000005,-0.028685213987031923,-0.019140971387880734,0.003056152656525938,0.0010823330123188074,4.169896743238217,3.4173943258000605,0.3028080662767805,-0.0047052460121597365,0.001179463381588656,0.019600724975243636
1750759786.8145206,-1.7886345109062338,-2.1193989999999996,-0.7900677839971637,1.6030821649408216,1.082723253314345,-0.4876948101975964,0.005074176942791462,0.07400000000000005,-0.029078162123840578,-0.01940317647538595,0.003098017761409855,0.001097159491939613,4.170238029796071,3.4178369201481402,0.30281767578114815,-0.004708471666192712,0.0011794645687504765,0.019592434967775962
1750759786.8152273,-1.788624293982389,-2.119249999999999,-0.7901263332695478,1.6030430963827833,1.0827294912149725,-0.4876926010521334,0.005142746901477833,0.07500000000000005,-0.029471110260649237,-0.019665381562891167,0.003139882866293772,0.0011119859715604187,4.170583904214831,3.4182854607911826,0.30282741263588114,-0.0047117412938812026,0.0011794657720797963,0.01958402974966613
1750759786.8173146,-1.788613939918628,-2.1190989999999994,-0.7901856684382063,1.60300350341457,1.08273581284581,-0.4876903622537103,0.005211316860164204,0.07600000000000005,-0.029864058397457892,-0.019927586650396383,0.003181747971177689,0.0011268124511812244,4.170934364232997,3.4187399446610893,0.30283727670336413,-0.004715054898648447,0.0011794669915772451,0.019575509223089285
1750759786.8190782,-1.788603448714949,-2.1189459999999993,-0.7902457895031381,1.6029633860361816,1.0827422182068573,-0.487688093802328,0.005279886818850575,0.07700000000000005,-0.03025700653426655,-0.0201897917379016,0.003223613076061606,0.0011416389308020298,4.171289407557908,3.419200368647822,0.3028472678441258,-0.004718412483955997,0.0011794682272434612,0.01956687328893119
1750759786.8209798,-1.7885928203713526,-2.118791,-0.7903066964643433,1.6029227442476184,1.0827487072981143,-0.4876857956979874,0.005348456777536946,0.07800000000000006,-0.030649954671075206,-0.020451996825406812,0.003265478180945523,0.0011564654104228354,4.171649031865744,3.4196667295993524,0.3028573859168383,-0.004721814053303399,0.0011794694790790907,0.019558121846789123
1750759786.8229213,-1.7885820548878382,-2.1186339999999992,-0.7903683893218219,1.60288157804888,1.082755280119581,-0.48768346794068673,0.005417026736223318,0.07900000000000006,-0.03104290280788386,-0.02071420191291203,0.00330734328582944,0.001171291890043641,4.172013234801471,3.4201390243216543,0.302867630778317,-0.004725259610228438,0.0011794707470847879,0.01954925479496997
1750759786.8248765,-1.7885711522644074,-2.118474999999999,-0.7904308680755747,1.6028398874399667,1.0827619366712575,-0.48768111053042684,0.0054855966949096885,0.08000000000000006,-0.03143585094469252,-0.020976407000417245,0.003349208390713357,0.0011861183696644465,4.172382013978817,3.4206172495786378,0.3028780022835194,-0.004728749158305784,0.0011794720312612152,0.019540272030495656
1750759786.8267868,-1.7885601125010586,-2.118314,-0.790494132725601,1.6027976724208783,1.082768676953144,-0.48767872346720775,0.005554166653596059,0.08100000000000006,-0.03182879908150117,-0.02123861208792246,0.003391073495597274,0.0012009448492852522,4.172755366980229,3.421101402092156,0.30288850028554676,-0.004732282701147683,0.001179473331609043,0.019531173449100634
1750759786.8287518,-1.7885489355977935,-2.1181509999999992,-0.7905581832719006,1.602754932991615,1.08277550096524,-0.48767630675103035,0.005622736612282431,0.08200000000000006,-0.03222174721830983,-0.021500817175427674,0.0034329386004811908,0.0012157713289060578,4.173133291356869,3.4215914785419486,0.30289912463564006,-0.004735860242403032,0.0011794746481289507,0.019521958945234126
1750759786.8308506,-1.7885376215546103,-2.1179859999999993,-0.7906230197144737,1.6027116691521768,1.0827824087075457,-0.48767386038189287,0.005691306570968802,0.08300000000000006,-0.03261469535511849,-0.02176302226293289,0.0034748037053651077,0.0012305978085268635,4.173515784628536,3.4220874755656205,0.30290987518318446,-0.004739481785757703,0.0011794759808216244,0.01951262841206227
1750759786.8326857,-1.788526170371509,-2.117818999999999,-0.790688642053321,1.6026678809025634,1.0827894001800615,-0.4876713843597962,0.005759876529655173,0.08400000000000006,-0.03300764349192715,-0.022025227350438107,0.0035166688102490247,0.0012454242881476689,4.17390284428367,3.422589389758606,0.3029207517757048,-0.004743147334933171,0.0011794773296877595,0.019503181741466643
1750759786.8346179,-1.7885145820484913,-2.1176499999999994,-0.7907550502884417,1.602623568242775,1.0827964753827868,-0.4876688786847403,0.005828446488341544,0.08500000000000006,-0.0334005916287358,-0.022287432437943323,0.003558533915132942,0.0012602507677684745,4.1742944677793075,3.423097217674122,0.3029317542588673,-0.004746856893687199,0.0011794786947280707,0.019493618824047564
1750759786.8366096,-1.7885028565855556,-2.1174789999999994,-0.7908222444198358,1.6025787311728115,1.082803634315722,-0.4876663433567243,0.005897016447027915,0.08600000000000006,-0.03379353976554446,-0.02254963752544854,0.003600399020016859,0.0012750772473892802,4.174690652541032,3.4236109558231616,0.30294288247647794,-0.0047506104658130025,0.001179480075943233,0.019483939549123516
1750759786.8386564,-1.7884909939827036,-2.1173059999999992,-0.7908902244475042,1.6025333696926731,1.082810876978867,-0.48766377837575003,0.005965586405714286,0.08700000000000006,-0.03418648790235312,-0.022811842612953753,0.003642264124900776,0.0012899037270100856,4.175091395962968,3.4241306006744368,0.3029541362704838,-0.004754408055138897,0.001179481473334002,0.019474143804732922
1750759786.840679,-1.7884789942399326,-2.1171309999999988,-0.7909589903714451,1.6024874838023597,1.0828182033722216,-0.48766118374181655,0.006034156364400658,0.08800000000000006,-0.03457943603916177,-0.02307404770045897,0.003684129229784693,0.0013047302066308913,4.175496695407704,3.4246561486543636,0.30296551548097145,-0.004758249665528502,0.0011794828869010924,0.019464231477635784
1750759786.8427038,-1.7884668573572453,-2.116954,-0.7910285421916603,1.6024410735018713,1.082825613495786,-0.48765855945492387,0.006102726323087029,0.08900000000000007,-0.03497238417597043,-0.023336252787964185,0.00372599433466861,0.001319556686251697,4.175906548206299,3.4251875961469924,0.3029770199461652,-0.004762135300879365,0.0011794843166452395,0.019454202453313404
1750759786.8447921,-1.7884545833346408,-2.1167749999999987,-0.7910988799081498,1.602394138791208,1.0828331073495603,-0.487655905515072,0.0061712962817733995,0.09000000000000007,-0.03536533231277909,-0.0235984578754694,0.003767859439552527,0.0013343831658725025,4.176320951658233,3.4257249394940255,0.30298864950243076,-0.004766064965123575,0.0011794857625671868,0.019444056615970925
1750759786.8558185,-1.7884421721721182,-2.116593999999999,-0.7911700035209117,1.6023466796703694,1.0828406849335441,-0.48765322192226,0.006239866240459771,0.09100000000000007,-0.03575828044958774,-0.023860662962974618,0.003809724544436444,0.001349209645493308,4.176739903031338,3.426268174994734,0.3030004039842704,-0.004770038662227017,0.0011794872246676852,0.01943379384853721
1750759786.85615,-1.7884296238696784,-2.1164109999999994,-0.791241913029948,1.602298696139356,1.082848346247738,-0.48765050867648974,0.006308436199146142,0.09200000000000007,-0.0361512285863964,-0.02412286805047983,0.003851589649320361,0.0013640361251141136,4.177163399561815,3.426817298905947,0.30301228322432455,-0.0047740563961888634,0.001179488702947494,0.019423414032667
1750759786.8563633,-1.7884296238696784,-2.1164109999999994,-0.791241913029948,1.602298696139356,1.082848346247738,-0.48765050867648974,0.006308436199146142,0.09200000000000007,-0.0361512285863964,-0.02412286805047983,0.003851589649320361,0.0013640361251141136,4.177163399561815,3.426817298905947,0.30301228322432455,-0.0047740563961888634,0.001179488702947494,0.019423414032667
1750759786.8566005,-1.7884041158450472,-2.116038999999999,-0.7913880897368406,1.6022011558468041,1.0828639200667547,-0.4876449932260707,0.0064455761165188846,0.09400000000000007,-0.03693712486001371,-0.024647278225490264,0.003935319859088194,0.0013936890843557247,4.178024016881142,3.4279331967747404,0.30303641530032915,-0.004782223990850802,0.0011794917080481077,0.01940230277586687
1750759786.8568208,-1.7883911561228558,-2.11585,-0.791462356934697,1.6021515990852655,1.0828718325715778,-0.4876421910214228,0.006514146075205255,0.09500000000000007,-0.03733007299682237,-0.02490948331299548,0.003977184963972111,0.0014085155639765303,4.178461131983738,3.428499963033396,0.3030486677922464,-0.004786373859713403,0.0011794932348704952,0.019391571091883306
1750759786.858786,-1.7883780592607463,-2.115658999999999,-0.7915374100288277,1.602101517913552,1.0828798288066106,-0.48763935916381485,0.006582716033891626,0.09600000000000007,-0.037723021133631025,-0.025171688400500696,0.004019050068856028,0.001423342043597336,4.178902780871143,3.4290726023046623,0.30306104435431425,-0.004790567781759134,0.0011794947778752975,0.019380721873356894
1750759786.8607259,-1.7883648252587196,-2.1154659999999996,-0.7916132490192318,1.6020509123316635,1.0828879087718533,-0.4876364976532477,0.006651285992577998,0.09700000000000007,-0.03811596927043968,-0.02543389348800591,0.004060915173739945,0.0014381685232181416,4.179348960620677,3.429651110632554,0.3030735448098561,-0.004794805761149056,0.0011794963370633257,0.019369754995586647
1750759786.862663,-1.7883514541167767,-2.115271,-0.7916898739059093,1.6019997823396,1.0828960724673056,-0.4876336064897222,0.006719855951264369,0.09800000000000007,-0.038508917407248336,-0.025696098575511125,0.004102780278623862,0.001452995002838947,4.179799668277799,3.4302354840184393,0.3030861689803319,-0.004799087802075852,0.001179497912435387,0.01935867033260324
1750759786.864631,-1.7883379458349147,-2.115074,-0.791767284688861,1.6019481279373615,1.0829043198929678,-0.48763068567323664,0.00678842590995074,0.09900000000000007,-0.038901865544056995,-0.025958303663016342,0.004144645383507779,0.0014678214824597527,4.180254900856011,3.430825718420971,0.3030989166853371,-0.004803413908762434,0.0011794995039922957,0.019347467757170965
1750759786.866799,-1.7883243004131364,-2.1148749999999996,-0.7918454813680853,1.601895949124948,1.0829126510488396,-0.4876277352037919,0.006856995868637111,0.10000000000000007,-0.039294813680865646,-0.026220508750521558,0.004186510488391696,0.0014826479620805584,4.180714655336867,3.4314218097560447,0.3031117877426009,-0.00480778408546262,0.001179501111734875,0.01933614714078958
1750759786.8686821,-1.788310517851441,-2.114673999999999,-0.7919244639435838,1.6018432459023595,1.0829210659349213,-0.4876247550813879,0.006925565827323482,0.10100000000000008,-0.039687761817674305,-0.02648271383802677,0.004228375593275613,0.0014974744417013638,4.181178928669899,3.4320237538967713,0.30312478196798587,-0.004812198336460072,0.001179502735663955,0.019324708353693865
1750759786.8711255,-1.7882965981498273,-2.114471,-0.7920042324153567,1.6017900182695959,1.0829295645512127,-0.48762174530602564,0.006994135786009853,0.10200000000000008,-0.040080709954482964,-0.026744918925531987,0.00427024069815953,0.0015123009213221694,4.181647717772592,3.4326315466734334,0.3031378991754901,-0.004816656666068515,0.001179504375780374,0.01931315126485702
1750759786.8731625,-1.7882825413082966,-2.114265999999999,-0.792084786783402,1.6017362662266572,1.082938146897714,-0.4876187058777033,0.007062705744696225,0.10300000000000008,-0.040473658091291616,-0.027007124013037204,0.004312105803043447,0.001527127400942975,4.1821210195303475,3.433245183873449,0.30315113917724396,-0.0048211590786303585,0.0011795060320849789,0.0193014757419902
1750759786.8748114,-1.7882683473268486,-2.1140589999999992,-0.7921661270477216,1.6016819897735437,1.0829468129744249,-0.4876156367964217,0.0071312757033825955,0.10400000000000008,-0.040866606228100275,-0.02726932910054242,0.004353970907927364,0.0015419538805637807,4.182598830796417,3.4338646612413126,0.30316450178350873,-0.004825705578517245,0.0011795077045786229,0.019289681651545383
1750759786.8769093,-1.7882540162054834,-2.1138499999999993,-0.7922482532083146,1.6016271889102551,1.0829555627813456,-0.48761253806218097,0.007199845662068966,0.10500000000000008,-0.04125955436490893,-0.027531534188047636,0.004395836012811281,0.0015567803601845862,4.18308114839189,3.434489974478582,0.3031779868026811,-0.004830296170129205,0.0011795093932621685,0.019277768858713847
1750759786.8788676,-1.7882395479442001,-2.113638999999999,-0.792331165265181,1.6015718636367915,1.0829643963184763,-0.487609409674981,0.007268415620755337,0.10600000000000008,-0.04165250250171759,-0.02779373927555285,0.004437701117695198,0.0015716068398053918,4.183567969105629,3.4351211192438202,0.303191594041287,-0.004834930857894195,0.001179511098136485,0.01926573722743142
1750759786.8807912,-1.7882249425429997,-2.1134259999999996,-0.7924148632183217,1.6015160139531528,1.0829733135858164,-0.48760625163482185,0.007336985579441709,0.10700000000000008,-0.042045450638526244,-0.028055944363058066,0.004479566222579115,0.0015864333194261975,4.184059289694235,3.4357580911525503,0.3032053233039847,-0.004839609646268184,0.00117951281920245,0.01925358662037609
1750759786.8827524,-1.788210200001883,-2.1132109999999997,-0.7924993470677357,1.6014596398593393,1.0829823145833666,-0.4876030639417035,0.00740555553812808,0.10800000000000008,-0.0424383987753349,-0.028318149450563282,0.004521431327463033,0.0016012597990470029,4.184555106882014,3.436400885777222,0.3032191743935622,-0.004844332539733729,0.0011795145564609728,0.019241316898972353
1750759786.8848484,-1.7881953203208472,-2.1129939999999996,-0.7925846168134232,1.6014027413553507,1.0829913993111264,-0.48759984659562505,0.0074741254968144506,0.10900000000000008,-0.04283134691214356,-0.0285803545380685,0.00456329643234695,0.0016160862786678085,4.185055417360901,3.437049498647181,0.30323314711093924,-0.004849099542800591,0.0011795163099128734,0.019228927923390874
1750759786.8867269,-1.788180303499895,-2.112774999999999,-0.792670672455384,1.601345318441187,1.083000567769096,-0.4875965995965883,0.007542695455500822,0.11000000000000008,-0.04322429504895221,-0.028842559625573715,0.0046051615372308665,0.0016309127582886142,4.185560217790462,3.4377039252485893,0.3032472412551645,-0.004853910660004758,0.0011795180795591256,0.019216419552549626
1750759786.8888211,-1.7881651495390258,-2.1125539999999994,-0.7927575139936183,1.6012873711168483,1.0830098199572753,-0.48759332294459234,0.007611265414187193,0.11100000000000008,-0.04361724318576087,-0.029104764713078927,0.0046470266421147835,0.0016457392379094198,4.186069504797807,3.438364161024417,0.30326145662341497,-0.004858765895908025,0.0011795198654006131,0.01920379164411689
1750759786.8907225,-1.7881498584382385,-2.1123309999999993,-0.7928451414281268,1.6012288993823347,1.0830191558756643,-0.4875900166396372,0.007679835372873564,0.11200000000000009,-0.04401019132256953,-0.029366969800584144,0.0046888917469987005,0.0016605657175302253,4.18658327497757,3.439030201374395,0.3032757930109985,-0.004863665255098032,0.0011795216674382525,0.019191044054510588
1750759786.8928494,-1.788134430197534,-2.112105999999999,-0.7929335547589087,1.601169903237646,1.0830285755242632,-0.48758668068172195,0.007748405331559936,0.11300000000000009,-0.04440313945937818,-0.02962917488808936,0.004730756851882617,0.001675392197151031,4.187101524891856,3.4397020416549484,0.30329025021134964,-0.004868608742186894,0.001179523485672967,0.01917817663890151
1750759786.8948095,-1.7881188648169122,-2.111878999999999,-0.793022753985964,1.6011103826827824,1.0830380789030718,-0.4875833150708484,0.007816975290246306,0.11400000000000009,-0.04479608759618684,-0.029891379975594577,0.004772621956766534,0.0016902186767718365,4.187624251070195,3.4403796771791746,0.30330482801603065,-0.0048735963618116865,0.0011795253201056881,0.019165189251213927
1750759786.9074013,-1.7881031622963732,-2.111649999999999,-0.7931127391092936,1.6010503377177436,1.0830476660120902,-0.48757991980701476,0.007885545248932677,0.11500000000000009,-0.0451890357329955,-0.03015358506309979,0.004814487061650451,0.001705045156392642,4.188151450009496,3.4410631032167864,0.30331952621473185,-0.004878628118633416,0.001179527170737355,0.019152081744126675
1750759786.907831,-1.7881031622963732,-2.111649999999999,-0.7931127391092936,1.6010503377177436,1.0830476660120902,-0.48757991980701476,0.007885545248932677,0.11500000000000009,-0.0451890357329955,-0.03015358506309979,0.004814487061650451,0.001705045156392642,4.188151450009496,3.4410631032167864,0.30331952621473185,-0.004878628118633416,0.001179527170737355,0.019152081744126675
1750759786.908149,-1.7880873226359162,-2.1114189999999997,-0.7932035101288966,1.6009897683425298,1.0830573368513186,-0.4875764948902228,0.007954115207619048,0.11600000000000009,-0.04558198386980415,-0.030415790150605006,0.004856352166534368,0.0017198716360134476,4.188683118173998,3.44175231499408,0.30333434459527026,-0.004883704017337155,0.001179529037568914,0.01913885396907536
1750759786.9084368,-1.7880552318952514,-2.110951,-0.7933874098569227,1.6008670563615774,1.0830769297204041,-0.4875695560977604,0.008091255124991792,0.11800000000000009,-0.04636788014342147,-0.03094020032561544,0.004940082376302202,0.001749524595255059,4.189759847871964,3.4431480764554663,0.3033643410437528,-0.004893988259244625,0.0011795328198355344,0.01911203701461438
1750759786.9087539,-1.7880389808150428,-2.1107139999999998,-0.7934805385653467,1.6008049137558387,1.0830868517502616,-0.48756604222209,0.008159825083678162,0.11900000000000009,-0.04676082828023012,-0.031202405413120655,0.004981947481186119,0.0017643510748758643,4.1903049021701495,3.443854616374612,0.3033795186779601,-0.004899196611932281,0.0011795347352725268,0.019098447531871413
1750759786.9090605,-1.7880389808150428,-2.1107139999999998,-0.7934805385653467,1.6008049137558387,1.0830868517502616,-0.48756604222209,0.008159825083678162,0.11900000000000009,-0.04676082828023012,-0.031202405413120655,0.004981947481186119,0.0017643510748758643,4.1903049021701495,3.443854616374612,0.3033795186779601,-0.004899196611932281,0.0011795347352725268,0.019098447531871413
1750759786.9108765,-1.788022592594917,-2.110474999999999,-0.7935744531700442,1.600742246739925,1.083096857510329,-0.48756249869346036,0.008228395042364533,0.12000000000000009,-0.04715377641703878,-0.03146461050062587,0.005023812586070036,0.00177917755449667,4.190854411222884,3.444566922503433,0.30339481562652626,-0.004904449125468415,0.001179536666913274,0.01908473717450108
1750759786.9128256,-1.788006067234873,-2.1102339999999993,-0.793669153671015,1.6006790553138361,1.0831069470006058,-0.4875589255118724,0.008296965001050904,0.1210000000000001,-0.04754672455384744,-0.031726815588131084,0.005065677690953953,0.0017940040341174756,4.191408371330361,3.4452849898504163,0.3034102316678943,-0.004909745804649188,0.001179538614758761,0.019070905787743304
1750759786.9150987,-1.7879894047349119,-2.109990999999999,-0.7937646400682592,1.6006153394775724,1.0831171202210927,-0.4875553226773244,0.008365534959737275,0.1220000000000001,-0.04793967269065609,-0.0319890206756363,0.00510754279583787,0.001808830513738281,4.191966778759815,3.4460088133803297,0.30342576657863,-0.004915086654291842,0.0011795405788099793,0.019056953215604296
1750759786.918946,-1.7879726050950344,-2.1097459999999995,-0.7938609123617777,1.6005510992311338,1.0831273771717893,-0.48755169018981714,0.008434104918423647,0.1230000000000001,-0.04833262082746475,-0.03225122576314152,0.005149407900721787,0.0018236569933590867,4.192529629745487,3.4467383880141993,0.30344142013342135,-0.0049204716792339434,0.0011795425590679289,0.019042879300857057
1750759786.919441,-1.7879726050950344,-2.1097459999999995,-0.7938609123617777,1.6005510992311338,1.0831273771717893,-0.48755169018981714,0.008434104918423647,0.1230000000000001,-0.04833262082746475,-0.03225122576314152,0.005149407900721787,0.0018236569933590867,4.192529629745487,3.4467383880141993,0.30344142013342135,-0.0049204716792339434,0.0011795425590679289,0.019042879300857057
1750759786.9210448,-1.7879556683152389,-2.1094989999999996,-0.7939579705515687,1.60048633457452,1.0831377178526955,-0.4875480280493507,0.008502674877110018,0.1240000000000001,-0.04872556896427341,-0.03251343085064673,0.005191273005605704,0.0018384834729798924,4.193096920488545,3.447473708629254,0.30345719210507965,-0.004925900884332311,0.0011795445555336163,0.01902868388504269
1750759786.9226723,-1.7879385943955253,-2.1092499999999994,-0.794055814637634,1.600421045507731,1.0831481422638116,-0.4875443362559251,0.008571244835796387,0.12500000000000008,-0.04911851710108206,-0.03277563593815194,0.00523313811048962,0.0018533099526006978,4.193668647157062,3.448214770058875,0.30347308226453784,-0.0049313742744642956,0.0011795465682080326,0.019014366808473092
1750759786.9246824,-1.7879213833358953,-2.108998999999999,-0.7941544446199735,1.6003552320307672,1.0831586504051376,-0.48754061480954025,0.008639814794482758,0.12600000000000008,-0.04951146523789071,-0.03303784102565716,0.005275003215373537,0.0018681364322215032,4.194244805885966,3.448961567092549,0.3034890903808498,-0.004936891854525565,0.001179548597092272,0.01899992791023232
1750759786.9267077,-1.7879040351363482,-2.108746,-0.7942538604985856,1.6002888941436284,1.0831692422766732,-0.4875368637101962,0.00870838475316913,0.12700000000000009,-0.04990441337469937,-0.033300046113162375,0.005316868320257454,0.0018829629118423089,4.194825392776966,3.449714094475809,0.3035052162211903,-0.004942453629429654,0.0011795506421872913,0.018985367028177443
1750759786.9287565,-1.787886549796883,-2.108490999999999,-0.7943540622734719,1.6002220318463147,1.0831799178784185,-0.487533082957893,0.008776954711855502,0.12800000000000009,-0.05029736151150803,-0.03356225120066759,0.005358733425141371,0.0018977893914631145,4.195410403898515,3.4504723469102174,0.30352145955085463,-0.00494805960410916,0.0011795527034941513,0.018970683998940623
1750759786.930698,-1.7878689273175006,-2.1082339999999995,-0.7944550499446317,1.6001546451388258,1.0831906772103739,-0.48752927255263057,0.008845524670541872,0.1290000000000001,-0.05069030964831668,-0.03382445628817281,0.005400598530025288,0.0019126158710839202,4.195999835285758,3.451236319053265,0.30353782013325714,-0.004953709783513545,0.0011795547810138968,0.018955878657930567
1750759786.9332716,-1.7878511676982,-2.1079749999999997,-0.7945568235120657,1.600086734021162,1.0832015202725387,-0.48752543249440894,0.008914094629228243,0.1300000000000001,-0.05108325778512534,-0.03408666137567802,0.005442463634909205,0.0019274423507047256,4.196593682940481,3.4520060055183692,0.30355429772993103,-0.004959404172608504,0.0011795568747475786,0.018940950839335467
1750759786.9348788,-1.7878332709389833,-2.1077139999999996,-0.7946593829757722,1.600018298493323,1.0832124470649134,-0.4875215627832272,0.008982664587914614,0.1310000000000001,-0.051476205921934,-0.03434886646318324,0.005484328739793122,0.0019422688303255312,4.197191942831068,3.4527814008747972,0.3035708921005289,-0.004965142776377547,0.0011795589846962562,0.018925900376123034
1750759786.9368372,-1.7878152370398492,-2.1074509999999993,-0.794762728335753,1.5999493385553092,1.083223457587498,-0.4875176634190872,0.009051234546600985,0.1320000000000001,-0.05186915405874265,-0.03461107155068845,0.005526193844677039,0.0019570953099463367,4.19779461089242,3.453562499647625,0.3035876030028206,-0.00497092559981845,0.0011795611108609957,0.018910727100042216
1750759786.9387553,-1.7877970660007971,-2.1071859999999996,-0.7948668595920072,1.5998798542071204,1.0832345518402922,-0.487513734401988,0.009119804505287358,0.1330000000000001,-0.05226210219555131,-0.034873276638193666,0.005568058949560956,0.0019719217895671423,4.1984016830259145,3.4543492963176754,0.3036044301926921,-0.0049767526479456954,0.0011795632532428707,0.018895430841626662
1750759786.9406533,-1.7877787578218278,-2.1069189999999995,-0.7949717767445357,1.5998098454487564,1.083245729823296,-0.48750977573192866,0.009188374463973728,0.1340000000000001,-0.05265505033235997,-0.035135481725698886,0.005609924054444873,0.001986748269187948,4.199013155099379,3.455141785321484,0.30362137342414824,-0.004982623925788041,0.0011795654118429621,0.018880011430194424
1750759786.9427044,-1.7877603125029413,-2.1066499999999992,-0.7950774797933367,1.5997393122802175,1.08325699153651,-0.48750578740891104,0.0092569444226601,0.1350000000000001,-0.05304799846916863,-0.0353976868132041,0.00565178915932879,0.0020015747488087536,4.199629022946997,3.4559399610512287,0.3036384324493084,-0.004988539438387857,0.001179567586662358,0.018864468693851142
1750759786.944676,-1.7877417300441376,-2.1063789999999996,-0.7951839687384119,1.5996682547015035,1.0832683369799334,-0.48750176943293333,0.00932551438134647,0.1360000000000001,-0.05344094660597728,-0.03565989190070931,0.005693654264212707,0.0020164012284295593,4.200249282369276,3.456743817854691,0.3036556070184079,-0.004994499190802507,0.001179569777702154,0.018848802459490836
1750759786.9466963,-1.7877230104454158,-2.1061059999999996,-0.7952912435797606,1.5995966727126147,1.0832797661535667,-0.4874977218039973,0.009394084340032841,0.1370000000000001,-0.05383389474278594,-0.03592209698821453,0.005735519369096624,0.002031227708050365,4.200873929132985,3.457553350035202,0.3036728968797966,-0.00500050318810193,0.0011795719849634527,0.018833012552798727
1750759786.9577367,-1.7876851598282206,-2.1055539999999997,-0.7955081509512789,1.5994519355043118,1.0833028756914627,-0.4874895375872468,0.009531224257405584,0.1390000000000001,-0.05461979101640325,-0.036446507163224964,0.0058192495788644575,0.0020608806672919758,4.202136367582777,3.45918941751808,0.3037078214634138,-0.005012643937696799,0.0011795764481550045,0.018801061019120546
1750759786.9581666,-1.787627355353048,-2.104711,-0.7958394062306091,1.5992308966155449,1.08333816797488,-0.48747703886492655,0.009736934133464697,0.1420000000000001,-0.05579863542682922,-0.03723312242574061,0.005944844893516208,0.0021053601061543927,4.2040628225415375,3.4616859390914225,0.30376106663129954,-0.005031187026171397,0.0011795832646315817,0.018752201748891903
1750759786.9587755,-1.787607812914823,-2.1044259999999992,-0.795951396449599,1.599156168165606,1.0833500995297718,-0.48747281331823444,0.009805504092151068,0.1430000000000001,-0.056191583563637876,-0.03749532751324582,0.005986709998400125,0.0021201865857751983,4.204713702559852,3.4625294014079566,0.3037790428561325,-0.005037456599917887,0.0011795855692454543,0.018735666080088316
1750759786.9607365,-1.7875881333366799,-2.104139,-0.7960641725648632,1.599080915305492,1.0833621148148733,-0.48746855811858314,0.009874074050837438,0.1440000000000001,-0.056584531700446535,-0.03775753260075104,0.006028575103284042,0.002135013065396004,4.2053689393377125,3.463378497975629,0.3037971325588705,-0.005043770454362817,0.0011795878900887488,0.01871900548503526
1750759786.9628227,-1.7875683166186196,-2.1038499999999996,-0.7961777345764016,1.599005138035203,1.083374213830185,-0.48746427326597264,0.009942644009523811,0.1450000000000001,-0.056977479837255186,-0.038019737688256255,0.006070440208167959,0.0021498395450168096,4.206028528370003,3.4642332227402135,0.3038153354727608,-0.005050128594661119,0.001179590227162625,0.018702219779807915
1750759786.9647672,-1.7875483627606412,-2.103558999999999,-0.7962920824842126,1.598928836354739,1.083386396575706,-0.48745995876040293,0.010011213968210182,0.1460000000000001,-0.057370427974063845,-0.03828194277576147,0.006112305313051876,0.002164666024637615,4.206692465117336,3.4650935696025247,0.30383365132915874,-0.005056531025977357,0.00117959258046825,0.01868530877928845
1750759786.9668076,-1.7875282717627465,-2.1032659999999996,-0.7964072162882978,1.5988520102641,1.0833986630514372,-0.48745561460187403,0.010079783926896553,0.1470000000000001,-0.057763376110872504,-0.03854414786326669,0.006154170417935793,0.0021794925042584205,4.207360745006041,3.4659595324183803,0.30385207985752977,-0.005062977753483008,0.0011795949500067976,0.018668272297170004
1750759786.9695904,-1.7875282717627465,-2.1032659999999996,-0.7964072162882978,1.5988520102641,1.0833986630514372,-0.48745561460187403,0.010079783926896553,0.1470000000000001,-0.057763376110872504,-0.03854414786326669,0.006154170417935793,0.0021794925042584205,4.207360745006041,3.4659595324183803,0.30385207985752977,-0.005062977753483008,0.0011795949500067976,0.018668272297170004
1750759786.9710476,-1.7875080436249338,-2.1029709999999993,-0.7965231359886555,1.598774659763286,1.0834110132573778,-0.48745124079038593,0.010148353885582924,0.1480000000000001,-0.058156324247681156,-0.0388063529507719,0.00619603552281971,0.002194318983879226,4.208033363428076,3.466831104998561,0.3038706207854468,-0.005069468782356037,0.0011795973357794484,0.018651110145954712
1750759786.9729354,-1.7874876783472038,-2.1026739999999995,-0.7966398415852884,1.5986967848522968,1.0834234471935285,-0.48744683732593863,0.010216923844269294,0.1490000000000001,-0.058549272384489814,-0.03906855803827712,0.006237900627703627,0.002209145463500032,4.208710315740975,3.4677082811087123,0.30388927383858916,-0.005076004117782204,0.0011795997377873904,0.018633822136958935
1750759786.9747913,-1.7874671759295566,-2.1023749999999994,-0.7967573330781939,1.5986183855311327,1.0834359648598886,-0.48744240420853213,0.010285493802955665,0.1500000000000001,-0.05894222052129847,-0.039330763125782334,0.006279765732587544,0.0022239719431208374,4.209391597267797,3.4685910544693295,0.3039080387407446,-0.005082583764951517,0.0011796021560318182,0.018616408080314437
1750759786.9768267,-1.7874465363719922,-2.102074,-0.7968756104673735,1.5985394617997937,1.0834485662564588,-0.48743794143816643,0.010354063761642038,0.1510000000000001,-0.059335168658107125,-0.03959296821328755,0.006321630837471461,0.002238798422741643,4.210077203297054,3.4694794187556686,0.3039269152138058,-0.005089207729060597,0.001179604590513934,0.01859886778496934
1750759786.9788527,-1.7874257596745107,-2.1017709999999994,-0.7969946737528266,1.5984600136582796,1.0834612513832385,-0.48743344901484065,0.010422633720328409,0.1520000000000001,-0.059728116794915784,-0.039855173300792766,0.006363495942355378,0.0022536249023624487,4.210767129082661,3.4703733675977135,0.30394590297777063,-0.005095876015310145,0.0011796070412349458,0.01858120105869142
1750759786.9807785,-1.787404845837111,-2.1014659999999994,-0.7971145229345531,1.5983800411065905,1.0834740202402282,-0.48742892693855655,0.01049120367901478,0.1530000000000001,-0.06012106493172444,-0.04011737838829798,0.006405361047239295,0.002268451381983254,4.211461369843859,3.4712728945800975,0.30396500175074254,-0.005102588628904294,0.0011796095081960695,0.018563407708069583
1750759786.9828477,-1.7873837948597942,-2.101158999999999,-0.797235158012553,1.5982995441447265,1.0834868728274274,-0.48742437520931325,0.01055977363770115,0.1540000000000001,-0.0605140130685331,-0.0403795834758032,0.006447226152123212,0.0022832778616040596,4.212159920765186,3.472177993242061,0.30398421124892866,-0.005109345575051962,0.0011796119913985276,0.018545487538516675
1750759786.984839,-1.78736260674256,-2.1008499999999994,-0.7973565789868271,1.5982185227726873,1.0834998091448367,-0.48741979382711076,0.010628343596387521,0.1550000000000001,-0.06090696120534175,-0.04064178856330841,0.006489091257007129,0.0022981043412248652,4.212862776996374,3.4730886570773754,0.3040035311866393,-0.005116146858963378,0.001179614490843549,0.018527440354269734
1750759786.9868443,-1.7873412814854088,-2.1005389999999995,-0.7974787858573746,1.5981369769904732,1.0835128291924556,-0.4874151827919482,0.010696913555073892,0.1560000000000001,-0.06129990934215041,-0.040903993650813625,0.006530956361891046,0.002312930820845671,4.2135699336523285,3.474004879534307,0.30402296127628736,-0.005122992485852269,0.00117961700653237,0.018509265958393462
1750759786.9889677,-1.7873198190883404,-2.1002259999999993,-0.7976017786241956,1.598054906798084,1.0835259329702842,-0.4874105421038273,0.010765483513760265,0.1570000000000001,-0.06169285747895907,-0.041166198738318845,0.006572821466774963,0.0023277573004664765,4.214281385813032,3.4749266540155364,0.30404250122838855,-0.005129882460933413,0.0011796195384662332,0.018490964152782747
1750759786.990809,-1.7872982195513538,-2.0999109999999988,-0.7977255572872908,1.5979723121955198,1.0835391204783227,-0.4874058717627463,0.010834053472446635,0.1580000000000001,-0.06208580561576772,-0.04142840382582406,0.00661468657165888,0.002342583780087282,4.214997128523497,3.4758539738781136,0.3040621507515596,-0.005136816789421937,0.0011796220866463886,0.018472534738163737
1750759786.9927764,-1.78727648287445,-2.0995939999999997,-0.7978501218466585,1.5978891931827808,1.0835523917165708,-0.487401171768707,0.010902623431133006,0.1590000000000001,-0.06247875375257638,-0.04169060891332928,0.006656551676542797,0.002357410259708088,4.215717156793701,3.4767868324333784,0.3040819095525172,-0.005143795476534667,0.0011796246510740922,0.018453977514096203
1750759786.9948611,-1.7872546090576291,-2.0992749999999996,-0.7979754723023005,1.5978055497598667,1.0835657466850288,-0.48739644212170763,0.010971193389819377,0.16000000000000011,-0.06287170188938504,-0.04195281400083449,0.006698416781426714,0.002372236739328893,4.2164414655985345,3.4777252229469306,0.3041017773360793,-0.005150818527486583,0.0011796272317506074,0.0184352922789762
1750759786.996969,-1.787232598100891,-2.098953999999999,-0.7981016086542159,1.5977213819267775,1.0835791853836965,-0.48739168282174905,0.011039763348505748,0.16100000000000012,-0.06326465002619369,-0.0422150190883397,0.006740281886310631,0.0023870632189496987,4.217170049877719,3.478669138638541,0.30412175380516243,-0.005157885947493092,0.0011796298286772034,0.01841647883003815
1750759787.0012584,-1.7872104500042347,-2.0986309999999992,-0.7982285309024055,1.5976366896835132,1.083592707812574,-0.48738689386883216,0.011108333307192119,0.16200000000000012,-0.06365759816300234,-0.04247722417584492,0.006782146991194548,0.0024018896985705043,4.217902904535747,3.479618572682106,0.3041418386607817,-0.005164997741767439,0.0011796324418551574,0.018397536963355565
1750759787.0016084,-1.7871881647676622,-2.098305999999999,-0.7983562390468686,1.597551473030074,1.0836063139716614,-0.4873820752629552,0.01117690326587849,0.16300000000000012,-0.06405054629981101,-0.042739429263350136,0.006824012096078465,0.00241671617819131,4.21864002444183,3.4805735182055715,0.3041620316020497,-0.005172153915520053,0.0011796350712857523,0.018378466473846184
1750759787.0050642,-1.7871657423911715,-2.0979789999999987,-0.798484733087605,1.5974657319664598,1.0836200038609582,-0.487377227004119,0.011245473224564862,0.16400000000000012,-0.06444349443661966,-0.04300163435085535,0.0068658772009623815,0.0024315426578121156,4.21938140442982,3.481533968290902,0.3041823323261787,-0.005179354473959661,0.0011796377169702777,0.018359267155270444
1750759787.0057352,-1.7871431828747637,-2.09765,-0.7986140130246149,1.5973794664926706,1.0836337774804652,-0.48737234909232363,0.011314043183251233,0.16500000000000012,-0.06483644257342833,-0.04326383943836057,0.0069077423058462985,0.0024463691374329213,4.220127039298142,3.4824999159739694,0.30420274052847335,-0.005186599422290924,0.00117964037891003,0.01833993880023828
1750759787.0079002,-1.7871204862184387,-2.097318999999999,-0.798744078857899,1.5972926766087063,1.0836476348301818,-0.48736744152756906,0.011382613141937604,0.16600000000000012,-0.06522939071023698,-0.04352604452586578,0.0069496074107302155,0.002461195617053727,4.220876923809762,3.483471354244551,0.3042232559023388,-0.0051938887657137014,0.0011796430571063118,0.0183204812002068
1750759787.0087895,-1.7871204862184387,-2.097318999999999,-0.798744078857899,1.5972926766087063,1.0836476348301818,-0.48736744152756906,0.011382613141937604,0.16600000000000012,-0.06522939071023698,-0.04352604452586578,0.0069496074107302155,0.002461195617053727,4.220876923809762,3.483471354244551,0.3042232559023388,-0.0051938887657137014,0.0011796430571063118,0.0183204812002068
1750759787.010795,-1.7870976524221955,-2.0969859999999994,-0.7988749305874556,1.5972053623145672,1.083661575910108,-0.4873625043098553,0.011451183100623975,0.16700000000000012,-0.06562233884704563,-0.043788249613371,0.006991472515614132,0.002476022096674532,4.221631052692063,3.484448276046206,0.3042438781392711,-0.005201222509424397,0.0011796457515604332,0.018300894145485153
1750759787.0126903,-1.787074681486036,-2.0966509999999996,-0.7990065682132865,1.5971175236102528,1.0836756007202442,-0.4873575374391823,0.011519753059310345,0.16800000000000012,-0.0660152869838543,-0.044050454700876214,0.007033337620498049,0.0024908485762953378,4.222389420636834,3.485430674276255,0.3042646069288628,-0.0052086006586123754,0.00117964846227371,0.01828117742523709
1750759787.014721,-1.7870515734099586,-2.0963139999999996,-0.7991389917353917,1.5970291604957636,1.0836897092605902,-0.48735254091555014,0.011588323017996716,0.16900000000000012,-0.06640823512066295,-0.04431265978838143,0.007075202725381966,0.0025056750559161434,4.223152022300173,3.4864185417857096,0.30428544195880164,-0.005216023218462156,0.0011796511892474646,0.01826133082748176
1750759787.0168211,-1.7870283281939638,-2.0959749999999993,-0.7992722011537694,1.5969402729710993,1.0837039015311458,-0.48734751473895876,0.011656892976683089,0.17000000000000012,-0.0668011832574716,-0.04457486487588665,0.007117067830265884,0.002520501535536949,4.22391885230243,3.4874118713791904,0.3043063829148648,-0.0052234901941508715,0.00117965393248305,0.018241354139096642
1750759787.0188334,-1.787004945838052,-2.0956339999999996,-0.7994061964684214,1.5968508610362602,1.0837181775319111,-0.4873424589094082,0.01172546293536946,0.17100000000000012,-0.06719413139428027,-0.04483706996339186,0.007158932935149801,0.0025353280151577547,4.224689905228132,3.488410655814877,0.3043274294809238,-0.005231001590847509,0.0011796566919817294,0.018221247145820806
1750759787.022394,-1.7869814263422228,-2.0952909999999996,-0.7995409776793467,1.5967609246912458,1.0837325372628863,-0.4873373734268984,0.01179403289405583,0.17200000000000013,-0.06758707953108892,-0.04509927505089708,0.007200798040033718,0.0025501544947785604,4.2254651756259305,3.4894148878044473,0.3043485813389427,-0.005238557413714302,0.0011796594677449168,0.018201009632255814
1750759787.0228086,-1.7869577697064756,-2.0949459999999993,-0.7996765447865455,1.5966704639360565,1.0837469807240712,-0.48733225829142945,0.011862602852742201,0.17300000000000013,-0.06798002766789757,-0.04536148013840229,0.007242663144917635,0.002564980974399366,4.226244658008512,3.4904245600130044,0.3043698381689739,-0.00524615766790294,0.0011796622597739367,0.018180641381868857
1750759787.0248294,-1.7869339759308112,-2.0945989999999988,-0.7998128977900176,1.5965794787706922,1.0837615079154659,-0.4873271135030004,0.011931172811428572,0.17400000000000013,-0.06837297580470623,-0.045623685225907505,0.007284528249801552,0.0025798074540201712,4.227028346852555,3.491439665059015,0.304391199649161,-0.005253802358556991,0.0011796650680701434,0.018160142176995547
1750759787.0268364,-1.7869100450152295,-2.094249999999999,-0.799950036689764,1.5964879691951528,1.0837761188370705,-0.48732193906161303,0.011999742770114943,0.17500000000000013,-0.06876592394151489,-0.045885890313412725,0.007326393354685469,0.002594633933640977,4.227816236598642,3.4924601955142376,0.3044126654557384,-0.005261491490809137,0.001179667892634898,0.018139511798840872
1750759787.0287652,-1.7868859769597307,-2.0938989999999995,-0.8000879614857839,1.5963959352094386,1.0837908134888847,-0.48731673496726646,0.012068312728801316,0.17600000000000013,-0.06915887207832354,-0.04614809540091794,0.007368258459569386,0.0026094604132617825,4.228608321651193,3.4934861439036733,0.3044342352630262,-0.0052692250697805,0.001179670733469568,0.01811875002748459
1750759787.0307717,-1.7868617717643147,-2.093546,-0.800226672178078,1.5963033768135493,1.0838055918709089,-0.4873115012199598,0.012136882687487686,0.17700000000000013,-0.0695518202151322,-0.04641030048842316,0.007410123564453303,0.002624286892882588,4.229404596378407,3.4945175027054827,0.30445590874343403,-0.005277003100581958,0.0011796735905755266,0.018097856641879455
1750759787.0327682,-1.7868374294289815,-2.093190999999999,-0.8003661687666446,1.596210294007485,1.0838204539831426,-0.48730623781969484,0.012205452646174057,0.17800000000000013,-0.06994476835194086,-0.04667250557592837,0.00745198866933722,0.002639113372503394,4.230205055112184,3.4955542643509374,0.3044776855674603,-0.005284825588310422,0.0011796764639541537,0.018076831419857633
1750759787.0348203,-1.7868374294289815,-2.093190999999999,-0.8003661687666446,1.596210294007485,1.0838204539831426,-0.48730623781969484,0.012205452646174057,0.17800000000000013,-0.06994476835194086,-0.04667250557592837,0.00745198866933722,0.002639113372503394,4.230205055112184,3.4955542643509374,0.3044776855674603,-0.005284825588310422,0.0011796764639541537,0.018076831419857633
1750759787.036819,-1.7868129499537302,-2.092834,-0.8005064512514855,1.5961166867912455,1.083835399825586,-0.4873009447664698,0.012274022604860428,0.17900000000000013,-0.07033771648874951,-0.04693471066343358,0.007493853774221137,0.0026539398521241995,4.231009692148046,3.4965964212243286,0.3044995654036861,-0.0052926925380511166,0.0011796793536068355,0.018055674138130546
1750759787.0390115,-1.7867883333385617,-2.0924749999999994,-0.8006475196325997,1.596022555164831,1.0838504293982394,-0.4872956220602864,0.012342592563546799,0.18000000000000013,-0.07073066462555817,-0.0471969157509388,0.007535718879105054,0.002668766331745005,4.231818501745097,3.4976439656629283,0.3045215479187805,-0.005300603954874888,0.0011796822595349643,0.018034384572292957
1750759787.0407705,-1.786763579583476,-2.0921139999999987,-0.8007893739099874,1.5959278991282417,1.0838655427011026,-0.487290269701143,0.01241116252223317,0.18100000000000013,-0.07112361276236683,-0.047459120838444016,0.007577583983988971,0.0026835928113658103,4.232631478125916,3.4986968899569013,0.3045436327774983,-0.005308559843837464,0.0011796851817399384,0.018012962496824353
1750759787.0427063,-1.786738688688473,-2.0917509999999995,-0.8009320140836493,1.5958327186814774,1.0838807397341754,-0.4872848876890403,0.012479732480919542,0.18200000000000013,-0.07151656089917548,-0.047721325925949236,0.007619449088872888,0.002698419290986616,4.233448615476503,3.4997551863492395,0.3045658196426755,-0.0053165602099807694,0.0011796881202231625,0.01799140768509286
1750759787.0448813,-1.786713660653552,-2.091386,-0.8010754401535838,1.595737013824538,1.083896020497458,-0.48727947602397936,0.012548302439605913,0.18300000000000013,-0.07190950903598414,-0.04798353101345445,0.007661314193756805,0.0027132457706074216,4.234269907946209,3.5008188470357195,0.30458810817523346,-0.005324605058329183,0.0011796910749860474,0.017969719909357088
1750759787.0471096,-1.786688495478714,-2.0910189999999993,-0.8012196521197934,1.5956407845574234,1.0839113849909503,-0.4872740347059583,0.012616872398292284,0.18400000000000014,-0.0723024571727928,-0.04824573610095966,0.007703179298640722,0.0027280722502282273,4.235095349647671,3.501887864164802,0.3046104980341771,-0.0053326943938917844,0.0011796940460300101,0.01794789894076753
1750759787.0556772,-1.7866631931639594,-2.0906499999999992,-0.8013646499822755,1.595544030880134,1.0839268332146526,-0.48726856373497807,0.012685442356978655,0.18500000000000014,-0.07269540530960145,-0.04850794118846488,0.007745044403524639,0.002742898729849033,4.235924934656724,3.502962229837572,0.3046329888765907,-0.005340828221659634,0.0011796970333564731,0.017925944549370413
1750759787.0588353,-1.786560612505764,-2.089153999999999,-0.8019525003949415,1.5951517720692263,1.083989463411559,-0.4872463833214651,0.01295972219172414,0.18900000000000014,-0.07426719785683608,-0.04955676153848574,0.007912504823060306,0.002802204648332255,4.239284587993561,3.507313018325617,0.3047239551554789,-0.005373808553951456,0.001179709145516024,0.01783678811814386
1750759787.0592237,-1.7865346244914218,-2.088774999999999,-0.8021014277387915,1.5950523963410619,1.08400533028631,-0.48724076408568884,0.01302829215041051,0.19000000000000014,-0.07466014599364473,-0.04981896662599096,0.007954369927944223,0.0028170311279530607,4.240134799385124,3.508414006570445,0.3047469457043375,-0.005382164916949557,0.001179712214276495,0.01781416312494459
1750759787.060822,-1.7865084993371632,-2.088393999999999,-0.8022511409789157,1.5949524962027224,1.0840212808912706,-0.4872351151969534,0.013096862109096882,0.19100000000000014,-0.07505309413045338,-0.05008117171349617,0.00799623503282814,0.0028318576075738663,4.240989117762502,3.509520294966877,0.30477003513885503,-0.005390565801691585,0.0011797152993282276,0.017791403306175946
1750759787.0628176,-1.7864822370429856,-2.088011,-0.8024016401153133,1.5948520716542078,1.0840373152264413,-0.48722943665525875,0.013165432067783252,0.19200000000000014,-0.07544604226726205,-0.05034337680100139,0.008038100137712056,0.002846684087194672,4.241847536941901,3.510631875282475,0.30479322310266777,-0.005399011213026661,0.0011797184006724908,0.01776850842422701
1750759787.0648627,-1.7864822370429856,-2.088011,-0.8024016401153133,1.5948520716542078,1.0840373152264413,-0.48722943665525875,0.013165432067783252,0.19200000000000014,-0.07544604226726205,-0.05034337680100139,0.008038100137712056,0.002846684087194672,4.241847536941901,3.510631875282475,0.30479322310266777,-0.005399011213026661,0.0011797184006724908,0.01776850842422701
1750759787.0667448,-1.7864558376088917,-2.0876259999999993,-0.8025529251479853,1.5947511226955182,1.0840534332918215,-0.4872237284606049,0.013234002026469623,0.19300000000000014,-0.0758389904040707,-0.050605581888506605,0.008079965242595974,0.0028615105668154776,4.242710050702172,3.511748739236874,0.30481650923748976,-0.005407501155778896,0.0011797215183109507,0.017745478240406003
1750759787.0687783,-1.7864293010348797,-2.0872389999999994,-0.8027049960769297,1.5946496493266538,1.0840696350874117,-0.48721799061299187,0.013302571985155996,0.19400000000000014,-0.07623193854087935,-0.05086778697601182,0.00812183034747989,0.0028763370464362833,4.24357665278468,3.5128708785017104,0.3048398931831071,-0.0054160356347495815,0.0011797246522448881,0.017722312514941087
1750759787.0718005,-1.7864026273209515,-2.086849999999999,-0.8028578529021484,1.5945476515476142,1.0840859206132114,-0.48721222311241874,0.013371141943842367,0.19500000000000015,-0.07662488667768802,-0.05112999206351704,0.008163695452363808,0.0028911635260570885,4.244447336893271,3.5139982847005435,0.30486337457738083,-0.0054246146547144835,0.0011797278024759804,0.01769901100698205
1750759787.072928,-1.786375816467105,-2.0864589999999996,-0.8030114956236405,1.5944451293583997,1.084102289869221,-0.4872064259588873,0.013439711902528738,0.19600000000000015,-0.07701783481449667,-0.05139219715102225,0.008205560557247724,0.002905990005677894,4.24532209669417,3.515130949408809,0.3048869530562473,-0.005433238220423005,0.0011797309690055198,0.01767557347460535
1750759787.0746694,-1.7863488684733406,-2.086065999999999,-0.803165924241406,1.5943420827590102,1.0841187428554404,-0.48720059915239666,0.013508281861215108,0.19700000000000015,-0.07741078295130532,-0.051654402238527464,0.008247425662131642,0.0029208164852987,4.246200925815926,3.516268864153723,0.30491062825371257,-0.005441906336599204,0.0011797341518351957,0.01765199967481536
1750759787.0768406,-1.7863217833396599,-2.0856709999999996,-0.8033211387554458,1.5942385117494455,1.0841352795718695,-0.48719474269294594,0.01357685181990148,0.19800000000000015,-0.07780373108811399,-0.051916607326032684,0.008289290767015558,0.0029356429649195054,4.247083817849316,3.517412020414204,0.3049343998018548,-0.005450619007939282,0.001179737350966311,0.01762828936354682
1750759787.078991,-1.786294561066061,-2.085273999999999,-0.8034771391657589,1.594134416329706,1.0841519000185085,-0.4871888565805369,0.01364542177858785,0.19900000000000015,-0.07819667922492264,-0.052178812413537896,0.008331155871899476,0.002950469444540311,4.2479707663472785,3.518560409620833,0.3049582673308256,-0.0054593762391106715,0.0011797405664005672,0.01760444229567032
1750759787.0806878,-1.7862672016525458,-2.0848749999999994,-0.8036339254723455,1.5940297964997914,1.084168604195357,-0.4871829408151678,0.013713991737274223,0.20000000000000015,-0.07858962736173129,-0.052441017501043116,0.008373020976783392,0.0029652959241611167,4.2488617648248415,3.5197140231557476,0.3049822304688431,-0.005468178034753351,0.0011797437981392782,0.017580458224991987
1750759787.0828252,-1.7862397050991117,-2.0844739999999993,-0.8037914976752054,1.593924652259702,1.0841853921024156,-0.48717699539684034,0.013782561695960593,0.20100000000000015,-0.07898257549853996,-0.05270322258854833,0.00841488608166731,0.0029801224037819224,4.249756806759022,3.520872852352594,0.3050062888421963,-0.005477024399475984,0.001179747046184156,0.01755633690425905
1750759787.0849044,-1.7862120714057612,-2.084071,-0.8039498557743396,1.5938189836094372,1.0842022637396838,-0.4871710203255528,0.013851131654646964,0.20200000000000015,-0.07937552363534861,-0.05296542767605354,0.008456751186551226,0.0029949488834027276,4.250655885588784,3.522036888496431,0.3050304420752443,-0.0054859153378581825,0.0011797503105365266,0.01753207808516069
1750759787.0868528,-1.7861843005724936,-2.083665999999999,-0.8041089997697473,1.5937127905489976,1.0842192191071618,-0.4871650156013061,0.013919701613333335,0.20300000000000015,-0.07976847177215726,-0.05322763276355876,0.008498616291435144,0.0030097753630235332,4.251558994714931,3.5232061228236833,0.30505468979041106,-0.005494850854447581,0.0011797535911981132,0.017507681518332922
1750759787.0888455,-1.7861563925993078,-2.083259,-0.8042689296614283,1.593606073078383,1.0842362582048497,-0.48715898122410106,0.013988271572019706,0.20400000000000015,-0.08016141990896593,-0.053489837851063975,0.00854048139631906,0.003024601842644339,4.252466127500029,3.524380546522037,0.3050790316081883,-0.005503830953759174,0.001179756888170252,0.017483146953358918
1750759787.0908191,-1.7861283474862057,-2.0828499999999988,-0.8044296454493827,1.5934988311975935,1.084253381032747,-0.48715291719393594,0.014056841530706077,0.20500000000000015,-0.08055436804577458,-0.053752042938569194,0.008582346501202978,0.0030394283222651445,4.253377277268358,3.5255601507303957,0.30510346714713543,-0.00551285564027637,0.0011797602014546778,0.017458474138775715
1750759787.092823,-1.7861001652331856,-2.082438999999999,-0.8045911471336114,1.5933910649066287,1.0842705875908545,-0.4871468235108116,0.01412541148939245,0.20600000000000016,-0.08094731618258323,-0.05401424802607441,0.008624211606086894,0.00305425480188595,4.254292437305784,3.5267449265387807,0.30512799602387425,-0.005521924918447305,0.0011797635310527377,0.01743366282207379
1750759787.0949278,-1.7860718458402474,-2.082025999999999,-0.8047534347141134,1.5932827742054891,1.0842878778791716,-0.4871407001747281,0.01419398144807882,0.20700000000000016,-0.0813402643193919,-0.05427645311357962,0.008666076710970812,0.003069081281506756,4.255211600859723,3.5279348649882776,0.30515261785309244,-0.005531038792686864,0.0011797668769661766,0.01740871274970198
1750759787.0966806,-1.7860433893073928,-2.0816109999999988,-0.8049165081908889,1.5931739590941745,1.0843052518976983,-0.4871345471856854,0.014262551406765191,0.20800000000000016,-0.08173321245620055,-0.05453865820108484,0.008707941815854728,0.0030839077611275615,4.256134761139052,3.5291299570709453,0.3051773322475427,-0.005540197267373996,0.0011797702391963532,0.01738362366707015
1750759787.1048665,-1.7860433893073928,-2.0816109999999988,-0.8049165081908889,1.5931739590941745,1.0843052518976983,-0.4871345471856854,0.014262551406765191,0.20800000000000016,-0.08173321245620055,-0.05453865820108484,0.008707941815854728,0.0030839077611275615,4.256134761139052,3.5291299570709453,0.3051773322475427,-0.005540197267373996,0.0011797702391963532,0.01738362366707015
1750759787.1053724,-1.7860433893073928,-2.0816109999999988,-0.8049165081908889,1.5931739590941745,1.0843052518976983,-0.4871345471856854,0.014262551406765191,0.20800000000000016,-0.08173321245620055,-0.05453865820108484,0.008707941815854728,0.0030839077611275615,4.256134761139052,3.5291299570709453,0.3051773322475427,-0.005540197267373996,0.0011797702391963532,0.01738362366707015
1750759787.1090667,-1.7858990495443585,-2.0795059999999994,-0.8057436640188715,1.5926220173849759,1.084393377943479,-0.4871033374460838,0.014605401200197047,0.21300000000000016,-0.08369795314024384,-0.05584968363861092,0.008917267340274313,0.0031580401592315893,4.260810273018402,3.5351824032631236,0.3053022790088918,-0.005586658798199222,0.001179787295154838,0.017256084117008887
1750759787.109862,-1.785869770171999,-2.0790789999999992,-0.8059114528732882,1.5925100558126113,1.0844112543432645,-0.4870970065392859,0.014673971158883418,0.21400000000000016,-0.08409090127705249,-0.05611188872611613,0.00895913244515823,0.003172866638852395,4.2617572688675045,3.5364082252235005,0.305327540553957,-0.005596084965440484,0.0011797907553189662,0.01723015556862646
1750759787.110886,-1.7858403536597223,-2.0786499999999997,-0.8060800276239792,1.5923975698300714,1.0844292144732597,-0.4870906459795288,0.014742541117569789,0.21500000000000016,-0.08448384941386115,-0.05637409381362135,0.009000997550042147,0.0031876931184732006,4.262708212817996,3.537639136382579,0.3053528918992209,-0.005605555762720736,0.001179794231811056,0.017204086199020655
1750759787.112804,-1.7858108000075283,-2.078218999999999,-0.8062493882709436,1.5922845594373567,1.0844472583334646,-0.4870842557668116,0.01481111107625616,0.21600000000000016,-0.0848767975506698,-0.056636298901126564,0.009042862654926065,0.0032025195980940058,4.263663097767469,3.5388751273375427,0.30537833264191483,-0.005615071194104689,0.0011797977246325573,0.017177875745401916
1750759787.1146953,-1.7857811092154172,-2.0777859999999997,-0.8064195348141823,1.592171024634467,1.0844653859238793,-0.48707783590113607,0.01487968103494253,0.21700000000000016,-0.08526974568747846,-0.05689850398863178,0.009084727759809981,0.0032173460777148114,4.264621916574229,3.5401161886358548,0.3054038623773229,-0.005624631263615473,0.0011798012337850708,0.01715152394396966
1750759787.116809,-1.785751281283389,-2.0773509999999993,-0.8065904672536934,1.5920569654214023,1.0844835972445037,-0.48707138638250136,0.014948250993628901,0.21800000000000017,-0.08566269382428712,-0.057160709076137,0.0091265928646939,0.003232172557335617,4.265584662057224,3.541362310775212,0.3054294806987862,-0.005634235975231711,0.0011798047592703495,0.017125030529916683
1750759787.1188471,-1.7857213162114434,-2.0769139999999995,-0.8067621855894789,1.5919423817981624,1.084501892295338,-0.48706490721090656,0.015016820952315274,0.21900000000000017,-0.08605564196109577,-0.05742291416364221,0.009168457969577815,0.0032469990369564227,4.266551326995959,3.5426134842034416,0.3054551871977014,-0.005643885332886728,0.0011798083010898094,0.0170983952374311
1750759787.1214614,-1.7856912139995798,-2.0764749999999994,-0.8069346898215386,1.5918272737647476,1.0845202710763822,-0.48705839838635345,0.015085390911001645,0.22000000000000017,-0.08644859009790443,-0.05768511925114743,0.009210323074461733,0.0032618255165772284,4.267521904130411,3.5438696993184435,0.30548098146351643,-0.005653579340469538,0.0011798118592452622,0.017071617799700973
1750759787.122948,-1.7856912139995798,-2.0764749999999994,-0.8069346898215386,1.5918272737647476,1.0845202710763822,-0.48705839838635345,0.015085390911001645,0.22000000000000017,-0.08644859009790443,-0.05768511925114743,0.009210323074461733,0.0032618255165772284,4.267521904130411,3.5438696993184435,0.30548098146351643,-0.005653579340469538,0.0011798118592452622,0.017071617799700973
1750759787.1247375,-1.785660974647799,-2.076034,-0.8071079799498708,1.5917116413211578,1.084538733587636,-0.48705185990884026,0.015153960869688015,0.22100000000000017,-0.08684153823471309,-0.05794732433865264,0.00925218817934565,0.003276651996198034,4.268496386160944,3.545130946468085,0.3055068630837324,-0.005663318001821112,0.0011798154337381334,0.017044697948916727
1750759787.1268668,-1.785630598156101,-2.0755909999999993,-0.8072820559744773,1.591595484467393,1.0845572798290994,-0.48704529177836875,0.015222530828374386,0.22200000000000017,-0.08723448637152174,-0.058209529426157855,0.009294053284229567,0.0032914784758188396,4.269474765748232,3.546397215950158,0.305532831643904,-0.005673101320736401,0.0011798190245702453,0.017017635416275236
1750759787.1288502,-1.7856000845244857,-2.0751459999999993,-0.8074569178953572,1.5914788032034533,1.0845759098007728,-0.48703869399493716,0.015291100787060757,0.22300000000000017,-0.0876274345083304,-0.058471734513663075,0.009335918389113483,0.003306304955439645,4.270457035513158,3.5476684980122624,0.30555888672763437,-0.005682929300961464,0.0011798226317430325,0.01699042993198212
1750759787.130818,-1.7855694337529524,-2.074698999999999,-0.8076325657125105,1.5913615975293385,1.084594623502656,-0.48703206655854636,0.015359670745747128,0.22400000000000017,-0.08802038264513906,-0.05873393960116829,0.009377783493997401,0.0033211314350604505,4.27144318803675,3.548944782851765,0.30558502791657804,-0.005692801946192628,0.001179826255258327,0.016963081225257068
1750759787.1326618,-1.7855386458415028,-2.0742499999999993,-0.8078089994259372,1.5912438674450486,1.0846134209347489,-0.48702540946919726,0.0154282407044335,0.22500000000000017,-0.08841333078194771,-0.05899614468867351,0.009419648598881317,0.003335957914681256,4.272433215860085,3.5502260606156835,0.30561125479043943,-0.0057027192600775265,0.0011798298951175735,0.01693558902433478
1750759787.134818,-1.785507720790135,-2.0737989999999993,-0.8079862190356382,1.5911256129505837,1.0846323020970514,-0.48701872272688806,0.015496810663119871,0.22600000000000017,-0.08880627891875637,-0.05925834977617872,0.009461513703765235,0.003350784394302062,4.273427111484196,3.5515123214006428,0.3056375669269697,-0.005712681246211242,0.0011798335513226134,0.016907953056470602
1750759787.136734,-1.7854766585988502,-2.073345999999999,-0.8081642245416125,1.5910068340459438,1.0846512669895638,-0.4870120063316197,0.015565380621806242,0.22700000000000017,-0.08919922705556503,-0.05952055486368393,0.009503378808649151,0.0033656108739228674,4.274424867370007,3.5528035552527655,0.305663963901968,-0.005722687908138373,0.0011798372238749008,0.01688017304794256
1750759787.1386096,-1.785445459267648,-2.0728909999999994,-0.8083430159438603,1.590887530731129,1.084670315612286,-0.4870052602833921,0.015633950580492613,0.22800000000000017,-0.08959217519237368,-0.05978275995118915,0.009545243913533069,0.003380437353543673,4.275426475938226,3.554099752167608,0.305690445289282,-0.005732739249350127,0.0011798409127762866,0.01685224872405576
1750759787.1406546,-1.785414122796528,-2.0724339999999994,-0.8085225932423823,1.5907677030061391,1.084689447965218,-0.4869984845822053,0.015702520539178984,0.22900000000000018,-0.08998512332918233,-0.060044965038694366,0.009587109018416985,0.0033952638331644787,4.2764319295692745,3.555400902090086,0.30571701066080254,-0.005742835273283464,0.001179844618028234,0.01682417980914555
1750759787.1426995,-1.7853826491854914,-2.0719749999999992,-0.8087029564371768,1.5906473508709742,1.0847086640483596,-0.4869916792280593,0.015771090497865355,0.23000000000000018,-0.090378071465991,-0.06030717012619958,0.009628974123300903,0.003410090312785284,4.277441220603197,3.5567069949143657,0.30574365958646604,-0.005752975983321917,0.0011798483396326036,0.016795966026580723
1750759787.144779,-1.7853510384345368,-2.0715139999999987,-0.8088841055282456,1.5905264743256342,1.084727963861711,-0.4869848442209541,0.015839660456551725,0.23100000000000018,-0.09077101960279965,-0.0605693752137048,0.009670839228184819,0.0034249167924060896,4.2784543413395575,3.558018020483823,0.30577039163425523,-0.005763161382792887,0.0011798520775908677,0.016767607098767637
1750759787.1466544,-1.785319290543665,-2.071050999999999,-0.8090660405155887,1.5904050733701194,1.0847473474052725,-0.48697797956088973,0.015908230415238096,0.23200000000000018,-0.0911639677396083,-0.06083158030121001,0.009712704333068737,0.0034397432720268952,4.279471284037381,3.5593339685909284,0.3057972063701925,-0.005773391474966725,0.0011798558319048955,0.01673910274715407
1750759787.1501622,-1.785287405512876,-2.0705859999999987,-0.8092487613992043,1.5902831480044295,1.0847668146790435,-0.48697108524786614,0.015976800373924467,0.23300000000000018,-0.09155691587641697,-0.06109378538871523,0.009754569437952653,0.003454569751647701,4.280492040915048,3.560654828977187,0.30582410335834415,-0.005783666263057823,0.0011798596025761692,0.016710452692231252
1750759787.1515982,-1.785287405512876,-2.0705859999999987,-0.8092487613992043,1.5902831480044295,1.0847668146790435,-0.48697108524786614,0.015976800373924467,0.23300000000000018,-0.09155691587641697,-0.06109378538871523,0.009754569437952653,0.003454569751647701,4.280492040915048,3.560654828977187,0.30582410335834415,-0.005783666263057823,0.0011798596025761692,0.016710452692231252
1750759787.1535046,-1.7852553833421698,-2.070118999999999,-0.8094322681790942,1.5901606982285645,1.0847863656830243,-0.48696416128188336,0.01604537033261084,0.23400000000000018,-0.09194986401322562,-0.061355990476220444,0.00979643454283657,0.0034693962312685065,4.281516604150207,3.5619805913330445,0.30585108216081963,-0.005793985750220661,0.0011798633896065664,0.016681656653539514
1750759787.1552372,-1.785190927581004,-2.069178999999999,-0.8098016394276941,1.5899142254463097,1.084825718881615,-0.4869502243910402,0.016182510249983583,0.23600000000000018,-0.09273576028684294,-0.06188040065123088,0.009880164752604404,0.003499049190510118,4.283577118199426,3.5646467804596162,0.3059052834473707,-0.005814758834087259,0.001179871012751092,0.01662362549827299
1750759787.1594667,-1.7851259232601695,-2.068230999999999,-0.8101741542613885,1.5896656550233548,1.084865407001045,-0.48693616888835933,0.016319650167356325,0.23800000000000018,-0.09352165656046024,-0.06240481082624131,0.009963894962372238,0.0035287021497517287,4.285652762788343,3.56733245247007,0.30595980668750483,-0.005835710750606449,0.0011798787013520176,0.01656500701877926
