mathias31415/primitives_from_planned_trajectory_python/data/saved_trajectories/trajectory_20250625_075749_executed.csv
timestamp,shoulder_lift_joint_pos,elbow_joint_pos,wrist_1_joint_pos,wrist_2_joint_pos,wrist_3_joint_pos,shoulder_pan_joint_pos,shoulder_lift_joint_vel,elbow_joint_vel,wrist_1_joint_vel,wrist_2_joint_vel,wrist_3_joint_vel,shoulder_pan_joint_vel,shoulder_lift_joint_eff,elbow_joint_eff,wrist_1_joint_eff,wrist_2_joint_eff,wrist_3_joint_eff,shoulder_pan_joint_eff
1750831096.868899,-1.8174260000000002,-1.7168109999999999,-1.213057,1.564931,-0.951925000000001,-2.522081,0.0,0.0,0.0,0.0,0.0,0.0,4.933770263049477,3.9878047427853645,0.29970980051116647,-0.00048391551637632903,0.0,-6.138260665025892e-17
1750831096.8715172,-1.8174260000000002,-1.7168109999999999,-1.213057,1.564931,-0.951925000000001,-2.522081,0.0,0.0,0.0,0.0,0.0,0.0,4.933770263049477,3.9878047427853645,0.29970980051116647,-0.00048391551637632903,0.0,-6.138260665025892e-17
1750831096.8720129,-1.8174260000000002,-1.7168109999999999,-1.213057,1.564931,-0.951925000000001,-2.522081,0.0,0.0,0.0,0.0,0.0,0.0,4.933770263049477,3.9878047427853645,0.29970980051116647,-0.00048391551637632903,0.0,-6.138260665025892e-17
1750831096.8734224,-1.8174260000000002,-1.7168109999999999,-1.213057,1.564931,-0.951925000000001,-2.522081,0.0,0.0,0.0,0.0,0.0,0.0,4.933770263049477,3.9878047427853645,0.29970980051116647,-0.00048391551637632903,0.0,-6.138260665025892e-17
1750831096.8747222,-1.8174260000000002,-1.7168109999999999,-1.213057,1.564931,-0.951925000000001,-2.522081,0.0,0.0,0.0,0.0,0.0,0.0,4.933770263049477,3.9878047427853645,0.29970980051116647,-0.00048391551637632903,0.0,-6.138260665025892e-17
1750831096.8767972,-1.8174260000000002,-1.7168109999999999,-1.213057,1.564931,-0.951925000000001,-2.522081,0.0,0.0,0.0,0.0,0.0,0.0,4.933770263049477,3.9878047427853645,0.29970980051116647,-0.00048391551637632903,0.0,-6.138260665025892e-17
1750831096.878847,-1.8174260000000002,-1.7168109999999999,-1.213057,1.564931,-0.951925000000001,-2.522081,0.0,0.0,0.0,0.0,0.0,0.0,4.933770263049477,3.9878047427853645,0.29970980051116647,-0.00048391551637632903,0.0,-6.138260665025892e-17
1750831096.8812013,-1.8174260000000002,-1.7168109999999999,-1.213057,1.564931,-0.951925000000001,-2.522081,0.0,0.0,0.0,0.0,0.0,0.0,4.933770263049477,3.9878047427853645,0.29970980051116647,-0.00048391551637632903,0.0,-6.138260665025892e-17
1750831096.8828743,-1.8174260000000002,-1.7168109999999999,-1.213057,1.564931,-0.951925000000001,-2.522081,0.0,0.0,0.0,0.0,0.0,0.0,4.933770263049477,3.9878047427853645,0.29970980051116647,-0.00048391551637632903,0.0,-6.138260665025892e-17
1750831096.8847682,-1.8174260000000002,-1.7168109999999999,-1.213057,1.564931,-0.951925000000001,-2.522081,0.0,0.0,0.0,0.0,0.0,0.0,4.933770263049477,3.9878047427853645,0.29970980051116647,-0.00048391551637632903,0.0,-6.138260665025892e-17
1750831096.886803,-1.8174260000000002,-1.7168109999999999,-1.213057,1.564931,-0.951925000000001,-2.522081,0.0,0.0,0.0,0.0,0.0,0.0,4.933770263049477,3.9878047427853645,0.29970980051116647,-0.00048391551637632903,0.0,-6.138260665025892e-17
1750831096.8888216,-1.8174260000000002,-1.7168109999999999,-1.213057,1.564931,-0.951925000000001,-2.522081,0.0,0.0,0.0,0.0,0.0,0.0,4.933770263049477,3.9878047427853645,0.29970980051116647,-0.00048391551637632903,0.0,-6.138260665025892e-17
1750831096.8919125,-1.8174260000000002,-1.7168109999999999,-1.213057,1.564931,-0.951925000000001,-2.522081,0.0,0.0,0.0,0.0,0.0,0.0,4.933770263049477,3.9878047427853645,0.29970980051116647,-0.00048391551637632903,0.0,-6.138260665025892e-17
1750831096.8964183,-1.8174260000000002,-1.7168109999999999,-1.213057,1.564931,-0.951925000000001,-2.522081,0.0,0.0,0.0,0.0,0.0,0.0,4.933770263049477,3.9878047427853645,0.29970980051116647,-0.00048391551637632903,0.0,-6.138260665025892e-17
1750831096.8971066,-1.8174260000000002,-1.7168109999999999,-1.213057,1.564931,-0.951925000000001,-2.522081,0.0,0.0,0.0,0.0,0.0,0.0,4.933770263049477,3.9878047427853645,0.29970980051116647,-0.00048391551637632903,0.0,-6.138260665025892e-17
1750831096.897519,-1.8174260000000002,-1.7168109999999999,-1.213057,1.564931,-0.951925000000001,-2.522081,0.0,0.0,0.0,0.0,0.0,0.0,4.933770263049477,3.9878047427853645,0.29970980051116647,-0.00048391551637632903,0.0,-6.138260665025892e-17
1750831096.898974,-1.8174260000000002,-1.7168109999999999,-1.213057,1.564931,-0.951925000000001,-2.522081,0.0,0.0,0.0,0.0,0.0,0.0,4.933770263049477,3.9878047427853645,0.29970980051116647,-0.00048391551637632903,0.0,-6.138260665025892e-17
1750831096.9011443,-1.8174260000000002,-1.7168109999999999,-1.213057,1.564931,-0.951925000000001,-2.522081,0.0,0.0,0.0,0.0,0.0,0.0,4.933770263049477,3.9878047427853645,0.29970980051116647,-0.00048391551637632903,0.0,-6.138260665025892e-17
1750831096.903104,-1.8174260000000002,-1.7168109999999999,-1.213057,1.564931,-0.951925000000001,-2.522081,0.0,0.0,0.0,0.0,0.0,0.0,4.933770263049477,3.9878047427853645,0.29970980051116647,-0.00048391551637632903,0.0,-6.138260665025892e-17
1750831096.9050617,-1.8174260000000002,-1.7168109999999999,-1.213057,1.564931,-0.951925000000001,-2.522081,0.0,0.0,0.0,0.0,0.0,0.0,4.933770263049477,3.9878047427853645,0.29970980051116647,-0.00048391551637632903,0.0,-6.138260665025892e-17
1750831096.9067361,-1.8174260000000002,-1.7168109999999999,-1.213057,1.564931,-0.951925000000001,-2.522081,0.0,0.0,0.0,0.0,0.0,0.0,4.933770263049477,3.9878047427853645,0.29970980051116647,-0.00048391551637632903,0.0,-6.138260665025892e-17
1750831096.9088874,-1.8174260000000002,-1.7168109999999999,-1.213057,1.564931,-0.951925000000001,-2.522081,0.0,0.0,0.0,0.0,0.0,0.0,4.933770263049477,3.9878047427853645,0.29970980051116647,-0.00048391551637632903,0.0,-6.138260665025892e-17
1750831096.911032,-1.8174260000000002,-1.7168109999999999,-1.213057,1.564931,-0.951925000000001,-2.522081,0.0,0.0,0.0,0.0,0.0,0.0,4.933770263049477,3.9878047427853645,0.29970980051116647,-0.00048391551637632903,0.0,-6.138260665025892e-17
1750831096.9131656,-1.8174260000000002,-1.7168109999999999,-1.213057,1.564931,-0.951925000000001,-2.522081,0.0,0.0,0.0,0.0,0.0,0.0,4.933770263049477,3.9878047427853645,0.29970980051116647,-0.00048391551637632903,0.0,-6.138260665025892e-17
1750831096.9150267,-1.8174260000000002,-1.7168109999999999,-1.213057,1.564931,-0.951925000000001,-2.522081,0.0,0.0,0.0,0.0,0.0,0.0,4.933770263049477,3.9878047427853645,0.29970980051116647,-0.00048391551637632903,0.0,-6.138260665025892e-17
1750831096.916969,-1.8174260000000002,-1.7168109999999999,-1.213057,1.564931,-0.951925000000001,-2.522081,0.0,0.0,0.0,0.0,0.0,0.0,4.933770263049477,3.9878047427853645,0.29970980051116647,-0.00048391551637632903,0.0,-6.138260665025892e-17
1750831096.9189541,-1.8174260000000002,-1.7168109999999999,-1.213057,1.564931,-0.951925000000001,-2.522081,0.0,0.0,0.0,0.0,0.0,0.0,4.933770263049477,3.9878047427853645,0.29970980051116647,-0.00048391551637632903,0.0,-6.138260665025892e-17
1750831096.9223318,-1.8174260000000002,-1.7168109999999999,-1.213057,1.564931,-0.951925000000001,-2.522081,0.0,0.0,0.0,0.0,0.0,0.0,4.933770263049477,3.9878047427853645,0.29970980051116647,-0.00048391551637632903,0.0,-6.138260665025892e-17
1750831096.9228637,-1.8174260000000002,-1.7168109999999999,-1.213057,1.564931,-0.951925000000001,-2.522081,0.0,0.0,0.0,0.0,0.0,0.0,4.933770263049477,3.9878047427853645,0.29970980051116647,-0.00048391551637632903,0.0,-6.138260665025892e-17
1750831096.924936,-1.8174260000000002,-1.7168109999999999,-1.213057,1.564931,-0.951925000000001,-2.522081,0.0,0.0,0.0,0.0,0.0,0.0,4.933770263049477,3.9878047427853645,0.29970980051116647,-0.00048391551637632903,0.0,-6.138260665025892e-17
1750831096.9264758,-1.8174260000000002,-1.7168109999999999,-1.213057,1.564931,-0.951925000000001,-2.522081,0.0,0.0,0.0,0.0,0.0,0.0,4.933770263049477,3.9878047427853645,0.29970980051116647,-0.00048391551637632903,0.0,-6.138260665025892e-17
1750831096.9301426,-1.8174260000000002,-1.7168109999999999,-1.213057,1.564931,-0.951925000000001,-2.522081,0.0,0.0,0.0,0.0,0.0,0.0,4.933770263049477,3.9878047427853645,0.29970980051116647,-0.00048391551637632903,0.0,-6.138260665025892e-17
1750831096.9312756,-1.8174260000000002,-1.7168109999999999,-1.213057,1.564931,-0.951925000000001,-2.522081,0.0,0.0,0.0,0.0,0.0,0.0,4.933770263049477,3.9878047427853645,0.29970980051116647,-0.00048391551637632903,0.0,-6.138260665025892e-17
1750831096.933075,-1.8174260000000002,-1.7168109999999999,-1.213057,1.564931,-0.951925000000001,-2.522081,0.0,0.0,0.0,0.0,0.0,0.0,4.933770263049477,3.9878047427853645,0.29970980051116647,-0.00048391551637632903,0.0,-6.138260665025892e-17
1750831096.9351792,-1.8174260000000002,-1.7168109999999999,-1.213057,1.564931,-0.951925000000001,-2.522081,0.0,0.0,0.0,0.0,0.0,0.0,4.933770263049477,3.9878047427853645,0.29970980051116647,-0.00048391551637632903,0.0,-6.138260665025892e-17
1750831096.936748,-1.8174260000000002,-1.7168109999999999,-1.213057,1.564931,-0.951925000000001,-2.522081,0.0,0.0,0.0,0.0,0.0,0.0,4.933770263049477,3.9878047427853645,0.29970980051116647,-0.00048391551637632903,0.0,-6.138260665025892e-17
1750831096.9388666,-1.8174260000000002,-1.7168109999999999,-1.213057,1.564931,-0.951925000000001,-2.522081,0.0,0.0,0.0,0.0,0.0,0.0,4.933770263049477,3.9878047427853645,0.29970980051116647,-0.00048391551637632903,0.0,-6.138260665025892e-17
1750831096.9411144,-1.8174257129698237,-1.7168118565672401,-1.2130564221227784,1.5649310422322564,-0.9519237933445286,-2.5220797925178844,0.00028702921787676107,-0.0008565660364730938,0.0005778770002978878,4.223225204900134e-05,0.001206655759699703,0.0012074824030720492,4.96388488837275,3.843443385518347,0.31167279070628845,0.004732290974079223,0.033991882816561625,0.5017351628731935
1750831096.9429402,-1.8174248518907943,-1.716814426254519,-1.2130546884937692,1.564931168928974,-0.9519201733746598,-2.522076170068087,0.0005740469372577131,-0.001713117632353818,0.0011557513447073245,8.446445252273774e-05,0.0024133149725805133,0.002414968257130529,4.963873379458241,3.843442191708857,0.31167271678979763,0.004732295268877322,0.03399198009374421,0.5017356573876456
1750831096.9456089,-1.8174234167974062,-1.716818709018515,-1.2130517991209402,1.5649313800899978,-0.951914140080035,-2.5220701326402546,0.0008610416595824207,-0.0025696403470642586,0.0017336203774250447,0.00012669654981115294,0.003619981091621085,0.003622461012992909,4.963852596929428,3.8434408745623254,0.3116725807751369,0.004732305748551822,0.03399217464245264,0.501737161210029
1750831096.9480948,-1.8174214077471529,-1.716824704787026,-1.2130477540175715,1.56493167571507,-0.951905693443388,-2.522061680217133,0.0011480018861260027,-0.003426119740026589,0.0023114814427844027,0.00016892849232786646,0.004826657569401348,0.0048299641211233015,4.963822541102077,3.8434394340793663,0.31167238266661573,0.00473232241388127,0.033992466451453984,0.5017396742845713
1750831096.9489913,-1.8174188248205247,-1.7168324134589668,-1.2130425532022517,1.5649320558038293,-0.9518948334405497,-2.522050812774568,0.001434916117961206,-0.004282541370691561,0.0028893318854009763,0.00021116022841928192,0.006033347858135719,0.006037481031473155,4.963783212432645,3.8434378702599434,0.3116721224730226,0.004732345263025101,0.03399285551045393,0.501743196523473
1750831096.9522252,-1.8174156681210105,-1.7168418349043737,-1.2130361966988819,1.5649325203558115,-0.9518815600404471,-2.522037530281506,0.0017217728558543127,-0.005138890798551996,0.0034671690502308537,0.0002533917064011741,0.00724005540925898,0.007245015193301383,4.9637346114847665,3.84343618309771,0.3116718002044223,0.004732374295096656,0.03399334179748849,0.5017477278009028
1750831096.9537768,-1.8174119377750975,-1.7168529689643988,-1.2130286845366722,1.5649330693704484,-0.9518658732051044,-2.522021832699995,0.0020085606002037213,-0.00599515358310372,0.00404499028259779,0.00029562287452417307,0.00844678367327216,0.008452570055000217,4.963676738956357,3.843434372597019,0.3116714158722647,0.004732409508150484,0.03399392528625253,0.5017532679542144
1750831096.9550653,-1.8174076339322722,-1.7168658154513166,-1.213020016750142,1.5649337028470685,-0.9518477728896455,-2.5220037199851877,0.0022952678509708404,-0.006851315283924029,0.004622792928373741,0.00033785368099942763,0.009653536099776093,0.00966014906392327,4.9636095956655275,3.8434324387464796,0.31167096949263023,0.004732450900909764,0.03399460595138934,0.501759816784314
1750831096.957085,-1.8174027567650226,-1.716880374148519,-1.2130101933791186,1.5649344207848965,-0.9518272590422976,-2.5219831920853437,0.0025818831075926276,-0.007707361460607964,0.005200574333980358,0.00038008407393339564,0.010860316137084004,0.010867755666216759,4.963533182552912,3.843430381547806,0.31167046108220825,0.004732498470180833,0.033995383756625266,0.5017673740586944
1750831096.9589148,-1.8173973064688385,-1.7168966448105163,-1.2129992144687352,1.5649352231830538,-0.951804331604392,-2.5219602489418307,0.002868394868920156,-0.008563277672806954,0.005778331846463509,0.0004223140013890112,0.012067127232161256,0.012075393306638335,4.963447500686587,3.8434282009957523,0.3116698906596283,0.004732552214421592,0.0339962586639912,0.5017759395045861
1750831096.9616747,-1.8173912832622117,-1.7169146271629403,-1.2129870800694293,1.564936110040557,-0.9517789905103671,-2.5219348904891294,0.0031547916331480528,-0.009419049480270666,0.006356062813717951,0.00046454341127800735,0.013273972830360435,0.013283065428386379,4.963352551258001,3.843425897078244,0.3116692582498823,0.004732612128955301,0.03399723062805382,0.5017855128133889
1750831096.965449,-1.8173912832622117,-1.7169146271629403,-1.2129870800694293,1.564936110040557,-0.9517789905103671,-2.5219348904891294,0.0031547916331480528,-0.009419049480270666,0.006356062813717951,0.00046454341127800735,0.013273972830360435,0.013283065428386379,4.963352551258001,3.843425897078244,0.3116692582498823,0.004732612128955301,0.03399723062805382,0.5017855128133889
1750831096.9661083,-1.8173846873866388,-1.7169343209025403,-1.2129737902369442,1.564937081356319,-0.9517512356877731,-2.5219071166548352,0.003441061897719009,-0.01027466244276866,0.006933764584339155,0.000506772251479014,0.01448085637534396,0.014490775472933393,4.963248335576828,3.8434234697969476,0.31166856387411646,0.004732678212430477,0.03399829960120103,0.5017960936449182
1750831096.9676206,-1.817377519106623,-1.7169557256971881,-1.2129593450323242,1.5649381371291482,-0.9517210670572736,-2.5218769273596626,0.003727194159280742,-0.011130102120202254,0.007511434507967483,0.0005490004696611602,0.015687781308925765,0.015698526879848722,4.963134855085213,3.8434209191349824,0.3116678075629603,0.004732750458377812,0.033999465531361295,0.5018076816185543
1750831096.9687455,-1.817369778709673,-1.7169788411858713,-1.21294374452191,1.5649392773577482,-0.9516884845326512,-2.521844322517449,0.004013176913582377,-0.011985354072483259,0.008089069935074009,0.0005912280134539872,0.016894751070766455,0.016906323086615174,4.9630121113433825,3.84341824509724,0.3116669893415782,0.00473282886507733,0.03400072835787341,0.5018202763157272
1750831096.973118,-1.817369778709673,-1.7169788411858713,-1.21294374452191,1.5649392773577482,-0.9516884845326512,-2.521844322517449,0.004013176913582377,-0.011985354072483259,0.008089069935074009,0.0005912280134539872,0.016894751070766455,0.016906323086615174,4.9630121113433825,3.84341824509724,0.3116669893415782,0.00473282886507733,0.03400072835787341,0.5018202763157272
1750831096.977117,-1.81736146650631,-1.7170036669787017,-1.2129269887773466,1.5649405020407174,-0.9516534880208134,-2.5218093020351593,0.004298998655421577,-0.012840403859692937,0.008666668217353454,0.0006334548302977,0.0181017690983173,0.018114167528473273,4.962880106034003,3.8434154476587437,0.3116661092454774,0.004732913426524957,0.0340020880185002,0.50183387728674
1750831096.9791393,-1.817333102508118,-1.7170884018499688,-1.212869790934585,1.564944682800248,-0.951534013527997,-2.5216897457144887,0.005155382738200176,-0.015404195832661009,0.010399213729185659,0.0007601303914088884,0.02172314711228529,0.021738024579528517,4.962428539438603,3.843406314898167,0.3116630980519248,0.0047332039907532686,0.034006747296715246,0.5018807127607586
1750831096.9835587,-1.8173225066445564,-1.717120064382887,-1.212848415075709,1.5649462452845722,-0.9514893599989751,-2.5216450616042563,0.005440445356402278,-0.016258292561940762,0.01097663697268832,0.0008023537718833846,0.02293039252613167,0.02294609626299733,4.962259507204559,3.8434030237868666,0.31166197081550245,0.004733313119698296,0.03400849356383975,0.501898333566768
1750831096.9847314,-1.8172996056402582,-1.717188512650064,-1.2128021990716542,1.5649496235885159,-0.9513928091396737,-2.5215484446251253,0.006009903413992755,-0.017965648491264155,0.012131329716296392,0.0008867975028649538,0.025345083013507647,0.025362439162250824,4.961893691341167,3.8433960712032995,0.31165953134547364,0.004733549750273451,0.03401227533331099,0.5019365848950619
1750831096.9869723,-1.8172873014197943,-1.7172252972291115,-1.2127773591385056,1.5649514394039525,-0.9513409115340625,-2.521496511481071,0.006294275826903359,-0.01881887881283715,0.012708593937577253,0.0009290177459996631,0.026552534924250772,0.026570717210709048,4.961696912692778,3.8433924097075653,0.31165821920466263,0.004733677239477247,0.034014310648101294,0.5019572140344637
1750831096.988823,-1.8172744287056828,-1.7172637879535282,-1.2127513647347588,1.564953339658731,-0.9512865989495349,-2.521442161705872,0.006578395142381374,-0.019671791453624334,0.013285799875494619,0.0009712368355565525,0.027760062498524467,0.027779070874218673,4.96149089043194,3.8433886247164417,0.3116568455286298,0.0047338108322603515,0.0340164421141948,0.5019788445143404
1750831096.9909167,-1.8172609880156347,-1.7173039841735127,-1.212724215979616,1.5649553243504897,-0.9512298712313534,-2.5213853951448923,0.006862249843278733,-0.02052437197473624,0.013862944895014342,0.0010134547172953366,0.028967669145749383,0.02898750355991387,4.961275627358127,3.8433847162203127,0.3116554103698877,0.004733950523015161,0.03401866962477167,0.5020014755488528
1750831096.9938035,-1.817246979890398,-1.7173458852103884,-1.212695912997547,1.5649573934767587,-0.9511707282179662,-2.5213262116366826,0.007145828410749252,-0.02137660593743523,0.014440026362963808,0.0010556713367209447,0.030175358271297553,0.030196018670935302,4.961051126395616,3.843380684201488,0.31165391378316243,0.004734096303153863,0.034020993065780006,0.5020251063203575
1750831096.9955988,-1.817246979890398,-1.7173458852103884,-1.212695912997547,1.5649573934767587,-0.9511707282179662,-2.5213262116366826,0.007145828410749252,-0.02137660593743523,0.014440026362963808,0.0010556713367209447,0.030175358271297553,0.030196018670935302,4.961051126395616,3.843380684201488,0.31165391378316243,0.004734096303153863,0.034020993065780006,0.5020251063203575
1750831096.9969115,-1.8172172636125525,-1.7174347988757104,-1.2126358448768286,1.5649617850224,-0.9510451956253423,-2.5212005930987784,0.007712111061162582,-0.02307997643343828,0.015593988121502828,0.0011401005692256887,0.03259099755818246,0.03261330976050375,4.960574423151949,3.8433722495295672,0.3116507365625407,0.00473440609391591,0.03402592727105001,0.5020753636181435
1750831096.9986608,-1.8172015566566504,-1.7174818100024165,-1.212604080013426,1.5649641074362837,-0.9509788056890027,-2.5211341577122113,0.00799479209728921,-0.023931084090049116,0.01617086315591253,0.0011823130719776196,0.03379895450879829,0.033822092523777894,4.960322227340995,3.8433678468430235,0.3116490560505447,0.004734570086777354,0.034028537784462194,0.5021019883226692
1750831097.000849,-1.817185284658981,-1.7175305229425293,-1.2125711614735808,1.564966514273699,-0.9509099997432688,-2.521065304664687,0.008277150906224861,-0.024781787434890783,0.016747664126638438,0.0012245240916821942,0.03500700751608049,0.035030971281484656,4.96006080659792,3.8433633205625273,0.3116473143579317,0.004734740131264457,0.03403124373179101,0.5021296091211044
1750831097.0026953,-1.8171684482755293,-1.7175809368729897,-1.2125370894080438,1.5649690055316243,-0.9508387775926455,-2.5209940337608354,0.00855917595954221,-0.025632072030031223,0.017324388411119118,0.001266733572481439,0.03621515996281099,0.03623994941414926,4.959790164463864,3.8433586706705545,0.31164551154962317,0.004734916218570108,0.03403404497318005,0.5021582250088314
1750831097.0047114,-1.817151048185334,-1.717633050941858,-1.2125018639728076,1.5649715812069256,-0.950765139034873,-2.52092034479853,0.008840855726705548,-0.02648192343771354,0.017901033389222457,0.0013089414581330685,0.037423415226851345,0.0374490302972601,4.959510304626823,3.843353897151859,0.31164364769743785,0.004735098336030709,0.03403694137002316,0.5021878349502662
1750831097.006776,-1.8171330850905019,-1.7176868642683232,-1.212465485329103,1.5649742412963559,-0.9506890838609445,-2.520844237568899,0.009122178674942538,-0.02733132722037385,0.018477596443212223,0.0013511476921470658,0.038631776680790236,0.03865821730106035,4.959221230869276,3.8433489999791743,0.311641722871331,0.004735286474709163,0.0340399327737806,0.5022184378611577
1750831097.0089874,-1.8171145597162033,-1.7177423759426977,-1.2124279536433944,1.5649769857965552,-0.9506106118551116,-2.520765711856335,0.009403133269221691,-0.028180268940625017,0.019054074957942015,0.0013933522176525894,0.039840247691827244,0.03986751379040247,4.958922947127098,3.8433439791372375,0.31163973714784576,0.00473548062190139,0.03404301903263979,0.5022500326316308
1750831097.011717,-1.817095472810685,-1.7177995850264196,-1.2123892690873728,1.5649798147040495,-0.9505297227948981,-2.520684767438507,0.009683707972131727,-0.02902873416125284,0.019630466320805406,0.0014355549774637281,0.0410488316215575,0.0410769231245506,4.958615457436255,3.8433388346046184,0.3116376906014949,0.004735680766644601,0.03404619998872119,0.5022826181075964
1750831097.0137248,-1.817095472810685,-1.7177995850264196,-1.2123892690873728,1.5649798147040495,-0.9505297227948981,-2.520684767438507,0.009683707972131727,-0.02902873416125284,0.019630466320805406,0.0014355549774637281,0.0410488316215575,0.0410769231245506,4.958615457436255,3.8433388346046184,0.3116376906014949,0.004735680766644601,0.03404619998872119,0.5022826181075964
1750831097.015478,-1.8170758251452686,-1.717858490552052,-1.2123494318379517,1.5649827280152497,-0.9504464164511086,-2.520601404086371,0.009963891243852713,-0.02987670844523455,0.020206767921858992,0.0014777559140398103,0.04225753182590752,0.042286448657011914,4.958298765979586,3.843333566361805,0.31163558331074964,0.004735886896801555,0.034049475482338984,0.5023161930995662
1750831097.0173516,-1.8170556175143586,-1.7179190915232851,-1.2123084420772638,1.5649857257264517,-0.9503606925878447,-2.5205156215641815,0.010243671542057744,-0.030724177355763934,0.02078297715401156,0.001519954969461018,0.04346635165479813,0.04349609373535836,4.957972877050591,3.8433281743821275,0.3116334153592161,0.004736098999467758,0.03405284534431028,0.5023507563810753
1750831097.018874,-1.8170348507354461,-1.7179813869149347,-1.2122662999926517,1.5649888078338348,-0.9502725509625103,-2.5204274196295047,0.010523037321836853,-0.0315711264561901,0.02135909141290057,0.0015621520854593406,0.04467529445208696,0.044705861701040385,4.957637795070831,3.8433226586505684,0.3116311868273607,0.004736317062525046,0.034056309403832724,0.5023863066852792
1750831097.020952,-1.8170135256491156,-1.7180453756729452,-1.2122230057766625,1.5649919743334615,-0.9501819913258318,-2.520336798033229,0.010801977035637867,-0.032417541310091315,0.02193510809715018,0.0016043472033644547,0.04588436355536873,0.04591575588922426,4.957293524588574,3.843317019139185,0.3116288978027507,0.004736541072292237,0.034059867484478736,0.5024228427132279
1750831097.022844,-1.8169916431190476,-1.7181110567143865,-1.212178559627045,1.5649952252212769,-0.9500890134218647,-2.52024375651958,0.01108047913318132,-0.033263407481216645,0.022511024608322796,0.001646540264125406,0.04709356229570547,0.04712577962859256,4.956940070276369,3.8433112558306632,0.311626548371944,0.004736771015567774,0.034063519402219716,0.5024603631203195
1750831097.0251915,-1.8169692040320289,-1.718178428927458,-1.2121329617467413,1.564998560493107,-0.9499936169880074,-2.5201482948261322,0.011358532061400233,-0.034108710533553924,0.023086838351115194,0.0016887312082566252,0.04830289399768937,0.0483359362411913,4.956577436932576,3.8433053686952956,0.31162413862677973,0.004737006877625497,0.03406726497479965,0.5024988665342234
1750831097.0271227,-1.816946209297953,-1.7182474911714847,-1.2120862123438814,1.5650019801446589,-0.9498958017550203,-2.520050412683823,0.011636124264354631,-0.034953436031243935,0.02366254673328553,0.0017309199759042396,0.04951236197883966,0.04954622904222063,4.956205629482455,3.8432993577198893,0.3116216686576354,0.004737248645462273,0.034071104002968144,0.5025383515332414
1750831097.0291183,-1.816922659849828,-1.718318242276922,-1.2120383116317743,1.5650054841715193,-0.9497955674470324,-2.519950109816966,0.011913244183155714,-0.03579756953865566,0.024238147165817642,0.0017731065067486936,0.050721969549913724,0.05075666133988127,4.955824652967916,3.843293222874863,0.3116191385589536,0.004737496303311578,0.03407503629624465,0.5025788166680949
1750831097.0327585,-1.816922659849828,-1.718318242276922,-1.2120383116317743,1.5650054841715193,-0.9497955674470324,-2.519950109816966,0.011913244183155714,-0.03579756953865566,0.024238147165817642,0.0017731065067486936,0.050721969549913724,0.05075666133988127,4.955824652967916,3.843293222874863,0.3116191385589536,0.004737496303311578,0.03407503629624465,0.5025788166680949
1750831097.0372002,-1.8168985566437836,-1.7183906810453555,-1.2119892598289077,1.5650090725691541,-0.9496929137815586,-2.5198473859432653,0.012189880255920792,-0.03664109662038926,0.024813637063090952,0.0018152907400363592,0.0519317200143724,0.05196723643518177,4.95543451257221,3.843286964134306,0.3116165484305135,0.004737749836195954,0.034079061649081484,0.5026202604451135
1750831097.037767,-1.8168486928980991,-1.7185406166331898,-1.2118877038506684,1.565016502457999,-0.9494803472152329,-2.519634674013193,0.012741654600215426,-0.03832627376605321,0.025964274925825315,0.0018996520687181804,0.054351662800442714,0.05438882818569493,4.95462676144207,3.8432740748922987,0.3116111884737724,0.004738274465613037,0.03408739070222334,0.5027060777682776
1750831097.0391579,-1.8168486928980991,-1.7185406166331898,-1.2118877038506684,1.565016502457999,-0.9494803472152329,-2.519634674013193,0.012741654600215426,-0.03832627376605321,0.025964274925825315,0.0018996520687181804,0.054351662800442714,0.05438882818569493,4.95462676144207,3.8432740748922987,0.3116111884737724,0.004738274465613037,0.03408739070222334,0.5027060777682776
1750831097.0414898,-1.8168486928980991,-1.7185406166331898,-1.2118877038506684,1.565016502457999,-0.9494803472152329,-2.519634674013193,0.012741654600215426,-0.03832627376605321,0.025964274925825315,0.0018996520687181804,0.054351662800442714,0.05438882818569493,4.95462676144207,3.8432740748922987,0.3116111884737724,0.004738274465613037,0.03408739070222334,0.5027060777682776
1750831097.0456526,-1.8168486928980991,-1.7185406166331898,-1.2118877038506684,1.565016502457999,-0.9494803472152329,-2.519634674013193,0.012741654600215426,-0.03832627376605321,0.025964274925825315,0.0018996520687181804,0.054351662800442714,0.05438882818569493,4.95462676144207,3.8432740748922987,0.3116111884737724,0.004738274465613037,0.03408739070222334,0.5027060777682776
1750831097.0491347,-1.816742364949274,-1.7188606838299023,-1.2116707889912242,1.5650323744718224,-0.9490261686327379,-2.519180184919784,0.013838888061204691,-0.041688715812925846,0.02826411084013576,0.002068344431505018,0.05919340760792004,0.05923386966230759,4.95290153415082,3.843246808676548,0.31159975267887563,0.004739393521949871,0.034105156072719585,0.5028893862286767
1750831097.0498168,-1.8167144141528917,-1.7189449002585695,-1.211613686103865,1.5650365533275572,-0.9489065710028513,-2.519060505541879,0.014111813210054756,-0.042527593739993146,0.02883875488313802,0.0021105108419866717,0.06040425018306586,0.06044553612734029,4.952447401981042,3.8432396820407457,0.3115967452196549,0.004739687727887382,0.034109826760208004,0.5029376355097727
1750831097.050375,-1.816685918080739,-1.7190307937235945,-1.211555434059088,1.5650408165133232,-0.9487845515193118,-2.518938402662658,0.014384161900426237,-0.04336574976530793,0.029413267832814543,0.0021526744518559054,0.06161526179952329,0.06165737151750649,4.951984151842689,3.843232431324953,0.31159367858218856,0.004739987673615468,0.0341145887086097,0.5029868501174567
1750831097.0511029,-1.8166568778973238,-1.7191183627667401,-1.211496033121632,1.5650451640234542,-0.9486601098408052,-2.51881387594104,0.014655922540018407,-0.044203169455259594,0.02998764713639067,0.00219483519596786,0.0628264456880417,0.06286937906093847,4.95151179004743,3.8432250565091133,0.31159055288011944,0.004740293342604407,0.03411944166826636,0.5030370282097563
1750831097.052987,-1.8166272947903437,-1.7192076059009027,-1.2114354835613383,1.5650495958521529,-0.9485332456195632,-2.5186869250294985,0.014927083532783112,-0.04503983837645716,0.03056189024522513,0.002236993008571765,0.06403780507037256,0.06408156197676167,4.951030323024702,3.843217557565505,0.3115873682346448,0.004740604714279804,0.034124385385704115,0.5030881679101147
1750831097.0554194,-1.8165971699706898,-1.7192985216101118,-1.2113737856531435,1.56505411199349,-0.9484039585013857,-2.5185575495740777,0.015197633278861741,-0.045875742095681474,0.03113599461468072,0.0022791478234146807,0.06524934315911946,0.06529392347490623,4.950539757338023,3.8432099344757855,0.31158412476358155,0.004740921770943456,0.03412941960322474,0.50314026730125
1750831097.0567334,-1.816566504672461,-1.7193911083495292,-1.211310939677066,1.5650587124414035,-0.9482722481256536,-2.51842574921441,0.015467560174500124,-0.04671086617991785,0.03170995770437517,0.002321299573613665,0.06646106315754528,0.06650646675592489,4.950040099669049,3.843202187214296,0.3115808225917468,0.004741244491184536,0.03413454405769796,0.5031933244275828
1750831097.058847,-1.8165353001529638,-1.7194853645454522,-1.2112469459182034,1.5650633971896966,-0.9481381141253529,-2.5182915235837378,0.015736852611999138,-0.04754519619633524,0.032283776978117754,0.002363448191755625,0.0676729682592885,0.06771919501079526,4.9495313568390795,3.8431943157606674,0.3115774618424014,0.004741572856329347,0.03413975847799908,0.5032473372882563
1750831097.0608058,-1.8165035576927266,-1.7195812885953146,-1.2111818046667189,1.5650681662320372,-0.9480015561270916,-2.51815487230893,0.01600549897961795,-0.048378717712293816,0.0328574499040456,0.0024055936098105303,0.06888506164832449,0.06893211142075663,4.949013535782132,3.843186320090431,0.311574042642502,0.0047419068452289785,0.034145062591917776,0.5033023038530879
1750831097.0628107,-1.816471278595503,-1.71967887886768,-1.2111155162178378,1.5650730195619567,-0.9478625737511184,-2.5180157950105038,0.016273487661516532,-0.04921141629530503,0.033430973954636706,0.0024477357591489238,0.07009734649874444,0.07014521915710649,4.948486643570478,3.843178200188703,0.31157056511987946,0.004742246437104164,0.034150456121012605,0.5033582220445985
1750831097.0646927,-1.816438464188284,-1.7197781337022517,-1.2110480808718336,1.5650779571728484,-0.9477211666113465,-2.5178742913026433,0.01654080703767125,-0.050043277513092066,0.03400434660688352,0.0024898745705404972,0.07130982597441266,0.07135852138101709,4.947950687391609,3.843169956025727,0.31156702940670233,0.004742591611073833,0.0341559387771877,0.5034150897467233
1750831097.0684977,-1.816438464188284,-1.7197781337022517,-1.2110480808718336,1.5650779571728484,-0.9477211666113465,-2.5178742913026433,0.01654080703767125,-0.050043277513092066,0.03400434660688352,0.0024898745705404972,0.07130982597441266,0.07135852138101709,4.947950687391609,3.843169956025727,0.31156702940670233,0.004742591611073833,0.0341559387771877,0.5034150897467233
1750831097.0691824,-1.816405115821305,-1.7198790514098672,-1.2109794989340212,1.5650829790579668,-0.9475773343153682,-2.517730360793221,0.016807445483820568,-0.05087428693352628,0.03457756534223693,0.002532009974124437,0.07252250322901553,0.07257202124335103,4.947405674573967,3.8431615875865024,0.31156343563422945,0.004742942345345765,0.03416151027372964,0.5034729048043942
1750831097.0710123,-1.816371234868054,-1.7199816302724997,-1.2109097707147516,1.5650880852104259,-0.9474310764644818,-2.5175840030838175,0.017073391371379767,-0.05170443012464372,0.03515062764674795,0.002574141899398856,0.07373538140570667,0.07378572188447433,4.946851612564901,3.8431530948507935,0.3115597839375634,0.004743298617755617,0.03416717031392526,0.5035316650230189
1750831097.0729315,-1.8163368227252805,-1.7200858685432587,-1.2108388965293946,1.565093275623198,-0.9472823926537082,-2.517435217769744,0.017338633067369512,-0.0525336926546349,0.03572353101111567,0.0026162702752274233,0.07494846363700333,0.07499962643406478,4.9462885089398325,3.843144477799741,0.31155607445325145,0.004743660406243937,0.034172918598146286,0.5035913681663433
1750831097.0747547,-1.816301880813004,-1.7201917644463895,-1.2107668766983366,1.5650985502891126,-0.9471312824718163,-2.5172840044400626,0.01760315893435222,-0.053362060091854756,0.03629627293076564,0.0026583950298042537,0.07616175304453186,0.07621373801092475,4.945716371404596,3.84313573641246,0.3115523073200638,0.004744027687680024,0.03417875481959082,0.5036520119577816
1750831097.0767028,-1.8162664105745243,-1.7202993161772762,-1.210693711546968,1.5651039092008547,-0.9469777455013393,-2.5171303626776096,0.01786695733035242,-0.05418951800480679,0.03686885090592583,0.002700516090644922,0.07737525273894813,0.07742805972279973,4.945135207789287,3.843126870670146,0.3115484826790362,0.004744400438629083,0.03418467866921843,0.5037135940839612
1750831097.0784159,-1.8162304134764273,-1.7204085219024385,-1.2106194014056726,1.565109352350964,-0.9468217813186026,-2.516974292059017,0.018130016608790597,-0.05501605196210493,0.03744126244158676,0.0027426333846168275,0.07858896581961167,0.07864259466617493,4.944545026057261,3.8431178805611617,0.31154460067033907,0.004744778636403804,0.034190689828806686,0.5037761121850701
1750831097.0804172,-1.8161938910086013,-1.7205193797595335,-1.2105439466098211,1.5651148797318328,-0.946663389493744,-2.5168157921547336,0.018392325118398868,-0.05584164753252925,0.038013505047787,0.0027847468378771807,0.07980289537445948,0.07985734592609378,4.943945834288828,3.843108766061143,0.31154066144189174,0.004745162256502116,0.03419678797657918,0.5038395638640861
1750831097.0824,-1.8161568446842375,-1.7206318878573565,-1.2104673474997583,1.5651204913357053,-0.946502569590737,-2.516654862529052,0.018653871203176367,-0.05666629028495357,0.038585576239404715,0.002826856375899999,0.0810170444798613,0.08107231657596405,4.943337640710302,3.843099527161383,0.3115366651362545,0.0047455512751076795,0.03420297278668311,0.5039039466812677
1750831097.0844643,-1.8161192760398457,-1.7207460442758409,-1.2103896044207936,1.565126187154676,-0.9463393211674145,-2.5164915027401284,0.018914643202289496,-0.057489965788383716,0.03915747353645897,0.0028689619233979,0.08223141620037294,0.0822875096773759,4.942720453658772,3.843090163842798,0.3115326119042395,0.004745945666128799,0.03420924392631571,0.5039692581603339
1750831097.0864613,-1.8160811866352624,-1.7208618470660566,-1.2103107177231927,1.565131967180688,-0.9461736437754906,-2.516325712340008,0.019174629450014108,-0.058312659611921926,0.03972919446402069,0.002911063404426156,0.08344601358849141,0.08350292827988824,4.9420942816087505,3.8430806760929075,0.31152850189433345,0.004746345406298044,0.03421560105577591,0.5040354957743773
1750831097.0883663,-1.8160425780536604,-1.7209792942502142,-1.2102306877621638,1.5651378314055318,-0.9460055369605884,-2.5161574908746496,0.019433818275671328,-0.05913435732477987,0.04030073655236836,0.002953160742237564,0.08466083968465739,0.08471857542086686,4.941459133164627,3.843071063897302,0.31152433525953754,0.004746750468230947,0.034222043835435194,0.5041026569674353
1750831097.0903695,-1.8160034519015582,-1.721098383821662,-1.2101495148978518,1.5651437798208434,-0.9458350002622611,-2.5159868378839487,0.01969219800353626,-0.05995504449623386,0.04087209733696704,0.0029952538593923934,0.08587589751683573,0.085934454125262,4.940815017052524,3.8430613272469847,0.3115201121523168,0.004747160827510328,0.03422857191384379,0.5041707391307034
1750831097.0924199,-1.8159638098088315,-1.7212191137448851,-1.2100671994953247,1.5651498124181036,-0.9456620332140195,-2.5158137529017646,0.019949756952785763,-0.06077470669564489,0.041443274358585545,0.003037342677657381,0.08709119010046867,0.08715056740543728,4.940161942134102,3.843051466130113,0.31151583272851485,0.004747576456834689,0.034235184938236,0.5042397396221254
1750831097.094513,-1.8159236534287233,-1.721341481955509,-1.209983741924563,1.5651559291886357,-0.9454866353433564,-2.5156382354559432,0.020206483437420757,-0.06159332949245305,0.042014265163373914,0.0030794271180621894,0.08830672043816971,0.08836691826095962,4.939499917396675,3.843041480533941,0.31151149714612786,0.004747997330387154,0.03424188254722161,0.5043096557513567
1750831097.096416,-1.8158829844378523,-1.721465486360299,-1.2098991425604488,1.5651621301236043,-0.9453088061717709,-2.515460285068346,0.020462365766196068,-0.062410898456135046,0.04258506730285407,0.0031215071008257093,0.08952249151965042,0.0895835096784139,4.938828951959086,3.8430313704535295,0.3115071055631865,0.0047484234202021715,0.03424866437734954,0.5043804847901066
1750831097.0983624,-1.8158418045362268,-1.7215911248371576,-1.2098134017827569,1.5651684152140135,-0.9451285452147973,-2.5152799012548726,0.020717392242550647,-0.06322739915622211,0.04315567833404565,0.0031635825453826876,0.0907385063214579,0.09080034463121071,4.938149055067617,3.8430211358791606,0.3115026581411629,0.004748854699009705,0.034255530057772966,0.5044522239690667
1750831097.1003966,-1.815800115447252,-1.7217183952351274,-1.2097265199761429,1.565174784450706,-0.9449458519820286,-2.5150970835254904,0.020971551164531758,-0.0640428171622547,0.043726095819458695,0.003205653370380972,0.09195476780678226,0.09201742607937506,4.9374602360983895,3.8430107768085002,0.31149815504156486,0.004749291139334551,0.03426247921222023,0.50452487047048
1750831097.1058095,-1.815715216717936,-1.7219778230462666,-1.209549334839103,1.5651877753254908,-0.944573166697948,-2.514724144329363,0.021477219510224924,-0.065670347370482,0.04486634043116371,0.0032897808321374214,0.0943880426128822,0.094452340233881,4.936055870082722,3.8429896851493037,0.3114889824718852,0.004750179389474769,0.03427662641324609,0.504672873981548
1750831097.1061788,-1.815715216717936,-1.7219778230462666,-1.209549334839103,1.5651877753254908,-0.944573166697948,-2.514724144329363,0.021477219510224924,-0.065670347370482,0.04486634043116371,0.0032897808321374214,0.0943880426128822,0.094452340233881,4.936055870082722,3.8429896851493037,0.3114889824718852,0.004750179389474769,0.03427662641324609,0.504672873981548
1750831097.1075149,-1.815715216717936,-1.7219778230462666,-1.209549334839103,1.5651877753254908,-0.944573166697948,-2.514724144329363,0.021477219510224924,-0.065670347370482,0.04486634043116371,0.0032897808321374214,0.0943880426128822,0.094452340233881,4.936055870082722,3.8429896851493037,0.3114889824718852,0.004750179389474769,0.03427662641324609,0.504672873981548
1750831097.109228,-1.815715216717936,-1.7219778230462666,-1.209549334839103,1.5651877753254908,-0.944573166697948,-2.514724144329363,0.021477219510224924,-0.065670347370482,0.04486634043116371,0.0032897808321374214,0.0943880426128822,0.094452340233881,4.936055870082722,3.8429896851493037,0.3114889824718852,0.004750179389474769,0.03427662641324609,0.504672873981548
1750831097.1109185,-1.815715216717936,-1.7219778230462666,-1.209549334839103,1.5651877753254908,-0.944573166697948,-2.514724144329363,0.021477219510224924,-0.065670347370482,0.04486634043116371,0.0032897808321374214,0.0943880426128822,0.094452340233881,4.936055870082722,3.8429896851493037,0.3114889824718852,0.004750179389474769,0.03427662641324609,0.504672873981548
1750831097.1127589,-1.81558409415062,-1.7223791487378675,-1.2092750093123836,1.5652078924963588,-0.9439958841046971,-2.514146468576881,0.02222892250469511,-0.06810316171662446,0.04657519514332785,0.003415935296493699,0.09803987823893992,0.09810663339073047,4.933882647363152,3.8429571138493896,0.31147481020031803,0.004751549753771028,0.03429846354900496,0.5049016113840691
1750831097.1144211,-1.815539387440774,-1.7225161638761852,-1.2091812896818812,1.5652147664091658,-0.9437985865894456,-2.5139490367325252,0.022477630049002252,-0.06891178051905204,0.04714440048437693,0.0034579766490402774,0.09925768128020362,0.09932525519789921,4.933140500118386,3.8429460077365687,0.31146997654811237,0.0047520165520199085,0.034305905341578666,0.5049796403549703
1750831097.1163855,-1.8154941842635068,-1.722654795070806,-1.2090864318507455,1.56522172439948,-0.9435988532015518,-2.513749167378206,0.022725387968572108,-0.06971921561402893,0.047713395377053165,0.0035000127890362736,0.10047575135698537,0.10054414382955829,4.932389500072501,3.8429347771222555,0.3114650884032304,0.004752488305741604,0.03431342781848351,0.5050585557541967
1750831097.1194386,-1.8154484865298146,-1.7227950399398821,-1.2089904362422663,1.565228766456788,-0.9433966834040941,-2.5135468599774264,0.02297218451584665,-0.0705254525708447,0.04828217743015781,0.0035420436282759143,0.10169409131865167,0.1017633021316094,4.931629657650315,3.8429234220152853,0.31146014594167337,0.004752964982794337,0.03432103056296601,0.5051383544243064
1750831097.1205025,-1.8154022961741942,-1.72293689607271,-1.2088933032845084,1.5652358925703997,-0.9431920766544648,-2.513342113988012,0.023218007937248916,-0.0713304769586966,0.04885074425852617,0.0035840690776538435,0.10291270399935946,0.10298273293478838,4.930860983398989,3.8429119424207503,0.3114551493407222,0.004753446551836337,0.03432871314656651,0.5052190331634397
1750831097.1226969,-1.8153556151546555,-1.7230803610297176,-1.2087950334103015,1.5652431027294453,-0.9429850324044047,-2.5131349288621427,0.023462846473123293,-0.07213427434664671,0.04941909348307751,0.003626089047149065,0.10413159221787692,0.10420243905446187,4.930083488004373,3.8429003383525777,0.3114500987795187,0.004753932980986542,0.03433647513577789,0.5053005887251926
1750831097.1244314,-1.815308445452736,-1.7232254323424758,-1.208695627057227,1.5652503969228744,-0.9427755501000323,-2.5129253040463833,0.023706688357658302,-0.07293683030364415,0.04998722273087082,0.003668103445816311,0.10535075877748129,0.10542242329042395,4.92929718227564,3.842888609816282,0.31144499443832047,0.00475442423803933,0.03434431609421649,0.5053830178186509
1750831097.126425,-1.8152607890735073,-1.7233721075136907,-1.208595084667607,1.5652577751394534,-0.9425636291818753,-2.512713238981714,0.023949521818834484,-0.07373813039845313,0.05055512963510369,0.003710112181747537,0.10657020646572421,0.10664268842669637,4.9285020771668995,3.842876756833179,0.31143983649809975,0.004754920289624231,0.034352235578886885,0.50546631711002
1750831097.1284373,-1.8152126480455948,-1.723520384017207,-1.2084934066884898,1.5652652373677642,-0.942349269084902,-2.512498733103564,0.024191335078325393,-0.07453816019967503,0.05112281183522858,0.003752115162126156,0.10778993805419958,0.10786323723131817,4.927698183745055,3.8428647794141675,0.31143462514252845,0.004755421103822634,0.03436023314025441,0.5055504832192396
1750831097.1304138,-1.8151640244211844,-1.7236702592980055,-1.2083905935716386,1.5652727835962021,-0.9421324692385546,-2.5122817858418416,0.02443211635146913,-0.07533690527572406,0.051690266977002484,0.0037941122931185027,0.10900995629829392,0.10908407245614393,4.926885513230423,3.842852677578064,0.3114293605572347,0.004755926645549168,0.03436830832175142,0.5056355127212341
1750831097.1324842,-1.8151149202760397,-1.7238217307722055,-1.2082866457735193,1.565280413812974,-0.9419132290667784,-2.5120623966209683,0.024671853847164072,-0.0761343511947836,0.05225749271245567,0.0038361034799584766,0.11023026393715887,0.11030519683664011,4.926064076958109,3.842840451346115,0.3114240429267515,0.004756436882064717,0.03437646066603731,0.5057214021486242
1750831097.1344311,-1.8150653377095125,-1.7239747958270595,-1.2081815637552875,1.5652881280060955,-0.9416915479880608,-2.5118405648599116,0.024910535767829735,-0.0769304835248044,0.052824486700029726,0.0038780886268699865,0.11145086369325254,0.11152661309167479,4.925233886410076,3.8428281007417944,0.3114186724398582,0.004756951778324361,0.03438468970284822,0.5058081479858958
1750831097.1363862,-1.8150152788445544,-1.7241294518209571,-1.2080753479827742,1.5652959261633903,-0.9414674254154569,-2.511616289972217,0.0251481503093219,-0.07772528783348406,0.0533912466045439,0.003920067637089703,0.11267175827227,0.11274832392331222,4.924394953191138,3.842815625787707,0.31141324928410125,0.004757471299860691,0.03439299495996451,0.5058957466735922
1750831097.1384206,-1.8149647458277354,-1.7242856960834239,-1.2079679989264767,1.5653038082724875,-0.94124086075663,-2.5113895713660437,0.02538468566086909,-0.07851874968826035,0.053957770097372945,0.003962040412828204,0.1138929503630564,0.1139703320166044,4.923547289041044,3.8428030265073096,0.3114077736522605,0.004757995411016401,0.034401375962720006,0.5059841946062215
1750831097.140441,-1.8149137408292493,-1.7244435259151185,-1.2078595170615412,1.5653117743208196,-0.9410118534138823,-2.5111604084441974,0.02562013000501187,-0.07931085465622076,0.054524054856253994,0.004004006855316896,0.11511444263706182,0.11519264003938039,4.922690905840552,3.8427903029401587,0.3114022457320754,0.004758524077387609,0.0344098322210867,0.5060734881320962
1750831097.1424274,-1.8148622660429359,-1.724602938587835,-1.2077499028677519,1.56531982429562,-0.9407804027841893,-2.510928800604166,0.025854471517512547,-0.08010158830416383,0.05509009856558914,0.0040459668646874655,0.11633623774860982,0.11641525064204337,4.921825815585807,3.842777455109108,0.31139666571924296,0.00475905726107194,0.034418363252609434,0.5061636235562664
1750831097.1445353,-1.814810323686288,-1.7247639313444996,-1.2076391568295177,1.5653279581839223,-0.9405465082592377,-2.5106947472381536,0.026087698367344002,-0.0808909361985451,0.055655898916369136,0.0040879203400872475,0.11755833833412128,0.11763816645735076,4.920952030438018,3.8427644830515946,0.31139103380805494,0.004759594927348139,0.03442696855295902,0.506254597132005
1750831097.1465507,-1.8147579160004668,-1.724926501399171,-1.20752727943586,1.5653361759725566,-0.940310169225457,-2.5104582477331174,0.026319798716550297,-0.08167888390541297,0.056221453606141336,0.004129867179568586,0.11878074701243271,0.11886139010021084,4.920069562656943,3.8427513868075898,0.31138535019149444,0.0047601370382823905,0.03443564762678181,0.5063464050721744
1750831097.1511097,-1.8147579160004668,-1.724926501399171,-1.20752727943586,1.5653361759725566,-0.940310169225457,-2.5104582477331174,0.026319798716550297,-0.08167888390541297,0.056221453606141336,0.004129867179568586,0.11878074701243271,0.11886139010021084,4.920069562656943,3.8427513868075898,0.31138535019149444,0.0047601370382823905,0.03443564762678181,0.5063464050721744
1750831097.151507,-1.8147050452503182,-1.7250906459370405,-1.2074142711803972,1.565344477648148,-0.9400713850640585,-2.5102193014708027,0.026550760720233504,-0.08246541699045978,0.05678676033923314,0.004171807280141724,0.12000346638420314,0.12008492416746896,4.919178424658967,3.8427381664104807,0.3113796150690098,0.00476068355736364,0.03444439996201015,0.5064390435398082
1750831097.1527338,-1.814651713724384,-1.725256362114429,-1.2073001325613335,1.565352863197115,-0.9398301551510695,-2.509977907827779,0.026780572526476025,-0.0832505210189282,0.05735181682661564,0.004213740537705404,0.12122649903197062,0.12130877123769965,4.918278628993516,3.8427248219088117,0.3113738286365504,0.0047612344460340695,0.03445322504817166,0.5065325086539209
1750831097.1550624,-1.814597923734917,-1.725423647058788,-1.2071848640814435,1.5653613326056666,-0.93958647885737,-2.5097340661754766,0.02700922227626019,-0.08403418155561723,0.05791662078602206,0.004255666847089661,0.12244984751977725,0.1225329338709802,4.9173701883351795,3.842711353345552,0.31136799109311614,0.0047617896668343705,0.03446212236422915,0.5066267964813441
1750831097.156537,-1.8145436776178938,-1.7255924978686998,-1.2070684662480584,1.5653698858598004,-0.9393403555487332,-2.509487775880225,0.027236698103419117,-0.08481638416485832,0.05848116994202006,0.004297586102021619,0.123673514392904,0.12375741460868832,4.916453115501744,3.842697760768391,0.31136210264003994,0.004762349181286134,0.03447109138167397,0.5067219030460344
1750831097.1585202,-1.814488977733033,-1.725762911613872,-1.2069509395730567,1.5653785229453,-0.9390917845858571,-2.50923903630329,0.027462988134560832,-0.08559711441047332,0.05904546202597167,0.004339498195101981,0.1248975021778908,0.12498221597328246,4.915527423441487,3.842684044229143,0.31135616347748185,0.0047629129501430886,0.03448013157256726,0.5068178243229146
1750831097.1605465,-1.814433826463807,-1.7259348853351408,-1.2068322845728439,1.5653872438477339,-0.9388407653244082,-2.5089878468009115,0.027688080489015,-0.0863763578557592,0.059609494776137334,0.004381403017805183,0.12612181338210607,0.1262073404680913,4.914593125243555,3.8426702037819713,0.3113501738087345,0.004763480934098736,0.03448924239683933,0.5069145562409872
1750831097.1624773,-1.8143782262174533,-1.72610841604447,-1.2067125017683447,1.5653960485524514,-0.9385872971150571,-2.508734206724341,0.02791196327876493,-0.08715410006344676,0.06017326593762302,0.004423300460470535,0.12734645049363166,0.12743279057708992,4.913650234131714,3.842656239485527,0.3113441338355856,0.004764053093488115,0.03449842331118322,0.5070120946784574
1750831097.1657507,-1.8143221794249982,-1.7262835007249446,-1.206591591684985,1.565404937044582,-0.9383313793035164,-2.5084781154198836,0.028134624608361473,-0.08793032659568009,0.060736773262543106,0.004465190412278727,0.1285714159809573,0.1286585687646862,4.912698763454655,3.8426421513987035,0.3113380437644301,0.004764629387905663,0.03450767376368043,0.5071104354677203
1750831097.1664798,-1.814265688541262,-1.7264601363307763,-1.2064695548526796,1.565413909309032,-0.9380730112305828,-2.508219572228933,0.028356052574907167,-0.08870502301399791,0.06130001450992648,0.004507072761261653,0.12979671229293482,0.12988467747550642,4.911738726720222,3.8426279395851655,0.3113319037992095,0.004765209777156294,0.03451699320112655,0.5072095743926206
1750831097.1686666,-1.8142087560448807,-1.7266383197872983,-1.2063463918058197,1.565422965330483,-0.9378121922321752,-2.507958576488016,0.02857623526794398,-0.08947817487929476,0.06186298744588157,0.0045489473942447785,0.13102234185836564,0.1311111191341697,4.910770137549703,3.842613604109692,0.31132571414843807,0.004765794219295587,0.034526381058694676,0.5073095071874038
1750831097.1704953,-1.8141513844383175,-1.7268180479909656,-1.2062221030832552,1.5654321050933888,-0.9375489216393742,-2.507695127528828,0.02879516076941531,-0.09024976775175833,0.062425689843445854,0.004590814196905032,0.1322483070858833,0.13233789614507102,4.909793009715791,3.842599145048621,0.31131947501670354,0.004766382673957852,0.03453583676824893,0.5074102295381911
1750831097.1726134,-1.8140935762478811,-1.7269993178093506,-1.2060966892282847,1.5654413285819735,-0.9372831987784647,-2.5074292246782774,0.029012817153597475,-0.09101978719089526,0.0629881194828111,0.004632673053692092,0.13347461036374242,0.13356501089216216,4.908807357121802,3.8425845624701025,0.31131318661472,0.004766975098452883,0.03454535975570816,0.5075117370823651
1750831097.1745408,-1.8140353340237372,-1.7271821260811464,-1.2059701507886382,1.5654506357802287,-0.9370150229709733,-2.5071608672585257,0.029229192487040447,-0.09178821875544484,0.06355027415116055,0.004674523847877026,0.1347012540595405,0.13479246573872466,4.907813193813842,3.8425698564563886,0.3113068491489151,0.004767571451376958,0.03455494943915588,0.5076140254061231
1750831097.1766593,-1.813976660339927,-1.727366469616161,-1.2058424883164642,1.5654600266719114,-0.9367443935337159,-2.5068900545870276,0.029444274828502176,-0.09255504800341462,0.0641121516429725,0.00471636646145275,0.13592824052001898,0.13602026302716047,4.906810533969659,3.842555027080489,0.3113004628341306,0.004768171688443827,0.034564605231068135,0.5077170900511278
1750831097.178595,-1.8139175577943831,-1.7275523451953205,-1.2057137023683167,1.5654695012405413,-0.9364713097788329,-2.5066167859765747,0.029658052228885453,-0.09332026049196925,0.06467374975971382,0.004758200775209954,0.13715557207093867,0.137248405078755,4.905799391909229,3.8425400744327947,0.3112940278767802,0.004768775767405626,0.03457432654041674,0.5078209265042686
1750831097.1805916,-1.8138580290089434,-1.7277397495706603,-1.205583793505137,1.5654790594693988,-0.9361957710138356,-2.5063410607353367,0.029870512731178172,-0.09408384177741887,0.06523506631005503,0.004800026668727361,0.1383832510166,0.13847689419345255,4.904779782091567,3.8425249986047127,0.3112875444895747,0.004769383645650157,0.03458411276265231,0.5079255302021235
1750831097.182513,-1.813798076629367,-1.7279286794653315,-1.2054527622922429,1.5654887013415217,-0.9359177765416469,-2.506062878166906,0.030081644370401242,-0.09484577741524858,0.06579609910995798,0.004841844020241323,0.1396112796399408,0.13970573264965067,4.903751719112915,3.842509799678535,0.3112810128872894,0.004769995276821501,0.034593963295985554,0.5080308965380461
1750831097.184551,-1.8137377033253523,-1.7281191315735924,-1.2053206092993154,1.5654984268397032,-0.9356373256606494,-2.505782237570339,0.030291435173526626,-0.09560605295998677,0.06635684598251945,0.004883652706793824,0.1408396602020372,0.14093492270394875,4.902715217705899,3.8424944777579007,0.3112744332808107,0.004770610618619755,0.03460387752456504,0.5081370208460767
1750831097.1864526,-1.8136769117905516,-1.728311102560812,-1.2051873351003781,1.5655082359464894,-0.9353544176647199,-2.505499138240201,0.030499873159439344,-0.09636465396523726,0.06691730475813658,0.004925452604092345,0.1420683949421499,0.14216446659094392,4.901670292748277,3.8424790329391416,0.31126780588555075,0.004771229624733382,0.0346138548338443,0.5082438984174715
1750831097.1885831,-1.8136157047425856,-1.728504589063462,-1.2050529402737888,1.5655181286441764,-0.9350690518432838,-2.505213579466611,0.030706946338864945,-0.09712156598360881,0.0674774732744468,0.004967243586556082,0.14329748607714193,0.14339436652298665,4.900616959253982,3.8424634653278487,0.31126113091535584,0.004771852250029324,0.03462389459287078,0.5083515244862717
1750831097.1904943,-1.813554084923065,-1.728699587689123,-1.2049174254022228,1.565528104914808,-0.9347812274813512,-2.5049255605352854,0.030912642714302364,-0.097876774566695,0.06803734937637342,0.005009025527348021,0.14452693580157144,0.14462462468995835,4.899555232371382,3.842447775029179,0.31125440858520764,0.004772478450224968,0.03463399617331071,0.5084598942381923
1750831097.199825,-1.8134920550976013,-1.7288960950164727,-1.2047807910726585,1.5655381647401727,-0.9344909438595685,-2.504635080727583,0.03111695027999081,-0.0986302652650216,0.06859693091618277,0.005050798298239791,0.1457567462873727,0.14585524325905064,4.898485127404326,3.842431962159525,0.31124763911229436,0.004773108177120443,0.034644158937842555,0.5085690028101081
1750831097.2002497,-1.8134296180558271,-1.7290941075952926,-1.2046430378763606,1.5655483081018013,-0.9341982002542615,-2.504342139320551,0.031319857021829094,-0.09938202362803882,0.06915621575347643,0.005092561769708674,0.14698691968352315,0.14708622437451832,4.897406659783238,3.8424160268292282,0.31124082271300385,0.004773741385144784,0.03465438223976399,0.5086788452808264
1750831097.2006922,-1.8133667766114119,-1.7292936219464607,-1.204504166408868,1.5655585349809646,-0.9339029959374772,-2.5040467355869724,0.031521350917324845,-0.10013203520404336,0.06971520175517223,0.005134315810872225,0.1482174581158436,0.14831757015746536,4.896319845086274,3.842399969162644,0.3112339596037078,0.004774378026829536,0.03466466542674487,0.5087894166845254
1750831097.2009585,-1.8133035336020757,-1.7294946345619486,-1.20436417726998,1.5655688453586698,-0.9336053301770377,-2.5037488687954106,0.031721419935538876,-0.10088028554015825,0.0702738867955594,0.005176060289501799,0.14944836368695832,0.14954928270560572,4.8952246990328545,3.8423837892845674,0.3112270500022754,0.004775018054982213,0.0346750078453323,0.508900712000015
1750831097.2024083,-1.813239891889614,-1.7296971419048246,-1.2042230710637387,1.5655792392156584,-0.9333052022365838,-2.503448538210257,0.03192005203700529,-0.1016267601823009,0.07083226875634024,0.0052177950719938864,0.15067963847576382,0.15078136409302248,4.8941212374720795,3.8423674873198714,0.3112200941275326,0.0047756614214786875,0.034685408827106655,0.5090127261509875
1750831097.2044196,-1.813175854359904,-1.729901140409245,-1.2040808483984158,1.5655897165324038,-0.9330026113756187,-2.5031457430917783,0.032117235173725,-0.10237144467510963,0.071390345526548,0.005259520023369019,0.15191128453741812,0.15201381636994962,4.893009476423168,3.842351063410417,0.3112130921967642,0.004776308078126661,0.03469586770334744,0.5091254540136799
1750831097.2064087,-1.8131114239229325,-1.7301066264804543,-1.2039375098864955,1.5656002772891071,-0.9326975568495639,-2.502840482696166,0.032312957289044555,-0.10311432456194591,0.0719481150026983,0.005301235007237666,0.1531433039030677,0.15324664156252504,4.891889432011435,3.842334517686415,0.3112060444306919,0.0047769579756332965,0.03470638379764313,0.5092388904081057
1750831097.2099948,-1.8130466035128059,-1.7303135964947831,-1.203793056144665,1.565610921465696,-0.9323900379097996,-2.5025327562755826,0.0325072063176582,-0.10385538538481472,0.07250557508865303,0.00534293988583291,0.15437569857947145,0.1544798416725604,4.890761120537347,3.842317850296469,0.3111989510469885,0.004777611065567596,0.034716956422983815,0.509353030101822
1750831097.2104526,-1.8129813960877694,-1.7305220467996447,-1.203647487793794,1.5656216490418207,-0.9320800538037171,-2.502222563078212,0.03269997018552023,-0.10459461268434989,0.0730627236957585,0.005384634519932602,0.15560847054894533,0.15571341867730548,4.8896245584261475,3.842301061385142,0.3111918122668998,0.004778267297191283,0.03472758489080803,0.5094678678101606
1750831097.2127366,-1.8129158046302258,-1.7307319737135316,-1.2035008054589218,1.565632459996852,-0.9317676037747695,-2.501909902348308,0.03289123680978979,-0.10533199199974787,0.07361955874276682,0.005426318768918057,0.15684162176903135,0.156947374529207,4.8884797622479645,3.842284151105949,0.3111846283095795,0.0047789266213411775,0.03473826850322346,0.5095833981936185
1750831097.2145658,-1.8128498321467532,-1.7309433735260136,-1.2033530097692449,1.5656433543098782,-0.9314526870625182,-2.5015947733262447,0.03308099409878928,-0.10606750886873863,0.07417607815589584,0.0054679924906988475,0.15807515417229503,0.15818171115567659,4.887326748722403,3.8422671196159706,0.3111773993960159,0.004779588986638577,0.03474900655663517,0.5096996158607466
1750831097.2165341,-1.812783481668121,-1.7311562424977334,-1.2032041013580983,1.5656543319597012,-0.9311353029026854,-2.5012771752485667,0.03326922995194535,-0.1068011488275289,0.07473227986878962,0.005509655541745917,0.15930906966608044,0.15941643045884216,4.886165534711703,3.84224996707874,0.3111701257461188,0.00478025434253087,0.03475979834054661,0.5098165153624278
1750831097.2186084,-1.8127167562493085,-1.7313705768604066,-1.2030540808629429,1.5656653929248348,-0.9308154505272048,-2.50095710734804,0.03345593225973391,-0.10753289741077442,0.07528816182258866,0.005551307777072877,0.16054337013218312,0.16065153431531223,4.884996137220703,3.842232693659348,0.31116280758176396,0.004780922637856858,0.03477064313524687,0.509934091196962
1750831097.2208343,-1.8126496589695247,-1.7315863728168148,-1.2029029489253489,1.5656765371835013,-0.9304931291642706,-2.500634568853702,0.03364108890362578,-0.10826274015151068,0.07584372196586366,0.005592949050172617,0.1617780574267822,0.16188702457594165,4.883818573399834,3.8422152995324095,0.3111554451231214,0.0047815938195784925,0.03478154021911435,0.510052337811055
1750831097.2224236,-1.8125821929322212,-1.7318036265408052,-1.202750706190983,1.5656877647136287,-0.930168338038392,-2.5003095589909163,0.03382468775604212,-0.10899066258111725,0.07639895825465158,0.005634579213094609,0.16301313338000434,0.1631229030655742,4.882632860548794,3.8421977848762583,0.3111480385914526,0.004782267836724778,0.034792488858241245,0.5101712495898884
1750831097.224569,-1.8125143612651184,-1.7320223341772847,-1.2025973533095913,1.5656990754928473,-0.9298410763704421,-2.499982076981421,0.03400671668028489,-0.10971665022929011,0.07695386865252173,0.005676198116317159,0.16424859979592027,0.1643591715828193,4.881439016101867,3.842180149868818,0.3111405882096837,0.004782944634652292,0.03480348831862548,0.5102908208720499
1750831097.226421,-1.812446167120216,-1.7322424918422197,-1.2024428909349858,1.565710469498487,-0.9295113433777136,-2.4996521220433845,0.03418716353051397,-0.11044068862395051,0.07750845113039895,0.005717805608895784,0.16548445845195733,0.16559583189978228,4.880237057657708,3.842162394704174,0.3111330941962055,0.004783624162778365,0.03481453784971142,0.510411045929491
1750831097.2285202,-1.8123776136738154,-1.7324640956226292,-1.2022873197250306,1.565721946707574,-0.9291791382739722,-2.499319693391458,0.034366016151667254,-0.11116276329123158,0.07806270366678787,0.00575940153826123,0.16672071109907488,0.1668328857618474,4.879027002944077,3.842144519573264,0.3111255567755782,0.004784306364755031,0.03482563670589029,0.510531918990721
1750831097.2305124,-1.8123087041265382,-1.7326871415765828,-1.2021306403416228,1.5657335070968283,-0.9288444602695067,-2.4989847902368276,0.03454326237942638,-0.11188285975540413,0.07861662424754795,0.005800985750352325,0.1679573594611621,0.1680703348874144,4.877808869844907,3.8421265246771745,0.31111797616604187,0.004784991187878559,0.03483678412458504,0.5106534342207559
1750831097.2325547,-1.8122394417033423,-1.7329116257331973,-1.2019728534506822,1.56574515064266,-0.9285073085711861,-2.498647411787271,0.03471889004016598,-0.11260096353885657,0.07917021086609051,0.0058425580895398975,0.16919440523495433,0.16930818096765154,4.876582676389947,3.8421084102178407,0.31111035259152103,0.004785678577181245,0.03484797934086224,0.5107755857280708
1750831097.2345078,-1.812169829653544,-1.7331375440926315,-1.2018139597221325,1.5657568773211663,-0.9281676823825125,-2.4983075572472107,0.03489288695089739,-0.11331706016202052,0.0797234615232601,0.005884118398612707,0.17043185008978287,0.17054642566625594,4.875348440753823,3.842090176406194,0.3111026862726075,0.00478636847722898,0.03485922158274351,0.5108983675685757
1750831097.2365913,-1.812099871250834,-1.733364892626084,-1.2016539598298914,1.5657686871081284,-0.9278255809036784,-2.497965225817769,0.03506524091923703,-0.11403113514332633,0.08027637422731557,0.005925666518827927,0.1716696956673399,0.17178507061919915,4.874106181267557,3.842071823458945,0.3110949774294836,0.004787060833918258,0.034870510071624304,0.5110217737385353
1750831097.2416413,-1.812099871250834,-1.733364892626084,-1.2016539598298914,1.5657686871081284,-0.9278255809036784,-2.497965225817769,0.03506524091923703,-0.11403113514332633,0.08027637422731557,0.005925666518827927,0.1716696956673399,0.17178507061919915,4.874106181267557,3.842071823458945,0.3110949774294836,0.004787060833918258,0.034870510071624304,0.5110217737385353
1750831097.2464757,-1.812099871250834,-1.733364892626084,-1.2016539598298914,1.5657686871081284,-0.9278255809036784,-2.497965225817769,0.03506524091923703,-0.11403113514332633,0.08027637422731557,0.005925666518827927,0.1716696956673399,0.17178507061919915,4.874106181267557,3.842071823458945,0.3110949774294836,0.004787060833918258,0.034870510071624304,0.5110217737385353
1750831097.2468379,-1.8118166404388862,-1.734288506910171,-1.2010029122411598,1.5658167568449242,-0.9264324059778035,-2.4965711151162875,0.03573798318895509,-0.11686692894555281,0.08248460593868683,0.006091733879209234,0.1766251170548147,0.17674368470942894,4.869057276502321,3.841997224836196,0.31106372124179443,0.004789853687644989,0.03491611064248123,0.5115215196568601
1750831097.2485194,-1.8117450002314417,-1.7345229448677575,-1.2008373917778306,1.5658289817996023,-0.9260779159390715,-2.4962163871452168,0.03590193922693979,-0.11757067842026285,0.08303579926174814,0.006133218617113394,0.17786498988445854,0.17798435448574787,4.867775177849454,3.841978279652449,0.31105580309333664,0.004790557473509806,0.03492761841865362,0.5116479554247766
1750831097.2506242,-1.8116730338261764,-1.7347587882181346,-1.200670769277278,1.565841289710609,-0.9257209457449465,-2.4958591774253613,0.03606417896802908,-0.11827231931868373,0.08358664283735451,0.006174690179561878,0.17910527269151577,0.17922543373596045,4.8664851684323445,3.8419592167555323,0.31104784374255523,0.004791263372270664,0.03493916761500311,0.5117749782966388
1750831097.2525053,-1.81160074466794,-1.7349960327296508,-1.2005030454409393,1.5658536805514236,-0.9253614945740267,-2.4954994851363335,0.03622469015270455,-0.11897183714374453,0.08413713472567633,0.006216148396345226,0.1803459669168765,0.18046692389492422,4.865187267634348,3.841940036400854,0.3110398434105627,0.004791971325102188,0.034950757401692054,0.5119025818676917
1750831097.2559507,-1.8115281362261157,-1.7352346741416609,-1.2003342209741223,1.5658661542951828,-0.9249995616020588,-2.4951373094549054,0.0363834605116495,-0.11966921739592526,0.08468727299419725,0.006257593095592154,0.18158707397170595,0.18170882636773247,4.863881494968813,3.8419207388515497,0.31103180231482763,0.004792681273391793,0.034962386941362805,0.5120307596664171
1750831097.2564635,-1.8114552119946303,-1.7354747081645172,-1.2001642965859922,1.5658787109146786,-0.9246351460019984,-2.4947726495550695,0.03654047776577338,-0.12036444557322955,0.08523705571777146,0.0062990241037200355,0.18282859523727873,0.18295114252947675,4.86256787013334,3.841901324379069,0.3110237206750355,0.004793393157083408,0.03497405539198557,0.5121595051679779
1750831097.2587774,-1.8113819754919813,-1.7357161304795676,-1.199993272989559,1.5658913503823535,-0.9242682469440675,-2.494405504608098,0.036695729626102194,-0.12105750717109265,0.08578648097852687,0.006340441245444977,0.184070532064607,0.18419387372497925,4.861246412945507,3.841881793260287,0.3110155987076826,0.0047941069162845875,0.03498576190105788,0.5122888117870241
1750831097.2605214,-1.8113084302612537,-1.7359589367391441,-1.199821150901661,1.5659040726702982,-0.9238988635958174,-2.494035873782604,0.0368492037937865,-0.12174838768233295,0.086335546865879,0.00638184434376536,0.18531288577425792,0.18543702126853506,4.859917143400898,3.8418621457823763,0.3110074366301894,0.0047948224905427555,0.03499750561093525,0.5124186728774278
1750831097.2624621,-1.8112345798701401,-1.7362031225665664,-1.1996479310429473,1.5659168777502472,-0.9235269951221889,-2.4936637562446022,0.0370008879600402,-0.12243707259712228,0.08688425147653751,0.006423233219953625,0.1865556576559888,0.1866805864436461,4.858580081635373,3.841842382230046,0.3109992346597114,0.004795539819057506,0.0350092856536922,0.5125490817312043
1750831097.2644663,-1.81116042791096,-1.7364486835561266,-1.1994736141378697,1.5659297655935762,-0.9231526406855721,-2.4932891511575725,0.0371507698061098,-0.12312354740288649,0.08743259291444291,0.006464607693491448,0.18779884896872026,0.1879245705027754,4.857235247946204,3.8418225029046074,0.31099099301213506,0.004796258839132871,0.03502110116065137,0.5126800315867774
1750831097.2665248,-1.8110859780006816,-1.7366956152730948,-1.1992982009146642,1.565942736171298,-0.9227757994458745,-2.4929120576825206,0.03729883700322968,-0.12380779758428036,0.0879805692907353,0.006505967582186038,0.18904246093993649,0.18916897466705968,4.855882662779541,3.8418025081047698,0.31098271190201954,0.004796979491215961,0.03503295124623635,0.5128115156116508
1750831097.268549,-1.8110112337809383,-1.7369439132537021,-1.1991216921053356,1.5659557894540592,-0.9223964705605754,-2.4925324749780406,0.03744507721258671,-0.1244898086230748,0.08852817872375247,0.006547312701972541,0.1902864947657318,0.19041380012607179,4.8545223467420575,3.8417823981490025,0.31097439154459644,0.004797701710099649,0.035044835026186404,0.5129435269234883
1750831097.2703779,-1.8109361989180552,-1.737193573005145,-1.1989440884456481,1.5659689254121363,-0.9220146531847977,-2.4921504022003806,0.037589478085282665,-0.1251695659981635,0.08907541933897212,0.006588642867101857,0.19153095161035108,0.19165904803752656,4.853154320589995,3.841762173345887,0.3109660321526561,0.004798425435746088,0.035056751603290186,0.5130760585661287
1750831097.2724967,-1.8108608771030612,-1.7374445900055697,-1.1987653906751037,1.5659821440154327,-0.9216303464713658,-2.4917658385035044,0.037732027262319445,-0.12584705518544756,0.08962228926905709,0.006629957889924182,0.19277583260601502,0.1929047195270505,4.851778605251343,3.841741834027189,0.31095763394132014,0.004799150601954146,0.035068700075418416,0.5132091035362933
1750831097.2744205,-1.8107852720517155,-1.7376969597040768,-1.1985855995369352,1.5659954452334748,-0.9212435495708728,-2.4913787830391576,0.03787271237451887,-0.12652226165780125,0.09016878665367764,0.006671257581064651,0.19402113885255262,0.19415081568788053,4.85039522178431,3.841721380517516,0.3109491971196079,0.004799877147327468,0.0350806795300839,0.5133426547560115
1750831097.2765532,-1.8107093875045255,-1.737950677520704,-1.1984047157780884,1.5660088290354084,-0.9208542616317432,-2.490989234956931,0.03801152104252688,-0.12719517088496787,0.09071490963957633,0.00671254174928851,0.19526687141734547,0.19539733758061817,4.849004191428465,3.8417008131640076,0.31094072189950317,0.004800605006591367,0.03509268905323555,0.5134767050933249
1750831097.2785983,-1.8106332272267682,-1.738205738846431,-1.1982227401492072,1.5660222953899947,-0.9204624818003007,-2.4905971934043283,0.03814844087677919,-0.1278657683335796,0.09126065638060422,0.006753810201534062,0.19651303133484682,0.19664428623294808,4.847605535573733,3.84168013230194,0.3109322084932399,0.004801334115272431,0.0351047277172699,0.5136112473479733
1750831097.2803752,-1.810556795008507,-1.738462139043162,-1.1980396734046224,1.5660358442656073,-0.9200682092208332,-2.4902026575268295,0.038283459477450536,-0.12853403946698297,0.0918060250374873,0.006795062742859165,0.19775961960634042,0.19789166263938343,4.846199275766778,3.841659338295116,0.3109236571071479,0.004802064407318842,0.03511679458779065,0.513746274265016
1750831097.2823732,-1.8104800946646202,-1.7387198734437286,-1.1978555163023348,1.5660494756302277,-0.9196714430356598,-2.4898056264679598,0.03841656443441928,-0.1291999697452619,0.09235101377795318,0.0068362991765195166,0.1990066371997772,0.19913946776097197,4.844785433705086,3.841638431495275,0.3109150679504656,0.004802795818738795,0.03512888872580295,0.5138817785163687
1750831097.2884638,-1.8104031300348122,-1.7389789373518774,-1.1976702696040054,1.5660631894514425,-0.9192721823851961,-2.4894060993693565,0.03854774332728212,-0.12986354462512767,0.09289562077660052,0.006877519303857807,0.2002540850494303,0.20038770252504312,4.843364031271831,3.841617412276207,0.3109064412295929,0.004803528282336357,0.03514100918259093,0.51401775271732
1750831097.2892706,-1.8104031300348122,-1.7389789373518774,-1.1976702696040054,1.5660631894514425,-0.9192721823851961,-2.4894060993693565,0.03854774332728212,-0.12986354462512767,0.09289562077660052,0.006877519303857807,0.2002540850494303,0.20038770252504312,4.843364031271831,3.841617412276207,0.3109064412295929,0.004803528282336357,0.03514100918259093,0.51401775271732
1750831097.2909887,-1.8104031300348122,-1.7389789373518774,-1.1976702696040054,1.5660631894514425,-0.9192721823851961,-2.4894060993693565,0.03854774332728212,-0.12986354462512767,0.09289562077660052,0.006877519303857807,0.2002540850494303,0.20038770252504312,4.843364031271831,3.841617412276207,0.3109064412295929,0.004803528282336357,0.03514100918259093,0.51401775271732
1750831097.2913105,-1.8102484234005356,-1.7395010347604538,-1.19729651048406,1.5660908643320004,-0.9184661742409581,-2.4885995536104595,0.03880427318723907,-0.13118356999928113,0.093983682281277,0.006959909835481912,0.20275027508451854,0.2028854645197053,4.840498633519226,3.8415750380796636,0.31088907591944714,0.004804996099537239,0.03516532521989965,0.5142910811108283
1750831097.2925236,-1.8101706891998166,-1.7397640587228969,-1.1971079996039284,1.566104825324505,-0.9180594250191154,-2.4881925332246095,0.03892959926167438,-0.13183999138958158,0.09452713317065102,0.007001079832974906,0.2039990189676914,0.20413499343386782,4.839054682743716,3.841553683877338,0.3108803377379725,0.004805731318121284,0.035177518866071546,0.514428420210416
1750831097.2945495,-1.810092706320721,-1.7400283931169414,-1.1969184022106942,1.566118868639919,-0.917650177875986,-2.4877830133480505,0.03905294948660659,-0.13249399917337976,0.095070195084863,0.007042232710547365,0.20524819650202783,0.2053849553571156,4.837603260653297,3.841532218797385,0.31087156280769945,0.00480646732084901,0.03518973495962237,0.5145661990771092
1750831097.2964292,-1.8100144787274184,-1.7402940331008123,-1.1967277190841008,1.566132994243795,-0.9172384319434981,-2.4873709931140042,0.03917431138963758,-0.13314557878955488,0.09561286623236435,0.0070833682599391705,0.20649780844935303,0.20663535104404337,4.836144389931805,3.8415106432533093,0.3108627513297956,0.004807204037079044,0.03520197251403584,0.5147044100048191
1750831097.3001075,-1.8099360104090323,-1.7405609738036114,-1.1965359510074665,1.5661472021012666,-0.9168241863520947,-2.486956471654218,0.03929367248789023,-0.13379471567324316,0.0961551448282454,0.0071244862710268106,0.20774785553620423,0.20788618121385974,4.834678093410007,3.8414889576521247,0.31085390350364056,0.004807941400370728,0.03521423053523831,0.5148430452181846
1750831097.3006432,-1.8098573053796656,-1.7408292103253045,-1.1963430987676738,1.5661614921770455,-0.9164074402307989,-2.486539448099037,0.03941102028798433,-0.13444139525573134,0.0966970290941849,0.007165586531651498,0.2089983384534855,0.2091374465501259,4.833204394084658,3.8414671624173673,0.3108450195276478,0.004808679339330371,0.03522650801943209,0.514982096884112
1750831097.3027341,-1.8098573053796656,-1.7408292103253045,-1.1963430987676738,1.5661614921770455,-0.9164074402307989,-2.486539448099037,0.03941102028798433,-0.13444139525573134,0.0966970290941849,0.007165586531651498,0.2089983384534855,0.2091374465501259,4.833204394084658,3.8414671624173673,0.3108450195276478,0.004808679339330371,0.03522650801943209,0.514982096884112
1750831097.3045406,-1.8097783676784154,-1.7410987377367189,-1.196149163155157,1.566175864435417,-0.9159881927072897,-2.4861199215774743,0.03952634228603764,-0.1350856029644038,0.09723851725835395,0.007206668827680023,0.2102492578562271,0.21038914770046868,4.831723315126955,3.8414452579784717,0.3108360995975121,0.004809417784174873,0.035238803956039726,0.5151215571001481
1750831097.306507,-1.8096992013693987,-1.7413695510795293,-1.1959541449638857,1.5661903188402357,-0.91556644290797,-2.485697891217284,0.03963962596760834,-0.1357273242226296,0.09777960755533638,0.007247732943034486,0.21150061436336046,0.21164128527628565,4.830234879858087,3.8414232447779817,0.31082714390674293,0.004810156665820278,0.035251117328146106,0.5152614178938947
1750831097.3085501,-1.809619810541772,-1.741641645366255,-1.1957580449913534,1.566204855354923,-0.9151421899580443,-2.4852733561450346,0.03975085880771148,-0.13636654444977353,0.09832029822623087,0.007288778659591469,0.2127524085572745,0.21289385985247833,4.828739111776773,3.8414011232535374,0.31081815265156865,0.004810895912249449,0.03526344710633729,0.5154016712310766
1750831097.310577,-1.809540199309752,-1.7419150155802505,-1.1955608640385673,1.5662194739424615,-0.9147154329815859,-2.484846315486181,0.03986002827077999,-0.13700324906104228,0.09886058751836772,0.007329805757228885,0.21400464098373564,0.2141468719671707,4.8272360345427865,3.841378893864952,0.31080912602050303,0.00481163545268239,0.03527579225894442,0.5155423090131751
1750831097.3126473,-1.8094603718126372,-1.7421896566756958,-1.1953626029100306,1.5662341745653914,-0.9142861711016144,-2.4844167683651386,0.0399671218106493,-0.1376374234674398,0.0994004736853802,0.007370814013794758,0.2152573121514412,0.21540032212141097,4.825725671982841,3.8413565570753576,0.31080006420407774,0.0048123752152959744,0.035288151741719696,0.5156833230686089
1750831097.31455,-1.809380332214829,-1.7424655635775883,-1.195163262413736,1.5662489571858067,-0.9138544034401708,-2.483984713905359,0.040072126870547155,-0.13826905307571274,0.09993995498716768,0.007411803205086411,0.2165104225318628,0.2166542107788994,4.8242080480922525,3.8413341133530072,0.3107909673917424,0.004813115127608917,0.03530052450600418,0.5158247051638293
1750831097.316585,-1.8093000847058534,-1.7427427311817354,-1.1949628433611483,1.5662638217653508,-0.9134201291183883,-2.4835501512294025,0.040175030883071845,-0.13889812328825044,0.1004790296897101,0.007452773104849703,0.21776397255883995,0.21790853836569613,4.822683187032469,3.8413115631783286,0.31078183576771584,0.004813855116991864,0.03531290949168645,0.51596644699584
1750831097.3186283,-1.8092196335003798,-1.743021154354743,-1.1947613465671951,1.5662787682652128,-0.9129833472565725,-2.4831130794590166,0.04027582127018823,-0.13952461950302422,0.1010176960651123,0.007493723484755762,0.2190179626283484,0.21916330526993621,4.821151113138466,3.841288907039479,0.31077266951768406,0.004814595110051235,0.035325305632135005,0.5161085401945066
1750831097.3205514,-1.809138982838248,-1.7433008279340108,-1.1945587728502538,1.566293796646123,-0.9125440569742738,-2.48267349771521,0.04037448544319641,-0.1401485271135229,0.1015559523914984,0.0075346541143950585,0.22027239309827035,0.2204185118415409,4.819611850903572,3.8412661454280994,0.3107634688239998,0.004815335033114907,0.0353377118542398,0.5162509763220388
1750831097.3225498,-1.8090581369844827,-1.7435817467277204,-1.194355123032139,1.5663089068683487,-0.9121022573903659,-2.4822314051183305,0.04047101080275193,-0.14076983150863903,0.1020937969528995,0.007575564761278636,0.22152726428797564,0.22167415839192486,4.818065425010955,3.8412432788564144,0.31075423386655254,0.004816074812425585,0.03535012707309721,0.5163937468701861
1750831097.3246686,-1.8089771002293196,-1.743863905514825,-1.1941503979380919,1.56632409889169,-0.9116579476231212,-2.4817868007881407,0.04056538473881266,-0.14138851807261468,0.10263122803920639,0.007616455190778631,0.22278257647817984,0.22293024519371477,4.816511860289969,3.8412203078356613,0.31074496482329184,0.004816814372448516,0.03536255019980257,0.5165368432670838
1750831097.3266013,-1.808895876888224,-1.7441472990450428,-1.1939445983967687,1.5663393726754757,-0.91121112679029,-2.481339683843898,0.040657594630672735,-0.14200457218499724,0.10316824394617873,0.0076573251661801265,0.22403832991054246,0.22418677248044544,4.81495118176187,3.8411972328840616,0.31073566187271373,0.004817553638978765,0.035374980134135016,0.5166802568650449
1750831097.3348024,-1.808814471301913,-1.7444319220388476,-1.1937377252402266,1.5663547281785595,-0.910761794009181,-2.480890053404432,0.0407476278469207,-0.14261797922049813,0.10370484297520005,0.007698174448628264,0.22529452478735212,0.2254437404462765,4.8133834146062435,3.8411740545376682,0.31072632518644766,0.004818292536220718,0.03538741576700274,0.5168239789526569
1750831097.3354375,-1.808814471301913,-1.7444319220388476,-1.1937377252402266,1.5663547281785595,-0.910761794009181,-2.480890053404432,0.0407476278469207,-0.14261797922049813,0.10370484297520005,0.007698174448628264,0.22529452478735212,0.2254437404462765,4.8133834146062435,3.8411740545376682,0.31072632518644766,0.004818292536220718,0.03538741576700274,0.5168239789526569
1750831097.335791,-1.8087328878363804,-1.7447177691874538,-1.1935297793039155,1.5663701653593143,-0.9103099483967352,-2.480437908588223,0.04083547174545553,-0.14322872454896723,0.10424102343336891,0.007739002797077679,0.22655116127140076,0.22670114924570461,4.811808584183588,3.8411507733339625,0.31071695493873475,0.004819030986843035,0.035399855985772166,0.5169680007501243
1750831097.336049,-1.8086511308829119,-1.7450048351528151,-1.1933207614266657,1.5663856841756296,-0.9098555890696085,-2.479983248513483,0.04092111367348241,-0.14383679353529144,0.1047767836332694,0.007779809968375277,0.22780823948551826,0.2279589989932549,4.810226716029524,3.8411273898228635,0.3107075512973199,0.00481976891571995,0.035412299664698985,0.5171123134021427
1750831097.3364608,-1.8085692048581095,-1.7452931145676072,-1.1931106724506755,1.5664012845849062,-0.9093987151442509,-2.4795260722982344,0.041004540967487825,-0.14444217153930627,0.10531212189300501,0.007820595717189491,0.22906575951241012,0.2292172897631922,4.808637835844487,3.8411039045645796,0.3106981144310639,0.004820506245616398,0.035424745673467636,0.5172569079869863
1750831097.338389,-1.8084871142039134,-1.7455826020352205,-1.192899513221505,1.5664169665440517,-0.9089393257369878,-2.479066379060392,0.04108574095325529,-0.14504484391574712,0.10584703653603418,0.007861359795978795,0.23032372139413085,0.23047602158923242,4.807041969509266,3.8410803181224646,0.3106886445039042,0.004821242898311294,0.035437192866923345,0.517401775514723
1750831097.3404167,-1.8084048633876249,-1.745873292129751,-1.1926872845880574,1.566432730009477,-0.9084774199641021,-2.478604167917844,0.041164700945856364,-0.14564479601414304,0.10638152589116705,0.007902101955025161,0.23158212513215023,0.23173519446423202,4.805439143079763,3.84105663107509,0.31067914168008987,0.00482197879638324,0.0354496401017852,0.5175469069199259
1750831097.342394,-1.808322456901923,-1.7461651793959883,-1.1924739874025754,1.5664485749370907,-0.9080129969419142,-2.4781394379885335,0.041241408249669854,-0.14624201317875044,0.10691558829238483,0.007942821942368901,0.23284097068673476,0.23299480833990338,4.803829382795219,3.841032844008158,0.31066960611866246,0.004822713860482008,0.035462086217340386,0.5176922930710048
1750831097.344399,-1.8082398992648887,-1.7464582583494028,-1.1922596225206306,1.5664645012822958,-0.907546055786864,-2.477672188390543,0.04131585015835323,-0.14683648074846212,0.10744922207880449,0.007983519503856675,0.23410025797679118,0.23425486312650443,4.8022127150578715,3.8410089575160438,0.31066003797759034,0.004823448012478781,0.0354745300484726,0.5178379247618187
1750831097.3464036,-1.80815719502003,-1.7467525234761414,-1.1920441908011075,1.5664805089999845,-0.9070765956155977,-2.477202418242174,0.04138801395486431,-0.1474281840567419,0.10798242559458635,0.008024194383087206,0.23535998687951823,0.23551535869254672,4.800589166455483,3.8409849722009506,0.3106504374122852,0.00482418117260799,0.03548697042025279,0.5179837927173156
1750831097.3502655,-1.8080743487362962,-1.7470479692330079,-1.1918276931062,1.5664965980445342,-0.9066046155450467,-2.4767301266620345,0.04145788691147567,-0.14801710843151042,0.10851519718878488,0.008064846321401897,0.23662015723026658,0.2367762948644906,4.79895876376196,3.84096088868245,0.31064080457432375,0.004824913260709305,0.03549940615380988,0.5181298875890216
1750831097.3507836,-1.8080743487362962,-1.7470479692330079,-1.1918276931062,1.5664965980445342,-0.9066046155450467,-2.4767301266620345,0.04145788691147567,-0.14801710843151042,0.10851519718878488,0.008064846321401897,0.23662015723026658,0.2367762948644906,4.79895876376196,3.84096088868245,0.31064080457432375,0.004824913260709305,0.03549940615380988,0.5181298875890216
1750831097.3527887,-1.8079913650081032,-1.7473445900474598,-1.191610130301398,1.5665127683698024,-0.9061301146925151,-2.476255312769122,0.04152545628976042,-0.14860323919510715,0.10904753521531912,0.00810547505790009,0.23788076882186748,0.23803767142644006,4.797321533916296,3.8409367075776477,0.3106311396138948,0.004825644196934528,0.03551183605135408,0.5182761999555517
1750831097.3546016,-1.8079082484553552,-1.7476423803175924,-1.1913915032554785,1.5665290199291224,-0.905653092175764,-2.475777975682907,0.041590709340609315,-0.1491865616641756,0.10957943803285247,0.008146080329372732,0.23914182140484355,0.23929948811985158,4.795677504044771,3.8409124295216484,0.31062144267824693,0.004826373899464258,0.03552425892104185,0.5184227203279907
1750831097.3565943,-1.8078250037234653,-1.7479413344121273,-1.191171812840497,1.5665453526752995,-0.9051735471130957,-2.4752981145234214,0.041653633304243834,-0.14976706114958852,0.11011090400466447,0.008186661870349988,0.24040331468655587,0.24056174464321647,4.794026701455762,3.840888055157095,0.31061171391090925,0.0048271022876787495,0.03553667354699477,0.5185694391389554
1750831097.3586082,-1.8077416354833762,-1.7482414466704048,-1.1909510599317787,1.566561766560605,-0.904691478623441,-2.474815728411343,0.04171421541022749,-0.1503447229563819,0.11064193149860733,0.008227219413020057,0.24166524833138447,0.24182444065176964,4.792369153637832,3.840863585133121,0.3106019534541506,0.004827829278568815,0.035549078718425615,0.5187163467535847
1750831097.3606656,-1.8076581484315835,-1.7485427114023668,-1.1907292454079066,1.5665782615367727,-0.9042068858264463,-2.474330816468082,0.041772442877464504,-0.15091953238362024,0.11117251888688925,0.00826775268733955,0.24292762196009776,0.2430875757571654,4.790704888259037,3.8408390201172393,0.31059216144432333,0.004828554792100251,0.035561473206779506,0.5188634334573247
1750831097.3630857,-1.8075745472901534,-1.7488451228885484,-1.1905063701507164,1.5665948375549938,-0.903719767842559,-2.47384337781587,0.04182830291424185,-0.15149147472437807,0.1117026645460895,0.008308261420836209,0.24419043514963953,0.2443511495271945,4.789033933179175,3.8408143607763114,0.3105823380180565,0.004829278742567038,0.03557385577750251,0.519010689470158
1750831097.3645918,-1.807490836806748,-1.7491486753800647,-1.1902824350452876,1.5666114945659124,-0.9032301237931177,-2.473353411577847,0.04188178271821178,-0.15206053526560837,0.11223236685697018,0.008348745338768332,0.24545368743296908,0.2456151614854588,4.787356316428973,3.840789607792959,0.3105724833066827,0.004830001048639741,0.03558622519153882,0.519158104932865
1750831097.366626,-1.8074070217546438,-1.7494533630985991,-1.1900574409799312,1.5666282325196206,-0.9027379528004387,-2.4728609168781492,0.041932869476441356,-0.1526266992880896,0.11276162420445403,0.008389204163982278,0.2467173782985281,0.24687961111107198,4.78567206623805,3.840764761857018,0.3105625974410986,0.004830721624832778,0.03559858019481213,0.5193056699143997
1750831097.3685892,-1.8073231069327544,-1.7497591802363877,-1.1898313888461862,1.5666450513656538,-0.9022432539879057,-2.4723658928420007,0.04198155036540779,-0.1531899520662986,0.11329043497735923,0.008429637617028484,0.247981507190019,0.2481444978383402,4.7839812110120565,3.840739823673295,0.3105526805446298,0.004831440388822838,0.035610919527001184,0.5194533744067631
1750831097.37058,-1.8072390971656507,-1.7500661209562134,-1.18960427953881,1.5666619510529862,-0.901746026480061,-2.471868338595801,0.04202781255103681,-0.1537502788683776,0.11381879756841706,0.008470045416023959,0.24924607350613223,0.24940982105646978,4.782283779347764,3.8407147939480213,0.3105427327409991,0.004832157254300546,0.03562324192010693,0.5196012083336031
1750831097.372524,-1.8071549973035825,-1.7503741793913852,-1.1893761139557695,1.5666789315300258,-0.9012462694026944,-2.4713682532672174,0.042071643188708215,-0.15430766495598458,0.11434671037409279,0.008510427276717495,0.2505110766002221,0.25067558010923346,4.7805798000264925,3.84068967340934,0.31053275414927994,0.004832872136625339,0.035635546096993376,0.5197491615355913
1750831097.3746347,-1.8070708122224985,-1.7506833496457315,-1.1891468929982372,1.5666959927446098,-0.9007439818829353,-2.4708656359852745,0.042113029423300315,-0.15486209558427333,0.11487417179447452,0.008550782912453585,0.25177651577994437,0.251941774294678,4.7788693020211985,3.8406644627825255,0.3105227448849243,0.004833584950071573,0.03564783077031906,0.5198972237852126
1750831097.3809805,-1.806986546824068,-1.7509936257935816,-1.1889166175705794,1.5667131346439995,-0.900239163049342,-2.4703604858804478,0.04215195838920382,-0.15541355600177087,0.11540118023320681,0.008591112034119285,0.2530423903070273,0.25320840286480434,4.7771523144915,3.8406391628105325,0.3105127050619065,0.004834295607253576,0.035660094646291066,0.5200453847773715
1750831097.3813624,-1.806902206035704,-1.751305001879759,-1.1886852885803538,1.5667303571748759,-0.8997318120319981,-2.469852802084754,0.042188417210335866,-0.15596203145026666,0.11592773409719521,0.00863141435026361,0.2543086993968737,0.2544754650252469,4.7754288667803895,3.840613774248211,0.31050263478563583,0.004835004024052063,0.035672336419906935,0.5201936341294485
1750831097.3816326,-1.806902206035704,-1.751305001879759,-1.1886852885803538,1.5667303571748759,-0.8997318120319981,-2.469852802084754,0.042188417210335866,-0.15596203145026666,0.11592773409719521,0.00863141435026361,0.2543086993968737,0.2544754650252469,4.7754288667803895,3.840613774248211,0.31050263478563583,0.004835004024052063,0.035672336419906935,0.5201936341294485
1750831097.383759,-1.806902206035704,-1.751305001879759,-1.1886852885803538,1.5667303571748759,-0.8997318120319981,-2.469852802084754,0.042188417210335866,-0.15596203145026666,0.11592773409719521,0.00863141435026361,0.2543086993968737,0.2544754650252469,4.7754288667803895,3.840613774248211,0.31050263478563583,0.004835004024052063,0.035672336419906935,0.5201936341294485
1750831097.3847249,-1.8068177948105806,-1.7516174719195607,-1.1884529069383003,1.5667476602833341,-0.8992219279625999,-2.469342583731846,0.042222393000217545,-0.15650750716478187,0.116453831796712,0.008671689566879885,0.25557544221826717,0.25574295993497614,4.7736989884425896,3.8405882978558887,0.31049253416487943,0.004835710110067484,0.03568455477788494,0.5203419613874268
1750831097.3864741,-1.8067333181276553,-1.7519310298987474,-1.188219473558335,1.5667650439148795,-0.8987095099745552,-2.4688298299571056,0.04225387286194903,-0.15704996837342927,0.11697947174507113,0.00871193738759809,0.25684261789316326,0.2570108867059593,4.771962709198834,3.8405627344072344,0.3104824032988114,0.004836413780194732,0.035696748401070275,0.5204903560141588
1750831097.388495,-1.80664878099169,-1.7522456697735311,-1.1879849893575436,1.5667825080144213,-0.8981945572030741,-2.4683145398977375,0.042282843888284995,-0.1575894002973734,0.11750465235863926,0.008752157513516675,0.2581102254961891,0.2582792444028696,4.770220058979944,3.840537084681783,0.31047224228714054,0.004837114944486994,0.035708915956201265,0.5206388074045071
1750831097.390412,-1.8065641884332706,-1.7525613854705568,-1.1877494552561778,1.5668000525262693,-0.8976770687852653,-2.4677967126928646,0.04230929316164302,-0.15812578815067718,0.11802937205654872,0.008792349643311494,0.25937826405446673,0.2595480320427494,4.76847106790132,3.8405113494794083,0.3104620512215982,0.004837813515921211,0.03572105610504439,0.5207873048701546
1750831097.3942602,-1.8064795455088296,-1.7528781708868912,-1.1875128721776465,1.5668176773941278,-0.8971570438602319,-2.467276347483624,0.0423332077541566,-0.1586591171402805,0.11855362926072002,0.00883251347311299,0.2606467325472564,0.26081724859470345,4.766715766275473,3.8404855295985594,0.31045183019430767,0.00483850940388181,0.03573316749931969,0.5209358376491746
1750831097.3946242,-1.8064795455088296,-1.7528781708868912,-1.1875128721776465,1.5668176773941278,-0.8971570438602319,-2.467276347483624,0.0423332077541566,-0.1586591171402805,0.11855362926072002,0.00883251347311299,0.2606467325472564,0.26081724859470345,4.766715766275473,3.8404855295985594,0.31045183019430767,0.00483850940388181,0.03573316749931969,0.5209358376491746
1750831097.3964927,-1.806394857300666,-1.7531960198900087,-1.1872752410485141,1.5668353825610908,-0.8966344815691656,-2.4667534434132627,0.0423545747277156,-0.15918937246587583,0.11907742239562019,0.008872648696571828,0.2619156299055851,0.26208689297957877,4.764954184612985,3.840459625855238,0.31044157929077293,0.004839202519499167,0.03574524878027855,0.5210843949023403
1750831097.3986082,-1.806310128916964,-1.7535149263177736,-1.1870365627984931,1.5668531679696371,-0.8961093810554432,-2.4662279996272347,0.04237338113399817,-0.15971653931979932,0.11960074988812246,0.008912755004814255,0.263184955012037,0.26335696406963593,4.763186353617726,3.8404336390793867,0.310431298592662,0.00483989277247545,0.03575729858327256,0.5212329657095459
1750831097.400469,-1.8062253654918141,-1.7538348839784303,-1.1867968383604373,1.5668710335616256,-0.8955817414647278,-2.4657000152732977,0.04238961401452539,-0.160240602887001,0.12012361016743615,0.008952832086449323,0.2644547067002873,0.264627460688247,4.761412304190842,3.8404075700999503,0.31042098817928654,0.004840580072654715,0.035769315530519784,0.5213815390798061
1750831097.4024308,-1.8061405721852353,-1.754155886650583,-1.1865560686703445,1.5668889792782894,-0.8950515619450634,-2.4651694895016125,0.04240326040068943,-0.1607615483448907,0.12064600166487385,0.008992879627521135,0.2657248837550458,0.2658983816095591,4.759632067428162,3.8403814197683093,0.31041064812373903,0.004841264328342636,0.03578129824264918,0.5215301039388249
1750831097.4044693,-1.806055754183193,-1.7544779280831833,-1.1863142546673435,1.5669070050602312,-0.8945188416469723,-2.4646364214648404,0.042414307313814105,-0.16127936086327505,0.12116792281373598,0.009032897311527928,0.26699548491130476,0.2671697255581737,4.7578456746288555,3.840355188942056,0.310400278495763,0.004841945448268477,0.035793245319098624,0.5216786491339701
1750831097.4064314,-1.8059709166976203,-1.754801001995518,-1.1860713972936985,1.5669251108474183,-0.8939835797235594,-2.4641008103182442,0.04242274176521935,-0.1617940256043084,0.12168937204923393,0.00907288481940834,0.26826650885444014,0.26844149120883104,4.756053157296265,3.840328878482587,0.3103898793627928,0.0048426233406665305,0.035805155362166344,0.5218271634362199
1750831097.408415,-1.8058860649664386,-1.7551251020771854,-1.185827497494798,1.566943296579177,-0.8934457753306058,-2.4635626552197865,0.042428550756229276,-0.162305527722281,0.12221034780813081,0.009112841829503181,0.269537954219697,0.2697136771860882,4.754254547121128,3.840302489282878,0.31037945078259865,0.004843297912558298,0.03581702695964519,0.5219756355411058
1750831097.410485,-1.8058012042535747,-1.7554502219880899,-1.185582556219158,1.5669615621941881,-0.8929054276266744,-2.4630219553302317,0.04243172127827917,-0.16281385236367818,0.12273084852881144,0.009152768017597169,0.2708098195917872,0.2709862820639785,4.752449876012254,3.8402760222203445,0.3103689928142664,0.004843969071976806,0.035828858687997574,0.5221240540551144
1750831097.412505,-1.805716339848983,-1.7557763553584156,-1.1853365744184146,1.5669799076304813,-0.8923625357732101,-2.462478709813247,0.04243224031292939,-0.16331898466698036,0.12325087265103457,0.00919266305681238,0.27208210350479084,0.2722593043657145,4.750639176067623,3.8402494782031433,0.3103585055105034,0.004844636723875696,0.035840649120914864,0.5222724075195857
1750831097.4144304,-1.8056314770686663,-1.7561034957886186,-1.1850895530473258,1.5669983328254298,-0.8918170989346388,-2.4619329178355036,0.0424300948319354,-0.16382090976261265,0.12377041861568579,0.009232526617718857,0.2733548044416457,0.273532742563332,4.748822479591519,3.840222858140722,0.3103479889165109,0.004845300776140958,0.03585239681769777,0.5224206843830932
1750831097.416458,-1.8055466212546918,-1.7564316368494088,-1.1848414930637627,1.5670168377157452,-0.8912691162784725,-2.4613845785667814,0.04242527179733515,-0.16431961277286242,0.12428948486478292,0.009272358368200175,0.2746279208338255,0.2748065950773902,4.746999819106712,3.8401961629568433,0.31033744307819733,0.0048459611327770075,0.035864100328584676,0.5225688730244149
1750831097.4184458,-1.8054617777752107,-1.75676077208173,-1.184592395428715,1.5670354222374725,-0.890718586975412,-2.4608336911800697,0.042417758161468096,-0.16481507881175492,0.12480806984118184,0.009312157973535157,0.2759014510611725,0.2760808602766273,4.745171227321462,3.8401693935871677,0.31032686803279513,0.0048466176999364865,0.03587575819910818,0.5227169617371346
1750831097.4271643,-1.8052921494228933,-1.7574219990758237,-1.184091091063685,1.567072829915976,-0.8896098851279799,-2.459724268761314,0.042394606847305824,-0.1657962403898139,0.1258437897505597,0.009391659396527235,0.27844974627972696,0.2786306219445612,4.741496381759288,3.84011563608107,0.3103056304479048,0.004847919082584126,0.0358989311362319,0.5230127921587298
1750831097.4276006,-1.8052073754169626,-1.7577540777705192,-1.1838388862712428,1.5670916529414602,-0.8890517109418905,-2.459165732092242,0.04237894302591892,-0.16628190611499102,0.12636092157207385,0.009431360531417158,0.2797245077688883,0.2799061148887102,4.739650194458002,3.8400886498694633,0.31029496796210243,0.004848563706351873,0.03591044324268883,0.5231605100562194
1750831097.4278674,-1.8051226354793801,-1.7580871245025511,-1.1835856477023938,1.5671105553357614,-0.8884909868256834,-2.4586046440313347,0.04236053631719603,-0.16676427524062992,0.12687756589756952,0.009471028155572112,0.2809996760883638,0.28118201346828775,4.737798208803171,3.8400615933231506,0.3102842763735023,0.004849204156022114,0.03592190378423371,0.5233080804033184
1750831097.4285655,-1.8051226354793801,-1.7580871245025511,-1.1835856477023938,1.5671105553357614,-0.8884909868256834,-2.4586046440313347,0.04236053631719603,-0.16676427524062992,0.12687756589756952,0.009471028155572112,0.2809996760883638,0.28118201346828775,4.737798208803171,3.8400615933231506,0.3102842763735023,0.004849204156022114,0.03592190378423371,0.5233080804033184
1750831097.4304552,-1.8050379351090147,-1.7584211326637957,-1.1833313763336868,1.5671295370315101,-0.8879277119675715,-2.4580410037692078,0.042339373626118004,-0.16724333283816484,0.12739372117167116,0.0095106619208865,0.2822752493543595,0.28245831578803426,4.735940458559989,3.8400344674278366,0.3102735556960415,0.004849840334845677,0.035933311258693965,0.5234554910928314
1750831097.4324615,-1.804953279830933,-1.7587560956162607,-1.183076073144779,1.5671485979606385,-0.8873618855595922,-2.4574748105003206,0.04231544184841267,-0.1677190639702039,0.12790938583882155,0.00955026147650174,0.28355122562932955,0.28373501989890004,4.734076977704197,3.840007273191451,0.3102628059385675,0.004850472143979941,0.035944664151860796,0.5236027299361807
1750831097.4344697,-1.8048686751964214,-1.759092006692069,-1.1828197391184396,1.567167738054374,-0.8867935067977086,-2.4569060634230855,0.04228872787062395,-0.16819145369046598,0.12842455834306962,0.009589826468864571,0.2848276029216837,0.2850121237977148,4.732207800416226,3.8399800116248657,0.3102520271034421,0.004851099486118646,0.03595596094128494,0.5237497846639904
1750831097.4377494,-1.804784126782999,-1.7594288591934442,-1.1825623752405523,1.5671869572432344,-0.8862225748819235,-2.456334761739975,0.04225921857021546,-0.16866048704369005,0.12893923712791866,0.009629356541696308,0.2861043791854183,0.2862896254268539,4.730332961102076,3.839952683752708,0.31024121918901626,0.004851722262938553,0.035967200094125344,0.5238966429236717
