mathias31415/primitives_from_planned_trajectory_python/data/saved_trajectories/trajectory_20250618_172226_planned.csv
time_from_start,shoulder_pan_joint_pos,shoulder_lift_joint_pos,elbow_joint_pos,wrist_1_joint_pos,wrist_2_joint_pos,wrist_3_joint_pos,shoulder_pan_joint_vel,shoulder_lift_joint_vel,elbow_joint_vel,wrist_1_joint_vel,wrist_2_joint_vel,wrist_3_joint_vel,shoulder_pan_joint_acc,shoulder_lift_joint_acc,elbow_joint_acc,wrist_1_joint_acc,wrist_2_joint_acc,wrist_3_joint_acc,fk_x,fk_y,fk_z,fk_qx,fk_qy,fk_qz,fk_qw
0.0,-1.6006999999999998,-1.7271,-2.2029999999999994,-0.8079999999999998,1.5951,-0.030999999999999694,-0.0005000000000000001,-0.00020245363164429785,0.0002612633727622904,-6.856436143552973e-05,-1.4667624792238827e-05,-0.0004999010238499691,-0.5000000000000001,-0.20245363164429786,0.2612633727622904,-0.06856436143552973,-0.014667624792238827,-0.49990102384996904,-0.18963153692348156,-0.6096838816511918,0.2609711486943511,-0.0003918678270918309,0.9998434779226772,0.01247829832752396,0.012536274005463676
0.1,-1.6031999999999997,-1.7281122681582215,-2.2016936831361877,-0.8083428218071775,1.595026661876039,-0.03349950511924954,-0.050000000000000336,-0.020245363164429916,0.026126337276229213,-0.006856436143553017,-0.0014667624792238923,-0.04999010238499724,-0.5000000000002914,-0.20245363164441543,0.2612633727624434,-0.0685643614355699,-0.014667624792247548,-0.4999010238502656,-0.19118721267100644,-0.6099332006980197,0.2609868724290738,-0.0003917964335964781,0.999843609032446,0.01247250503429444,0.0125315837266295
0.2,-1.6106999999999998,-1.731149072632886,-2.197774732544753,-0.8093712872287104,1.5948066475041551,-0.04099802047699906,-0.10000000000000032,-0.0404907263288597,0.05225267455245825,-0.013712872287105988,-0.0029335249584477746,-0.09998020476999413,-0.5000000000005829,-0.20245363164454033,0.261263372762603,-0.06856436143561068,-0.014667624792256438,-0.499901023850557,-0.19586875685269442,-0.6106564783360564,0.26103053928026065,-0.00039159297727370127,0.9998439907202382,0.012455731572208412,0.012517812371551073
0.30000000000000004,-1.6231999999999998,-1.7362104134239935,-2.1912431482256967,-0.8110853962645986,1.5944399568843493,-0.0534955460732482,-0.14999999999999808,-0.06073608949328857,0.0783790118286861,-0.020569308430658653,-0.004400287437671591,-0.14997030715498877,-0.49999999999916733,-0.2024536316439644,0.2612633727618605,-0.06856436143541986,-0.014667624792214805,-0.4999010238491415,-0.20371904454029807,-0.6117790078060433,0.26109164164384446,-0.00039128963069245195,0.9998445880615983,0.01242977989471608,0.012495886848345648
0.4,-1.6406999999999994,-1.7432962905315437,-2.1820989301790163,-0.8134851489148421,1.593926590016621,-0.07099208190799693,-0.19999999999999357,-0.08098145265771653,0.1045053491049128,-0.027425744574211004,-0.005867049916895341,-0.19996040953998118,-0.49999999999547584,-0.20245363164247948,0.2612633727599315,-0.06856436143490985,-0.014667624792106385,-0.49990102384545,-0.21480724506563456,-0.6131740771765462,0.2611526855600278,-0.0003909400150577398,0.9998453428493869,0.01239759413617078,0.012467445926551567
0.5,-1.6615548200527361,-1.7517405586454733,-2.1712017289283594,-0.8163449437543797,1.5933148086653346,-0.09184277370113665,-0.20943951023931767,-0.08480357891550593,0.10943774566961277,-0.028720172557857804,-0.006143960305721146,-0.20939805120654192,1.8574064506125513e-12,7.485070771125206e-13,-9.702869518125268e-13,2.5989829066406965e-13,5.457864103945463e-14,1.885128934950052e-12,-0.22816502965247162,-0.6145630225511677,0.261188147039753,-0.00039063775223712426,0.9998461181764233,0.01236542347127265,0.01243718907391804
0.6000000000000001,-1.6824987710766681,-1.7602209165370242,-2.1602579543613976,-0.8192169610101655,1.5927004126347624,-0.11278257882179098,-0.20943951023931767,-0.08480357891550593,0.10943774566961277,-0.028720172557857804,-0.006143960305721146,-0.20939805120654192,1.8574064506125513e-12,7.485070771125206e-13,-9.702869518125268e-13,2.5989829066406965e-13,5.457864103945463e-14,1.885128934950052e-12,-0.24173078819435842,-0.6156526452454372,0.2611830100354028,-0.0003904593764872354,0.9998467609348372,0.012339708983007722,0.01241103427618727
0.7000000000000001,-1.7034427221005999,-1.7687012744285746,-2.1493141797944366,-0.8220889782659513,1.5920860166041901,-0.13372238394244526,-0.20943951023931767,-0.08480357891550593,0.10943774566961277,-0.028720172557857804,-0.006143960305721146,-0.20939805120654192,1.8574064506125513e-12,7.485070771125206e-13,-9.702869518125268e-13,2.5989829066406965e-13,5.457864103945463e-14,1.885128934950052e-12,-0.25544051377453614,-0.6164303128011382,0.2611370987457617,-0.00039040644724092587,0.9998472675221507,0.012320408050052951,0.0123893808067632
0.8,-1.7243866731245316,-1.7771816323201253,-2.1383704052274752,-0.8249609955217372,1.5914716205736181,-0.15466218906309956,-0.20943951023931767,-0.08480357891550593,0.10943774566961277,-0.028720172557857804,-0.006143960305721146,-0.20939805120654192,1.8574064506125513e-12,7.485070771125206e-13,-9.702869518125268e-13,2.5989829066406965e-13,5.457864103945463e-14,1.885128934950052e-12,-0.2692867555501093,-0.6168901492110839,0.2610504790053616,-0.0003904789651337334,0.9998476379393288,0.01230731822756837,0.012372483637816132
0.9,-1.7453306241484634,-1.785661990211676,-2.127426630660514,-0.8278330127775229,1.5908572245430461,-0.17560199418375386,-0.20943951023931767,-0.08480357891550593,0.10943774566961277,-0.028720172557857804,-0.006143960305721146,-0.20939805120654192,1.8574064506125513e-12,7.485070771125206e-13,-9.702869518125268e-13,2.5989829066406965e-13,5.457864103945463e-14,1.885128934950052e-12,-0.2832618655360349,-0.6170264628501516,0.260923219740901,-0.0003906769307672713,0.9998478721873706,0.012300229249664238,0.012360591180404765
1.0,-1.7662745751723952,-1.7941423481032266,-2.1164828560935525,-0.8307050300333086,1.590242828512474,-0.19654179930440793,-0.20943951023935312,-0.08480357891552016,0.10943774566963177,-0.02872017255786248,-0.00614396030572248,-0.2093980512065771,-3.3544206048375926e-11,-1.3570156083206624e-11,1.7534471343469232e-11,-4.598467089482939e-12,-9.841481939812771e-13,-3.3544206048375926e-11,-0.29735800332041507,-0.6168337526284539,0.26075539296588696,-0.0003910003447087875,0.9998479702673091,0.012298923216613545,0.012353945069668621
1.1,-1.7872185261963265,-1.802622705994777,-2.1055390815265915,-0.8335770472890942,1.5896284324819017,-0.21748160442506168,-0.20943951023930668,-0.08480357891550137,0.1094377456696075,-0.028720172557856114,-0.006143960305721117,-0.20939805120653066,1.283551024826143e-11,5.197965813280817e-12,-6.7088412096744405e-12,1.7603777554311032e-12,3.768525214628592e-13,1.283551024826143e-11,-0.31156714096560645,-0.6163067140202726,0.260547073775054,-0.0003914492074916525,0.9998479321802124,0.012303174787611967,0.012352779955009718
1.2,-1.808162477220258,-1.8111030638863275,-2.0945953069596306,-0.8364490645448801,1.5890140364513297,-0.23842140954571545,-0.20943951023930668,-0.08480357891550137,0.1094377456696075,-0.028720172557856114,-0.006143960305721117,-0.20939805120653066,1.283551024826143e-11,5.197965813280817e-12,-6.7088412096744405e-12,1.7603777554311032e-12,3.768525214628592e-13,1.283551024826143e-11,-0.3258810680917934,-0.6154402449632378,0.2602983403385605,-0.0003920235196147557,0.9998477579271821,0.012312751378958526,0.012357323295400742
1.3,-1.8291064282441893,-1.819583421777878,-2.083651532392669,-0.8393210818006658,1.5883996404207577,-0.25936121466636913,-0.20943951023930668,-0.08480357891550137,0.1094377456696075,-0.028720172557856114,-0.006143960305721117,-0.20939805120653066,1.283551024826143e-11,5.197965813280817e-12,-6.7088412096744405e-12,1.7603777554311032e-12,3.768525214628592e-13,1.283551024826143e-11,-0.3402913971394918,-0.614229451622323,0.2600092738959633,-0.0003927232815432676,0.9998474475093546,0.012327413367523877,0.012367795159954391
1.4,-1.8500503792681204,-1.8280637796694281,-2.0727077578257083,-0.8421930990564515,1.5877852443901852,-0.2803010197870228,-0.20943951023930668,-0.08480357891550137,0.1094377456696075,-0.028720172557856114,-0.006143960305721117,-0.20939805120653066,1.283551024826143e-11,5.197965813280817e-12,-6.7088412096744405e-12,1.7603777554311032e-12,3.768525214628592e-13,1.283551024826143e-11,-0.35478956880731,-0.6126696540133346,0.25967995874996797,-0.00039354849370789625,0.9998470009279006,0.012346914299376238,0.012384408033886482
1.5,-1.8708130020822908,-1.8364707164518073,-2.0618587320980652,-0.8450402510064121,1.5871761676679035,-0.30105953259225177,-0.1955000000000215,-0.07915936997292905,0.10215397875006721,-0.026808665321294892,-0.005735041293766285,-0.1954613003253591,0.4999999999767408,0.20245363163488303,-0.261263372750135,0.06856436143233965,0.014667624791557239,0.499901023826715,-0.36924033631342895,-0.6107744851891856,0.25931385320129274,-0.0003944903875100271,0.9998464238136211,0.012370773619808035,0.012407140061042847
1.6,-1.8879103715756929,-1.8433935655428146,-2.0529248992596467,-0.847384791449497,1.5866746120665765,-0.3181535176220375,-0.14549999999996788,-0.05891400680847759,0.07602764147381004,-0.019952229177734614,-0.00426827881454076,-0.14547119794030866,0.5000000000310585,0.20245363165686908,-0.26126337277852646,0.06856436143978721,0.014667624793149928,0.4999010238810049,-0.3811923548070812,-0.6089501483114772,0.2589828062117516,-0.0003953585703818102,0.9998458481127682,0.012393626256808319,0.012430677031704324
1.7000000000000002,-1.9000077410690948,-1.848291878317379,-2.046603700148851,-0.8490436882782264,1.5863197327131717,-0.3302484924133235,-0.09550000000000115,-0.0386686436440613,0.04990130419759828,-0.013095793034186247,-0.002801516335317783,-0.09548109555534509,0.49999999999859834,0.20245363164373376,-0.26126337276156086,0.06856436143533938,0.014667624792198866,0.49990102384858637,-0.3896747256065193,-0.6075141358410098,0.2587324670869167,-0.0003960233632650412,0.9998453859564885,0.012411459994022375,0.01245002039488057
1.8,-1.907105110562497,-1.8511656547755002,-2.042895134765678,-0.8500169414926007,1.5861115296076893,-0.33734445696611,-0.045500000000004794,-0.018423280479633018,0.02377496692137103,-0.006239356890633821,-0.0013347538560939374,-0.04549099317035191,0.49999999999542033,0.20245363164244282,-0.2612633727599005,0.06856436143490059,0.0146676247921052,0.4999010238453875,-0.394660292159543,-0.6066152925796587,0.258579392930204,-0.0003964328694651859,0.999845093671733,0.012422540657691362,0.012462422924596666
1.891947389,-1.9092186911883833,-1.8520214589224677,-2.04179073235983,-0.8503067741045135,1.5860495271925121,-0.3394576192038501,-4.1161451738591223e-17,-1.666657077645856e-17,2.150795941803326e-17,-5.644417308431726e-18,-1.2074814600110627e-18,-4.115330373454562e-17,0.5000000000040107,0.20245363164592153,-0.2612633727643872,0.06856436143607926,0.014667624792357182,0.49990102385397817,-0.3961462096603613,-0.6063395374703578,0.25853292202074696,-0.00039655760337716243,0.9998450036084919,0.01242592670496736,0.012466268356034477
