mathias31415/primitives_from_planned_trajectory_python/data/saved_trajectories/trajectory_20250617_162359_planned.csv
time_from_start,shoulder_pan_joint_pos,shoulder_lift_joint_pos,elbow_joint_pos,wrist_1_joint_pos,wrist_2_joint_pos,wrist_3_joint_pos,shoulder_pan_joint_vel,shoulder_lift_joint_vel,elbow_joint_vel,wrist_1_joint_vel,wrist_2_joint_vel,wrist_3_joint_vel,shoulder_pan_joint_acc,shoulder_lift_joint_acc,elbow_joint_acc,wrist_1_joint_acc,wrist_2_joint_acc,wrist_3_joint_acc,fk_x,fk_y,fk_z,fk_qx,fk_qy,fk_qz,fk_qw
0.0,-1.6006999999999998,-1.7271,-2.2029999999999994,-0.8079999999999998,1.5951,-0.030999999999999694,-0.0002810388468810347,4.698228500590203e-05,0.0005,-5.164154793521313e-05,0.00027954310011421834,0.00026622734553752325,-0.2810388468810347,0.04698228500590203,0.5,-0.051641547935213125,0.27954310011421835,0.26622734553752325,-0.18963153692348156,-0.6096838816511918,0.2609711486943511,-0.0003918678270918309,0.9998434779226772,0.01247829832752396,0.012536274005463676
0.1,-1.602105194234405,-1.7268650885749706,-2.200499999999999,-0.8082582077396758,1.5964977155005708,-0.02966886327231208,-0.02810388468810342,0.004698228500590195,0.04999999999999991,-0.005164154793521304,0.027954310011421783,0.02662273455375228,-0.2810388468810069,0.04698228500589741,0.4999999999999514,-0.051641547935207414,0.2795431001141877,0.2662273455374985,-0.1903647715036986,-0.6106821876616786,0.2623906700643879,0.0009691598813444396,0.9998494995500979,0.011218833889637776,0.013197603748397164
0.2,-1.6063207769376204,-1.726160354299882,-2.1929999999999996,-0.809032830958704,1.6006908620022844,-0.025675453089249237,-0.056207769376206286,0.009396457001180298,0.09999999999999885,-0.010328309587042507,0.05590862002284302,0.05324546910750404,-0.28103884688031994,0.04698228500578379,0.4999999999987371,-0.051641547935082514,0.2795431001135077,0.26622734553684974,-0.1925827864610942,-0.6136493229029276,0.26667289523833554,0.00504188246096716,0.9998443685006742,0.007440155740425731,0.015180984200510336
0.30000000000000004,-1.6133467481096464,-1.7249857971747347,-2.1804999999999994,-0.8103238696570844,1.60767943950514,-0.01901976945081113,-0.0843116540643122,0.014094685501770907,0.1500000000000032,-0.015492464380564267,0.08386293003426727,0.07986820366125866,-0.28103884688222813,0.04698228500610124,0.5000000000021094,-0.051641547935431194,0.27954310011539507,0.2662273455386469,-0.19633949225888622,-0.6185008546661346,0.27388819659978825,0.011794574059428497,0.9997589270861391,0.00114163900317759,0.018484382454247952
0.4,-1.6231831077504826,-1.723341417199528,-2.1629999999999994,-0.8121313238348169,1.6174634480091377,-0.009701812356997758,-0.11241553875241438,0.018792914002360894,0.2000000000000009,-0.020656619174085344,0.11181724004568783,0.10649093821500977,-0.28103884688085423,0.046982285005870525,0.49999999999966693,-0.051641547935177924,0.27954310011403505,0.2662273455373424,-0.20172126540830346,-0.625092510090108,0.28415179555705544,0.021172233505244713,0.9994793736437628,-0.007676991987837097,0.023103722277795335
0.5,-1.6358298558601292,-1.7212272143742622,-2.1404999999999994,-0.8144551934919015,1.6300428875142774,0.002278418192190816,-0.14051942344053278,0.023491142502953595,0.2500000000000275,-0.025820773967609404,0.13977155005712452,0.13311367276877625,-0.2810388468963852,0.04698228500846828,0.5000000000273392,-0.05164154793803615,0.2795431001294965,0.2662273455520815,-0.20884151907415802,-0.6332150736599186,0.29762056029751005,0.03309347794170902,0.998849548942949,-0.01901451394016282,0.029031854122816746
0.6000000000000001,-1.6512869924385862,-1.7186431886989377,-2.1129999999999995,-0.8172954786283382,1.6454177580205593,0.016920922196754562,-0.16862330812862,0.028189371003541082,0.29999999999999855,-0.03098492876112773,0.16772586006853019,0.15973640732251318,-0.28103884688071545,0.04698228500584971,0.4999999999993894,-0.05164154793515364,0.2795431001138824,0.2662273455372175,-0.2178326834496415,-0.6425877123266572,0.3144883201063381,0.047446360882277404,0.9976743212367808,-0.03286659361989839,0.03625711802642174
0.7000000000000001,-1.6688324654151137,-1.7157100482413288,-2.0817846125700283,-0.8205195004809004,1.6628698503674402,0.033541701667567626,-0.1765819153469508,0.029519840284679025,0.31415926535896105,-0.03244734152265226,0.17564210993609866,0.16727557458506917,1.0233663711339094e-11,-1.7125439950547128e-12,-1.8248646943255076e-11,1.885878407509643e-12,-1.0205930205346305e-11,-9.706727097476104e-12,-0.22839307560695585,-0.652461721355916,0.33415840022702703,0.06343263222814456,0.9958126529196621,-0.048577549900976125,0.044426153325846894
0.8,-1.6864906569498093,-1.7127580642128608,-2.0503686860341315,-0.8237642346331657,1.6804340613610504,0.05026925912607502,-0.1765819153469508,0.029519840284679025,0.31415926535896105,-0.03244734152265226,0.17564210993609866,0.16727557458506917,1.0233663711339094e-11,-1.7125439950547128e-12,-1.8248646943255076e-11,1.885878407509643e-12,-1.0205930205346305e-11,-9.706727097476104e-12,-0.23936441519815096,-0.6615497696371136,0.35449495699350025,0.07917517219663811,0.9933884091482414,-0.06436864991575372,0.05260644053328268
0.9,-1.7041488484845049,-1.7098060801843926,-2.018952759498234,-0.8270089687854311,1.6979982723546612,0.06699681658458255,-0.17658191534697326,0.02951984028468278,0.314159265359001,-0.03244734152265639,0.175642109936121,0.16727557458509043,-1.2202742636827102e-11,2.038412690469982e-12,2.1687601686360897e-11,-2.2394806089177013e-12,1.2119542118848737e-11,1.153713849300017e-11,-0.2506392893897515,-0.669758296939039,0.3753497749367761,0.09455187819007738,0.9904290651524251,-0.08013130570738984,0.06073864566855927
1.0,-1.7218070400192016,-1.7068540961559244,-1.987536832962335,-0.8302537029376965,1.7155624833482725,0.08372437404309101,-0.17658191534697296,0.029519840284683106,0.31415926535900074,-0.03244734152265639,0.17564210993612134,0.16727557458509046,-1.203634160087037e-11,2.0141458727262916e-12,2.1410266626433008e-11,-2.2117471029249123e-12,1.1980874588884792e-11,1.1398470963036226e-11,-0.2621755360521511,-0.6770621299378073,0.3966984576442425,0.10954521871022267,0.9869526092254568,-0.09585792136483826,0.06881606725470761
1.1,-1.7394652315538965,-1.7039021121274567,-1.9561209064264395,-0.8334984370899617,1.7331266943418824,0.10045193150159767,-0.1765819153469338,0.02951984028467656,0.3141592653589311,-0.03244734152264919,0.17564210993608237,0.16727557458505335,2.709563535495172e-11,-4.5274948533222806e-12,-4.8200833415461714e-11,4.97816432570505e-12,-2.6956967824987793e-11,-2.5681226549319645e-11,-0.2739297060563027,-0.6834384723393434,0.4185158684248047,0.12413848824922381,0.9829776688972589,-0.11154091414739462,0.07683204185541151
1.2,-1.7571234230885913,-1.7009501280989887,-1.924704979890544,-0.836743171242227,1.750690905335492,0.11717948896010431,-0.1765819153469338,0.02951984028467656,0.3141592653589311,-0.03244734152264919,0.17564210993608237,0.16727557458505335,2.709563535495172e-11,-4.5274948533222806e-12,-4.8200833415461714e-11,4.97816432570505e-12,-2.6956967824987793e-11,-2.5681226549319645e-11,-0.28585719102987883,-0.6888669801714816,0.4407761616569641,0.13831583134005782,0.9785234748135024,-0.12717271893067364,0.08477994809739746
1.3,-1.774781614623286,-1.6979981440705207,-1.8932890533546485,-0.8399879053944921,1.7682551163291014,0.1339070464186109,-0.1765819153469338,0.02951984028467656,0.3141592653589311,-0.03244734152264919,0.17564210993608237,0.16727557458505335,2.709563535495172e-11,-4.5274948533222806e-12,-4.8200833415461714e-11,4.97816432570505e-12,-2.6956967824987793e-11,-2.5681226549319645e-11,-0.2979123552611676,-0.6933298300404543,0.46345281534455646,0.15206226505645298,0.9736098236878177,-0.14274579264604206,0.09265321066390907
1.4,-1.7924398061579807,-1.695046160042053,-1.861873126818753,-0.8432326395467573,1.7858193273227112,0.15063460387711755,-0.1765819153469338,0.02951984028467656,0.3141592653589311,-0.03244734152264919,0.17564210993608237,0.16727557458505335,2.709563535495172e-11,-4.5274948533222806e-12,-4.8200833415461714e-11,4.97816432570505e-12,-2.6956967824987793e-11,-2.5681226549319645e-11,-0.31004867136234926,-0.6968117801121307,0.48651866483584316,0.16536369992614539,0.9682570403930052,-0.15825261871087867,0.10044530425691064
1.5,-1.8100979976926754,-1.692094176013585,-1.8304572002828574,-0.8464773736990224,1.8033835383163206,0.16736216133562415,-0.1765819153469338,0.02951984028467656,0.3141592653589311,-0.03244734152264919,0.17564210993608237,0.16727557458505335,2.709563535495172e-11,-4.5274948533222806e-12,-4.8200833415461714e-11,4.97816432570505e-12,-2.6956967824987793e-11,-2.5681226549319645e-11,-0.32221885928990324,-0.6993002236001096,0.5099459376593692,0.17820695922406685,0.9624859392585429,-0.17368571144699932,0.10814975752567436
1.6,-1.8277561892273702,-1.689142191985117,-1.7990412737469619,-0.8497221078512877,1.8209477493099302,0.1840897187941308,-0.1765819153469338,0.02951984028467656,0.3141592653589311,-0.03244734152264919,0.17564210993608237,0.16727557458505335,2.709563535495172e-11,-4.5274948533222806e-12,-4.8200833415461714e-11,4.97816432570505e-12,-2.6956967824987793e-11,-2.5681226549319645e-11,-0.33437502830726673,-0.7007852345653693,0.5337062894278524,0.19057979661491353,0.956317784642984,-0.18903762048460146,0.11576015695943552
1.7000000000000002,-1.845414380762065,-1.6861902079566493,-1.7676253472110663,-0.8529668420035528,1.83851196030354,0.20081727625263746,-0.17658191534693407,0.02951984028467623,0.3141592653589313,-0.032447341522649185,0.17564210993608204,0.16727557458505332,2.6956967824987793e-11,-4.506694723827692e-12,-4.7978965367519424e-11,4.9573641962104604e-12,-2.6818300295023864e-11,-2.5542559019355717e-11,-0.34646882146351565,-0.7012596058555215,0.5577708407592806,0.20247091211743057,0.9497742508510283,-0.2043009351490925,0.12327015074181567
1.8,-1.8630725722967596,-1.6832382239281816,-1.7362094206751708,-0.856211576155818,1.8560761712971494,0.21754483371114405,-0.17658191534693407,0.02951984028467623,0.3141592653589313,-0.032447341522649185,0.17564210993608204,0.16727557458505332,2.6956967824987793e-11,-4.506694723827692e-12,-4.7978965367519424e-11,4.9573641962104604e-12,-2.6818300295023864e-11,-2.5542559019355717e-11,-0.35845156215181545,-0.7007188790357155,0.5821102151623971,0.21386996636568478,0.9428773814661088,-0.2194682888281667,0.130673452564747
1.9,-1.8807307638314543,-1.6802862398997134,-1.704793494139275,-0.859456310308083,1.8736403822907588,0.23427239116965068,-0.17658191534693407,0.02951984028467623,0.3141592653589313,-0.032447341522649185,0.17564210993608204,0.16727557458505332,2.6956967824987793e-11,-4.506694723827692e-12,-4.7978965367519424e-11,4.9573641962104604e-12,-2.6818300295023864e-11,-2.5542559019355717e-11,-0.37027440230274816,-0.6991613661878893,0.6066945778318186,0.22476759314557684,0.9356495481702841,-0.23453236331651175,0.1379638453996525
2.0,-1.898388955366149,-1.6773342558712456,-1.6733775676033797,-0.8627010444603482,1.8912045932843684,0.2509999486281572,-0.1765819153470124,0.029519840284689323,0.3141592653590707,-0.03244734152266358,0.17564210993615995,0.1672755745851275,-5.13069860866651e-11,8.57658672827091e-12,9.129870172827109e-11,-9.422458661051064e-12,5.102965102673718e-11,4.858910249937149e-11,-0.3818884717603697,-0.6965881634801738,0.6314936752962074,0.23515541018785158,0.9281134091240368,-0.24948589313553093,0.14513518522366622
2.1,-1.9160471469008478,-1.6743822718427772,-1.641961641067477,-0.8659457786126141,1.9087688042779818,0.2677275060866676,-0.1765819153470124,0.029519840284689323,0.3141592653590707,-0.03244734152266358,0.17564210993615995,0.1672755745851275,-5.13069860866651e-11,8.57658672827091e-12,9.129870172827109e-11,-9.422458661051064e-12,5.102965102673718e-11,4.858910249937149e-11,-0.39324502838306646,-0.6930031564338582,0.6564768758612032,0.24502602820191713,0.9202918669792671,-0.26432166982549277,0.15218140469870614
2.2,-1.9337053384355465,-1.6714302878143086,-1.6105457145315747,-0.86919051276488,1.9263330152715954,0.2844550635451779,-0.1765819153470124,0.029519840284689323,0.3141592653590707,-0.03244734152266358,0.17564210993615995,0.1672755745851275,-5.13069860866651e-11,8.57658672827091e-12,9.129870172827109e-11,-9.422458661051064e-12,5.102965102673718e-11,4.858910249937149e-11,-0.4042956084069224,-0.68841301684125,0.6816132107871077,0.25437305813783445,0.9122080265993491,-0.2790325462074991,0.15909651680123885
2.3,-1.9513635299702452,-1.6684783037858402,-1.579129787995672,-0.8724352469171459,1.9438972262652088,0.30118262100368826,-0.1765819153470124,0.029519840284689323,0.3141592653590707,-0.03244734152266358,0.17564210993615995,0.1672755745851275,-5.13069860866651e-11,8.57658672827091e-12,9.129870172827109e-11,-9.422458661051064e-12,5.102965102673718e-11,4.858910249937149e-11,-0.4149921766065041,-0.6828271913139676,0.7068714161399031,0.2631911166669657,0.9038851525605188,-0.29361144061274447,0.16587461840062176
2.4,-1.969021721504944,-1.6655263197573718,-1.5477138614597694,-0.8756799810694118,1.9614614372588224,0.31791017846219866,-0.17658191534701212,0.029519840284689326,0.3141592653590704,-0.032447341522663584,0.1756421099361603,0.16727557458512757,-5.116831855670114e-11,8.555786598776315e-12,9.102136666834317e-11,-9.40165853155647e-12,5.0918717002766014e-11,4.8478168475400323e-11,-0.4252872757865767,-0.6762578814675952,0.7322199752526092,0.27147582987482183,0.8953466265092085,-0.3080513410764796,0.17250989378391923
2.5,-1.9866799130396426,-1.6625743357289033,-1.5162979349238674,-0.8789247152216777,1.9790256482524358,0.3346377359207089,-0.17658191534701212,0.029519840284689326,0.3141592653590704,-0.032447341522663584,0.1756421099361603,0.16727557458512757,-5.116831855670114e-11,8.555786598776315e-12,9.102136666834317e-11,-9.40165853155647e-12,5.0918717002766014e-11,4.8478168475400323e-11,-0.4351341751384814,-0.6687200157751104,0.7576271617327465,0.27922383516280663,0.8866159044500884,-0.3223453094941649,0.1789966181251383
2.6,-2.0043381045743414,-1.6596223517004347,-1.4848820083879648,-0.8821694493739436,1.9965898592460494,0.3513652933792193,-0.17658191534701212,0.029519840284689326,0.3141592653590704,-0.032447341522663584,0.1756421099361603,0.16727557458512757,-5.116831855670114e-11,8.555786598776315e-12,9.102136666834317e-11,-9.40165853155647e-12,5.0918717002766014e-11,4.8478168475400323e-11,-0.44448701699658627,-0.6602312131479863,0.7830610829504323,0.28643278135864814,0.8777164740396378,-0.33648648573730194,0.18532916089686235
2.7,-2.0219962961090356,-1.6566703676719667,-1.4534660818520697,-0.8854141835262087,2.0141540702396585,0.3680928508377256,-0.1765819153469224,0.029519840284674328,0.3141592653589108,-0.032447341522647104,0.17564210993607104,0.16727557458504258,3.8466372812002433e-11,-6.430706702078633e-12,-6.844629279021052e-11,7.065110651663749e-12,-3.8272238270052886e-11,-3.644182687452862e-11,-0.4533009615334481,-0.6508117383302707,0.8084897239405069,0.2931013270384326,0.8686718119599828,-0.3504680917264439,0.19150198922229217
2.8,-2.0396544876437295,-1.6537183836434992,-1.4220501553161753,-0.8886589176784738,2.0317182812332675,0.3848204082962316,-0.1765819153469224,0.029519840284674328,0.3141592653589108,-0.032447341522647104,0.17564210993607104,0.16727557458504258,3.8466372812002433e-11,-6.430706702078633e-12,-6.844629279021052e-11,7.065110651663749e-12,-3.8272238270052886e-11,-3.644182687452862e-11,-0.4615323289370778,-0.6404844492171751,0.8338809916511634,0.2992291370662699,0.8595053414475083,-0.36428343545894715,0.19750967116575488
2.9,-2.0573126791784238,-1.6507663996150315,-1.3906342287802806,-0.8919036518307388,2.0492824922268764,0.40154796575473783,-0.1765819153469224,0.029519840284674328,0.3141592653589108,-0.032447341522647104,0.17564210993607104,0.16727557458504258,3.8466372812002433e-11,-6.430706702078633e-12,-6.844629279021052e-11,7.065110651663749e-12,-3.8272238270052886e-11,-3.644182687452862e-11,-0.46913873861992184,-0.629274736235701,0.8592027594705731,0.3048168773606937,0.8502403900504519,-0.37792591498898087,0.20334687895975379
3.0,-2.0749708707131185,-1.6478144155865637,-1.3592183022443862,-0.895148385983004,2.066846703220486,0.4182755232132438,-0.1765819153469224,0.029519840284674328,0.3141592653589108,-0.032447341522647104,0.17564210993607104,0.16727557458504258,3.8466372812002433e-11,-6.430706702078633e-12,-6.844629279021052e-11,7.065110651663749e-12,-3.8272238270052886e-11,-3.644182687452862e-11,-0.4760792450169687,-0.6172104539504251,0.8844229119623634,0.30986620790001107,0.840900147689166,-0.3913890223574169,0.20900839216670541
3.1,-2.0926290622478123,-1.6448624315580958,-1.3278023757084918,-0.898393120135269,2.0844109142140947,0.4350030806717499,-0.17658191534692266,0.029519840284674647,0.3141592653589113,-0.03244734152264709,0.17564210993607066,0.16727557458504252,3.818903775207451e-11,-6.382173066591247e-12,-6.794708968234027e-11,7.016577016176363e-12,-3.796716970413218e-11,-3.61644918146007e-11,-0.48231446953958046,-0.6043218450827629,0.909509389740108,0.3143797739818501,0.8315076250921708,-0.40466634746920066,0.21448910077352404
3.2,-2.1102872537825066,-1.641910447529628,-1.2963864491725972,-0.9016378542875341,2.1019751252077037,0.45173063813025593,-0.17658191534692266,0.029519840284674647,0.3141592653589113,-0.03244734152264709,0.17564210993607066,0.16727557458504252,3.818903775207451e-11,-6.382173066591247e-12,-6.794708968234027e-11,7.016577016176363e-12,-3.796716970413218e-11,-3.61644918146007e-11,-0.4878067282623381,-0.5906414571566931,0.9344302344104949,0.31836119575518934,0.8220856126803863,-0.4177515819158444,0.21978400821727104
3.3,-2.127945445317201,-1.6389584635011603,-1.2649705226367027,-0.9048825884397992,2.1195393362013126,0.4684581955887621,-0.17658191534692266,0.029519840284674647,0.3141592653589113,-0.03244734152264709,0.17564210993607066,0.16727557458504252,3.818903775207451e-11,-6.382173066591247e-12,-6.794708968234027e-11,7.016577016176363e-12,-3.796716970413218e-11,-3.61644918146007e-11,-0.4925201549322778,-0.5762040520079822,0.9591536335144666,0.32181505604614763,0.8126566399710801,-0.43063852274072223,0.22488823434012187
3.4,-2.145603636851895,-1.6360064794726925,-1.233554596100808,-0.9081273225920641,2.1371035471949216,0.4851857530472681,-0.17658191534692266,0.029519840284674647,0.3141592653589113,-0.03244734152264709,0.17564210993607066,0.16727557458504252,3.818903775207451e-11,-6.382173066591247e-12,-6.794708968234027e-11,7.016577016176363e-12,-3.796716970413218e-11,-3.61644918146007e-11,-0.4964208189033857,-0.5610465084172894,0.9836479653953618,0.32474688650176764,0.8032429355720989,-0.4433210761448705,0.22979701827195
3.5,-2.163261828386589,-1.6330544954442248,-1.2021386695649134,-0.9113720567443292,2.1546677581885305,0.5019133105057743,-0.17658191534692266,0.029519840284674647,0.3141592653589113,-0.03244734152264709,0.17564210993607066,0.16727557458504252,3.818903775207451e-11,-6.382173066591247e-12,-6.794708968234027e-11,7.016577016176363e-12,-3.796716970413218e-11,-3.61644918146007e-11,-0.49947683761403194,-0.5452077181501473,1.007881843922965,0.327163152078946,0.7938663878358504,-0.4557932611310334,0.23450572123887567
3.6,-2.1809200199212833,-1.630102511415757,-1.1707227430290188,-0.9146167908965943,2.1722319691821395,0.5186408679642803,-0.17658191534692266,0.029519840284674647,0.3141592653589113,-0.03244734152264709,0.17564210993607066,0.16727557458504252,3.818903775207451e-11,-6.382173066591247e-12,-6.794708968234027e-11,7.016577016176363e-12,-3.796716970413218e-11,-3.61644918146007e-11,-0.5016584832411592,-0.5287284757085249,1.0318241630023703,0.32907123390851645,0.7845485062412924,-0.46804921308373315,0.23900982929616435
3.7,-2.198578211455977,-1.6271505273872893,-1.1393068164931244,-0.9178615250488593,2.1897961801757484,0.5353684254227863,-0.17658191534692266,0.029519840284674647,0.3141592653589113,-0.03244734152264709,0.17564210993607066,0.16727557458504252,3.818903775207451e-11,-6.382173066591247e-12,-6.794708968234027e-11,7.016577016176363e-12,-3.796716970413218e-11,-3.61644918146007e-11,-0.5029382831823941,-0.5116513621195039,1.055444140796687,0.3304794105673099,0.7753103835708506,-0.48008318728317056,0.2433049559839177
3.8,-2.2162305720863715,-1.6241995181322761,-1.1079012637976526,-0.9211051877587695,2.207354591298334,0.5520904592812949,-0.17460750070469616,0.029189770216175286,0.3106465576600663,-0.03208453819662276,0.17367820353621144,0.16540521689241727,0.28103884683983493,-0.04698228499901318,-0.49999999992666977,0.051641547927637615,-0.27954310007322375,-0.2662273454984725,-0.5032911530885312,-0.49402653132492175,1.078703742067673,0.3313966147706082,0.7661756575105663,-0.49188570194580417,0.24738553267747093
3.9,-2.232302532893045,-1.6215127100571545,-1.0793074217273484,-0.9240584482906206,2.223341013811352,0.5673153846274873,-0.1465036160165422,0.02449154171557664,0.2606465576599766,-0.026920383403092142,0.14572389352473927,0.13878248233861715,0.2810388468909052,-0.046982285007548016,-0.5000000000175415,0.05164154793702247,-0.27954310012401645,-0.2662273455468782,-0.5027875940809208,-0.4775370222572068,1.099549040937412,0.33181359528664983,0.7579630094009168,-0.5024290986746538,0.25091196696815404
4.0,-2.245564105230908,-1.6192957248320918,-1.0557135796570438,-0.9264952933431195,2.2365320053232285,0.5798780365183047,-0.11839973132849345,0.019793313214995587,0.21064655766007404,-0.021756228609580857,0.11776958351337177,0.11215974778491672,0.281038846836865,-0.046982284998517095,-0.49999999992142397,0.0516415479270985,-0.2795431000702809,-0.2662273454956764,-0.501768785141807,-0.46363927874818056,1.1164946945361909,0.3318635335877055,0.7512721624663131,-0.510980571840453,0.25368403217284863
4.1,-2.2560152890999614,-1.6175485624570884,-1.0371197375867385,-0.9284157229162665,2.2469275658339636,0.5897784149537475,-0.09029584664033387,0.015095084714396006,0.16064655765997435,-0.01659207381604921,0.08981527350189403,0.08553701323111129,0.2810388468928759,-0.046982285007881035,-0.5000000000210387,0.051641547937388114,-0.2795431001259878,-0.2662273455487445,-0.5005760565709712,-0.45251530510423316,1.129678330399961,0.3317189159744715,0.7460595848633567,-0.5176237841469676,0.255779738649509
4.2,-2.2631715563319945,-1.6160989628814912,-1.0224809876639014,-0.9301080302076018,2.255040573415636,0.5984920039930133,-0.04749721613523796,0.015399783458763696,0.14066967581147177,-0.019841451528739507,0.07654595660199501,0.10197182032240552,0.4999383836988692,0.021530050288459418,-0.09804125892398154,-0.06473082257395849,-0.08441043013346318,0.3292441551929492,-0.49888789326237526,-0.4441483034274243,1.1399703643446237,0.33148493040979476,0.7420310383768324,-0.522500661871808,0.2578773688017929
4.3,-2.2654506549730486,-1.614473210951418,-1.0090538213746718,-0.9323813373144859,2.262197009070285,0.6101587246655579,0.0024999930801746467,0.01692982098726127,0.12617312666733732,-0.025386610077170243,0.0656567069877505,0.13013894045274052,0.4999974295916273,0.009291986291390752,-0.19021918235566956,-0.04650149019272244,-0.13250250317153617,0.23578573487196172,-0.4951721921863776,-0.4383439158638713,1.1494132022214338,0.33115753276218757,0.7385071946200022,-0.5257424158883938,0.2617951950001946
4.4,-2.262729956244927,-1.6127544342979534,-0.9975279652886911,-0.9351198039962693,2.26802889139606,0.6241840453223788,0.052496565378317525,0.017244887877631974,0.10252871855304774,-0.02912157230834538,0.04999516873217831,0.14902555242772778,0.499931418464022,-0.0030020070668237663,-0.2827531531513244,-0.02818066187536025,-0.1807720012727644,0.14185888814575423,-0.4897319162659514,-0.43538403170840984,1.1575470718797638,0.33078891919697423,0.735656800597167,-0.5271594774842511,0.26737735126627565
4.5,-2.2550099764752236,-1.6110669539051374,-0.988839232632483,-0.9381381737681489,2.272048051933162,0.6396181960266204,0.10248475689632557,0.016260343965952138,0.06910317822349774,-0.030919729140158565,0.02923148582966755,0.15798259756179409,0.4998210978301439,-0.017005465358565935,-0.38813557988038677,-0.007310049917498202,-0.23574144040349018,0.034860046869855124,-0.482982222136,-0.4355824100154004,1.163752277807888,0.3304462505533448,0.7337032747153286,-0.5265483797714455,0.2742837653367483
4.6,-2.2424686140280254,-1.6095689480847266,-0.9840860629929467,-0.941189161150755,2.2736932840840733,0.6551943254816466,0.14467785736947353,0.01305326590050079,0.022999273228574903,-0.028897446897884295,0.0023722955756205815,0.14739383770634595,0.30796817769324897,-0.04511688091423229,-0.49996755299211393,0.047103425389821936,-0.28131791870663797,-0.2431023105884965,-0.47542071599913377,-0.43924815922433613,1.1673021688120757,0.33020271007828783,0.7329047418669027,-0.5237364194128248,0.2819875397718783
4.7,-2.226702558480175,-1.6085000188313598,-0.9842416836515316,-0.9438115004540587,2.272563102466774,0.6685559779093263,0.1689093992654541,0.008087648797385789,-0.026998992965740355,-0.023081992372819323,-0.025323463200603726,0.11745229667433968,0.17785186265775355,-0.0541085727211586,-0.49996236495831275,0.06899853882324836,-0.2726579096622951,-0.3546728421023252,-0.46807894259068716,-0.4460590105900175,1.1675209469919248,0.33011967385460494,0.7334484599540931,-0.519016393011036,0.2893031996209375
4.8,-2.2092082507696618,-1.6079729698082723,-0.9893767530499722,-0.9457393874786811,2.26872021125165,0.678348264268805,0.17651867923296474,0.002218831641119408,-0.07514822686466784,-0.014835190822048414,-0.05094863953681718,0.07513276527613129,-0.06228046932841412,-0.06272884936211344,-0.4399115377808567,0.09752604277218073,-0.22535286596251508,-0.4996702493143956,-0.4615568512977385,-0.4554268896988837,1.1643302540236338,0.3301957332194259,0.7353098107990105,-0.512846450478281,0.29542981931118056
4.9,-2.1912637457480404,-1.608005674653629,-0.9989607902095885,-0.9468627159223632,2.2625263916720586,0.6840133837533219,0.1963526015768604,-0.0014257168698251644,-0.11291104228827538,-0.010700730947223385,-0.07196871069604105,0.05383237114425094,0.49999999983857357,-0.0036305016025134293,-0.28752112614007064,-0.027248762832358168,-0.18326396007702903,0.1370808705730309,-0.4561277043550413,-0.46662394598474277,1.158038242060327,0.3303799868004634,0.7383303728572496,-0.5057320348247222,0.29992071250623303
5.0,-2.170493996704031,-1.6081564838680538,-1.010904273483005,-0.9479946158543042,2.254913698750378,0.6897076543162328,0.20943951023931168,-0.0015207409555977902,-0.12043656772334539,-0.01141393508815737,-0.07676542811088412,0.05742030081052643,-7.845463067510105e-12,5.71776239460763e-14,4.5187649470111214e-12,4.2796585196002564e-13,2.88313837109912e-12,-2.1484925361555945e-12,-0.4497582065532223,-0.4797837835604427,1.1501039585344583,0.3305448048560236,0.742073485031296,-0.4972822828244105,0.30459383773337123
5.1,-2.149550045680099,-1.6083085579636136,-1.0229479302553397,-0.94913600936312,2.2472371559392896,0.6954496843972855,0.20943951023931168,-0.0015207409555977902,-0.12043656772334539,-0.01141393508815737,-0.07676542811088412,0.05742030081052643,-7.845463067510105e-12,5.71776239460763e-14,4.5187649470111214e-12,4.2796585196002564e-13,2.88313837109912e-12,-2.1484925361555945e-12,-0.4429242181519512,-0.49289569281833673,1.1420366422978219,0.3306264519955274,0.7458804749327758,-0.48868498805729854,0.30908809230111745
5.2,-2.1286060946561673,-1.6084606320591734,-1.0349915870276747,-0.9502774028719356,2.2395606131282007,0.7011917144783384,0.20943951023931168,-0.0015207409555977902,-0.12043656772334539,-0.01141393508815737,-0.07676542811088412,0.05742030081052643,-7.845463067510105e-12,5.71776239460763e-14,4.5187649470111214e-12,4.2796585196002564e-13,2.88313837109912e-12,-2.1484925361555945e-12,-0.4356827819556565,-0.505835336141628,1.133904108027283,0.33062217001359206,0.7497185578931828,-0.4800159657877508,0.3133619907310436
5.3,-2.107662143632236,-1.6086127061547333,-1.0470352438000095,-0.9514187963807516,2.2318840703171126,0.7069337445593911,0.20943951023931168,-0.0015207409555977902,-0.12043656772334539,-0.01141393508815737,-0.07676542811088412,0.05742030081052643,-7.845463067510105e-12,5.71776239460763e-14,4.5187649470111214e-12,4.2796585196002564e-13,2.88313837109912e-12,-2.1484925361555945e-12,-0.428039691737542,-0.5185895723626573,1.125707917387784,0.3305309612221759,0.7535861822661952,-0.4712805201172265,0.31741427335430533
5.4,-2.0867181926083043,-1.6087647802502931,-1.0590789005723442,-0.9525601898895673,2.2242075275060236,0.7126757746404437,0.20943951023931168,-0.0015207409555977902,-0.12043656772334539,-0.01141393508815737,-0.07676542811088412,0.05742030081052643,-7.845463067510105e-12,5.71776239460763e-14,4.5187649470111214e-12,4.2796585196002564e-13,2.88313837109912e-12,-2.1484925361555945e-12,-0.42000117708981843,-0.5311454726394422,1.1174496438846042,0.33035185629138175,0.7574817752053139,-0.46248397684546116,0.3212438052910147
5.5,-2.0657742415843727,-1.6089168543458527,-1.0711225573446788,-0.9537015833983831,2.2165309846949355,0.7184178047214966,0.20943951023931168,-0.0015207409555977902,-0.12043656772334539,-0.01141393508815737,-0.07676542811088412,0.05742030081052643,-7.845463067510105e-12,5.71776239460763e-14,4.5187649470111214e-12,4.2796585196002564e-13,2.88313837109912e-12,-2.1484925361555945e-12,-0.411573895487077,-0.5434903352035263,1.1091308724712106,0.33008391466347736,0.7614037431797283,-0.4536316805498636,0.3248495768103124
5.6,-2.0448302905604407,-1.6090689284414126,-1.0831662141170137,-0.9548429769071988,2.208854441883847,0.7241598348025493,0.20943951023931168,-0.0015207409555977902,-0.12043656772334539,-0.01141393508815737,-0.07676542811088412,0.05742030081052643,-7.845463067510105e-12,5.71776239460763e-14,4.5187649470111214e-12,4.2796585196002564e-13,2.88313837109912e-12,-2.1484925361555945e-12,-0.40276492384306867,-0.555611699809115,1.1007531991546506,0.3297262249575201,0.7653504724979381,-0.4447289916592613,0.32823070362198403
5.7,-2.0238863395365096,-1.6092210025369722,-1.0952098708893483,-0.9559843704160145,2.201177899072758,0.729901864883602,0.20943951023931157,-0.0015207409555976167,-0.12043656772334524,-0.011413935088157377,-0.07676542811088465,0.05742030081052628,-7.956353004860073e-12,5.761078776384961e-14,4.560348673517359e-12,4.331638177733053e-13,2.910860855436612e-12,-2.176215020493086e-12,-0.393581749572201,-0.5674973618658761,1.0923182305986217,0.329277905364443,0.7693203298389574,-0.43578128352360035,0.3313864270995512
5.8,-2.0029423885125777,-1.6093730766325323,-1.1072535276616833,-0.9571257639248304,2.1935013562616694,0.7356438949646549,0.20943951023931157,-0.0015207409555976167,-0.12043656772334524,-0.011413935088157377,-0.07676542811088465,0.05742030081052628,-7.956353004860073e-12,5.761078776384961e-14,4.560348673517359e-12,4.331638177733053e-13,2.910860855436612e-12,-2.176215020493086e-12,-0.3840322611676901,-0.5791353862382441,1.08382758372434,0.32873810403245945,0.7733116627909354,-0.42679393948120603,0.33431611443478904
5.9,-1.9819984374886463,-1.6095251507280919,-1.1192971844340178,-0.9582671574336461,2.185824813450581,0.7413859250457076,0.20943951023931157,-0.0015207409555976167,-0.12043656772334524,-0.011413935088157377,-0.07676542811088465,0.05742030081052628,-7.956353004860073e-12,5.761078776384961e-14,4.560348673517359e-12,4.331638177733053e-13,2.910860855436612e-12,-2.176215020493086e-12,-0.37412473830890763,-0.5905141206944795,1.0752828853093446,0.3281059994426559,0.7773228003970049,-0.41777234992522744,0.33701925872366323
6.0,-1.961054486464715,-1.6096772248236517,-1.1313408412063528,-0.9594085509424619,2.1781482706394923,0.7471279551267603,0.20943951023931157,-0.0015207409555976167,-0.12043656772334524,-0.011413935088157377,-0.07676542811088465,0.05742030081052628,-7.956353004860073e-12,5.761078776384961e-14,4.560348673517359e-12,4.331638177733053e-13,2.910860855436612e-12,-2.176215020493086e-12,-0.36386784151103824,-0.60162220898926,1.0666857715843547,0.3273808007746343,0.7813520537081919,-0.40872190937085573,0.3394954789837296
6.1,-1.9401105354407835,-1.6098292989192116,-1.1433844979786874,-0.9605499444512775,2.170471727828404,0.752869985207813,0.20943951023931157,-0.0015207409555976167,-0.12043656772334524,-0.011413935088157377,-0.07676542811088465,0.05742030081052628,-7.956353004860073e-12,5.761078776384961e-14,4.560348673517359e-12,4.331638177733053e-13,2.910860855436612e-12,-2.176215020493086e-12,-0.35327060133074034,-0.612448603564029,1.0580378878283319,0.32656174826207646,0.7853977163431981,-0.3996480135249459,0.3417445201030589
6.2,-1.9191665844168515,-1.6099813730147712,-1.1554281547510223,-0.9616913379600933,2.162795185017315,0.7586120152888658,0.20943951023931157,-0.0015207409555976167,-0.12043656772334524,-0.011413935088157377,-0.07676542811088465,0.05742030081052628,-7.956353004860073e-12,5.761078776384961e-14,4.560348673517359e-12,4.331638177733053e-13,2.910860855436612e-12,-2.176215020493086e-12,-0.34234240714204495,-0.6229825778498775,1.0493408879618507,0.3256481135381076,0.7894580650548733,-0.3905560563596282,0.3437662527208019
6.3,-1.8982226333929202,-1.6101334471103308,-1.1674718115233569,-0.9628327314689091,2.1551186422062267,0.7643540453699185,0.20943951023931157,-0.0015207409555976167,-0.12043656772334524,-0.011413935088157377,-0.07676542811088465,0.05742030081052628,-7.956353004860073e-12,5.761078776384961e-14,4.560348673517359e-12,4.331638177733053e-13,2.910860855436612e-12,-2.176215020493086e-12,-0.33109299549725285,-0.6332137381582514,1.0405964341389315,0.3246391999703277,0.7935313603031927,-0.3814514271915239,0.34556067303953963
6.4,-1.8772786823689889,-1.6102855212058906,-1.1795154682956916,-0.9639741249777249,2.147442099395138,0.7700960754509711,0.20943951023931157,-0.0015207409555976167,-0.12043656772334524,-0.011413935088157377,-0.07676542811088465,0.05742030081052628,-7.956353004860073e-12,5.761078776384961e-14,4.560348673517359e-12,4.331638177733053e-13,2.910860855436612e-12,-2.176215020493086e-12,-0.3195324380881015,-0.643132035145339,1.0318061963374543,0.32353434298540157,0.7976158468345532,-0.3723395077681529,0.3471279025696043
6.5,-1.8563347313450573,-1.6104375953014505,-1.1915591250680264,-0.9651155184865405,2.139765556584049,0.7758381055320238,0.20943951023931157,-0.0015207409555976167,-0.12043656772334524,-0.011413935088157377,-0.07676542811088465,0.05742030081052628,-7.956353004860073e-12,5.761078776384961e-14,4.560348673517359e-12,4.331638177733053e-13,2.910860855436612e-12,-2.176215020493086e-12,-0.30767112932296037,-0.6527277748365573,1.0229718519482898,0.32233291038308093,0.8017097542671935,-0.36322566936313067,0.3484681878055941
6.6,-1.8353907803211253,-1.6105896693970103,-1.2036027818403612,-0.9662569119953563,2.1320890137729607,0.7815801356130767,0.20943951023931157,-0.0015207409555976167,-0.12043656772334524,-0.011413935088157377,-0.07676542811088465,0.05742030081052628,-7.956353004860073e-12,5.761078776384961e-14,4.560348673517359e-12,4.331638177733053e-13,2.910860855436612e-12,-2.176215020493086e-12,-0.2955197735362725,-0.6619916291981517,1.0140950853632769,0.32103430263955446,0.8058112976825487,-0.3541152698817369,0.34958189983534127
6.7,-1.814446829297194,-1.6107417434925702,-1.215646438612696,-0.9673983055041722,2.124412470961872,0.7873221656941294,0.20943951023931157,-0.0015207409555976167,-0.12043656772334524,-0.011413935088157377,-0.07676542811088465,0.05742030081052628,-7.956353004860073e-12,5.761078776384961e-14,4.560348673517359e-12,4.331638177733053e-13,2.910860855436612e-12,-2.176215020493086e-12,-0.28308937184691085,-0.6709146462435234,1.0051775875621825,0.3196379532000115,0.8099186782223456,-0.34501365097843495,0.350469533881629
6.8,-1.7935028782732623,-1.6108938175881298,-1.2276900953850307,-0.9685396990129879,2.116735928150783,0.7930641957751822,0.20943951023931157,-0.0015207409555976167,-0.12043656772334524,-0.011413935088157377,-0.07676542811088465,0.05742030081052628,-7.956353004860073e-12,5.761078776384961e-14,4.560348673517359e-12,4.331638177733053e-13,2.910860855436612e-12,-2.176215020493086e-12,-0.27039120868252536,-0.6794882596625162,0.9962210556987733,0.31814332876031476,0.8140300836912395,-0.335926135187911,0.3511317087769959
6.9,-1.772558927249331,-1.6110458916836896,-1.2397337521573655,-0.9696810925218037,2.109059385339695,0.798806225856235,0.20943951023931157,-0.0015207409555976167,-0.12043656772334524,-0.011413935088157377,-0.07676542811088465,0.05742030081052628,-7.956353004860073e-12,5.761078776384961e-14,4.560348673517359e-12,4.331638177733053e-13,2.910860855436612e-12,-2.176215020493086e-12,-0.2574368379873725,-0.687704297962533,0.9872271926861276,0.3165499295376801,0.8181436891647961,-0.3268580230711938,0.3515691663719931
7.0,-1.751614976225399,-1.6111979657792492,-1.2517774089297,-0.9708224860306194,2.101382842528606,0.8045482559372876,0.20943951023931157,-0.0015207409555974486,-0.12043656772334534,-0.011413935088157471,-0.07676542811088438,0.05742030081052641,-7.956353004860073e-12,5.782736967273626e-14,4.560348673517359e-12,4.331638177733053e-13,2.910860855436612e-12,-2.176215020493086e-12,-0.24423806913146898,-0.6955549931109921,0.978197706781331,0.31485728953026715,0.8222576576026168,-0.3178145903784102,0.3517827708773053
7.1,-1.7306710252014676,-1.611350039874809,-1.263821065702035,-0.9719638795394352,2.0937062997175175,0.8102902860183403,0.20943951023931157,-0.0015207409555974486,-0.12043656772334534,-0.011413935088157471,-0.07676542811088438,0.05742030081052641,-7.956353004860073e-12,5.782736967273626e-14,4.560348673517359e-12,4.331638177733053e-13,2.910860855436612e-12,-2.176215020493086e-12,-0.23080695253928216,-0.7030329886693042,0.9691343111696724,0.3130649767655809,0.8263701404664082,-0.3088010852297087,0.3517735081401798
7.2,-1.7097270741775359,-1.611502113970369,-1.2758647224743698,-0.973105273048251,2.086029756906429,0.8160323160993932,0.20943951023931157,-0.0015207409555974486,-0.12043656772334534,-0.011413935088157471,-0.07676542811088438,0.05742030081052641,-7.956353004860073e-12,5.782736967273626e-14,4.560348673517359e-12,4.331638177733053e-13,2.910860855436612e-12,-2.176215020493086e-12,-0.21715576505647258,-0.7101313474092081,0.9600387235484895,0.31117259353759763,0.8304792783427879,-0.29982272531589144,0.35154248485564116
7.3,-1.6887831231536046,-1.6116541880659285,-1.2879083792467045,-0.9742466665570668,2.0783532140953405,0.821774346180446,0.20943951023931157,-0.0015207409555974486,-0.12043656772334534,-0.011413935088157471,-0.07676542811088438,0.05742030081052641,-7.956353004860073e-12,5.782736967273626e-14,4.560348673517359e-12,4.331638177733053e-13,2.910860855436612e-12,-2.176215020493086e-12,-0.20329699507352522,-0.7168435584029943,0.9509126657107794,0.3091797766325261,0.8345832015706238,-0.2908846951202611,0.35109092771300915
7.4,-1.667839172129673,-1.6118062621614881,-1.2999520360190393,-0.9753880600658825,2.070676671284252,0.8275163762614987,0.20943951023931157,-0.0015207409555974486,-0.12043656772334534,-0.011413935088157471,-0.07676542811088438,0.05742030081052641,-7.956353004860073e-12,5.782736967273626e-14,4.560348673517359e-12,4.331638177733053e-13,2.910860855436612e-12,-2.176215020493086e-12,-0.18924332742535777,-0.7231635435798367,0.9417578631287167,0.30708619754311917,0.838680030872701,-0.2819921431631913,0.3504201824782697
7.5,-1.6468952211057415,-1.611958336257048,-1.311995692791374,-0.9765294535746982,2.0630001284731634,0.8332584063425514,0.20943951023931157,-0.0015207409555974486,-0.12043656772334534,-0.011413935088157471,-0.07676542811088438,0.05742030081052641,-7.956353004860073e-12,5.782736967273626e-14,4.560348673517359e-12,4.331638177733053e-13,2.910860855436612e-12,-2.176215020493086e-12,-0.17500762808626133,-0.7290856637411465,0.9325760445372083,0.3048915626714588,0.8427678779915033,-0.2731501792709108,0.3495317130128876
7.6,-1.62595127008181,-1.6121104103526078,-1.3240393495637088,-0.977670847083514,2.055323585662075,0.8390004364236042,0.20943951023931157,-0.0015207409555974486,-0.12043656772334534,-0.011413935088157471,-0.07676542811088438,0.05742030081052641,-7.956353004860073e-12,5.782736967273626e-14,4.560348673517359e-12,4.331638177733053e-13,2.910860855436612e-12,-2.176215020493086e-12,-0.16060292867973666,-0.7346047240285776,0.923368941517615,0.30259561352013403,0.8468448463289051,-0.26436387186997495,0.3484271002296781
7.7,-1.6050073190578784,-1.6122624844481677,-1.3360830063360436,-0.9788122405923299,2.0476470428509863,0.844742466504657,0.20943951023931157,-0.0015207409555974486,-0.12043656772334534,-0.011413935088157471,-0.07676542811088438,0.05742030081052641,-7.956353004860073e-12,5.782736967273626e-14,4.560348673517359e-12,4.331638177733053e-13,2.910860855436612e-12,-2.176215020493086e-12,-0.1460424108229943,-0.7397159788390241,0.9141382880817691,0.3001981268717437,0.850909031589557,-0.25563824530888213,0.3471080409863974
7.8,-1.5840633680339464,-1.6124145585437275,-1.3481266631083784,-0.9799536341011457,2.0399705000398973,0.8504844965857097,0.20943951023931157,-0.0015207409555974486,-0.12043656772334534,-0.011413935088157471,-0.07676542811088438,0.05742030081052641,-7.956353004860073e-12,5.782736967273626e-14,4.560348673517359e-12,4.331638177733053e-13,2.910860855436612e-12,-2.176215020493086e-12,-0.13133939032605166,-0.7444151361816707,0.9048858202564235,0.2976989149566533,0.8549585224277565,-0.24697827720828053,0.3455763469177373
7.9,-1.563119417010015,-1.6125666326392871,-1.3601703198807131,-0.9810950276099614,2.032293957228809,0.8562265266667625,0.20943951023931157,-0.0015207409555974486,-0.12043656772334534,-0.011413935088157471,-0.07676542811088438,0.05742030081052641,-7.956353004860073e-12,5.782736967273626e-14,4.560348673517359e-12,4.331638177733053e-13,2.910860855436612e-12,-2.176215020493086e-12,-0.1165073012655065,-0.7486983614728869,0.8956132756682562,0.29509782560894104,0.858991401097588,-0.2383888958411885,0.34383394320645067
8.0,-1.5421754659860838,-1.6127187067348467,-1.3722139766530477,-0.9822364211187772,2.0246174144177203,0.8619685567478151,0.20943951023931157,-0.0015207409555974486,-0.12043656772334534,-0.011413935088157471,-0.07676542811088438,0.05742030081052641,-7.956353004860073e-12,5.782736967273626e-14,4.560348673517359e-12,4.331638177733053e-13,2.910860855436612e-12,-2.176215020493086e-12,-0.10155967995317601,-0.752562280765475,0.8863223931295655,0.29239474241047364,0.8630057441061161,-0.22987497754463762,0.3418828672943614
8.1,-1.5212315149621523,-1.6128707808304064,-1.3842576334253827,-0.9833778146275929,2.0169408716066317,0.8677105868288679,0.20943951023931157,-0.0015207409555974486,-0.12043656772334534,-0.011413935088157471,-0.07676542811088438,0.05742030081052641,-7.956353004860073e-12,5.782736967273626e-14,4.560348673517359e-12,4.331638177733053e-13,2.910860855436612e-12,-2.176215020493086e-12,-0.08651014881989144,-0.7560039834095315,0.8770149122247812,0.2895895848230546,0.8669996228694188,-0.22144134416412595,0.33972526753404947
8.2,-1.5002875639382205,-1.6130228549259662,-1.3963012901977174,-0.9845192081364087,2.009264328795543,0.8734526169099207,0.20943951023931157,-0.0015207409555974486,-0.12043656772334534,-0.011413935088157471,-0.07676542811088438,0.05742030081052641,-7.956353004860073e-12,5.782736967273626e-14,4.560348673517359e-12,4.331638177733053e-13,2.910860855436612e-12,-2.176215020493086e-12,-0.07137240023478934,-0.7590210241428965,0.8676925728979219,0.2866823083085904,0.8709711043712406,-0.21309276053225168,0.33736340178203145
8.3,-1.479343612914289,-1.613174929021526,-1.4083449469700522,-0.9856606016452244,2.0015877859844546,0.8791946469909734,0.20943951023931157,-0.0015207409555974486,-0.12043656772334534,-0.011413935088157471,-0.07676542811088455,0.05742030081052632,-7.956353004860073e-12,5.782736967273626e-14,4.560348673517359e-12,4.331638177733053e-13,2.910860855436612e-12,-2.1831456415774587e-12,-0.05616018028048318,-0.7616114246099148,0.8583571150411262,0.2836729044372296,0.8749182518240481,-0.20483393198287345,0.3347996359342905
8.4,-1.4583996618903574,-1.6133270031170857,-1.4203886037423867,-0.9868019951540402,1.9939112431733659,0.8849366770720262,0.20943951023931157,-0.0015207409555974486,-0.12043656772334534,-0.011413935088157471,-0.07676542811088455,0.05742030081052632,-7.956353004860073e-12,5.782736967273626e-14,4.560348673517359e-12,4.331638177733053e-13,2.910860855436612e-12,-2.1831456415774587e-12,-0.040887272504505516,-0.763773674307965,0.8490102780843819,0.28056140098342486,0.8788391253322718,-0.19666950190212726,0.3320364424050384
8.5,-1.437455710866426,-1.6134790772126455,-1.4324322605147217,-0.987943388662856,1.9862347003622773,0.890678707153079,0.20943951023931157,-0.0015207409555974486,-0.12043656772334534,-0.011413935088157471,-0.07676542811088455,0.05742030081052632,-7.956353004860073e-12,5.782736967273626e-14,4.560348673517359e-12,4.331638177733053e-13,2.910860855436612e-12,-2.1831456415774587e-12,-0.025567481667394507,-0.7655067309619379,0.8396538005865855,0.2773478620098809,0.8827317825575092,-0.18860404931760463,0.3290763985496272
8.6,-1.4165117598424941,-1.6136311513082053,-1.4444759172870565,-0.9890847821716717,1.9785581575511886,0.8964207372341317,0.20943951023931157,-0.0015207409555974486,-0.12043656772334534,-0.011413935088157471,-0.07676542811088455,0.05742030081052632,-7.956353004860073e-12,5.782736967273626e-14,4.560348673517359e-12,4.331638177733053e-13,2.910860855436612e-12,-2.1831456415774587e-12,-0.010214617507752915,-0.7668100203275926,0.8302894198280535,0.27403238793934853,0.8865942793854715,-0.1806420865269774,0.3259221850325547
8.7,-1.3955678088185623,-1.613783225403765,-1.4565195740593913,-0.9902261756804875,1.9708816147401,0.9021627673151845,0.20943951023931157,-0.0015207409555974486,-0.12043656772334534,-0.011413935088157471,-0.07676542811088455,0.05742030081052632,-7.956353004860073e-12,5.782736967273626e-14,4.560348673517359e-12,4.331638177733053e-13,2.910860855436612e-12,-2.1831456415774587e-12,0.005157521455460504,-0.7676834354254349,0.8209188714046098,0.27061511561423585,0.8904246705944552,-0.17278805676732462,0.32257658414153634
8.8,-1.374623857794631,-1.6139352994993248,-1.468563230831726,-0.9913675691893034,1.9632050719290115,0.9079047973962372,0.20943951023931157,-0.0015207409555974486,-0.12043656772334534,-0.011413935088157471,-0.07676542811088455,0.05742030081052632,-7.956353004860073e-12,5.782736967273626e-14,4.560348673517359e-12,4.331638177733053e-13,2.910860855436612e-12,-2.1831456415774587e-12,0.020535164063252783,-0.7681273352074925,0.8115438888233756,0.2670962183440012,0.8942210105251096,-0.16504633192640222,0.3190424780486535
8.9,-1.3536799067706995,-1.6140873735948844,-1.4806068876040608,-0.9925089626981192,1.955528529117923,0.91364682747729,0.20943951023931157,-0.0015207409555974486,-0.12043656772334534,-0.011413935088157471,-0.07676542811088455,0.05742030081052632,-7.956353004860073e-12,5.782736967273626e-14,4.560348673517359e-12,4.331638177733053e-13,2.910860855436612e-12,-2.1831456415774587e-12,0.035904582579489044,-0.7681425426600856,0.8021662031003834,0.2634759059403091,0.8979813537512856,-0.15742121029706582,0.3153228470196044
9.0,-1.332735955746768,-1.6142394476904443,-1.4926505443763955,-0.9936503562069349,1.9478519863068342,0.9193888575583427,0.20943951023931157,-0.0015207409555974486,-0.12043656772334534,-0.011413935088157471,-0.07676542811088455,0.05742030081052632,-7.956353004860073e-12,5.782736967273626e-14,4.560348673517359e-12,4.331638177733053e-13,2.910860855436612e-12,-2.1831456415774587e-12,0.051252108656469834,-0.7677303423463965,0.7927875423601388,0.25975442473992544,0.9017037557517379,-0.14991691437603102,0.31142076757212356
9.1,-1.3117920047228366,-1.614391521786004,-1.50469420114873,-0.9947917497157506,1.9401754434957459,0.9251308876393953,0.20943951023931157,-0.0015207409555974486,-0.12043656772334534,-0.011413935088157471,-0.07676542811088455,0.05742030081052632,-7.956353004860073e-12,5.782736967273626e-14,4.560348673517359e-12,4.331638177733053e-13,2.910860855436612e-12,-2.1831456415774587e-12,0.06656414918348387,-0.7668924773933541,0.7834096314372474,0.25593205761533444,0.9053862735824583,-0.1425375887081334,0.3073394105846533
9.2,-1.2908480536989049,-1.6145435958815637,-1.5167378579210653,-0.9959331432245664,1.9324989006846571,0.9308729177204481,0.20943951023931157,-0.0015207409555974486,-0.12043656772334534,-0.011413935088157471,-0.07676542811088455,0.05742030081052632,-7.956353004860073e-12,5.782736967273626e-14,4.560348673517359e-12,4.331638177733053e-13,2.910860855436612e-12,-2.1831456415774587e-12,0.08182720199882358,-0.7656311459280579,0.7740341914802323,0.25200912397306696,0.9090269665494188,-0.1352872977772232,0.30308203935638606
9.3,-1.2699041026749733,-1.6146956699771235,-1.5287815146933998,-0.9970745367333821,1.9248223578735686,0.9366149478015009,0.20943951023931157,-0.0015207409555974486,-0.12043656772334534,-0.011413935088157471,-0.07676542811088455,0.05742030081052632,-7.956353004860073e-12,5.782736967273626e-14,4.560348673517359e-12,4.331638177733053e-13,2.910860855436612e-12,-2.1831456415774587e-12,0.09702787144597551,-0.7639489969696323,0.7646629395576561,0.24798597973972883,0.9126238968814978,-0.12817002394479798,0.2986520076198149
9.4,-1.248960151651042,-1.6148477440726832,-1.5408251714657346,-0.9982159302421979,1.9171458150624798,0.9423569778825536,0.20943951023931157,-0.0015207409555974486,-0.12043656772334534,-0.011413935088157471,-0.07676542811088455,0.05742030081052632,-7.956353004860073e-12,5.782736967273626e-14,4.560348673517359e-12,4.331638177733053e-13,2.910860855436612e-12,-2.1831456415774587e-12,0.11215288375495538,-0.7618491257831091,0.7552975882666674,0.24386301733572602,0.9161751304033668,-0.12118966543745477,0.2940527575069598
9.5,-1.22801620062711,-1.614999818168243,-1.5528688282380694,-0.9993573237510136,1.9094692722513913,0.9480990079636064,0.20943951023931157,-0.0015207409555974486,-0.12043656772334534,-0.011413935088157471,-0.07676542811088455,0.05742030081052632,-7.956353004860073e-12,5.782736967273626e-14,4.560348673517359e-12,4.331638177733053e-13,2.910860855436612e-12,-2.1831456415774587e-12,0.12718910223002322,-0.7593350687025957,0.745939845344089,0.23964066563668648,0.9196787372081147,-0.11435003438421161,0.28928781747046123
9.6,-1.2070722496031785,-1.6151518922638026,-1.5649124850104044,-1.0004987172598294,1.9017927294403025,0.9538410380446593,0.2094395102393116,-0.0015207409555974478,-0.12043656772334525,-0.011413935088157379,-0.07676542811088449,0.057420300810526376,-7.956353004860073e-12,5.782736967273626e-14,4.560348673517359e-12,4.331638177733053e-13,2.910860855436612e-12,-2.176215020493086e-12,0.14212354222531418,-0.7564107974316393,0.7365914132801629,0.23531938992258092,0.9231327923293828,-0.10765485490472183,0.2843608001607535
9.7,-1.1861282985792467,-1.6153039663593625,-1.576956141782739,-1.0016401107686452,1.894116186629214,0.9595830681257119,0.2094395102393116,-0.0015207409555974478,-0.12043656772334525,-0.011413935088157379,-0.07676542811088449,0.057420300810526376,-7.956353004860073e-12,5.782736967273626e-14,4.560348673517359e-12,4.331638177733053e-13,2.910860855436612e-12,-2.176215020493086e-12,0.1569433858902526,-0.7530807128293565,0.7272539889350643,0.23089969181455003,0.9265353764127902,-0.10110776124936921,0.27927540026055936
9.8,-1.1651843475553152,-1.615456040454922,-1.5889997985550737,-1.0027815042774608,1.8864396438181252,0.9653250982067647,0.2094395102393116,-0.0015207409555974478,-0.12043656772334525,-0.011413935088157379,-0.07676542811088449,0.057420300810526376,-7.956353004860073e-12,5.782736967273626e-14,4.560348673517359e-12,4.331638177733053e-13,2.910860855436612e-12,-2.176215020493086e-12,0.17163599666694246,-0.7493496381915239,0.7179292631582987,0.22638210919945112,0.9298845763864217,-0.09471229599221055,0.274035392277962
9.9,-1.1442403965313837,-1.615608114550482,-1.6010434553274084,-1.0039228977862766,1.8787631010070367,0.9710671282878173,0.2094395102393116,-0.0015207409555974478,-0.12043656772334525,-0.011413935088157379,-0.07676542811088449,0.057420300810526376,-7.956353004860073e-12,5.782736967273626e-14,4.560348673517359e-12,4.331638177733053e-13,2.910860855436612e-12,-2.176215020493086e-12,0.18618893352211371,-0.7452228120364478,0.7086189204110969,0.22176721614213835,0.93317848613016,-0.08847190827769476,0.2686446282993425
10.0,-1.1232964455074526,-1.6157601886460418,-1.613087112099743,-1.0050642912950924,1.8710865581959482,0.9768091583688701,0.2094395102393116,-0.0015207409555974478,-0.12043656772334525,-0.011413935088157379,-0.07676542811088449,0.057420300810526376,-7.956353004860073e-12,5.782736967273626e-14,4.560348673517359e-12,4.331638177733053e-13,2.910860855436612e-12,-2.176215020493086e-12,0.20058996489657765,-0.740705880406036,0.6993246383919105,0.21705562278549803,0.9364152071436316,-0.08238995212206147,0.2631070357034825
10.1,-1.1023524944835206,-1.6159122627416016,-1.6251307688720782,-1.0062056848039083,1.8634100153848596,0.982551188449923,0.2094395102393116,-0.0015207409555974478,-0.12043656772334525,-0.011413935088157379,-0.07676542811088449,0.057420300810526376,-7.956353004860073e-12,5.782736967273626e-14,4.560348673517359e-12,4.331638177733053e-13,2.910860855436612e-12,-2.176215020493086e-12,0.21482708235556447,-0.7358048886930834,0.690048087665122,0.21224797523825906,0.939592849212551,-0.07646968477028464,0.25742661483815715
10.2,-1.0814085434595893,-1.6160643368371612,-1.6371744256444127,-1.007347078312724,1.855733472573771,0.9882932185309756,0.2094395102393116,-0.0015207409555974478,-0.12043656772334525,-0.011413935088157379,-0.07676542811088449,0.057420300810526376,-7.956353004860073e-12,5.782736967273626e-14,4.560348673517359e-12,4.331638177733053e-13,2.910860855436612e-12,-2.176215020493086e-12,0.22888851392373652,-0.7305262730063619,0.68079093129308,0.20734495545061396,0.9427095310732355,-0.07071426510940441,0.25160743666056506
10.3,-1.060464592435658,-1.6162164109327208,-1.6492180824167475,-1.0084884718215397,1.8480569297626825,0.9940352486120283,0.2094395102393116,-0.0015207409555974478,-0.12043656772334525,-0.011413935088157379,-0.07676542811088449,0.057420300810526376,-7.956353004860073e-12,5.782736967273626e-14,4.560348673517359e-12,4.331638177733053e-13,2.910860855436612e-12,-2.176215020493086e-12,0.24276273708913595,-0.7248768510856515,0.6715548244715519,0.20234728107767036,0.9457633810750707,-0.06512675213904325,0.24565364034295184
10.4,-1.039520641411726,-1.6163684850282807,-1.6612617391890823,-1.0096298653303555,1.840380386951594,0.9997772786930812,0.2094395102393116,-0.0015207409555974478,-0.12043656772334525,-0.011413935088157379,-0.07676542811088449,0.057420300810526376,-7.956353004860073e-12,5.782736967273626e-14,4.560348673517359e-12,4.331638177733053e-13,2.910860855436612e-12,-2.176215020493086e-12,0.2564384914607743,-0.7188638127794018,0.6623414141687147,0.19725570533078265,0.9487525378407056,-0.059710103499887986,0.23956943084481494
10.5,-1.0185766903877944,-1.6165205591238405,-1.673305395961417,-1.0107712588391713,1.8327038441405052,1.0055193087741339,0.2094395102393116,-0.0015207409555974478,-0.12043656772334525,-0.011413935088157379,-0.07676542811088449,0.057420300810526376,-7.956353004860073e-12,5.782736967273626e-14,4.560348673517359e-12,4.331638177733053e-13,2.910860855436612e-12,-2.176215020493086e-12,0.2699047910650768,-0.7124947100982245,0.6531523387677756,0.19207101681679306,0.9516751509237539,-0.05446717406087052,0.2333590764530839
10.6,-0.9976327393638628,-1.6166726332194004,-1.6853490527337518,-1.011912652347987,1.8250273013294165,1.0112613388551868,0.2094395102393116,-0.0015207409555974478,-0.12043656772334525,-0.011413935088157379,-0.07676542811088449,0.057420300810526376,-7.956353004860073e-12,5.782736967273626e-14,4.560348673517359e-12,4.331638177733053e-13,2.910860855436612e-12,-2.176215020493086e-12,0.28315093626689497,-0.7057774468579212,0.6439892277133256,0.18679403936523034,0.9545293814637856,-0.04940071456575252,0.22702690629169142
10.7,-0.9766887883399312,-1.61682470731496,-1.6973927095060866,-1.0130540458568027,1.8173507585183282,1.0170033689362394,0.2094395102393116,-0.0015207409555974478,-0.12043656772334525,-0.011413935088157379,-0.07676542811088449,0.057420300810526376,-7.956353004860073e-12,5.782736967273626e-14,4.560348673517359e-12,4.331638177733053e-13,2.910860855436612e-12,-2.176215020493086e-12,0.29616652530131804,-0.6987202679262382,0.6348537011615275,0.1814256318435143,0.9573134028383867,-0.04451337033978758,0.22057730780196574
10.8,-0.9557448373159998,-1.6169767814105198,-1.7094363662784213,-1.0141954393656185,1.8096742157072396,1.0227453990172921,0.2094395102393116,-0.0015207409555974478,-0.12043656772334525,-0.011413935088157379,-0.07676542811088449,0.057420300810526376,-7.956353004860073e-12,5.782736967273626e-14,4.560348673517359e-12,4.331638177733053e-13,2.910860855436612e-12,-2.176215020493086e-12,0.30894146540305856,-0.6913317480879958,0.6257473696342337,0.17596668796021822,0.9600254013120681,-0.03980768005709607,0.21401472419528866
10.9,-0.9348008862920684,-1.6171288555060797,-1.7214800230507559,-1.0153368328744343,1.8019976728961509,1.028487429098345,0.20943951023931137,-0.0015207409555976176,-0.12043656772334531,-0.01141393508815747,-0.07676542811088453,0.057420300810526397,-8.150410395222513e-12,5.934344303494283e-14,4.6989610952048165e-12,4.452924046709579e-13,2.9940283084490863e-12,-2.238590610252442e-12,0.3214659835207425,-0.6836207805436869,0.6166718336771311,0.17041813605644224,0.9626635766818095,-0.03528607456935456,0.2073436518794815
11.0,-0.9138569352681369,-1.6172809296016393,-1.7335236798230906,-1.0164782263832501,1.7943211300850623,1.0342294591793975,0.20943951023931137,-0.0015207409555976176,-0.12043656772334531,-0.01141393508815747,-0.07676542811088453,0.057420300810526397,-8.150410395222513e-12,5.934344303494283e-14,4.6989610952048165e-12,4.452924046709579e-13,2.9940283084490863e-12,-2.238590610252442e-12,0.3337306366040012,-0.6755965650570557,0.6076286835220047,0.16478093888535975,0.9652261429190185,-0.030950875796367013,0.2005686378603878
11.1,-0.8929129842442052,-1.617433003697199,-1.7455673365954256,-1.0176196198920657,1.7866445872739738,1.0399714892604504,0.20943951023931137,-0.0015207409555976176,-0.12043656772334531,-0.01141393508815747,-0.07676542811088453,0.057420300810526397,-8.150410395222513e-12,5.934344303494283e-14,4.6989610952048165e-12,4.452924046709579e-13,2.9940283084490863e-12,-2.238590610252442e-12,0.34572632145184534,-0.6672685957675726,0.598619498753217,0.15905609338000282,0.9677113288076918,-0.026804295679049888,0.19369427712013887
11.2,-0.8719690332202737,-1.6175850777927587,-1.7576109933677602,-1.0187610134008818,1.7789680444628853,1.045713519341503,0.20943951023931137,-0.0015207409555976176,-0.12043656772334531,-0.01141393508815747,-0.07676542811088453,0.057420300810526397,-8.150410395222513e-12,5.934344303494283e-14,4.6989610952048165e-12,4.452924046709579e-13,2.9940283084490863e-12,-2.238590610252442e-12,0.35744428411139845,-0.6586466486840893,0.5896458479784878,0.15324463040934863,0.9701173785785626,-0.022848435195326276,0.18672520997359993
11.3,-0.8510250821963423,-1.6177371518883183,-1.7696546501400947,-1.0199024069096974,1.7712915016517963,1.0514555494225557,0.20943951023931137,-0.0015207409555976176,-0.12043656772334531,-0.01141393508815747,-0.07676542811088453,0.057420300810526397,-8.150410395222513e-12,5.934344303494283e-14,4.6989610952048165e-12,4.452924046709579e-13,2.9940283084490863e-12,-2.238590610252442e-12,0.3688761288166802,-0.6497407688763206,0.5807092885040669,0.14734761452278256,0.9724425525390229,-0.019085283439390373,0.1796661194045028
11.4,-0.8300811311724107,-1.6178892259838784,-1.78169830691243,-1.0210438004185134,1.7636149588407082,1.0571975795036086,0.20943951023931137,-0.0015207409555976176,-0.12043656772334531,-0.01141393508815747,-0.07676542811088453,0.057420300810526397,-8.150410395222513e-12,5.934344303494283e-14,4.6989610952048165e-12,4.452924046709579e-13,2.9940283084490863e-12,-2.238590610252442e-12,0.38001382645774,-0.6405612573811286,0.5718113660143844,0.14136614368301337,0.9746851276986088,-0.015516716764763296,0.17252172838278115
11.5,-0.8091371801484791,-1.618041300079438,-1.7937419636847647,-1.0221851939273288,1.7559384160296192,1.0629396095846613,0.20943951023931137,-0.0015207409555976176,-0.12043656772334531,-0.01141393508815747,-0.07676542811088453,0.057420300810526397,-8.150410395222513e-12,5.934344303494283e-14,4.6989610952048165e-12,4.452924046709579e-13,2.9940283084490863e-12,-2.238590610252442e-12,0.39084972257108125,-0.631118657840889,0.5629536142562688,0.13530134898751706,0.9768433983898362,-0.012144497991537164,0.1652967971646373
11.6,-0.7881932291245473,-1.6181933741749979,-1.8057856204570994,-1.0233265874361448,1.7482618732185307,1.0686816396657142,0.20943951023931137,-0.0015207409555976176,-0.12043656772334531,-0.01141393508815747,-0.07676542811088453,0.057420300810526397,-8.150410395222513e-12,5.934344303494283e-14,4.6989610952048165e-12,4.452924046709579e-13,2.9940283084490863e-12,-2.238590610252442e-12,0.4013765448429544,-0.6214237428915101,0.554137554727803,0.12915439437859524,0.9789156768841817,-0.008970275678141775,0.15799612057686946
11.7,-0.7672492781006159,-1.6183454482705577,-1.8178292772294342,-1.0244679809449604,1.7405853304074421,1.0744236697467668,0.20943951023931137,-0.0015207409555976176,-0.12043656772334531,-0.01141393508815747,-0.07676542811088453,0.057420300810526397,-8.150410395222513e-12,5.934344303494283e-14,4.6989610952048165e-12,4.452924046709579e-13,2.9940283084490863e-12,-2.238590610252442e-12,0.4115874101177402,-0.611487500317931,0.5453646963719153,0.12292647634213338,0.9809002940029987,-0.005995583457970267,0.1506245252870072
11.8,-0.7463053270766844,-1.6184975223661173,-1.8298729340017688,-1.0256093744537762,1.7329087875963536,1.0801656998278197,0.20943951023931137,-0.0015207409555976176,-0.12043656772334531,-0.01141393508815747,-0.07676542811088453,0.057420300810526397,-8.150410395222513e-12,5.934344303494283e-14,4.6989610952048165e-12,4.452924046709579e-13,2.9940283084490863e-12,-2.238590610252442e-12,0.4214758309043117,-0.6013211189951613,0.5366365352747728,0.116618823595149,0.9827955997231637,-0.0032218394411223663,0.14318686706079628
11.9,-0.7253613760527531,-1.6186495964616772,-1.8419165907741035,-1.026750767962592,1.725232244785265,1.0859077299088724,0.20943951023931137,-0.0015207409555976176,-0.12043656772334531,-0.01141393508815747,-0.07676542811088453,0.057420300810526397,-8.150410395222513e-12,5.934344303494283e-14,4.6989610952048165e-12,4.452924046709579e-13,2.9940283084490863e-12,-2.238590610252442e-12,0.4310357213739164,-0.5909359746331477,0.5279545543690567,0.11023269676222643,0.9845999637772498,-0.0006503456815184757,0.13568802800859006
12.0,-0.7044174250288215,-1.6188016705572368,-1.8539602475464383,-1.0278921614714078,1.7175557019741763,1.091649759989925,0.20943951023931137,-0.0015207409555976176,-0.12043656772334531,-0.01141393508815747,-0.07676542811088453,0.057420300810526397,-8.150410395222513e-12,5.934344303494283e-14,4.6989610952048165e-12,4.452924046709579e-13,2.9940283084490863e-12,-2.238590610252442e-12,0.44026140284379695,-0.5803436153439167,0.5193202231421994,0.10376938804093308,0.9863117762480226,0.0017177122904162507,0.12813291382220438
12.1,-0.6834734740048898,-1.6189537446527966,-1.866003904318773,-1.0290335549802236,1.7098791591630877,1.097391790070978,0.20943951023931137,-0.0015207409555976176,-0.12043656772334531,-0.01141393508815747,-0.07676542811088453,0.057420300810526397,-8.150410395222513e-12,5.934344303494283e-14,4.6989610952048165e-12,4.452924046709579e-13,2.9940283084490863e-12,-2.238590610252442e-12,0.4491476087414413,-0.5695557470496353,0.5107349973496471,0.09723022085632213,0.9879294481570595,0.0038812658693314376,0.12052645100379542
12.2,-0.6625295229809584,-1.6191058187483565,-1.8780475610911078,-1.0301749484890392,1.7022026163519992,1.1031338201520304,0.20943951023931157,-0.001520740955597448,-0.12043656772334527,-0.011413935088157466,-0.0767654281108845,0.05742030081052638,-7.956353004860073e-12,5.782736967273626e-14,4.560348673517359e-12,4.331638177733053e-13,2.910860855436612e-12,-2.176215020493086e-12,0.4576894890450315,-0.5585842187503443,0.5022003187332282,0.09061654950462386,0.9894514120472951,0.005839363710661369,0.11287358408832693
12.3,-0.6415855719570265,-1.619257892843916,-1.8900912178634428,-1.031316341997855,1.6945260735409102,1.1088758502330833,0.20943951023931157,-0.001520740955597448,-0.12043656772334527,-0.011413935088157466,-0.0767654281108845,0.05742030081052638,-7.956353004860073e-12,5.782736967273626e-14,4.560348673517359e-12,4.331638177733053e-13,2.910860855436612e-12,-2.176215020493086e-12,0.4658826141963434,-0.5474410076702444,0.4937176147446864,0.08392975878623715,0.9908761225592914,0.0075911720003775445,0.10517927286119094
12.4,-0.620641620933095,-1.6194099669394757,-1.9021348746357774,-1.0324577355066709,1.686849530729822,1.114617880314136,0.20943951023931157,-0.001520740955597448,-0.12043656772334527,-0.011413935088157466,-0.0767654281108845,0.05742030081052638,-7.956353004860073e-12,5.782736967273626e-14,4.560348673517359e-12,4.331638177733053e-13,2.910860855436612e-12,-2.176215020493086e-12,0.4737229784830337,-0.5361382043015035,0.4852882982744558,0.07717126362813236,0.9922020570010427,0.009135974658724918,0.09744848957255245
12.5,-0.5996976699091636,-1.6195620410350355,-1.9141785314081123,-1.0335991290154867,1.6791729879187334,1.120359910395189,0.20943951023931157,-0.001520740955597448,-0.12043656772334527,-0.011413935088157466,-0.0767654281108845,0.05742030081052638,-7.956353004860073e-12,5.782736967273626e-14,4.560348673517359e-12,4.331638177733053e-13,2.910860855436612e-12,-2.176215020493086e-12,0.48120700288793633,-0.5246879973646059,0.4769137673857301,0.07034250869578117,0.9934277159111199,0.010473173477925195,0.08968621614997897
12.6,-0.5787537188852319,-1.6197141151305954,-1.9262221881804469,-1.0347405225243023,1.6714964451076448,1.1261019404762416,0.20943951023931157,-0.001520740955597448,-0.12043656772334527,-0.011413935088157466,-0.0767654281108845,0.05742030081052638,-7.956353004860073e-12,5.782736967273626e-14,4.560348673517359e-12,4.331638177733053e-13,2.910860855436612e-12,-2.176215020493086e-12,0.488331537403679,-0.51310265870432,0.4685954050539001,0.06344496799473406,0.9945516236149619,0.011602288193866762,0.08189744141093092
12.7,-0.5578097678613004,-1.6198661892261552,-1.9382658449527819,-1.035881916033118,1.6638199022965559,1.1318439705572945,0.20943951023931157,-0.001520740955597448,-0.12043656772334527,-0.011413935088157466,-0.0767654281108845,0.05742030081052638,-7.956353004860073e-12,5.782736967273626e-14,4.560348673517359e-12,4.331638177733053e-13,2.910860855436612e-12,-2.176215020493086e-12,0.49509386281160994,-0.5013945281403538,0.46033457891140755,0.05648014446196946,0.995572328774131,0.012522956491838254,0.07408715827666687
12.8,-0.536865816837369,-1.620018263321715,-1.9503095017251166,-1.037023309541934,1.6561433594854675,1.1375860006383471,0.20943951023931157,-0.001520740955597448,-0.12043656772334527,-0.011413935088157466,-0.0767654281108845,0.05742030081052638,-7.956353004860073e-12,5.782736967273626e-14,4.560348673517359e-12,4.331638177733053e-13,2.910860855436612e-12,-2.176215020493086e-12,0.501491691924723,-0.48957599829177006,0.45213264099808514,0.049449569547135634,0.9964884049283397,0.013234933946397824,0.06626036098913778
12.9,-0.5159218658134375,-1.6201703374172745,-1.9623531584974512,-1.0381647030507497,1.648466816674379,1.1433280307193998,0.20943951023931157,-0.001520740955597448,-0.12043656772334527,-0.011413935088157466,-0.0767654281108845,0.05742030081052638,-7.956353004860073e-12,5.782736967273626e-14,4.560348673517359e-12,4.331638177733053e-13,2.910860855436612e-12,-2.176215020493086e-12,0.5075231702949309,-0.4776594993941925,0.4439909275170267,0.042354802783823774,0.9972984510300669,0.013738093895508825,0.058422042332417705
13.0,-0.49497791478950603,-1.6203224115128343,-1.974396815269786,-1.0393060965595655,1.6407902738632905,1.1490700608004525,0.20943951023931157,-0.001520740955597448,-0.12043656772334527,-0.011413935088157466,-0.0767654281108845,0.05742030081052638,-7.956353004860073e-12,5.782736967273626e-14,4.560348673517359e-12,4.331638177733053e-13,2.910860855436612e-12,-2.176215020493086e-12,0.5131868763857392,-0.46565748412876895,0.4359107585960463,0.035197431350996955,0.9980010919715858,0.014032427249113215,0.05057719086023467
13.1,-0.4740339637655743,-1.6204744856083941,-1.9864404720421207,-1.0404474900683813,1.6331137310522017,1.1548120908815054,0.20943951023931157,-0.001520740955597448,-0.12043656772334527,-0.011413935088157466,-0.0767654281108845,0.05742030081052638,-7.956353004860073e-12,5.782736967273626e-14,4.560348673517359e-12,4.331638177733053e-13,2.910860855436612e-12,-2.176215020493086e-12,0.5184818212120295,-0.4535824124817765,0.4278934380547818,0.027979069624716222,0.9985949791042172,0.014118042232340916,0.04273078813114849
13.2,-0.45309001274164246,-1.620626559703954,-1.9984841288144557,-1.041588883577197,1.6254371882411132,1.160554120962558,0.20943951023931157,-0.001520740955597448,-0.12043656772334527,-0.011413935088157466,-0.0767654281108845,0.05742030081052638,-7.956353004860073e-12,5.782736967273626e-14,4.560348673517359e-12,4.331638177733053e-13,2.910860855436612e-12,-2.176215020493086e-12,0.5234074474493388,-0.4414467366536447,0.4199402531774796,0.020701358720302918,0.9990787907496375,0.013995164063602373,0.034887805952917794
13.3,-0.4322950294096939,-1.6207775521446244,-2.010442122869648,-1.0427221587153932,1.6178152462483548,1.1662553098017892,0.1970000000000988,-0.0014304176318524237,-0.1132833237358171,-0.0107360125594206,-0.07220600029369864,0.05400986302323847,-0.49999999990063504,0.0036305016029629118,0.28752112617575604,0.02724876283573906,0.18326396009977095,-0.1370808705900419,0.5279325254214269,-0.42934968692090053,0.4121083438609244,0.013418340071178547,0.9994489798797934,0.01366722306200889,0.027108887486352005
13.4,-0.41507160148696937,-1.6209026115100131,-2.0203463216575135,-1.0436607929209492,1.611502379031877,1.1709773147911113,0.14699999999990065,-0.0010673674714825315,-0.08453121111241375,-0.008011136275294263,-0.05387960428000611,0.04030177596145537,-0.5000000000990319,0.0036305016044035996,0.28752112628983145,0.027248762846553327,0.18326396017249055,-0.1370808706444359,0.531404862970794,-0.4193030172667137,0.4056712663362939,0.007344314780587607,0.9996715777979853,0.013240560072498653,0.020675714068849566
13.5,-0.4028481735642456,-1.6209913658593649,-2.02737530918305,-1.0443269394980939,1.6070221514167615,1.1743285110742607,0.09700000000004798,-0.000704317311115148,-0.055779098489209054,-0.0052862599911867566,-0.035553208266440206,0.026593688899766984,-0.4999999999528294,0.003630501603342001,0.2875211262057709,0.027248762838584704,0.18326396011890783,-0.13708087060435747,0.5337179142488672,-0.41216196509848796,0.4011306105471276,0.0030111387756336693,0.9997829670607106,0.012852711590145094,0.016117060009087098
13.6,-0.39562474564152,-1.62104381519268,-2.0315290854462584,-1.0447205984468269,1.6043745634030073,1.1763088986512378,0.047000000000051424,-0.0003412671507467196,-0.027026985865921622,-0.0025613837070714075,-0.017226812252821563,0.01288560183803915,-0.49999999994786115,0.003630501603305901,0.28752112620291065,0.027248762838313557,0.18326396011708757,-0.1370808706029927,0.5350258666970878,-0.40793883986343743,0.39845824686907305,0.0004418495420710349,0.9998304964153925,0.012590380756386771,0.013426299532683759
13.694468558,-0.39339366850740143,-1.621060015050907,-2.0328120490668864,-1.0448421866302426,1.6035568113410716,1.1769205746431564,-3.1943296647114207e-16,2.3194037940863786e-18,1.8368745255139416e-16,1.740830629403777e-17,1.1708110086711038e-16,-8.75762982954541e-17,-0.5000000000672099,0.0036305016041725457,0.28752112627154275,0.02724876284481815,0.1832639601608334,-0.1370808706357142,0.5354210080225095,-0.4066340893189396,0.39763449446938615,-0.0003529957613580806,0.9998424192374733,0.01250438596405504,0.01259573018967128
