mathias31415/primitives_from_planned_trajectory_python/data/saved_trajectories/trajectory_20250624_120435_planned.csv
time_from_start,shoulder_pan_joint_pos,shoulder_lift_joint_pos,elbow_joint_pos,wrist_1_joint_pos,wrist_2_joint_pos,wrist_3_joint_pos,shoulder_pan_joint_vel,shoulder_lift_joint_vel,elbow_joint_vel,wrist_1_joint_vel,wrist_2_joint_vel,wrist_3_joint_vel,shoulder_pan_joint_acc,shoulder_lift_joint_acc,elbow_joint_acc,wrist_1_joint_acc,wrist_2_joint_acc,wrist_3_joint_acc,fk_x,fk_y,fk_z,fk_qx,fk_qy,fk_qz,fk_qw
0.0,-1.8800239999999997,-1.8838400000000002,-2.1614310000000003,-0.6983610000000002,1.587006,-0.3102090000000004,-0.0005,-0.00011714569049222858,0.00034386814915766706,-0.0002299498991467856,-1.7077312455860775e-05,-0.0004997368770204027,-0.5,-0.11714569049222859,0.34386814915766706,-0.2299498991467856,-0.017077312455860773,-0.49973687702040265,-0.3644772024502695,-0.5748128807354241,0.19438719101945515,-0.0003639842681188159,0.9998450884564102,0.012407188343830746,0.012479113848608286
0.1,-1.8825239999999996,-1.8844257284524613,-2.159711659254212,-0.6995107494957341,1.5869206134377205,-0.3127076843851024,-0.04999999999999976,-0.011714569049222802,0.03438681491576654,-0.022994989914678448,-0.0017077312455860692,-0.049973687702040026,-0.49999999999986816,-0.1171456904921971,0.343868149157572,-0.2299498991467223,-0.017077312455856204,-0.4997368770202691,-0.36618272268000346,-0.5747041978290165,0.1946757079330239,-0.00036392851282870367,0.9998453073984833,0.01239675488683553,0.012471940408197891
0.2,-1.8900239999999997,-1.8861829138098447,-2.154553637016847,-0.702959997982936,1.5866644537508827,-0.32020373754040843,-0.10000000000000098,-0.023429138098445944,0.06877362983153408,-0.04598997982935757,-0.003415462491172188,-0.09994737540408151,-0.5000000000008604,-0.11714569049242955,0.34386814915825203,-0.22994989914718025,-0.017077312455890465,-0.49973687702126135,-0.37130864444453454,-0.5743455064682769,0.19554352135759506,-0.00036376537418782986,0.9998459528991612,0.012366132993421458,0.012450578328324469
0.30000000000000004,-1.9025239999999997,-1.8891115560721503,-2.145956933287905,-0.7087087454616056,1.5862375209394861,-0.3326971594659185,-0.14999999999999653,-0.03514370714766776,0.10316044474729774,-0.06898496974403409,-0.0051231937367581136,-0.14992106310611733,-0.4999999999957534,-0.11714569049123259,0.34386814915475483,-0.2299498991448349,-0.01707731245571569,-0.4997368770161543,-0.37988196653802,-0.5736383543658833,0.19699739056893384,-0.00036350723404924743,0.9998469909819019,0.012317346114732355,0.012415533480970005
0.4,-1.9200239999999997,-1.8932116552393783,-2.133921548067387,-0.716756991931743,1.585639815003531,-0.3501879501616326,-0.20000000000000204,-0.04685827619689192,0.13754725966306824,-0.0919799596587152,-0.00683092498234438,-0.19989475080816313,-0.5000000000022204,-0.11714569049275221,0.3438681491592096,-0.22994989914781863,-0.017077312455937736,-0.49973687702264913,-0.39194404188042903,-0.5724169581515098,0.1990484845452489,-0.0003631747293784597,0.9998483650194131,0.012253725148419827,0.012367752104134586
0.5,-1.940878820052736,-1.8980977598297164,-2.1195789313222857,-0.7263481194674453,1.5849275264470284,-0.37103179544958653,-0.20943951023933646,-0.0490698720866825,0.1440391534929778,-0.09632118851377519,-0.007153327913919202,-0.20932929354337731,-1.6910715445876402e-11,-3.964315260262829e-12,1.1643443421750966e-11,-7.790018098838146e-12,-5.778405329098135e-13,-1.6910715445876402e-11,-0.4064010100636201,-0.5706053550622727,0.20151645589127437,-0.0003628225021383101,0.9998498816786472,0.012184944535664323,0.012312984759594187
0.6000000000000001,-1.9618227710766676,-1.9030047470383842,-2.105175015972989,-0.7359802383188219,1.5842121936556364,-0.3919647248039223,-0.20943951023931326,-0.04906987208667706,0.14403915349296184,-0.09632118851376452,-0.007153327913918409,-0.2093292935433541,6.265281460275173e-12,1.4692916698875404e-12,-4.296985072312618e-12,2.869277128931329e-12,2.13982925980084e-13,6.265281460275173e-12,-0.4209997716326676,-0.5683920674828656,0.20402061370109192,-0.00036251694857557384,0.9998512726256771,0.012123443187031745,0.01226064172735771
0.7000000000000001,-1.9827667221005993,-1.907911734247052,-2.0907711006236926,-0.7456123571701985,1.5834968608642446,-0.41289765415825797,-0.20943951023931326,-0.04906987208667706,0.14403915349296184,-0.09632118851376452,-0.007153327913918409,-0.2093292935433541,6.265281460275173e-12,1.4692916698875404e-12,-4.296985072312618e-12,2.869277128931329e-12,2.13982925980084e-13,6.265281460275173e-12,-0.43566760034167945,-0.5657797906504131,0.20655017351184507,-0.0003622596783686395,0.9998525310974615,0.01206938673876977,0.012211254222031261
0.8,-2.003710673124531,-1.9128187214557197,-2.0763671852743966,-0.7552444760215751,1.5827815280728528,-0.43383058351259374,-0.20943951023931326,-0.04906987208667706,0.14403915349296184,-0.09632118851376452,-0.007153327913918409,-0.2093292935433541,6.265281460275173e-12,1.4692916698875404e-12,-4.296985072312618e-12,2.869277128931329e-12,2.13982925980084e-13,6.265281460275173e-12,-0.4503932220017158,-0.5627646305333653,0.2091048403814974,-0.00036205069307303163,0.9998536570948863,0.012022621664344738,0.012165109189535627
0.9,-2.0246546241484626,-1.9177257086643875,-2.0619632699251,-0.7648765948729516,1.5820661952814612,-0.45476351286692945,-0.20943951023931326,-0.04906987208667706,0.14403915349296184,-0.09632118851376452,-0.007153327913918409,-0.2093292935433541,6.265281460275173e-12,1.4692916698875404e-12,-4.296985072312618e-12,2.869277128931329e-12,2.13982925980084e-13,6.265281460275173e-12,-0.46516522265872573,-0.5593430173727427,0.21168431618867067,-0.00036188999423117916,0.9998546506188568,0.011982985724267113,0.012122488383484101
1.0,-2.045598575172394,-1.9226326958730553,-2.047559354575804,-0.7745087137243283,1.5813508624900692,-0.47569644222126517,-0.20943951023931257,-0.04906987208667736,0.14403915349296145,-0.09632118851376448,-0.007153327913918093,-0.20932929354335406,6.958343568712691e-12,1.6217653337437946e-12,-4.768267306050131e-12,3.188085698812588e-12,2.365074445043034e-13,6.93062108437519e-12,-0.4799720580213196,-0.5555117101017077,0.21428829966112545,-0.0003617775833727921,0.9998555116702992,0.011950308117461854,0.012083668126945016
1.1,-2.0665425261963284,-1.9275396830817237,-2.0331554392265057,-0.784140832575706,1.5806355296986774,-0.4966293715756033,-0.20943951023935903,-0.04906987208668824,0.1440391534929934,-0.09632118851378584,-0.00715332791391968,-0.2093292935434005,-3.944909521226796e-11,-9.24544852655753e-12,2.7140312166416256e-11,-1.814436599889626e-11,-1.3480058009111241e-12,-3.944909521226796e-11,-0.49480206302108937,-0.5512678004889547,0.21691648640455186,-0.0003617134620145994,0.9998562402501585,0.011924409638772972,0.012048919078292223
1.2,-2.087486477220262,-1.9324466702903922,-2.018751523877208,-0.7937729514270836,1.5799201969072854,-0.5175623009299414,-0.20943951023935903,-0.04906987208668824,0.1440391534929934,-0.09632118851378584,-0.00715332791391968,-0.2093292935434005,-3.944909521226796e-11,-9.24544852655753e-12,2.7140312166416256e-11,-1.814436599889626e-11,-1.3480058009111241e-12,-3.944909521226796e-11,-0.5096434614973271,-0.5466087170020422,0.219568568931659,-0.0003616976316610443,0.9998568363594006,0.011905102842507821,0.012018506001296678
1.3,-2.108430428244196,-1.9373536574990604,-2.00434760852791,-0.8034050702784612,1.5792048641158933,-0.5384952302842794,-0.20943951023935903,-0.04906987208668824,0.1440391534929934,-0.09632118851378584,-0.00715332791391968,-0.2093292935434005,-3.944909521226796e-11,-9.24544852655753e-12,2.7140312166416256e-11,-1.814436599889626e-11,-1.3480058009111241e-12,-3.944909521226796e-11,-0.5244843759979122,-0.5415322283870342,0.2222442366915697,-0.0003617300938029403,0.9998572999990106,0.011892192211901027,0.011992687539608256
1.4,-2.12937437926813,-1.9422606447077286,-1.9899436931786116,-0.8130371891298389,1.5784895313245015,-0.5594281596386175,-0.20943951023935903,-0.04906987208668824,0.1440391534929934,-0.09632118851378584,-0.00715332791391968,-0.2093292935434005,-3.944909521226796e-11,-9.24544852655753e-12,2.7140312166416256e-11,-1.814436599889626e-11,-1.3480058009111241e-12,-3.944909521226796e-11,-0.5393128376879903,-0.5360364469610646,0.22494317609951103,-0.0003618108499188319,0.999857631169994,0.011885474334393593,0.011971715995775416
1.5,-2.150318330292064,-1.947167631916397,-1.9755397778293138,-0.8226693079812166,1.5777741985331095,-0.5803610889929556,-0.20943951023935903,-0.04906987208668824,0.1440391534929934,-0.09632118851378584,-0.00715332791391968,-0.2093292935434005,-3.944909521226796e-11,-9.24544852655753e-12,2.7140312166416256e-11,-1.814436599889626e-11,-1.3480058009111241e-12,-3.944909521226796e-11,-0.5541167963580023,-0.5301198316146808,0.22766507056680066,-0.000361939901474567,0.9998578298733758,0.011884738082607605,0.011955837114945859
1.6,-2.171262281315998,-1.9520746191250655,-1.9611358624800157,-0.8323014268325942,1.5770588657417177,-0.6012940183472937,-0.20943951023935903,-0.04906987208668824,0.1440391534929934,-0.09632118851378584,-0.00715332791391968,-0.2093292935434005,-3.944909521226796e-11,-9.24544852655753e-12,2.7140312166416256e-11,-1.814436599889626e-11,-1.3480058009111241e-12,-3.944909521226796e-11,-0.5688841305225215,-0.5237811905210755,0.23040960053112802,-0.0003621172499223394,0.9998578961102009,0.011889764800894178,0.0119452898733901
1.7000000000000002,-2.192206232339931,-1.9569816063337337,-1.946731947130718,-0.8419335456839716,1.576343532950326,-0.6222269477016311,-0.20943951023933322,-0.0490698720866822,0.14403915349297566,-0.09632118851377397,-0.0071533279139187975,-0.2093292935433746,-1.366718477838636e-11,-3.201946940980983e-12,9.397922190411717e-12,-6.2930039446119755e-12,-4.669505955597267e-13,-1.366718477838636e-11,-0.5836026576012681,-0.5170196835495704,0.2331764434871233,-0.0003623428967028704,0.9998578298815346,0.011900328497338193,0.01194030627198583
1.8,-2.213150183363864,-1.9618885935424017,-1.932328031781421,-0.8515656645353488,1.5756282001589341,-0.6431598770559679,-0.20943951023933322,-0.0490698720866822,0.14403915349297566,-0.09632118851377397,-0.0071533279139187975,-0.2093292935433746,-1.366718477838636e-11,-3.201946940980983e-12,9.397922190411717e-12,-6.2930039446119755e-12,-4.669505955597267e-13,-1.366718477838636e-11,-0.5982601441736095,-0.5098348243809604,0.235965274017214,-0.00036261684324271693,0.9998576311884615,0.01191619604108735,0.011941111134799282
1.9,-2.2340941343877962,-1.9667955807510697,-1.917924116432124,-0.8611977833867258,1.574912867367542,-0.6640928064103047,-0.20943951023933322,-0.0490698720866822,0.14403915349297566,-0.09632118851377397,-0.0071533279139187975,-0.2093292935433746,-1.366718477838636e-11,-3.201946940980983e-12,9.397922190411717e-12,-6.2930039446119755e-12,-4.669505955597267e-13,-1.366718477838636e-11,-0.6128443162977725,-0.5022264823226021,0.23877576382276727,-0.0003629390909566186,0.9998573000320867,0.01193712736487794,0.011947921912893235
2.0,-2.255038085411729,-1.971702567959738,-1.9035202010828272,-0.870829902238103,1.5741975345761503,-0.6850257357646413,-0.20943951023924032,-0.04906987208666043,0.14403915349291177,-0.09632118851373124,-0.007153327913915625,-0.20932929354328175,7.911997029920086e-11,1.853941140069747e-11,-5.441923675449589e-11,3.6385760692957645e-11,2.7020758952698785e-12,7.906452533052587e-11,-0.6273428698859383,-0.4941948838213679,0.2416075817555119,-0.0003633096412455007,0.9998568364135346,0.011962875672625675,0.011960948493494558
2.1,-2.275982036435657,-1.9766095551684049,-1.889116285733533,-0.8804620210894778,1.5734822017847585,-0.7059586651189735,-0.20943951023924032,-0.04906987208666043,0.14403915349291177,-0.09632118851373124,-0.007153327913915625,-0.20932929354328175,7.911997029920086e-11,1.853941140069747e-11,-5.441923675449589e-11,3.6385760692957645e-11,2.7020758952698785e-12,7.906452533052587e-11,-0.6417434811263496,-0.4857406136728679,0.24446039384924223,-0.00036372849549868176,0.9998562403339499,0.011993187651942364,0.011980393014640664
2.2,-2.296925987459585,-1.981516542377072,-1.8747123703842392,-0.8900941399408527,1.572766868993367,-0.7268915944733055,-0.20943951023924032,-0.04906987208666043,0.14403915349291177,-0.09632118851373124,-0.007153327913915625,-0.20932929354328175,7.911997029920086e-11,1.853941140069747e-11,-5.441923675449589e-11,3.6385760692957645e-11,2.7020758952698785e-12,7.906452533052587e-11,-0.6560338169435059,-0.47686461592557694,0.24733386335179341,-0.0003641956550916686,0.9998555117944972,0.01202780369144455,0.012006449685436068
2.3,-2.317869938483513,-1.9864235295857389,-1.8603084550349454,-0.8997262587922278,1.5720515362019751,-0.7478245238276378,-0.20943951023924032,-0.04906987208666043,0.14403915349291177,-0.09632118851373124,-0.007153327913915625,-0.20932929354328175,7.911997029920086e-11,1.853941140069747e-11,-5.441923675449589e-11,3.6385760692957645e-11,2.7020758952698785e-12,7.906452533052587e-11,-0.67020154548747,-0.46756819447880943,0.2502276507572943,-0.00036471112138779455,0.9998546507963606,0.012066458102705168,0.012039304612026975
2.4,-2.338813889507441,-1.9913305167944058,-1.8459045396856513,-0.9093583776436027,1.5713362034105836,-0.76875745318197,-0.20943951023924082,-0.049069872086660096,0.14403915349291202,-0.0963211885137312,-0.007153327913915934,-0.20932929354328184,7.862096558112601e-11,1.842159084226313e-11,-5.4086566942445994e-11,3.615011957608897e-11,2.685615670194493e-12,7.856552061245103e-11,-0.6842343466433154,-0.45785301337370055,0.2531414138386857,-0.0003652748957370689,0.9998536573407447,0.012108879346709907,0.012079135629419686
2.5,-2.359757840531369,-1.9962375040030726,-1.8315006243363574,-0.9189904964949777,1.5706208706191918,-0.789690382536302,-0.20943951023924082,-0.049069872086660096,0.14403915349291202,-0.0963211885137312,-0.007153327913915934,-0.20932929354328184,7.862096558112601e-11,1.842159084226313e-11,-5.4086566942445994e-11,3.615011957608897e-11,2.685615670194493e-12,7.856552061245103e-11,-0.6981199225516969,-0.44772109677665045,0.25607480768050833,-0.00036588697947678933,0.9998525314288734,0.012154790264667256,0.012126112139246567
2.6,-2.380701791555297,-2.0011444912117398,-1.8170967089870635,-0.9286226153463524,1.5699055378278,-0.8106233118906341,-0.20943951023924082,-0.049069872086660096,0.14403915349291202,-0.0963211885137312,-0.007153327913915934,-0.20932929354328184,7.862096558112601e-11,1.842159084226313e-11,-5.4086566942445994e-11,3.615011957608897e-11,2.685615670194493e-12,7.856552061245103e-11,-0.7118460081315192,-0.4371748286549425,0.2590274847119554,-0.00036654737393175,0.9998512730619912,0.012203908313021147,0.012180394953592166
2.7,-2.401645742579225,-2.0060514784204067,-1.8026927936377697,-0.9382547341977274,1.5691902050364084,-0.8315562412449663,-0.20943951023924082,-0.049069872086660096,0.14403915349291202,-0.0963211885137312,-0.007153327913915934,-0.20932929354328184,7.862096558112601e-11,1.842159084226313e-11,-5.4086566942445994e-11,3.615011957608897e-11,2.685615670194493e-12,7.856552061245103e-11,-0.7254003815956782,-0.4262169521445077,0.26199909474018424,-0.00036725608041366016,0.9998498822413618,0.012255945802516504,0.01224213614498248
2.8,-2.422589693603153,-2.0109584656290735,-1.7882888782884756,-0.9478868530491025,1.5684748722450166,-0.8524891705992985,-0.20943951023924082,-0.049069872086660096,0.14403915349291202,-0.0963211885137312,-0.007153327913915934,-0.20932929354328184,7.862096558112601e-11,1.842159084226313e-11,-5.4086566942445994e-11,3.615011957608897e-11,2.685615670194493e-12,7.856552061245103e-11,-0.7387708749508406,-0.41485056861008596,0.2649892849838857,-0.0003680131002215623,0.999848358968269,0.012310610141159273,0.012311478902637391
2.9,-2.4424388415025327,-2.015608949901784,-1.7746378987874425,-0.9570154721643265,1.567796932043696,-0.8723278729648026,-0.1760000000000365,-0.041235283053273016,0.12104158850352392,-0.08094236449968531,-0.006011213984464239,-0.1759073807112183,0.49999999996380673,0.11714569048375853,-0.34386814913278285,0.22994989913014996,0.01707731245462471,0.49973687698423536,-0.7512617617164865,-0.40370443778901843,0.2678399955366188,-0.00036877514060981015,0.9998467930745176,0.012364571965094827,0.012384334605396893
3.0,-2.4575740116382425,-2.019154989814314,-1.764228892903937,-0.9639761338568781,1.5672799959847357,-0.8874550782783865,-0.1259999999999756,-0.029520714004035893,0.08665477358771534,-0.05794737458497875,-0.004303482738876082,-0.12593369300911716,0.5000000000246747,0.11714569049801103,-0.3438681491746382,0.2299498991581365,0.01707731245670313,0.499736877045048,-0.7606615594907402,-0.39496292795262433,0.27002450158231656,-0.00036938536485841774,0.9998455191249138,0.012406965735276006,0.012444622996595062
3.1,-2.4677091817739516,-2.0215295728219216,-1.7572585685120081,-0.9686372965579618,1.5669338330503342,-0.8975849148217661,-0.07600000000000563,-0.017806144954820066,0.052267958671969275,-0.034952384670314,-0.00259575149329103,-0.07596000530710688,0.49999999999421296,0.11714569049087784,-0.3438681491536967,0.2299498991441249,0.017077312455663376,0.4997368770146277,-0.7668932819843535,-0.38899279571087997,0.27149249620892246,-0.00036980810323411956,0.9998446273653975,0.012435893951870182,0.012487310043964561
3.2,-2.4728443519096612,-2.0227326989246075,-1.7537269256116557,-0.9709989602675779,1.566758443240491,-0.9027173825949422,-0.026000000000010248,-0.006091575905598288,0.01788114375620574,-0.011957394755637564,-0.0008880202477051102,-0.025986317605071196,0.4999999999893349,0.11714569048973035,-0.3438681491503347,0.22994989914188238,0.017077312455496638,0.49973687700974645,-0.7700309581497786,-0.3859324541730136,0.272237845058979,-0.0003700266101519101,0.9998441637003836,0.012450702863147136,0.012509651985637145
3.252703402,-2.4735387640740747,-2.02289539370958,-1.753249353160197,-0.9713183202819242,1.5667347258534814,-0.90341142932776,-6.118174065262886e-17,-1.4334354508537322e-17,4.2076903840927776e-17,-2.8137470185393596e-17,-2.0896394034367646e-18,-6.114954400883395e-17,0.5000000000506201,0.11714569050408846,-0.34386814919248043,0.22994989917006578,0.017077312457589682,0.4997368770709964,-0.7704542227605015,-0.38551678860414523,0.2723387163651288,-0.0003700563810761236,0.9998441003893318,0.012452712903483622,0.012512710188689628
