mathias31415/primitives_from_planned_trajectory_python/data/saved_trajectories/trajectory_20250624_151527_planned.csv
time_from_start,shoulder_pan_joint_pos,shoulder_lift_joint_pos,elbow_joint_pos,wrist_1_joint_pos,wrist_2_joint_pos,wrist_3_joint_pos,shoulder_pan_joint_vel,shoulder_lift_joint_vel,elbow_joint_vel,wrist_1_joint_vel,wrist_2_joint_vel,wrist_3_joint_vel,shoulder_pan_joint_acc,shoulder_lift_joint_acc,elbow_joint_acc,wrist_1_joint_acc,wrist_2_joint_acc,wrist_3_joint_acc,fk_x,fk_y,fk_z,fk_qx,fk_qy,fk_qz,fk_qw
0.0,-2.0224840000000004,-1.7245999999999997,-2.4908779999999995,-0.5302379999999998,1.582503,-0.45276400000000017,-9.156376899484621e-05,-0.00015915951996395628,0.0005000000000000001,-0.0003412850314521791,-3.1810844962940064e-06,-9.15297020426769e-05,-0.09156376899484621,-0.15915951996395628,0.5000000000000001,-0.3412850314521791,-0.003181084496294006,-0.09152970204267691,-0.36594300954837555,-0.358449331120704,0.16327022939650304,-0.00044054749660349537,0.9998439462840056,0.012430133440775752,0.012545149651325497
0.1,-2.0229418188449744,-1.7253957975998195,-2.4883779999999995,-0.5319444251572607,1.5824870945775185,-0.45322164851021357,-0.009156376899484602,-0.015915951996395592,0.049999999999999906,-0.034128503145217835,-0.00031810844962939995,-0.009152970204267672,-0.09156376899482023,-0.15915951996391106,0.4999999999998612,-0.34128503145208045,-0.003181084496293093,-0.09152970204265128,-0.3666930362063489,-0.3594839294372897,0.16366012613587788,-0.0004405883737439363,0.9998439742463506,0.012428867644020148,0.012544173716722815
0.2,-2.0243152753798976,-1.7277831903992789,-2.4808779999999997,-0.5370637006290433,1.5824393783100743,-0.4545945940408537,-0.018312753798969454,-0.03183190399279162,0.10000000000000117,-0.0682570062904366,-0.0006362168992588087,-0.018305940408535594,-0.09156376899504748,-0.15915951996430658,0.5000000000010963,-0.34128503145292005,-0.0031810844963010075,-0.09152970204287852,-0.3689470092379292,-0.36257943661150516,0.16483625804605562,-0.0004407111110107116,0.9998440577465791,0.012425091223445199,0.01254125474827275
0.30000000000000004,-2.0266043696047684,-1.7317621783983776,-2.4683779999999995,-0.5455958264153478,1.5823598511976669,-0.4568828365919206,-0.02746913069845337,-0.047747855989186024,0.14999999999999733,-0.10238550943565188,-0.0009543253488881847,-0.027458910612802576,-0.09156376899452706,-0.15915951996340452,0.4999999999982514,-0.34128503145097716,-0.0031810844962829013,-0.09152970204235464,-0.37271644672106075,-0.3677108270974752,0.16681787128992262,-0.0004409160259437722,0.9998441956242723,0.012418866991149169,0.012536419431643764
0.4,-2.029809101519588,-1.7373327615971161,-2.4508779999999994,-0.5575408025161739,1.5822485132402966,-0.46008637616341425,-0.03662550759793776,-0.06366380798558126,0.1999999999999961,-0.13651401258086895,-0.0012724337985175775,-0.03661188081707004,-0.09156376899446114,-0.15915951996328656,0.4999999999978906,-0.3412850314507551,-0.003181084496280516,-0.09152970204229219,-0.3780200055373972,-0.3748358556192695,0.16963677642527336,-0.00044120364777588706,0.9998443859453998,0.012410299309013387,0.01252971284061548
0.5,-2.033929471124356,-1.744494939995494,-2.428378,-0.5728986289315219,1.5821053644379632,-0.46420521275533466,-0.04578188449741869,-0.07957975998197046,0.24999999999997594,-0.17064251572607309,-0.0015905422481468498,-0.04576485102133404,-0.09156376899054947,-0.1591595199564915,0.49999999997654654,-0.34128503143616445,-0.0031810844961445974,-0.09152970203838051,-0.38488266141551697,-0.38389426970510704,0.17333693721834678,-0.00044157471743786847,0.9998446260023212,0.012399533595390573,0.012521199330107013
0.6000000000000001,-2.0389654784190725,-1.7532487135935115,-2.4008779999999996,-0.5916693056613916,1.581930404790667,-0.46923934636768194,-0.0549382613969078,-0.09549571197837389,0.30000000000000043,-0.20477101887130772,-0.0019086506977764063,-0.05491782122560622,-0.0915637689948289,-0.15915951996392494,0.499999999999889,-0.34128503145211514,-0.0031810844962935265,-0.09152970204266689,-0.39333454146078833,-0.3948067408987538,0.17797387197248096,-0.00044203018756106634,0.9998449123137879,0.012386755622727822,0.012510963779416106
0.7000000000000001,-2.0446818754665177,-1.7631851657511979,-2.3696626125700284,-0.6129759946230511,1.5817318072206685,-0.4749536165889059,-0.05753121280183835,-0.10000287573352513,0.3141592653589685,-0.21443570951805802,-0.0019987343368010582,-0.05750980790450529,1.9898790549826014e-12,3.4528214961022146e-12,-1.081606733718766e-11,7.404846100074628e-12,6.890042895083485e-14,1.9898790549826014e-12,-0.40300946369015633,-0.4069776615446292,0.18338766346006155,-0.0004425497806500469,0.9998452278547524,0.012372755315436761,0.012499576459796182
0.8,-2.0504349967467013,-1.7731854533245506,-2.3382466860341315,-0.6344195655748572,1.5815319337869884,-0.48070459737935656,-0.05753121280183835,-0.10000287573352513,0.3141592653589685,-0.21443570951805802,-0.0019987343368010582,-0.05750980790450529,1.9898790549826014e-12,3.4528214961022146e-12,-1.081606733718766e-11,7.404846100074628e-12,6.890042895083485e-14,1.9898790549826014e-12,-0.41282833839035576,-0.4189903268864986,0.18899490229971394,-0.0004430754887290714,0.9998455352750615,0.01235920296295453,0.012488369659704866
0.9,-2.0561881180268857,-1.7831857408979035,-2.306830759498234,-0.6558631365266634,1.5813320603533083,-0.4864555781698071,-0.05753121280183835,-0.10000287573352513,0.3141592653589685,-0.21443570951805802,-0.0019987343368010582,-0.05750980790450529,1.9898790549826014e-12,3.4528214961022146e-12,-1.081606733718766e-11,7.404846100074628e-12,6.890042895083485e-14,1.9898790549826014e-12,-0.4227236294231416,-0.43076102502418956,0.19475831853825593,-0.00044360398264923725,0.9998458325150824,0.012346186828048077,0.012477423152843219
1.0,-2.0619412393070697,-1.7931860284712564,-2.275414832962335,-0.6773067074784704,1.581132186919628,-0.492206558960258,-0.05753121280183353,-0.10000287573351675,0.3141592653589421,-0.21443570951804003,-0.0019987343368008904,-0.05750980790450047,6.808575721228912e-12,1.1828340305923141e-11,-3.716289803033296e-11,2.5376157983399e-11,2.3660147300095383e-13,6.808575721228912e-12,-0.4326896115403577,-0.4422851325358069,0.2006748149809644,-0.00044413526242870964,0.9998461195748256,0.01233370345189046,0.012466742725870693
1.1,-2.0676943605872533,-1.8031863160446087,-2.2439989064264387,-0.6987502784302758,1.580932313485948,-0.49795753975070844,-0.05753121280183353,-0.10000287573351675,0.3141592653589421,-0.21443570951804003,-0.0019987343368008904,-0.05750980790450047,6.808575721228912e-12,1.1828340305923141e-11,-3.716289803033296e-11,2.5376157983399e-11,2.3660147300095383e-13,6.808575721228912e-12,-0.44272049286678594,-0.4535581797743483,0.20674120275165614,-0.0004446693280842275,0.9998463964543013,0.012321749326885623,0.012456334134171474
1.2,-2.073447481867437,-1.813186603617961,-2.212582979890543,-0.720193849382081,1.580732440052268,-0.5037085205411588,-0.057531212801833015,-0.1000028757335168,0.3141592653589428,-0.2144357095180401,-0.0019987343368008913,-0.057509807904500485,6.683774944261377e-12,1.1620339010977249e-11,-3.649729388650611e-11,2.4904688381521643e-11,2.32268112689581e-13,6.683774944261377e-12,-0.45281041886399526,-0.46457585319715106,0.2129542028025373,-0.0004452061796329216,0.9998466631535203,0.012310320896916223,0.01244620310148476
1.3,-2.079200603147621,-1.8231868911913134,-2.181167053354647,-0.7416374203338864,1.5805325666185879,-0.5094595013316092,-0.057531212801833015,-0.1000028757335168,0.3141592653589428,-0.2144357095180401,-0.0019987343368008913,-0.057509807904500485,6.683774944261377e-12,1.1620339010977249e-11,-3.649729388650611e-11,2.4904688381521643e-11,2.32268112689581e-13,6.683774944261377e-12,-0.4629534763420611,-0.4753339975874607,0.21931044746755146,-0.000445745817091774,0.9998469196724933,0.012299414557590498,0.012436355319537786
1.4,-2.0849537244278045,-1.8331871787646654,-2.149751126818751,-0.7630809912856915,1.5803326931849078,-0.5152104821220596,-0.057531212801833015,-0.1000028757335168,0.3141592653589428,-0.2144357095180401,-0.0019987343368008913,-0.057509807904500485,6.683774944261377e-12,1.1620339010977249e-11,-3.649729388650611e-11,2.4904688381521643e-11,2.32268112689581e-13,6.683774944261377e-12,-0.4731436975162756,-0.4858286181667244,0.2258064820585044,-0.00044628824047803384,0.999847166011231,0.012289026656494962,0.012426796447680199
1.5,-2.090706845707988,-1.8431874663380177,-2.1183352002828544,-0.7845245622374968,1.5801328197512277,-0.5209614629125099,-0.057531212801833015,-0.1000028757335168,0.3141592653589428,-0.2144357095180401,-0.0019987343368008913,-0.057509807904500485,6.683774944261377e-12,1.1620339010977249e-11,-3.649729388650611e-11,2.4904688381521643e-11,2.32268112689581e-13,6.683774944261377e-12,-0.4833750641059318,-0.49605588259629096,0.23243876650323392,-0.0004468334498086205,0.9998474021697445,0.012279153493447397,0.012417532112520186
1.6,-2.0964599669881716,-1.85318775391137,-2.0869192737469584,-0.805968133189302,1.5799329463175475,-0.5267124437029603,-0.057531212801833015,-0.1000028757335168,0.3141592653589428,-0.2144357095180401,-0.0019987343368008913,-0.057509807904500485,6.683774944261377e-12,1.1620339010977249e-11,-3.649729388650611e-11,2.4904688381521643e-11,2.32268112689581e-13,6.683774944261377e-12,-0.4936415114722213,-0.5060121228672705,0.239203677025065,-0.00044738144510047124,0.999847628148045,0.01226979132075385,0.012408567907562649
1.7000000000000002,-2.102213088268355,-1.8631880414847222,-2.0555033472110624,-0.8274117041411073,1.5797330728838674,-0.5324634244934108,-0.057531212801833015,-0.1000028757335168,0.3141592653589428,-0.2144357095180401,-0.0019987343368008913,-0.057509807904500485,6.683774944261377e-12,1.1620339010977249e-11,-3.649729388650611e-11,2.4904688381521643e-11,2.32268112689581e-13,6.683774944261377e-12,-0.5039369327922772,-0.5156938370773988,0.2460975078627756,-0.0004479322263702627,0.9998478439461432,0.01226093634346641,0.012399909392848631
1.8,-2.1079662095485387,-1.8731883290580744,-2.0240874206751664,-0.8488552750929126,1.5795331994501873,-0.5382144052838611,-0.057531212801833015,-0.1000028757335168,0.3141592653589428,-0.2144357095180401,-0.0019987343368008913,-0.057509807904500485,6.683774944261377e-12,1.1620339010977249e-11,-3.649729388650611e-11,2.4904688381521643e-11,2.32268112689581e-13,6.683774944261377e-12,-0.5142551832663439,-0.5250976910938199,0.2531164730302761,-0.0004484857936348282,0.9998480495640507,0.012252584719646171,0.012391562094597785
1.9,-2.1137193308287223,-1.883188616631427,-1.9926714941392702,-0.870298846044718,1.5793333260165072,-0.5439653860743114,-0.057531212801833015,-0.1000028757335168,0.3141592653589428,-0.2144357095180401,-0.0019987343368008913,-0.057509807904500485,6.683774944261377e-12,1.1620339010977249e-11,-3.649729388650611e-11,2.4904688381521643e-11,2.32268112689581e-13,6.683774944261377e-12,-0.5245900843550506,-0.5342205201007945,0.26025670811519336,-0.0004490421469110178,0.9998482450017789,0.012244732560626534,0.012383531504851754
2.0,-2.119472452108906,-1.8931889042047791,-1.9612555676033743,-0.8917424169965231,1.5791334525828273,-0.5497163668647619,-0.05753121280185902,-0.10000287573356134,0.31415926535908134,-0.21443570951813523,-0.0019987343368017764,-0.05750980790452596,-1.867158290964718e-11,-3.246206876456298e-11,1.019483680295032e-10,-6.9583366535915e-11,-6.487040386126492e-13,-1.866464953314898e-11,-0.5349354280437288,-0.5430593300314172,0.2675142721155247,-0.00044960128621538065,0.9998484302593392,0.012237375931279753,0.012375823081119808
2.1,-2.1252255733890912,-1.9031891917781336,-1.929839641067471,-0.9131859879483332,1.578933579149147,-0.5554673476552136,-0.05753121280185902,-0.10000287573356134,0.31415926535908134,-0.21443570951813523,-0.0019987343368017764,-0.05750980790452596,-1.867158290964718e-11,-3.246206876456298e-11,1.019483680295032e-10,-6.9583366535915e-11,-6.487040386126492e-13,-1.866464953314898e-11,-0.5452849811307038,-0.5516112988825147,0.27488514931351704,-0.000450163211564427,0.9998486053367432,0.012230510850286836,0.012368442246026205
2.2,-2.1309786946692766,-1.9131894793514883,-1.8984237145315683,-0.9346295589001433,1.5787337057154671,-0.5612183284456652,-0.05753121280185902,-0.10000287573356134,0.31415926535908134,-0.21443570951813523,-0.0019987343368017764,-0.05750980790452596,-1.867158290964718e-11,-3.246206876456298e-11,1.019483680295032e-10,-6.9583366535915e-11,-6.487040386126492e-13,-1.866464953314898e-11,-0.5556324895364505,-0.5598737779119639,0.28236525118589473,-0.00045072792297476833,0.9998487702340028,0.012224133290408737,0.012361394386960982
2.3,-2.136731815949461,-1.9231897669248426,-1.8670077879956652,-0.9560731298519533,1.5785338322817868,-0.5669693092361168,-0.05753121280185902,-0.10000287573356134,0.31415926535908134,-0.21443570951813523,-0.0019987343368017764,-0.05750980790452596,-1.867158290964718e-11,-3.246206876456298e-11,1.019483680295032e-10,-6.9583366535915e-11,-6.487040386126492e-13,-1.866464953314898e-11,-0.5659716826305364,-0.567844292717794,0.289950418349574,-0.0004512954204635468,0.9998489249511298,0.012218239178759862,0.012354684855728812
2.4,-2.142484937229646,-1.9331900544981973,-1.8355918614597622,-0.9775167008037633,1.5783339588481065,-0.5727202900265685,-0.05753121280185902,-0.10000287573356134,0.31415926535908134,-0.21443570951813523,-0.0019987343368017764,-0.05750980790452596,-1.867158290964718e-11,-3.246206876456298e-11,1.019483680295032e-10,-6.9583366535915e-11,-6.487040386126492e-13,-1.866464953314898e-11,-0.5762962775731979,-0.5755205441984615,0.2976364225419402,-0.0004518657040465343,0.9998490694881358,0.012212824397086455,0.01234831896820576
2.5,-2.148238058509831,-1.9431903420715515,-1.804175934923859,-0.9989602717555732,1.5781340854144263,-0.5784712708170201,-0.05753121280185902,-0.10000287573356134,0.31415926535908134,-0.21443570951813523,-0.0019987343368017764,-0.05750980790452596,-1.867158290964718e-11,-3.246206876456298e-11,1.019483680295032e-10,-6.9583366535915e-11,-6.487040386126492e-13,-1.866464953314898e-11,-0.5865999836684275,-0.5829004093938338,0.30541896863479073,-0.0004524387737400751,0.9998492038450332,0.012207884782043753,0.012342302003992398
2.6,-2.153991179790016,-1.9531906296449062,-1.772760008387956,-1.0204038427073834,1.5779342119807462,-0.5842222516074719,-0.05753121280185902,-0.10000287573356134,0.31415926535908134,-0.21443570951813523,-0.0019987343368017764,-0.05750980790452596,-1.867158290964718e-11,-3.246206876456298e-11,1.019483680295032e-10,-6.9583366535915e-11,-6.487040386126492e-13,-1.866464953314898e-11,-0.5968765067254346,-0.5899819422064537,0.31329369668100093,-0.0004530146295606005,0.999849328021834,0.012203416125479686,0.012336639206072609
2.7,-2.1597443010702007,-1.9631909172182607,-1.741344081852053,-1.0418474136591933,1.5777343385470661,-0.5899732323979234,-0.05753121280185902,-0.10000287573356134,0.31415926535908134,-0.21443570951813523,-0.0019987343368017764,-0.05750980790452596,-1.867158290964718e-11,-3.246206876456298e-11,1.019483680295032e-10,-6.9583366535915e-11,-6.487040386126492e-13,-1.866464953314898e-11,-0.6071195534253174,-0.5967633740027769,0.32125618399297673,-0.0004535932715249338,0.9998494420185505,0.012199414174716736,0.012331335780472104
2.8,-2.165497422350386,-1.9731912047916151,-1.7099281553161498,-1.0632909846110035,1.577534465113386,-0.5957242131883751,-0.05753121280185902,-0.10000287573356134,0.31415926535908134,-0.21443570951813523,-0.0019987343368017764,-0.05750980790452596,-1.867158290964718e-11,-3.246206876456298e-11,1.019483680295032e-10,-6.9583366535915e-11,-6.487040386126492e-13,-1.866464953314898e-11,-0.6173228356898078,-0.6032431140941344,0.32930194725192186,-0.00045417469964845837,0.9998495458351955,0.012195874632840265,0.01232639689592124
2.9,-2.1712505436305696,-1.9831914923649672,-1.678512228780255,-1.084734555562808,1.577334591679706,-0.6014751939788253,-0.057531212801826805,-0.10000287573350573,0.3141592653589086,-0.21443570951801685,-0.0019987343368006757,-0.05750980790449429,1.2937680545637443e-11,2.2478006607157874e-11,-7.066497326963388e-11,4.82008334154724e-11,4.49369464289457e-13,1.2930747169139246e-11,-0.6274800750489102,-0.6094197500972858,0.33742644464695215,-0.00045475891394782474,0.9998496394717807,0.012192793158986484,0.012321827683517984
3.0,-2.1770036649107527,-1.9931917799383188,-1.647096302244361,-1.106178126514612,1.5771347182460258,-0.6072261747692754,-0.057531212801826805,-0.10000287573350573,0.3141592653589086,-0.21443570951801685,-0.0019987343368006757,-0.05750980790449429,1.2937680545637443e-11,2.2478006607157874e-11,-7.066497326963388e-11,4.82008334154724e-11,4.49369464289457e-13,1.2930747169139246e-11,-0.63758500700431,-0.6152920481744888,0.3456250780430719,-0.0004553459144393391,0.9998497229283195,0.012190165368633621,0.012317633236393708
3.1,-2.182756786190936,-2.0031920675116703,-1.6156803757084663,-1.1276216974664162,1.576934844812346,-0.6129771555597254,-0.057531212801826805,-0.10000287573350573,0.3141592653589086,-0.21443570951801685,-0.0019987343368006757,-0.05750980790449429,1.2937680545637443e-11,2.2478006607157874e-11,-7.066497326963388e-11,4.82008334154724e-11,4.49369464289457e-13,1.2930747169139246e-11,-0.6476313853853609,-0.6208589531531061,0.35389319517699136,-0.00045593570113863167,0.9998497962048242,0.012187986833896039,0.012313818609381594
3.2,-2.1885099074711194,-2.013192355085022,-1.584264449172572,-1.1490652684182203,1.5767349713786656,-0.6187281363501755,-0.057531212801826805,-0.10000287573350573,0.3141592653589086,-0.21443570951801685,-0.0019987343368006757,-0.05750980790449429,1.2937680545637443e-11,2.2478006607157874e-11,-7.066497326963388e-11,4.82008334154724e-11,4.49369464289457e-13,1.2930747169139246e-11,-0.6576129866945304,-0.6261195885248696,0.36222609187978766,-0.00045652827406173873,0.9998498593013077,0.012186253083820866,0.01231038881868623
3.3,-2.1942630287513025,-2.0231926426583735,-1.5528485226366775,-1.1705088393700245,1.5765350979449857,-0.6244791171406257,-0.057531212801826805,-0.10000287573350573,0.3141592653589086,-0.21443570951801685,-0.0019987343368006757,-0.05750980790449429,1.2937680545637443e-11,2.2478006607157874e-11,-7.066497326963388e-11,4.82008334154724e-11,4.49369464289457e-13,1.2930747169139246e-11,-0.6675236144391495,-0.6310732563249888,0.37061901432537603,-0.0004571236332248664,0.999849912217783,0.0121849596046848,0.012307348841556286
3.4,-2.2000161500314857,-2.0331929302317255,-1.521432596100783,-1.1919524103218284,1.5763352245113056,-0.6302300979310757,-0.057531212801826805,-0.10000287573350573,0.3141592653589086,-0.21443570951801685,-0.0019987343368006757,-0.05750980790449429,1.2937680545637443e-11,2.2478006607157874e-11,-7.066497326963388e-11,4.82008334154724e-11,4.49369464289457e-13,1.2930747169139246e-11,-0.6773571034463383,-0.6357194368913851,0.37906716130374524,-0.0004577217786436419,0.9998499549542631,0.0121841018402966,0.012304703615958151
3.5,-2.205769271311669,-2.043193217805077,-1.4900166695648889,-1.2133959812736326,1.5761353510776255,-0.6359810787215258,-0.057531212801826805,-0.10000287573350573,0.3141592653589086,-0.21443570951801685,-0.0019987343368006757,-0.05750980790449429,1.2937680545637443e-11,2.2478006607157874e-11,-7.066497326963388e-11,4.82008334154724e-11,4.49369464289457e-13,1.2930747169139246e-11,-0.6871073241579817,-0.6400577885044214,0.3875656865179146,-0.0004583227103340146,0.9998499875107613,0.012183675192298864,0.012302458040253
3.6,-2.211522392591853,-2.0531935053784287,-1.4586007430289942,-1.2348395522254367,1.5759354776439451,-0.6417320595119759,-0.057531212801826805,-0.10000287573350573,0.3141592653589086,-0.21443570951801685,-0.0019987343368006757,-0.05750980790449429,1.2937680545637443e-11,2.2478006607157874e-11,-7.066497326963388e-11,4.82008334154724e-11,4.49369464289457e-13,1.2930747169139246e-11,-0.6967681869026565,-0.6440881469075764,0.39610970090353975,-0.00045892642831152147,0.9998500098872908,0.01218367502047424,0.012300616972875171
3.7,-2.217275513872036,-2.0631937929517803,-1.4271848164930998,-1.2562831231772407,1.5757356042102653,-0.6474830403024259,-0.057531212801827256,-0.1000028757335064,0.31415926535890815,-0.21443570951801655,-0.001998734336800405,-0.057509807904494205,1.302088106361582e-11,2.2630540890118228e-11,-7.110870936551855e-11,4.85613689933787e-11,4.5240281650741863e-13,1.3013947687117621e-11,-0.7063336461414099,-0.6478105247095989,0.40469427497010246,-0.0004595329325922999,0.999850022083865,0.012184096643052743,0.012299185232013777
3.8,-2.2230286351522195,-2.0731940805251323,-1.3957688899572056,-1.2777266941290446,1.575535730776585,-0.653234021092876,-0.057531212801827256,-0.1000028757335064,0.31415926535890815,-0.21443570951801655,-0.001998734336800405,-0.057509807904494205,1.302088106361582e-11,2.2630540890118228e-11,-7.110870936551855e-11,4.85613689933787e-11,4.5240281650741863e-13,1.3013947687117621e-11,-0.7157977046843289,-0.651225110668765,0.4133144411625942,-0.0004601422231915887,0.9998500241004973,0.012184935337022546,0.012298167595294856
3.9,-2.2287817564324026,-2.083194368098484,-1.3643529634213112,-1.2991702650808488,1.575335857342905,-0.6589850018833261,-0.057531212801827256,-0.1000028757335064,0.31415926535890815,-0.21443570951801655,-0.001998734336800405,-0.057509807904494205,1.302088106361582e-11,2.2630540890118228e-11,-7.110870936551855e-11,4.85613689933787e-11,4.5240281650741863e-13,1.3013947687117621e-11,-0.7251544178748348,-0.6543322688599432,0.42196519624260814,-0.0004607543001253655,0.9998500159372015,0.0121861863384405,0.012297568799467395
4.0,-2.234534877712586,-2.093194655671836,-1.3329370368854168,-1.3206138360326527,1.575135983909225,-0.6647359826737762,-0.057531212801827256,-0.1000028757335064,0.31415926535890815,-0.21443570951801655,-0.001998734336800405,-0.057509807904494205,1.302088106361582e-11,2.2630540890118228e-11,-7.110870936551855e-11,4.85613689933787e-11,4.5240281650741863e-13,1.3013947687117621e-11,-0.7343978977386948,-0.6571325377252523,0.4306415036877241,-0.0004613691634087928,0.9998499975939913,0.012187844842748713,0.01229739354009072
4.1,-2.240287998992772,-2.103194943245192,-1.3015211103495086,-1.3420574069844666,1.5749361104755448,-0.6704869634642288,-0.057531212801878305,-0.10000287573359513,0.3141592653591869,-0.21443570951820684,-0.0019987343368021784,-0.05750980790454523,-3.7987969833643627e-11,-6.603347776886693e-11,2.0744662482617583e-10,-1.4157954809326571e-10,-1.3195082148138898e-12,-3.7974103080647224e-11,-0.7435223170947279,-0.6596266290091872,0.4393382961080969,-0.00046198681305763354,0.9998499690708803,0.012189906005089936,0.012297646471224588
4.2,-2.2460411202729578,-2.1131952308185484,-1.2701051838136002,-1.3635009779362801,1.5747362370418645,-0.6762379442546814,-0.057531212801878305,-0.10000287573359513,0.3141592653591869,-0.21443570951820684,-0.0019987343368021784,-0.05750980790454523,-3.7987969833643627e-11,-6.603347776886693e-11,2.0744662482617583e-10,-1.4157954809326571e-10,-1.3195082148138898e-12,-3.7974103080647224e-11,-0.7525219136242338,-0.6618154265791597,0.44805047767909334,-0.0004626072490873492,0.9998499303678828,0.01219236494062683,0.012298332205120886
4.3,-2.251794241553144,-2.1231955183919045,-1.2386892572776922,-1.3849445488880936,1.5745363636081844,-0.681988925045134,-0.057531212801878305,-0.10000287573359513,0.3141592653591869,-0.21443570951820684,-0.0019987343368021784,-0.05750980790454523,-3.7987969833643627e-11,-6.603347776886693e-11,2.0744662482617583e-10,-1.4157954809326571e-10,-1.3195082148138898e-12,-3.7974103080647224e-11,-0.7613909938962209,-0.6636999851324941,0.4567729265889017,-0.000463230471512724,0.9998498814850126,0.01219521672486345,0.012299455311919111
4.4,-2.25754736283333,-2.133195805965261,-1.2072733307417838,-1.4063881198399073,1.5743364901745045,-0.6877399058355865,-0.057531212801878305,-0.10000287573359513,0.3141592653591869,-0.21443570951820684,-0.0019987343368021784,-0.05750980790454523,-3.7987969833643627e-11,-6.603347776886693e-11,2.0744662482617583e-10,-1.4157954809326571e-10,-1.3195082148138898e-12,-3.7974103080647224e-11,-0.7701239373454891,-0.665281528790992,0.4655004974999343,-0.00046385648034989263,0.9998498224222842,0.012198456393968413,0.012301020319342174
4.5,-2.2633004841135156,-2.143196093538617,-1.1758574042058754,-1.4278316907917208,1.5741366167408242,-0.6934908866260392,-0.057531212801878326,-0.10000287573359462,0.31415926535918676,-0.21443570951820717,-0.001998734336802447,-0.057509807904545254,-3.796023632765082e-11,-6.596414400388492e-11,2.07280223790219e-10,-1.414686140692945e-10,-1.3186415427516148e-12,-3.794636957465442e-11,-0.7787152002007053,-0.6665614495842503,0.47422802402290853,-0.00046448527561377166,0.9998497531797115,0.012202078945100238,0.012303031712395286
4.6,-2.2690536053937014,-2.153196381111973,-1.1444414776699667,-1.4492752617435345,1.573936743307144,-0.6992418674164917,-0.057531212801878326,-0.10000287573359462,0.31415926535918676,-0.21443570951820717,-0.001998734336802447,-0.057509807904545254,-3.796023632765082e-11,-6.596414400388492e-11,2.07280223790219e-10,-1.414686140692945e-10,-1.3186415427516148e-12,-3.794636957465442e-11,-0.7871593193596232,-0.6675413058230208,0.4829503212024475,-0.0004651168573193925,0.9998496737573092,0.012206079336735537,0.012305493933069218
4.7,-2.2748067266738876,-2.1631966686853294,-1.1130255511340588,-1.4707188326953482,1.573736869873464,-0.7049928482069445,-0.057531212801878326,-0.10000287573359462,0.31415926535918676,-0.21443570951820717,-0.001998734336802447,-0.057509807904545254,-3.796023632765082e-11,-6.596414400388492e-11,2.07280223790219e-10,-1.414686140692945e-10,-1.3186415427516148e-12,-3.794636957465442e-11,-0.7954509162086423,-0.6682228203639486,0.49166218801305883,-0.0004657512254820121,0.9998495841550915,0.012210452488998984,0.01230841138004264
4.8,-2.2805598479540734,-2.1731969562586855,-1.0816096245981504,-1.492162403647162,1.5735369964397838,-0.7107438289973972,-0.057531212801878326,-0.10000287573359462,0.31415926535918676,-0.21443570951820717,-0.001998734336802447,-0.057509807904545254,-3.796023632765082e-11,-6.596414400388492e-11,2.07280223790219e-10,-1.414686140692945e-10,-1.3186415427516148e-12,-3.794636957465442e-11,-0.8035847003839388,-0.6686078787671255,0.5003584098643336,-0.00046638838011686326,0.9998494843730733,0.012215193283993587,0.012311788408387743
4.9,-2.2863129692342596,-2.1831972438320415,-1.050193698062242,-1.5136059745989754,1.5733371230061035,-0.7164948097878499,-0.057531212801878326,-0.10000287573359462,0.31415926535918676,-0.21443570951820717,-0.001998734336802447,-0.057509807904545254,-3.796023632765082e-11,-6.596414400388492e-11,2.07280223790219e-10,-1.414686140692945e-10,-1.3186415427516148e-12,-3.794636957465442e-11,-0.811555473471451,-0.6686985273479524,0.5090337611141895,-0.00046702832123864075,0.9998493744112692,0.01222029656613719,0.012315629329280493
5.0,-2.2920660905144454,-2.193197531405398,-1.0187777715263338,-1.5350495455507893,1.5731372495724234,-0.7222457905783024,-0.057531212801878326,-0.10000287573359462,0.31415926535918676,-0.21443570951820717,-0.001998734336802447,-0.057509807904545254,-3.796023632765082e-11,-6.596414400388492e-11,2.07280223790219e-10,-1.414686140692945e-10,-1.3186415427516148e-12,-3.794636957465442e-11,-0.8193581326430295,-0.6684969711249001,0.5176830075890184,-0.0004676710488627236,0.9998492542696942,0.012225757142497531,0.012319938409711411
5.1,-2.2978192117946312,-2.203197818978754,-0.9873618449904253,-1.5564931165026028,1.5729373761387433,-0.7279967713687551,-0.057531212801878326,-0.10000287573359462,0.31415926535918676,-0.21443570951820717,-0.001998734336802447,-0.057509807904545254,-3.796023632765082e-11,-6.596414400388492e-11,2.07280223790219e-10,-1.414686140692945e-10,-1.3186415427516148e-12,-3.794636957465442e-11,-0.8269876742261327,-0.6680055716648037,0.5263009091095522,-0.00046831656300389717,0.999849123948363,0.012231569783129191,0.012324719872196858
5.2,-2.303572333074817,-2.21319810655211,-0.9559459184545174,-1.5779366874544163,1.572737502705063,-0.7337477521592076,-0.057531212801878326,-0.10000287573359462,0.31415926535918676,-0.21443570951820717,-0.001998734336802447,-0.057509807904545254,-3.796023632765082e-11,-6.596414400388492e-11,2.07280223790219e-10,-1.414686140692945e-10,-1.3186415427516148e-12,-3.794636957465442e-11,-0.8344391972044709,-0.6672268448274272,0.5348822220212762,-0.00046896486367678373,0.999848983447291,0.012237729221416862,0.012329977894497997
5.3,-2.309325454355003,-2.223198394125466,-0.9245299919186093,-1.5993802584062295,1.5725376292713829,-0.7394987329496602,-0.05753121280183923,-0.1000028757335276,0.3141592653589765,-0.21443570951806346,-0.0019987343368011077,-0.05750980790450671,5.200032373646183e-13,9.15205697761728e-13,-2.8288176112635232e-12,1.9690789254873545e-12,1.820011330776164e-14,5.269366138628132e-13,-0.84170790664707,-0.6661634584110823,0.5434217017282311,-0.0004696159508964398,0.9998488327664931,0.01224423015441457,0.012335716609336819
5.4,-2.3150785756351873,-2.233198681698819,-0.8931140653827115,-1.6208238293580364,1.5723377558377027,-0.745249713740111,-0.05753121280183923,-0.1000028757335276,0.3141592653589765,-0.21443570951806346,-0.0019987343368011077,-0.05750980790450671,5.200032373646183e-13,9.15205697761728e-13,-2.8288176112635232e-12,1.9690789254873545e-12,1.820011330776164e-14,5.269366138628132e-13,-0.8487891170632712,-0.6648182297011671,0.5519141052290077,-0.00047026982467738415,0.9998486719059846,0.012251067243192608,0.01234194010411815
5.5,-2.3208316969153713,-2.243198969272172,-0.8616981388468139,-1.6422674003098425,1.5721378824040226,-0.7510006945305616,-0.05753121280183923,-0.1000028757335276,0.3141592653589765,-0.21443570951806346,-0.0019987343368011077,-0.05750980790450671,5.200032373646183e-13,9.15205697761728e-13,-2.8288176112635232e-12,1.9690789254873545e-12,1.820011330776164e-14,5.269366138628132e-13,-0.8556782556812442,-0.6631941229235567,0.5603541936537877,-0.00047092648503451357,0.9998485008657809,0.012258235113181712,0.012348652420651621
5.6,-2.326584818195555,-2.2531992568455244,-0.8302822123109161,-1.663710971261649,1.5719380089703425,-0.7567516753210122,-0.05753121280183923,-0.1000028757335276,0.3141592653589765,-0.21443570951806346,-0.0019987343368011077,-0.05750980790450671,5.200032373646183e-13,9.15205697761728e-13,-2.8288176112635232e-12,1.9690789254873545e-12,1.820011330776164e-14,5.269366138628132e-13,-0.8623708656476196,-0.6612942466048367,0.5687367348012136,-0.000471585931982562,0.9998483196458977,0.012265728354523001,0.012355857554878637
5.7,-2.332337939475739,-2.2631995444188773,-0.7988662857750184,-1.6851545422134553,1.5717381355366622,-0.762502656111463,-0.05753121280183923,-0.1000028757335276,0.3141592653589765,-0.21443570951806346,-0.0019987343368011077,-0.05750980790450671,5.200032373646183e-13,9.15205697761728e-13,-2.8288176112635232e-12,1.9690789254873545e-12,1.820011330776164e-14,5.269366138628132e-13,-0.8688626091459503,-0.6591218508414485,0.5770565056739461,-0.00047224816553585063,0.9998481282463505,0.012273541522418099,0.012363559456600332
5.8,-2.338091060755923,-2.27319983199223,-0.7674503592391204,-1.7065981131652619,1.5715382621029823,-0.7682536369019137,-0.05753121280183923,-0.1000028757335276,0.3141592653589765,-0.21443570951806346,-0.0019987343368011077,-0.05750980790450671,5.200032373646183e-13,9.15205697761728e-13,-2.8288176112635232e-12,1.9690789254873545e-12,1.820011330776164e-14,5.269366138628132e-13,-0.8751492704317235,-0.6566803244798699,0.5853082950117201,-0.00047291318570892625,0.999847926667155,0.012281669137480371,0.012371762029207893
5.9,-2.343844182036107,-2.283200119565583,-0.7360344327032227,-1.7280416841170685,1.5713383886693022,-0.7740046176923643,-0.05753121280183923,-0.1000028757335276,0.3141592653589765,-0.21443570951806346,-0.0019987343368011077,-0.05750980790450671,5.200032373646183e-13,9.15205697761728e-13,-2.8288176112635232e-12,1.9690789254873545e-12,1.820011330776164e-14,5.269366138628132e-13,-0.8812267587817402,-0.6539731922100115,0.5934869058207176,-0.00047358099251620044,0.9998477149083274,0.012290105686090614,0.01238046912941587
6.0,-2.349597303316291,-2.2932004071389356,-0.7046185061673249,-1.7494852550688746,1.571138515235622,-0.7797555984828151,-0.05753121280183923,-0.1000028757335276,0.3141592653589765,-0.21443570951806346,-0.0019987343368011077,-0.05750980790450671,5.200032373646183e-13,9.15205697761728e-13,-2.8288176112635232e-12,1.9690789254873545e-12,1.820011330776164e-14,5.269366138628132e-13,-0.887091111355717,-0.6510041115740863,0.6015871578980941,-0.0004742515859724076,0.9998474929698831,0.012298845620751644,0.012389684566997902
6.1,-2.355350424596475,-2.303200694712289,-0.6732025796314269,-1.7709288260206812,1.570938641801942,-0.7855065792732658,-0.05753121280183923,-0.1000028757335276,0.3141592653589765,-0.21443570951806346,-0.0019987343368011077,-0.05750980790450671,5.200032373646183e-13,9.15205697761728e-13,-2.8288176112635232e-12,1.9690789254873545e-12,1.820011330776164e-14,5.269366138628132e-13,-0.8927384959680482,-0.6477768698932507,0.6096038903504758,-0.0004749249660915918,0.9998472608518385,0.012307883360448567,0.012399412104526395
6.2,-2.3611035458766585,-2.313200982285641,-0.6417866530955295,-1.7923723969724874,1.5707387683682617,-0.7912575600637164,-0.057531212801839794,-0.10000287573352765,0.31415926535897665,-0.2144357095180633,-0.0019987343368011085,-0.057509807904506736,4.922697313718386e-13,8.597386857761689e-13,-2.6624165753068456e-12,1.8581449015162358e-12,1.6900105214350092e-14,4.922697313718386e-13,-0.8981652137677111,-0.6442953811143828,0.6175319641052741,-0.00047560113288825886,0.9998470185542097,0.01231721329100578,0.012409655457110742
6.3,-2.3668566671568425,-2.323201269858994,-0.6103707265596314,-1.813815967924294,1.5705388949345815,-0.7970085408541672,-0.057531212801839794,-0.10000287573352765,0.31415926535897665,-0.2144357095180633,-0.0019987343368011085,-0.057509807904506736,4.922697313718386e-13,8.597386857761689e-13,-2.6624165753068456e-12,1.8581449015162358e-12,1.6900105214350092e-14,4.922697313718386e-13,-0.9033677018243915,-0.6405636825794142,0.6253662644136284,-0.00047628008637632096,0.999846766077013,0.0123268297654516,0.012420418292144257
6.4,-2.3726097884370265,-2.3332015574323473,-0.5789548000237338,-1.8352595388761004,1.5703390215009014,-0.8027595216446178,-0.057531212801839794,-0.10000287573352765,0.31415926535897665,-0.2144357095180633,-0.0019987343368011085,-0.057509807904506736,4.922697313718386e-13,8.597386857761689e-13,-2.6624165753068456e-12,1.8581449015162358e-12,1.6900105214350092e-14,4.922697313718386e-13,-0.9083425356189373,-0.6365859317196886,0.6331017033438386,-0.00047696182657018006,0.9998465034202648,0.012336727104380428,0.012431704229047616
6.5,-2.3783629097172105,-2.3432018450056997,-0.547538873487836,-1.8567031098279068,1.5701391480672215,-0.8085105024350685,-0.057531212801839794,-0.10000287573352765,0.31415926535897665,-0.2144357095180633,-0.0019987343368011085,-0.057509807904506736,4.922697313718386e-13,8.597386857761689e-13,-2.6624165753068456e-12,1.8581449015162358e-12,1.6900105214350092e-14,4.922697313718386e-13,-0.9130864314363576,-0.6323664026778633,0.6407332222641156,-0.00047764635348374165,0.9998462305839816,0.012346899596317594,0.012443516839017907
6.6,-2.3841160309973946,-2.3532021325790526,-0.5161229469519379,-1.8781466807797134,1.5699392746335414,-0.8142614832255193,-0.057531212801839794,-0.10000287573352765,0.31415926535897665,-0.2144357095180633,-0.0019987343368011085,-0.057509807904506736,4.922697313718386e-13,8.597386857761689e-13,-2.6624165753068456e-12,1.8581449015162358e-12,1.6900105214350092e-14,4.922697313718386e-13,-0.9175962486596293,-0.6279094828599346,0.6482557943134908,-0.00047833366713148417,0.9998459475681801,0.012357341498089152,0.012455859644781683
6.7,-2.3896521985227936,-2.3628253031349975,-0.48589173439825595,-1.8987816014341552,1.569746938550424,-0.8197955909803739,-0.05118414686812893,-0.08897017165986877,0.27950000000005437,-0.19077833258180493,-0.0017782262334286936,-0.05116510344186629,0.09156376898490355,0.15915951994666347,-0.4999999999457101,0.3412850314151143,0.003181084495948558,0.0915297020327346,-0.9217121999639805,-0.6234006965505582,0.6553871690367215,-0.0004789976928512767,0.9998456656141523,0.012367638608112462,0.012468240816659594
6.8,-2.3943171819394897,-2.370934149345587,-0.4604177752771606,-1.9161693633138643,1.5695848689175853,-0.8244588387567763,-0.04202776996860728,-0.07305421966340878,0.2294999999998521,-0.156649829436449,-0.0014601177837980065,-0.042012133237561575,0.09156376902172826,0.1591595200106817,-0.5000000001467715,0.3412850315523656,0.0031810844972277,0.09152970206955237,-0.9250081526781233,-0.6194370115968333,0.6613111740363599,-0.00047955922932382724,0.9998454207111342,0.01237650106165685,0.012479059555563696
6.9,-2.3980665276662374,-2.3774514003565375,-0.43994381615606637,-1.9301442748790507,1.5694546101297095,-0.8282067895127517,-0.03287139306914397,-0.05713826766705018,0.17949999999996838,-0.12252132629131052,-0.0011420093341693459,-0.03285916303331519,0.09156376900041698,0.15915951997364447,-0.5000000000304479,0.34128503147296857,0.0031810844964878468,0.091529702048248,-0.9275419008717453,-0.6161441234639986,0.6660140684364922,-0.0004800118761761371,0.9998452190260481,0.012383744879118232,0.012488011936316476
7.0,-2.4009002357030367,-2.3823770561678472,-0.42446985703497286,-1.940706336129715,1.5693561621867969,-0.8310394432483003,-0.02371501616964846,-0.04122231567063563,0.1294999999999089,-0.08839282314605207,-0.0008239008845395672,-0.023706192829036615,0.09156376901133227,0.15915951999261024,-0.5000000000900113,0.341285031513621,0.003181084496866763,0.09152970205915642,-0.9293882302427576,-0.6135928922364968,0.6695330529303216,-0.00048035476625991387,0.9998450637264115,0.012389290064057458,0.012494930689503362
7.1,-2.402818306049887,-2.3857111167795186,-0.4139958979138787,-1.947855547065858,1.569289525088847,-0.8329567999634221,-0.014558639270168688,-0.025306363674248433,0.07949999999993533,-0.05426432000085225,-0.000505792434910335,-0.014553222624773772,0.09156376900668474,0.15915951998453248,-0.5000000000646427,0.34128503149629935,0.003181084496705331,0.09152970205451058,-0.9306042563851631,-0.6118358098955442,0.6718973428499798,-0.00048058724419228535,0.9998449572061902,0.012393077467291614,0.012499688641807912
7.2,-2.403820738706789,-2.38745358219155,-0.40852193879278453,-1.951591907687479,1.56925469883586,-0.8339588596581172,-0.005402262370695226,-0.009390411677872202,0.029499999999996206,-0.020135816855675948,-0.00018768398528132204,-0.005400252420517238,0.09156376899592235,0.15915951996582775,-0.5000000000058773,0.34128503145618855,0.003181084496331395,0.09152970204375238,-0.9312289180212683,-0.610907880177412,0.673127247395453,-0.000480708866358357,0.9998449010858018,0.012395067694991798,0.012502199348334603
7.259479182,-2.403982704628135,-2.3877351173290267,-0.40763749550739065,-1.9521956021964255,1.569249071858214,-0.8341207653188887,1.4428183315577185e-17,2.507960032301076e-17,-7.878762240766493e-17,5.3778072382884586e-17,5.012601682817777e-19,1.4422815207248995e-17,0.09156376902516418,0.1591595200166561,-0.5000000001655571,0.34128503156518286,0.0031810844973473055,0.0915297020729836,-0.931329145263681,-0.6107573338125286,0.6733255947691758,-0.00048072852514006797,0.9998448919892686,0.012395389956698607,0.012502606563198217
