mathias31415/primitives_from_planned_trajectory_python/data/saved_trajectories/trajectory_20250624_145135_planned.csv
time_from_start,shoulder_pan_joint_pos,shoulder_lift_joint_pos,elbow_joint_pos,wrist_1_joint_pos,wrist_2_joint_pos,wrist_3_joint_pos,shoulder_pan_joint_vel,shoulder_lift_joint_vel,elbow_joint_vel,wrist_1_joint_vel,wrist_2_joint_vel,wrist_3_joint_vel,shoulder_pan_joint_acc,shoulder_lift_joint_acc,elbow_joint_acc,wrist_1_joint_acc,wrist_2_joint_acc,wrist_3_joint_acc,fk_x,fk_y,fk_z,fk_qx,fk_qy,fk_qz,fk_qw
0.0,-2.3144850000000003,-2.0186829999999993,-1.63605,-1.0927480000000003,1.5724200000000002,-0.7447479999999995,0.00017091163749732562,0.00017203189592285788,-0.0005,0.0003290943009576231,5.876464807015732e-06,0.00017083725448791744,0.1709116374973256,0.1720318959228579,-0.5,0.3290943009576231,0.0058764648070157325,0.17083725448791742,-0.7230949451357703,-0.5291227984852264,0.33170012377010827,-0.0005153380143903103,0.9998456105228629,0.012356636548825458,0.012482110322162022
0.1,-2.313630441812514,-2.017822840520385,-1.6385500000000002,-1.0911025284952123,1.5724493823240353,-0.7438938137275599,0.017091163749732647,0.017203189592285874,-0.050000000000000246,0.03290943009576248,0.0005876464807015761,0.017083725448791828,0.1709116374973943,0.17203189592292553,-0.5000000000001943,0.3290943009577535,0.005876464807017993,0.1708372544879827,-0.7220074198502772,-0.5290539962408006,0.3311126464614635,-0.0005152685318005349,0.9998456479236032,0.012355282809730375,0.012480457253717742
0.2,-2.3110667672500536,-2.0152423620815423,-1.64605,-1.0861661139808478,1.5725375292961405,-0.7413312549102412,0.034182327499464586,0.03440637918457104,-0.09999999999999842,0.0658188601915236,0.001175292961403128,0.034167450897582954,0.17091163749684266,0.1720318959223739,-0.49999999999858447,0.32909430095669184,0.005876464806999236,0.170837254487438,-0.7187425249845906,-0.5288319736716055,0.3293523108203522,-0.0005150605797009104,0.9998457587835796,0.012351258867395189,0.012475566499269243
0.30000000000000004,-2.3067939763126204,-2.0109415646834705,-1.6585499999999997,-1.0779387564569072,1.5726844409163159,-0.7370603235480433,0.051273491249198416,0.0516095687768581,-0.15000000000000213,0.09872829028728836,0.0017629394421047448,0.051251176346375965,0.1709116374978696,0.17203189592340778,-0.5000000000015821,0.32909430095867637,0.005876464807034364,0.17083725448845802,-0.7132936455172926,-0.5284098593509777,0.32642552694860527,-0.0005147156450934331,0.999845939076055,0.012344677655762587,0.012467642700267985
0.4,-2.300812069000214,-2.0049204483261707,-1.67605,-1.0664204559233903,1.5728901171845615,-0.7310810196409661,0.06836465499893225,0.06881275836914517,-0.20000000000000587,0.13163772038305313,0.0023505859228063622,0.06833490179516899,0.17091163749889657,0.17203189592444862,-0.5000000000046074,0.32909430096067477,0.005876464807070143,0.1708372544894919,-0.7056508977618691,-0.5277094656587829,0.3223433810277605,-0.000514236206303406,0.9998461820897857,0.012335731081803167,0.012457024535607084
0.5,-2.2931210453128346,-1.9971790130096423,-1.6985500000000002,-1.0516112123802974,1.5731545581008772,-0.7233933431890098,0.08545581874866078,0.08601594796142689,-0.24999999999999403,0.16454715047880766,0.0029382324035077964,0.08541862724395669,0.17091163749460833,0.17203189592013263,-0.4999999999920619,0.3290943009524036,0.0058764648069226915,0.17083725448520368,-0.695802845569151,-0.5266212250167155,0.31712223407227486,-0.0005136257329585954,0.9998464784289987,0.012324695504382794,0.01244418106830015
0.6000000000000001,-2.2837209052504814,-1.987717258733885,-1.7260500000000003,-1.0335110258276279,1.573477763665263,-0.7139972941921742,0.1025469824983964,0.10321913755371577,-0.30000000000000304,0.19745658057457588,0.003525878884209475,0.1025023526927515,0.1709116374974394,0.17203189592297757,-0.5000000000003886,0.3290943009578437,0.005876464807019402,0.17083725448803475,-0.6837389096684272,-0.5250041790063084,0.3107845493448344,-0.0005128886859616817,0.9998468160133613,0.012311939309799147,0.01242970649578113
0.7000000000000001,-2.2730507592889424,-1.9769771741707958,-1.7572653874299715,-1.0129654136168524,1.573844635916602,-0.7033317920195484,0.10738694895491471,0.10809082808286952,-0.3141592653589638,0.20677604764533727,0.0036922917333597352,0.10734021273173298,-5.28323289162628e-12,-5.3248331506154634e-12,1.547529634397619e-11,-1.0205930205346305e-11,-1.8200113307767697e-13,-5.297099644622674e-12,-0.670017619660414,-0.5227860927569392,0.303652012611402,-0.0005120641728802054,0.999847166405386,0.012298463701310955,0.012414886708737383
0.8,-2.2623120643934502,-1.9661680913625086,-1.7886813139658688,-0.9922878088523182,1.5742138650899382,-0.6925977707463749,0.10738694895491471,0.10809082808286952,-0.3141592653589638,0.20677604764533727,0.0036922917333597352,0.10734021273173298,-5.28323289162628e-12,-5.3248331506154634e-12,1.547529634397619e-11,-1.0205930205346305e-11,-1.8200113307767697e-13,-5.297099644622674e-12,-0.6561895629972506,-0.5201432840560962,0.29654325545151883,-0.0005112473661868621,0.9998474838342086,0.012286013140429984,0.012401676404649094
0.9,-2.2515733694979585,-1.9553590085542214,-1.8200972405017657,-0.9716102040877839,1.5745830942632741,-0.6818637494732013,0.10738694895491471,0.10809082808286952,-0.3141592653589638,0.20677604764533727,0.0036922917333597352,0.10734021273173298,-5.28323289162628e-12,-5.3248331506154634e-12,1.547529634397619e-11,-1.0205930205346305e-11,-1.8200113307767697e-13,-5.297099644622674e-12,-0.6423542038489682,-0.5170892546510997,0.2895081319120279,-0.0005104436043591587,0.9998477659358864,0.012274712699556822,0.012390150462655927
1.0,-2.2408346746024663,-1.9445499257459335,-1.851513167037665,-0.9509325993232486,1.5749523234366103,-0.6711297282000271,0.10738694895490507,0.10809082808285948,-0.3141592653589356,0.20677604764531887,0.003692291733359404,0.10734021273172335,-1.4920626224118756e-11,-1.50315602480899e-11,4.365253843264484e-11,-2.8731912208526083e-11,-5.130698608665372e-13,-1.4920626224118756e-11,-0.6285229360193998,-0.5136249054678897,0.28255040775786694,-0.0005096528872642177,0.9998480127102765,0.012264596966464342,0.012380282488522446
1.1,-2.230095979706975,-1.933740842937647,-1.8829290935735608,-0.9302549945587152,1.575321552609946,-0.6603957069268541,0.10738694895490507,0.10809082808285948,-0.3141592653589356,0.20677604764531887,0.003692291733359404,0.10734021273172335,-1.4920626224118756e-11,-1.50315602480899e-11,4.365253843264484e-11,-2.8731912208526083e-11,-5.130698608665372e-13,-1.4920626224118756e-11,-0.614707139824751,-0.5097514713162467,0.2756737954711127,-0.0005088752147682746,0.999848224157238,0.012255700092838195,0.012372045540967458
1.2,-2.2193572848114838,-1.9229317601293603,-1.9143450201094565,-0.9095773897941819,1.5756907817832821,-0.649661685653681,0.10738694895490507,0.10809082808285948,-0.3141592653589356,0.20677604764531887,0.003692291733359404,0.10734021273172335,-1.4920626224118756e-11,-1.50315602480899e-11,4.365253843264484e-11,-2.8731912208526083e-11,-5.130698608665372e-13,-1.4920626224118756e-11,-0.6009181722216942,-0.5054705204635075,0.26888195258640507,-0.0005081105867361516,0.9998484002766314,0.012248055786532822,0.012365412138008097
1.3,-2.2086185899159925,-1.9121226773210735,-1.9457609466453523,-0.8888997850296485,1.576060010956618,-0.6389276643805079,0.10738694895490507,0.10809082808285948,-0.3141592653589356,0.20677604764531887,0.003692291733359404,0.10734021273172335,-1.4920626224118756e-11,-1.50315602480899e-11,4.365253843264484e-11,-2.8731912208526083e-11,-5.130698608665372e-13,-1.4920626224118756e-11,-0.5871673569460722,-0.5007839539107507,0.26217848005210614,-0.0005073590030319658,0.9998485410683182,0.012241697303913982,0.012360354263403539
1.4,-2.197879895020501,-1.9013135945127866,-1.9771768731812478,-0.8682221802651152,1.576429240129954,-0.6281936431073347,0.10738694895490507,0.10809082808285948,-0.3141592653589356,0.20677604764531887,0.003692291733359404,0.10734021273172335,-1.4920626224118756e-11,-1.50315602480899e-11,4.365253843264484e-11,-2.8731912208526083e-11,-5.130698608665372e-13,-1.4920626224118756e-11,-0.5734659746712559,-0.4956940043717908,0.2555669206178928,-0.0005066204635192948,0.999848646532162,0.012236657442287097,0.0123568433732032
1.5,-2.18714120012501,-1.8905045117045,-2.0085927997171438,-0.8475445755005819,1.57679846930329,-0.6174596218341617,0.10738694895490507,0.10809082808285948,-0.3141592653589356,0.20677604764531887,0.003692291733359404,0.10734021273172335,-1.4920626224118756e-11,-1.50315602480899e-11,4.365253843264484e-11,-2.8731912208526083e-11,-5.130698608665372e-13,-1.4920626224118756e-11,-0.5598252531952104,-0.49020323495558843,0.24905075724947578,-0.00050589496806015,0.999848716668027,0.012232968532416575,0.01235485040239487
1.6,-2.1764025052295177,-1.8796954288962124,-2.040008726253042,-0.8268669707360469,1.577167698476626,-0.6067256005609878,0.10738694895492432,0.10809082808287887,-0.31415926535899197,0.20677604764535595,0.003692291733360066,0.1073402127317426,4.312560181879148e-12,4.34029368787194e-12,-1.2646478732713128e-11,8.320051797837584e-12,1.4863425868011934e-13,4.312560181879148e-12,-0.5462563576653013,-0.4843145375529841,0.2426334115711342,-0.0005051825165160316,0.9998487514757796,0.012230662431132045,0.012354345771651455
1.7000000000000002,-2.1656638103340256,-1.8688863460879248,-2.0714246527889406,-0.8061893659715116,1.577536927649962,-0.5959915792878137,0.10738694895492434,0.1080908280828789,-0.3141592653589927,0.20677604764535598,0.0036922917333600666,0.10734021273174278,4.562161735814276e-12,4.603761994803463e-12,-1.3367549888525718e-11,8.81925490570784e-12,1.5730097930286683e-13,4.562161735814276e-12,-0.5327703808498425,-0.4780311309289161,0.2363182423367288,-0.0005044831087472898,0.9998487509552869,0.012229770514030196,0.012355299394178162
1.8,-2.1549251154385334,-1.8580772632796372,-2.1028405793248393,-0.7855117612069765,1.577906156823298,-0.5852575580146396,0.10738694895492434,0.1080908280828789,-0.3141592653589927,0.20677604764535598,0.0036922917333600666,0.10734021273174278,4.562161735814276e-12,4.603761994803463e-12,-1.3367549888525718e-11,8.81925490570784e-12,1.5730097930286683e-13,4.562161735814276e-12,-0.5193783334653407,-0.471356558521577,0.23010854392985752,-0.000503796744613583,0.9998487151064179,0.012230323668265309,0.012357680682655935
1.9,-2.144186420543041,-1.8472681804713496,-2.134256505860738,-0.7648341564424412,1.5782753859966339,-0.5745235367414655,0.10738694895492434,0.1080908280828789,-0.3141592653589927,0.20677604764535598,0.0036922917333600666,0.10734021273174278,4.562161735814276e-12,4.603761994803463e-12,-1.3367549888525718e-11,8.81925490570784e-12,1.5730097930286683e-13,4.562161735814276e-12,-0.5060911345683643,-0.46429468595022866,0.22400754489379604,-0.0005031234239735025,0.9998486439290432,0.012232352285435172,0.012361458556280394
2.0,-2.133447725647549,-1.8364590976630617,-2.1656724323966365,-0.7441565516779061,1.5786446151699698,-0.5637895154682915,0.10738694895487667,0.10809082808283091,-0.31415926535885325,0.20677604764526417,0.0036922917333584273,0.10734021273169514,-4.3070134806796336e-11,-4.33474698667242e-11,1.2596558421923307e-10,-8.292318291842953e-11,-1.480709218396079e-12,-4.3042401300803555e-11,-0.49291960202089546,-0.4568496982336717,0.218018406491856,-0.0005024631466848514,0.999848537423034,0.012235886254563276,0.012366601447897349
2.1,-2.122709030752057,-1.8256500148547743,-2.197088358932535,-0.723478946913371,1.579013844343306,-0.5530554941951175,0.10738694895492434,0.1080908280828789,-0.3141592653589927,0.20677604764535598,0.0036922917333600666,0.10734021273174278,4.562161735814276e-12,4.603761994803463e-12,-1.3367549888525718e-11,8.81925490570784e-12,1.5730097930286683e-13,4.562161735814276e-12,-0.47987444303796456,-0.4490260967216429,0.21214422129878283,-0.0005018159126042403,0.9998483955882639,0.012240954955175116,0.012373077311230494
2.2,-2.1119703358565647,-1.8148409320464864,-2.228504285468434,-0.7028013421488359,1.579383073516642,-0.5423214729219434,0.10738694895492434,0.1080908280828789,-0.3141592653589927,0.20677604764535598,0.0036922917333600666,0.10734021273174278,4.562161735814276e-12,4.603761994803463e-12,-1.3367549888525718e-11,8.81925490570784e-12,1.5730097930286683e-13,4.562161735814276e-12,-0.4669662448262997,-0.44082869574167116,0.20638801182379568,-0.000501181721587519,0.9998482184246071,0.012247587250472836,0.01238085362820138
2.3,-2.101231640961072,-1.8040318492381988,-2.2599202120043325,-0.6821237373843007,1.579752302689978,-0.5315874516487694,0.10738694895492434,0.1080908280828789,-0.3141592653589927,0.20677604764535598,0.0036922917333600666,0.10734021273174278,4.562161735814276e-12,4.603761994803463e-12,-1.3367549888525718e-11,8.81925490570784e-12,1.5730097930286683e-13,4.562161735814276e-12,-0.4542054653226376,-0.4322626189642053,0.20075272916586184,-0.0005005605734900669,0.9998480059319399,0.01225581148060974,0.012389897416342352
2.4,-2.09049294606558,-1.793222766429911,-2.2913361385402307,-0.6614461326197655,1.580121531863314,-0.5208534303755953,0.10738694895492439,0.10809082808287926,-0.3141592653589922,0.2067760476453559,0.0036922917333600683,0.10734021273174257,4.395760699857524e-12,4.423494205850316e-12,-1.2868346780655464e-11,8.486452833794335e-12,1.512342748669436e-13,4.395760699857524e-12,-0.44160242404026206,-0.4233332954890772,0.1952412517017892,-0.0004999524681651006,0.9998477581101394,0.012265655456062178,0.012400175236297266
2.5,-2.0797542511700877,-1.7824136836216236,-2.3227520650761293,-0.6407685278552304,1.58049076103665,-0.5101194091024213,0.10738694895492439,0.10809082808287926,-0.3141592653589922,0.2067760476453559,0.0036922917333600683,0.10734021273174257,4.395760699857524e-12,4.423494205850316e-12,-1.2868346780655464e-11,8.486452833794335e-12,1.512342748669436e-13,4.395760699857524e-12,-0.42916729303223095,-0.4140464556566401,0.18985638380768977,-0.0004993574054661711,0.9998474749590845,0.012277146451105732,0.012411653199412651
2.6,-2.0690155562745955,-1.7716046008133355,-2.3541679916120275,-0.6200909230906951,1.5808599902099858,-0.49938538782924724,0.10738694895492439,0.10809082808287926,-0.3141592653589922,0.2067760476453559,0.0036922917333600683,0.10734021273174257,4.395760699857524e-12,4.423494205850316e-12,-1.2868346780655464e-11,8.486452833794335e-12,1.512342748669436e-13,4.395760699857524e-12,-0.4169100879796612,-0.4044081265871708,0.18460085461437903,-0.0004987753852454023,0.9998471564786555,0.01229031119738878,0.012424296975413071
2.7,-2.0582768613791034,-1.760795518005048,-2.385583918147926,-0.5994133183261601,1.581229219383322,-0.4886513665560732,0.10738694895488587,0.1080908280828405,-0.3141592653588795,0.20677604764528174,0.003692291733358744,0.10734021273170408,-3.408447886512618e-11,-3.4306346913068417e-11,9.972968755003559e-11,-6.561747517891663e-11,-1.172173964226077e-12,-3.407061211212979e-11,-0.40484065941331415,-0.39442462745238166,0.17947731679722762,-0.000498206407353962,0.9998468026687339,0.012305175877615752,0.012438071800167873
2.8,-2.0480750592045847,-1.750526847037924,-2.41542917129717,-0.5797695128820528,1.5815799885428978,-0.478454004341046,0.09383048898603084,0.09444551086164804,-0.2744999999999973,0.1806727712257333,0.003226179179051605,0.09378965271386568,-0.17091163749908206,-0.17203189592463428,0.5000000000051625,-0.3290943009610166,-0.005876464807076433,-0.1708372544896774,-0.3935573998993743,-0.38462656233559134,0.17473453987661094,-0.0004976779565258397,0.9998464338236747,0.01232089530389695,0.0124521735308357
2.9,-2.039545626990541,-1.7419415077572658,-2.44038192565299,-0.5633458943786611,1.5818732565085183,-0.4699282842489265,0.07673932523629419,0.07724232126935815,-0.22449999999998535,0.14776334112996314,0.0026385326983498917,0.07670592726506986,-0.17091163750285032,-0.1720318959284159,0.5000000000161815,-0.32909430096825343,-0.005876464807205662,-0.17083725449344567,-0.38426648616445686,-0.376204427927814,0.1708640135891501,-0.0004972451684452455,0.9998461009696095,0.012335248801598413,0.012464700562574173
3.0,-2.0327253111514705,-1.735076487435836,-2.4603346800088106,-0.550213218884845,1.5821077598260682,-0.46311093670168596,0.05964816148658041,0.06003913167709126,-0.1745000000000403,0.11485391103423699,0.002050886217648964,0.059622201816296905,-0.17091163748389976,-0.17203189590934095,0.49999999996072586,-0.32909430093176223,-0.005876464806554281,-0.1708372544744951,-0.37693414195399483,-0.3693215873092967,0.16783203635135363,-0.0004969050217701023,0.9998458187757412,0.012347528522127853,0.012475187431951897
3.1,-2.0276141116873734,-1.7299317860736345,-2.475287434364632,-0.5403714864006048,1.582283498495548,-0.4580019616993245,0.042556997736836265,0.04283594208479381,-0.1245000000000064,0.08194448093845236,0.0014632397369469924,0.04253847636749359,-0.17091163749531382,-0.17203189592083182,0.49999999999410194,-0.32909430095375203,-0.0058764648069465535,-0.1708372544859091,-0.3714971989941987,-0.3640783553867466,0.16559693369313025,-0.00049665356156949,0.999845597955655,0.012357202502737316,0.012483314072989795
3.2,-2.0242120285982494,-1.726507403670662,-2.4852401887204527,-0.5338206969259413,1.5824004725169578,-0.4546013592418423,0.025465833987107153,0.0256327524925115,-0.0745000000000165,0.0490350508426967,0.000875593256245538,0.02545475091870531,-0.1709116374915989,-0.17203189591709162,0.49999999998323563,-0.3290943009465902,-0.0058764648068187104,-0.17083725448219425,-0.367906373978302,-0.3605483827183605,0.1641269714604432,-0.0004964878240189864,0.9998454465382215,0.012363866970171038,0.012488848232281198
3.3,-2.0225190618840987,-1.7248033402269178,-2.490192943076274,-0.5305608504608539,1.5824586818902973,-0.45290912932923927,0.008374670237370093,0.008429562900221182,-0.02450000000000333,0.016125620746925723,0.00028794677554381,0.008371025469909086,-0.17091163749643012,-0.17203189592195606,0.4999999999973771,-0.3290943009559005,-0.005876464806984895,-0.17083725448702017,-0.3661279531259382,-0.3587799493159612,0.16340079350380549,-0.0004964058363724042,0.9998453698675763,0.01236725077600601,0.012491638958058094
3.349055087,-2.0223134208675253,-1.7245963513145264,-2.4907945434692738,-0.5301648839392736,1.582465752457372,-0.45270357781036136,5.7137562828321665e-18,5.751207703408374e-18,-1.671552729380869e-17,1.1001969539788082e-17,1.9645641574555538e-19,5.711269580384246e-18,-0.17091163750788882,-0.17203189593349033,0.5000000000309026,-0.32909430097796283,-0.005876464807378928,-0.17083725449847592,-0.36591231800668217,-0.35856460838357634,0.16331282740799208,-0.0004963958995870525,0.9998453604947509,0.0123676648564768,0.012491979596138802
