mathias31415/primitives_from_planned_trajectory_python/data/saved_trajectories/trajectory_20250618_172226_executed.csv
timestamp,shoulder_lift_joint_pos,elbow_joint_pos,wrist_1_joint_pos,wrist_2_joint_pos,wrist_3_joint_pos,shoulder_pan_joint_pos,shoulder_lift_joint_vel,elbow_joint_vel,wrist_1_joint_vel,wrist_2_joint_vel,wrist_3_joint_vel,shoulder_pan_joint_vel,shoulder_lift_joint_eff,elbow_joint_eff,wrist_1_joint_eff,wrist_2_joint_eff,wrist_3_joint_eff,shoulder_pan_joint_eff
1750260153.527796,-1.7271,-2.2029999999999994,-0.8079999999999998,1.5951,-0.030999999999999694,-1.6006999999999998,0.0,0.0,0.0,0.0,0.0,0.0,3.621137313700035,3.121199266827123,0.30055339469883446,0.0020055341419326616,0.0,1.208170004274665e-16
1750260153.529221,-1.7271,-2.2029999999999994,-0.8079999999999998,1.5951,-0.030999999999999694,-1.6006999999999998,0.0,0.0,0.0,0.0,0.0,0.0,3.621137313700035,3.121199266827123,0.30055339469883446,0.0020055341419326616,0.0,1.208170004274665e-16
1750260153.5295613,-1.7271,-2.2029999999999994,-0.8079999999999998,1.5951,-0.030999999999999694,-1.6006999999999998,0.0,0.0,0.0,0.0,0.0,0.0,3.621137313700035,3.121199266827123,0.30055339469883446,0.0020055341419326616,0.0,1.208170004274665e-16
1750260153.5315201,-1.7271,-2.2029999999999994,-0.8079999999999998,1.5951,-0.030999999999999694,-1.6006999999999998,0.0,0.0,0.0,0.0,0.0,0.0,3.621137313700035,3.121199266827123,0.30055339469883446,0.0020055341419326616,0.0,1.208170004274665e-16
1750260153.5334852,-1.7271,-2.2029999999999994,-0.8079999999999998,1.5951,-0.030999999999999694,-1.6006999999999998,0.0,0.0,0.0,0.0,0.0,0.0,3.621137313700035,3.121199266827123,0.30055339469883446,0.0020055341419326616,0.0,1.208170004274665e-16
1750260153.535401,-1.7271,-2.2029999999999994,-0.8079999999999998,1.5951,-0.030999999999999694,-1.6006999999999998,0.0,0.0,0.0,0.0,0.0,0.0,3.621137313700035,3.121199266827123,0.30055339469883446,0.0020055341419326616,0.0,1.208170004274665e-16
1750260153.5372362,-1.7271,-2.2029999999999994,-0.8079999999999998,1.5951,-0.030999999999999694,-1.6006999999999998,0.0,0.0,0.0,0.0,0.0,0.0,3.621137313700035,3.121199266827123,0.30055339469883446,0.0020055341419326616,0.0,1.208170004274665e-16
1750260153.5393856,-1.7271,-2.2029999999999994,-0.8079999999999998,1.5951,-0.030999999999999694,-1.6006999999999998,0.0,0.0,0.0,0.0,0.0,0.0,3.621137313700035,3.121199266827123,0.30055339469883446,0.0020055341419326616,0.0,1.208170004274665e-16
1750260153.541314,-1.7271,-2.2029999999999994,-0.8079999999999998,1.5951,-0.030999999999999694,-1.6006999999999998,0.0,0.0,0.0,0.0,0.0,0.0,3.621137313700035,3.121199266827123,0.30055339469883446,0.0020055341419326616,0.0,1.208170004274665e-16
1750260153.5458198,-1.7271,-2.2029999999999994,-0.8079999999999998,1.5951,-0.030999999999999694,-1.6006999999999998,0.0,0.0,0.0,0.0,0.0,0.0,3.621137313700035,3.121199266827123,0.30055339469883446,0.0020055341419326616,0.0,1.208170004274665e-16
1750260153.5466993,-1.7271004316329952,-2.2029994839418325,-0.808000123203243,1.5950999577514609,-0.03100161750545727,-1.6007016175320548,-0.0004316339912345575,0.0005160595213203542,-0.00012320355793428778,-4.2248559594617144e-05,-0.0016175050512844081,-0.001617531650941155,3.5056135936326966,3.1785657597184525,0.29696588889551573,-0.003350780431935716,-0.04556564129871194,-0.5637533926392916
1750260153.547346,-1.7271017265439346,-2.202997935751073,-0.8080004928167464,1.5950998310055973,-0.031006470016957444,-1.6007064701233684,-0.0008632799366253568,0.0010321353039424459,-0.00024641088828115585,-8.449736554523277e-05,-0.0032350052310703118,-0.003235058449877729,3.5056188241624975,3.1785681035680002,0.29696576713593786,-0.003350803935737957,-0.04556550406709763,-0.5637525464054756
1750260153.5494013,-1.7271038847686802,-2.2029953553789356,-0.8080011088518262,1.5950996197616703,-0.031014557519885244,-1.6007145577593853,-0.001294949790055229,0.0015482436090670183,-0.00036962576362153,-0.00012674666418725455,-0.0048524956674072086,-0.004852575544362653,3.505626027108364,3.178573043275306,0.2969655472322286,-0.003350841274195744,-0.04556522959106127,-0.563750341331678
1750260153.551506,-1.727106906367002,-2.202991742744114,-0.8080019713273465,1.595099324018448,-0.031025879989882377,-1.6007258804158413,-0.001726655504855761,0.002064400697632569,-0.0004928519568397452,-0.0001689967018164503,-0.0064699714874751416,-0.006470078081068539,3.5056352030838904,3.178580578857135,0.2969652291753211,-0.0033508924465722877,-0.0455648178461102,-0.563746777245704
1750260153.5534546,-1.727110791422576,-2.202987097732782,-0.8080030802697147,1.5950989437742062,-0.031040437392841902,-1.600740438058768,-0.0021584090335317664,0.002580622830191326,-0.0006160932411306833,-0.00021124772460771724,-0.008087427817167692,-0.008087561205377507,3.505646352969796,3.1785907103375552,0.29696481295626853,-0.003350957449809833,-0.045564268796004476,-0.5637418538866152
1750260153.5553334,-1.7271155400429805,-2.2029814201985918,-0.8080044357128875,1.5950984790267286,-0.031058229684907346,-1.6007582306444839,-0.0025902223274768842,0.003096926266838414,-0.0007393533904162401,-0.00025349997873565515,-0.009704859780573321,-0.009705020060882233,3.50565947791453,3.1786034377581207,0.2969642985545331,-0.0033510362840654118,-0.04556358238989291,-0.5637355708726898
1750260153.5575297,-1.7271211523596959,-2.202974709962673,-0.8080060376983695,1.5950979297733066,-0.03107925681246826,-1.6007792581195925,-0.0030221073367282815,0.0036133272670327704,-0.0008626361792176214,-0.0002957537101584475,-0.011322262499636703,-0.011322449789014886,3.5056745793200355,3.1786187611538357,0.296963685952926,-0.0033511289434267366,-0.04556275856738466,-0.5637279277472719
1750260153.5594826,-1.7271276285281028,-2.2029669668136416,-0.808007886275214,1.5950972960107392,-0.031103518712155775,-1.60080352042098,-0.0034540760096595843,0.004129842089474538,-0.0009859453828985315,-0.00033800916474831835,-0.012939631093671283,-0.012939845528565901,3.505691658865117,3.1786366805681303,0.2969629751275763,-0.0033512354255226424,-0.0455617972543572,-0.5637189239407755
1750260153.5615656,-1.7271349687274746,-2.2029581905075943,-0.8080099815000281,1.595096577735335,-0.031131015310837284,-1.6008310174758051,-0.0038861402927068633,0.0046464869920410145,-0.00110928477790336,-0.00038026658820005077,-0.014556960678889223,-0.0145572024152522,3.505710718495456,3.1786571960634387,0.29696216604834763,-0.0033513557253112853,-0.045560698363446006,-0.5637085587860542
1750260153.5633707,-1.727143173160977,-2.202948380768115,-0.808012323436972,1.5950957749429102,-0.031161746525607548,-1.6008617492014947,-0.004318312130117286,0.005163278231600618,-0.0012326581417582694,-0.0004225262259884247,-0.016174246368048407,-0.016174515581301865,3.50573176041011,3.1786803076939285,0.2969612586845679,-0.0033514898365239105,-0.045559461797343305,-0.5636968315257567
1750260153.56555,-1.7271522420556593,-2.2029375372862727,-0.8080149121577609,1.5950948876287911,-0.03119571226378426,-1.600895715505736,-0.004750603463647892,0.0056802320639104216,-0.0013560692532233855,-0.0004647883234407007,-0.01779148326993925,-0.017791780154985604,3.50575478708445,3.1787060155272795,0.2969602530017833,-0.003351637754806858,-0.045558087444284044,-0.563683741293419
1750260153.5676248,-1.7271621756624551,-2.202925659720628,-0.8080177477416699,1.5950939157878132,-0.031232912422898274,-1.6009329162864692,-0.00518302623231217,0.006197364743504276,-0.001479521892570828,-0.0005070531255982397,-0.019408666488980795,-0.019408991260207117,3.505779801249701,3.1787343196369973,0.296959148957384,-0.003351799471856308,-0.045556575181125304,-0.5636692871331241
1750260153.5698855,-1.7271621756624551,-2.202925659720628,-0.8080177477416699,1.5950939157878132,-0.031232912422898274,-1.6009329162864692,-0.00518302623231217,0.006197364743504276,-0.001479521892570828,-0.0005070531255982397,-0.019408666488980795,-0.019408991260207117,3.505779801249701,3.1787343196369973,0.296959148957384,-0.003351799471856308,-0.045556575181125304,-0.5636692871331241
1750260153.5715525,-1.7271729742561694,-2.2029127476972317,-0.8080208302755372,1.5950928594143223,-0.03127334689068473,-1.6009733514318771,-0.005615592372077536,0.006714692523551671,-0.001603019841562849,-0.0005493208772196084,-0.021025791124793254,-0.02102614401605353,3.5058068059139,3.1787652201028043,0.29695794650985363,-0.003351974979349903,-0.04555492487268239,-0.5636534679870859
1750260153.5734909,-1.727184638135479,-2.202898800809632,-0.8080241598537654,1.595091718502175,-0.03131701554507238,-1.6010170208203762,-0.006048313815622084,0.007232231655750355,-0.0017265668837271322,-0.0005915918228579318,-0.0226428522717256,-0.022643233536348565,3.5058358043355926,3.1787987170115053,0.296956645609587,-0.003352164271078484,-0.0455531363704627,-0.5636362826946784
1750260153.5754,-1.7271971676229203,-2.202883818618874,-0.8080277365783246,1.5950904930447387,-0.03136391825417206,-1.601063924320604,-0.006481202492024525,0.007749998390180352,-0.0018501668043315511,-0.0006338662066594396,-0.024259845018471417,-0.02426025492924,3.5058668000541897,3.178834810454747,0.2969552462081653,-0.003352367335066818,-0.04555120951515257,-0.5636177300065691
1750260153.5774035,-1.7272105630648857,-2.202867800653504,-0.8080315605587591,1.5950891830348934,-0.031414054876267805,-1.6011140617914101,-0.006914270326517791,0.008268008975210201,-0.0019738233907536647,-0.0006761442725137515,-0.025876764447591016,-0.02587720329674127,3.505899796860461,3.1788735005338413,0.296953748246402,-0.003352584163504198,-0.045549144133975254,-0.5635978085664279
1750260153.5794492,-1.7272248248316124,-2.2028507464095757,-0.8080356319121904,1.5950877884650316,-0.03146742525980084,-1.6011674330818382,-0.007347529240189709,0.008786279657337708,-0.002097540432387704,-0.0007184262639104277,-0.027493605635070053,-0.027494073734303237,3.5059347988206904,3.1789147873523285,0.29695215166813255,-0.00335281474442856,-0.04554694004172058,-0.5635765169234791
1750260153.5814683,-1.7272399533171772,-2.2028326553506474,-0.8080399507633205,1.5950863093270586,-0.03152402924335984,-1.6012240380311198,-0.0077809911497276505,0.009304826681111076,-0.0022213217209687145,-0.0007607124240019742,-0.02911036364994047,-0.029110861330392198,3.5059718102584516,3.178958671027176,0.29695045640800105,-0.003353059067639898,-0.04554459704250051,-0.5635538535328064
1750260153.5835772,-1.7272559489394839,-2.2028135269077946,-0.8080445172444355,1.5950847456123947,-0.031583866655660486,-1.6012838764686528,-0.008214667967123874,0.009823666288949385,-0.002345171050608287,-0.000803002995483756,-0.0307270335537803,-0.030727561166029822,3.5060108357677455,3.1790051516719116,0.29694866239955336,-0.003353317119373134,-0.04554211492633577,-0.5635298167438247
1750260153.585638,-1.7272728121402556,-2.2027933604796086,-0.8080493314954147,1.5950830973119743,-0.03164693731553658,-1.6013469482139921,-0.008648571599413098,0.010342814721082857,-0.0024690922180436218,-0.0008452982206303683,-0.032343610400323484,-0.03234416831438846,3.506051880204812,3.17905422941883,0.29694676956966104,-0.003353588886904629,-0.04553949347225565,-0.563504404817738
1750260153.5874183,-1.7272905433850259,-2.2027721554322017,-0.8080543936637321,1.5950813644162485,-0.031713241031920525,-1.6014132530768297,-0.009082713948390614,0.01086228821536653,-0.0025930890226036635,-0.00088759834132042,-0.0339600892350084,-0.033960677840315964,3.506094948690442,3.1791059043955876,0.2969447778460338,-0.003353874358041416,-0.04553673244657187,-0.5634776159045525
1750260153.5894241,-1.727309143163125,-2.2027499110992155,-0.8080597039044646,1.5950795469151844,-0.03178277760382642,-1.6014827908569762,-0.009517106910323286,0.011382103007195055,-0.002717165266542206,-0.000929903598928548,-0.03557646509452443,-0.03557708479993661,3.5061400466172614,3.1791601767433244,0.2969426871471358,-0.003354173517522852,-0.04553383160282188,-0.5634494480689461
1750260153.5913293,-1.7273286119876694,-2.2027266267818195,-0.8080652623802944,1.5950776447982675,-0.03185554682033409,-1.60155556134435,-0.009951762375695578,0.011902275329377442,-0.0028413247550634828,-0.0009722142343042454,-0.03719273300644862,-0.03719338424022289,3.5061871796341118,3.179217046609376,0.2969404973908072,-0.0033544863494239627,-0.04553079068430852,-0.5634198992793493
1750260153.5933213,-1.7273489503955526,-2.202702301748724,-0.8080710692615201,1.5950756580545018,-0.031931548460566006,-1.60163156431895,-0.010386692228927743,0.012422821411983018,-0.002965571296485741,-0.0010145304877604347,-0.03880888798872127,-0.0388095711985287,3.5062363536543693,3.1792765141415815,0.29693820849006636,-0.0033548128373347757,-0.04552760941956161,-0.5633889673953574
1750260153.5954125,-1.727370158947429,-2.2026769352361804,-0.808077124726057,1.595073586672411,-0.03201078229367482,-1.6017107995508413,-0.010821908348076375,0.012943757482248252,-0.003089908702383116,-0.0010568525991508663,-0.04042492504927795,-0.04042564070217591,3.5062875748682316,3.1793385795025753,0.296935820354501,-0.00335515296702746,-0.04552428752674429,-0.5633566501866218
1750260153.5979009,-1.7273922382277034,-2.2026505264479876,-0.8080834289594492,1.5950714306400404,-0.032093248078814085,-1.601793266800133,-0.01125742260458438,0.013465099764448154,-0.003214340787818754,-0.0010991808076571846,-0.04204083918561334,-0.04204158776803698,3.506340849718646,3.1794032428577186,0.29693333288671325,-0.0033555067181608254,-0.04552082471173382,-0.5633229453299375
1750260153.6019738,-1.7274151888445157,-2.2026230745555004,-0.8080899821548737,1.5950691899449567,-0.032178945565125794,-1.601878965816959,-0.011693246862992312,0.013986864479749901,-0.003338871371319177,-0.001141515351936175,-0.04365662538430661,-0.043657407402077,3.5063961849179144,3.179470504377077,0.29693074599034663,-0.0033558740744544973,-0.04551722066703627,-0.5632878503965967
1750260153.6024864,-1.7274390114297287,-2.2025945786976333,-0.8080967845131477,1.5950668645742503,-0.0322678744917102,-1.60196789634145,-0.012129392980661936,0.014509067846113983,-0.00346350427517125,-0.0011838564699970034,-0.04527227862062912,-0.0452730945989278,3.5064535874430467,3.1795403642414493,0.2969280595606676,-0.003356255016061963,-0.04551347507410703,-0.5632513628623268
1750260153.603563,-1.7274637066389111,-2.2025650379808717,-0.8081038362427382,1.595064454514536,-0.03236003458760894,-1.602060058103719,-0.01256587280749548,0.015031726078144361,-0.0035882433254360168,-0.0012262043992107613,-0.04688779385813799,-0.04688864434149032,3.506513064538049,3.179612822633399,0.2969252734926373,-0.0033566495234182377,-0.04550958760295284,-0.5632134801185813
1750260153.6054573,-1.727489275151326,-2.20253445147927,-0.8081111375597674,1.5950619597519549,-0.032455425571778385,-1.6021554508238278,-0.013002698185666435,0.015554855386996446,-0.003713092352191997,-0.0012685593762816632,-0.048503166048175804,-0.048504051600453964,3.5065746237074724,3.1796878797492054,0.29692238767451457,-0.003357057575930609,-0.04550555790948551,-0.5631741994411685
1750260153.6075451,-1.7275157176699114,-2.2025028182344677,-0.8081186886880207,1.5950593802721749,-0.03255404715306298,-1.6022540742117704,-0.013439880949326303,0.016078471980219666,-0.0038380551896987805,-0.0013109216372617376,-0.05011839012948954,-0.05011931133391142,3.5066382727268546,3.1797655357840533,0.29691940198974137,-0.0033574791534646074,-0.045501385638882764,-0.5631335180265994
1750260153.6094139,-1.7275430349212648,-2.2024701372556903,-0.8081264898589584,1.595056716060393,-0.03265589903017396,-1.6023559279674435,-0.013877432924346969,0.01660259206164512,-0.0039631356763577845,-0.0013532914173848836,-0.05173346102783603,-0.05173441848691957,3.50670401962947,3.1798457909437805,0.2969163163232755,-0.0033579142310435073,-0.04549707042520824,-0.5630914329701228
1750260153.611516,-1.7275712276556279,-2.2024364075197624,-0.8081345413117207,1.5950539671013362,-0.03276098089166091,-1.602461011780619,-0.014315365928028144,0.017127231831263107,-0.00408833765511954,-0.001395668951272101,-0.05334837365546101,-0.05334936799104389,3.5067718727168073,3.179928645440034,0.2969131305482805,-0.003358362789405844,-0.04549261188785027,-0.5630479412620402
1750260153.6133792,-1.7275712276556279,-2.2024364075197624,-0.8081345413117207,1.5950539671013362,-0.03276098089166091,-1.602461011780619,-0.014315365928028144,0.017127231831263107,-0.00408833765511954,-0.001395668951272101,-0.05334837365546101,-0.05334936799104389,3.5067718727168073,3.179928645440034,0.2969131305482805,-0.003358362789405844,-0.04549261188785027,-0.5630479412620402
1750260153.6153204,-1.7276002966468678,-2.202401627971109,-0.8081428432931386,1.595051133379263,-0.032869292415881546,-1.6025693253309203,-0.014753691768825438,0.0176524074851054,-0.0042136649734014755,-0.0014380544727003797,-0.05496312291076607,-0.05496415476398074,3.506841840555904,3.1800140994939836,0.2969098445407619,-0.003358824802739693,-0.045488009636814146,-0.5630030398137886
1750260153.6175263,-1.7276302426924612,-2.2023657975217708,-0.8081513960577418,1.595048214877965,-0.03298083327097867,-1.6026808682877896,-0.01519242224605847,0.01817813521507456,-0.004339121483323227,-0.0014804482147246225,-0.056577703677829994,-0.05657877370908187,3.5069139319798794,3.1801021533238423,0.29690645816966205,-0.0033593002485150427,-0.04548326326862231,-0.5629567254249916
1750260153.6194525,-1.7276610666134697,-2.2023289150514067,-0.8081601998677712,1.595045211580769,-0.03309560311484727,-1.6027956403104637,-0.015631569149648746,0.01870443120889496,-0.004464711041892933,-0.0015228504095297613,-0.05819211082599967,-0.05819321971497792,3.506988156084177,3.1801928071697176,0.29690297129924287,-0.003359789100026811,-0.04547837236827209,-0.562908994815582
1750260153.6225376,-1.7276927692545305,-2.2022909794073033,-0.8081692549931834,1.5950421234705374,-0.03321360159510611,-1.6029136410479392,-0.016071144259848492,0.01923131164992783,-0.004590437511099644,-0.001565261288498497,-0.05980633920947129,-0.05980748765511074,3.5070645222217687,3.1802860612657433,0.29689938379070013,-0.0033602913323208168,-0.04547333650896372,-0.5628598445957608
1750260153.6235132,-1.7277253514838282,-2.202251989404389,-0.8081785617116672,1.5950389505296716,-0.033334828349068424,-1.6030348701389459,-0.016511159346916344,0.01975879271703604,-0.004716304758008705,-0.0016076810821760857,-0.061420383666854664,-0.06142157238734096,3.507143040030599,3.180381915853171,0.2968956955029872,-0.003360806919439051,-0.04546815525162379,-0.5628092712935943
1750260153.6254716,-1.727758814193077,-2.202211943825235,-0.8081881203086487,1.5950356927401124,-0.03345928300370549,-1.6031593272119125,-0.016951626170897367,0.020286890584542118,-0.004842316655070329,-0.0016501100201673164,-0.06303423902077186,-0.06303546875351372,3.5072237193899882,3.180480371194243,0.2968919062864207,-0.003361335832377966,-0.04546282814587229,-0.5627572713351168
1750260153.6275878,-1.7277931582975024,-2.2021708414200702,-0.8081979310773058,1.595032350083342,-0.03358696517561999,-1.6032870118849338,-0.01739255648130487,0.020815621421962343,-0.004968477079950468,-0.0016925483312428494,-0.06464790007741607,-0.06464917157903229,3.507306570455967,3.180581427531506,0.2968880159957331,-0.0033618780450841474,-0.045457354728902395,-0.5627038410539832
1750260153.6293747,-1.727828384735819,-2.2021286809067906,-0.8082079943185763,1.5950289225403866,-0.0337178744710096,-1.6034179237657407,-0.017833962016850755,0.021345001394032104,-0.005094789916112693,-0.001734996243219037,-0.06626136162615034,-0.06626267567245303,3.507391603649176,3.1806850851434634,0.29688402446984136,-0.003362433528035498,-0.045451734526604136,-0.5626489766926313
1750260153.6316864,-1.7278644944702055,-2.202085460970965,-0.8082183103411706,1.5950254100918173,-0.03385201048563413,-1.603552062451663,-0.018275854505157074,0.021875046660473702,-0.005221259052577076,-0.0017774539829204282,-0.06787461843905722,-0.06787597582505582,3.507478829655917,3.180791344295929,0.29687993155434395,-0.003363002250539084,-0.04544596705217889,-0.5625926743979254
1750260153.6334562,-1.7279014884862853,-2.2020411802658497,-0.8082288794615833,1.5950218127177525,-0.033989372804779094,-1.6036894275295959,-0.01871824566250131,0.022405773375914175,-0.0053478883843015,-0.0018199217762597116,-0.06948766527056432,-0.0694890668104177,3.507568259415951,3.180900205267689,0.2968757370838916,-0.0033635841840917577,-0.04544005180828311,-0.5625349302193594
1750260153.6354616,-1.7279393677931045,-2.2019958374123956,-0.808239702004105,1.59501813039786,-0.03412996100322019,-1.6038300185759642,-0.0191611471935079,0.022937197689734786,-0.005474681812156343,-0.0018623998481138316,-0.07110049685699178,-0.07110194338401003,3.5076599041462013,3.181011668342065,0.29687144089426787,-0.003364179296613306,-0.04543398828482197,-0.5624757401194488
1750260153.6373696,-1.727978133423104,-2.201949430999262,-0.8082507783008337,1.5950143631113585,-0.03427377464518955,-1.6039738351566823,-0.019604570790874114,0.02346933574596306,-0.005601643243231809,-0.0019048884223517167,-0.07271310791613737,-0.07271460028276922,3.507753775324348,3.181125733811567,0.29686704281246257,-0.003364787556708463,-0.045427775960015175,-0.5624150999628675
1750260153.6393788,-1.7280177864320994,-2.201901959582824,-0.8082621086916886,1.5950105108370205,-0.03442081328433311,-1.6041208768271238,-0.020048528135106238,0.024002203683138167,-0.0057287765908222085,-0.0019473877217612084,-0.07432549314690885,-0.07432703222470974,3.507849884686698,3.1812424019738703,0.29686254266606255,-0.003365408930893198,-0.04542141430172474,-0.5623530055314191
1750260153.641459,-1.7280583278992552,-2.2018534216871863,-0.8082736935244217,1.5950065735531735,-0.03457107646367774,-1.6042711431320766,-0.020493030894209882,0.02453581763418259,-0.005856085774733529,-0.001989897968124886,-0.07593764722883022,-0.07593923390845586,3.507948244243268,3.181361673134234,0.2968579402739937,-0.0033660433876347108,-0.045414902763903725,-0.5622894524962192
1750260153.643425,-1.7280997589270566,-2.201803815804194,-0.8082855331546295,1.5950025512377028,-0.03472456371558952,-1.6044246336057055,-0.02093809072343582,0.02507019372628299,-0.005983574721334531,-0.002032419382065753,-0.07754956482168976,-0.07755120001288333,3.5080488662592204,3.1814835476048455,0.29685323545380754,-0.0033666908910598994,-0.045408240790591005,-0.5622244364549446
1750260153.6457047,-1.728142080641291,-2.20175314039344,-0.8082976279457705,1.5949984438680538,-0.034881274561731956,-1.6045813477715143,-0.021383719264989397,0.025605348080745497,-0.006111247363674821,-0.002074952183120039,-0.07916124056514051,-0.07916292519668332,3.508151763266441,3.1816080257020714,0.2968484280197737,-0.0033673514072372086,-0.045401427814570045,-0.5621579529056263
1750260153.6475322,-1.728185294191011,-2.201701393882285,-0.8083099782691745,1.5949942514212334,-0.0350412085130305,-1.6047412851423042,-0.02182992814772521,0.02614129681285891,-0.006239107641667738,-0.002117496589662653,-0.08077266907822583,-0.0807744040979502,3.5082569480702586,3.1817351077480236,0.29684351778111295,-0.003368024900027157,-0.04539446325525936,-0.5620899972551685
1750260153.6494944,-1.7282294007485195,-2.201648574665864,-0.8083225845040589,1.5949899738738134,-0.035204365069623655,-1.6049044452201304,-0.022276728986914088,0.026678056031802413,-0.006367159502265133,-0.0021600528189586092,-0.08238384495900913,-0.08238563133375884,3.50836443371994,3.1818647940768363,0.2968385045420612,-0.0033687113346508794,-0.04538734652164715,-0.562020564812812
1750260153.6513915,-1.7282744015093314,-2.201594681107098,-0.8083354470375408,1.5949856112019318,-0.03537074372082927,-1.6050708274962595,-0.022724133383907125,0.027215641840513487,-0.0064954068996189935,-0.0022026210869891243,-0.0839947627841605,-0.08399660149979753,3.5084742335528323,3.181997085030743,0.2968333881027353,-0.003369410671391713,-0.04538007701107631,-0.5619496508133165
1750260153.6565888,-1.7282744015093314,-2.201594681107098,-0.8083354470375408,1.5949856112019318,-0.03537074372082927,-1.6050708274962595,-0.022724133383907125,0.027215641840513487,-0.0064954068996189935,-0.0022026210869891243,-0.0839947627841605,-0.08399660149979753,3.5084742335528323,3.181997085030743,0.2968333881027353,-0.003369410671391713,-0.04538007701107631,-0.5619496508133165
1750260153.6574,-1.7284147813144113,-2.2014265375230435,-0.8083755764195812,1.5949720121944542,-0.035889206971981835,-1.6055893022644394,-0.024070083720988646,0.028833519737767474,-0.006881361963560756,-0.0023304002655396786,-0.08882591336327413,-0.0888279152063303,3.5088176553239743,3.1824095890879565,0.2968174175408501,-0.0033715857216885577,-0.04535734562215622,-0.5617279703445351
1750260153.65944,-1.728463371306944,-2.2013683295803297,-0.8083894681771717,1.5949673087775302,-0.03606846867675895,-1.6057685680291973,-0.0245200180750365,0.02937457280498562,-0.007010431197150331,-0.002373018824248927,-0.09043574429065881,-0.09043780260757175,3.50893685039333,3.1825523020323803,0.29681188623522975,-0.0033723362867444187,-0.045349458749622054,-0.5616510805460425
1750260153.661601,-1.7285128618276095,-2.201309038627153,-0.8084036182879828,1.5949625201104236,-0.036250949758807494,-1.605951053285252,-0.02497061377536539,0.02991653287817381,-0.007139715850548069,-0.002415650483155467,-0.09204528971073715,-0.09204740558203178,3.5090584302317267,3.1826976213943055,0.2968062506723873,-0.0033730995577801438,-0.04534141591650082,-0.5615726839651191
1750260153.6634371,-1.7285632542106173,-2.2012486628334376,-0.8084180271868542,1.5949576461667252,-0.036436649641556684,-1.6061367574582137,-0.025421882334037072,0.030459416019947366,-0.0072692199237581025,-0.0024582954506895175,-0.09365454406332531,-0.0936567185883987,3.509182409732166,3.182845547536936,0.29680051063437973,-0.003373875494936232,-0.045333216451202085,-0.5614927752848413
1750260153.6653874,-1.728614549813182,-2.2011872003369906,-0.8084326953166299,1.5949526869196105,-0.03662556773729264,-1.606325679962584,-0.025873835247212505,0.0310032382858084,-0.007398947425132824,-0.002500953933827956,-0.09526350176403865,-0.0952657360611325,3.509308804076833,3.1829960808565096,0.2967946658894697,-0.0033746640530727774,-0.045324859671981285,-0.5614113491069709
1750260153.6676435,-1.7286667500154964,-2.2011246492435124,-0.8084476231281839,1.5949476423418423,-0.036817703447106886,-1.6065178202017094,-0.026326483994899265,0.03154801572395645,-0.007528902371332546,-0.002543626138266438,-0.09687215720387543,-0.09687445241005296,3.509437628695658,3.183149221742845,0.2967887162066395,-0.0033754651918542866,-0.04531634488536634,-0.5613283999406937
1750260153.6694493,-1.7287198562206942,-2.2010610076266186,-0.8084628110804282,1.5949425124057737,-0.037013056160845714,-1.6067131775677321,-0.026779840040646544,0.03209376437514,-0.007659088787441648,-0.002586312268213073,-0.09848050474885388,-0.09848286201996127,3.509568899290543,3.1833049705895853,0.29678266135170694,-0.003376278865022634,-0.045307671387662285,-0.5612439222146273
1750260153.6713684,-1.7287198562206942,-2.2010610076266186,-0.8084628110804282,1.5949425124057737,-0.037013056160845714,-1.6067131775677321,-0.026779840040646544,0.03209376437514,-0.007659088787441648,-0.002586312268213073,-0.09848050474885388,-0.09848286201996127,3.509568899290543,3.1833049705895853,0.29678266135170694,-0.003376278865022634,-0.045307671387662285,-0.5612439222146273
1750260153.6732445,-1.7287738698548223,-2.2009962735278474,-0.8084782596403359,1.5949372970833504,-0.03721162525706667,-1.6069117514415368,-0.027233914831287422,0.032640500272571926,-0.007789510707187694,-0.002629012526511371,-0.10008853873954146,-0.10009095925021465,3.5097026318156535,3.1834633278060442,0.2967765010844736,-0.0033771050296746217,-0.0452988384619123,-0.5611579102579877
1750260153.6759114,-1.7288287923668033,-2.200930444956681,-0.8084939692829547,1.5949319963461144,-0.03741341010297816,-1.607113541192703,-0.02768871979662401,0.03318823944176388,-0.007920172173061107,-0.0026717271144981463,-0.10169625349075667,-0.10169873843437163,3.5098388425007605,3.1836242938016044,0.2967702351613666,-0.003377943638871576,-0.045289845382759875,-0.561070358328425
1750260153.6776276,-1.7288846252284005,-2.2008635198905537,-0.8085099404914269,1.594926610165206,-0.03761841005439592,-1.6073185461794495,-0.028144266349152184,0.03373699790042564,-0.00805107723654225,-0.002714456232072153,-0.1033036432911171,-0.10330619387976002,3.5099775478339543,3.1837878689988988,0.29676386333255567,-0.0033787946474535644,-0.04528069141211714,-0.5609812605821156
1750260153.6797397,-1.728941369934188,-2.2007954962748792,-0.8085261737570058,1.5949211385113675,-0.03782662445568441,-1.6075267657485837,-0.02860056588379367,0.03428679165826841,-0.008182229958020404,-0.0027572000775902255,-0.10491070240267418,-0.10491331986712868,3.5101187645583494,3.18395405381284,0.29675738535018037,-0.00337965800732761,-0.04527137580160641,-0.5608906111048378
1750260153.681492,-1.7289990280015086,-2.2007263720230537,-0.8085426695790767,1.5949155813549458,-0.03803805263970439,-1.607738199235449,-0.029057629777569104,0.03483763671697167,-0.00831363440724241,-0.0027999588479417875,-0.10651742506049815,-0.10652011065021585,3.510262509698898,3.1841228486880184,0.29675080095455775,-0.0033805336723355525,-0.04526189779115913,-0.5607984038811828
1750260153.6834233,-1.7290576009704441,-2.200656145016481,-0.8085594284651725,1.5949099386658956,-0.038252693927762316,-1.607952845963867,-0.029515469389363457,0.03538954906995641,-0.008445294663219078,-0.0028427327384372043,-0.10812380547231698,-0.1081265604553855,3.510408800518779,3.1842942540529977,0.2967441098877708,-0.003381421593119014,-0.045252256610534815,-0.5607046328189337
1750260153.685323,-1.729117090403773,-2.2005848131045873,-0.8085764509309934,1.5949042104137827,-0.03847054762955082,-1.608170705246085,-0.029974096059588565,0.03594254470232538,-0.008577214814567729,-0.002885521942772575,-0.10972983781813327,-0.10973266348125404,3.5105576545682964,3.184468270360598,0.2967373118830732,-0.0033823217192626926,-0.045242451478700145,-0.5606092917459556
1750260153.6872053,-1.729177497886936,-2.200512374104834,-0.8085937375004262,1.594898396567787,-0.038691613043092765,-1.60839177638272,-0.030433521109939538,0.03649663959068174,-0.008709398959462789,-0.0029283266531281555,-0.11133551624981759,-0.11133841389827515,3.5107090896397763,3.184644898059452,0.29673040667472916,-0.00338323400300536,-0.0452324816031677,-0.560512374394266
1750260153.6891868,-1.729238825028001,-2.200438825802742,-0.8086112887055652,1.5948924970967058,-0.03891588945468971,-1.608616058662701,-0.03089375584308214,0.037051849703008025,-0.008841851205940571,-0.0029711470600258406,-0.11294083489076673,-0.11294380584837468,3.510863123798887,3.1848241376071966,0.2967233939884737,-0.003384158392481356,-0.04522234618182111,-0.560413874418662
1750260153.691269,-1.72930107345762,-2.2003641659518998,-0.8086291050867294,1.5948865119689566,-0.039143376138858876,-1.6088435513632113,-0.03135481154236214,0.03760819099855331,-0.008974575671953134,-0.003013983352300913,-0.11454578783545938,-0.1145488334445824,3.5110197753771484,3.185005989474006,0.29671627354900315,-0.0033850948349681484,-0.04521204440002843,-0.5603137853946538
1750260153.6933196,-1.7293642448289912,-2.2002883922739915,-0.8086471871924843,1.5948804411525814,-0.039374072358278056,-1.6090742537496325,-0.031816699471539166,0.03816567942767411,-0.009107576485623025,-0.003056835717216276,-0.11615036914914117,-0.1161534907706222,3.5111790629559194,3.1851904541291467,0.29670904507323925,-0.0033860432808499527,-0.0452015754342851,-0.5602121008038651
1750260153.6953623,-1.7294283408178224,-2.2002115024588065,-0.8086655355796628,1.594874284615249,-0.03960797736372612,-1.6093081650754835,-0.032279430874484843,0.038724330931713805,-0.009240857785227125,-0.0030997043402429523,-0.11775457286741493,-0.11775777188056728,3.5113410053876057,3.18537753205377,0.2967017082791924,-0.0033870036742431127,-0.0451909384495431,-0.5601088140567279
1750260153.6973875,-1.7294933631222875,-2.20013349416426,-0.8086841508133817,1.5948680423242592,-0.03984509039402262,-1.609545284582361,-0.032743016974888774,0.039284161442861246,-0.009374423719502221,-0.0031425894051993796,-0.11935839299588055,-0.11936167079843871,3.511505621786715,3.1855672237333628,0.29669426287598166,-0.003387975963095993,-0.045180132600610795,-0.5600039184730022
1750260153.6994526,-1.729559313462989,-2.200054365016415,-0.8087030334670695,1.5948617142465455,-0.04008541067596738,-1.6097856114998788,-0.03320746897598776,0.03984518688401556,-0.009508278447715235,-0.0031854910941313944,-0.12096182350976813,-0.12096518151785345,3.511672931523124,3.185759529659406,0.2966867085707838,-0.003388960091905409,-0.04516915703196104,-0.5598974072979486
1750260153.7013133,-1.7296261935829147,-2.1999741126094943,-0.8087221841224821,1.5948553003486796,-0.0403289374242819,-1.6100291450456092,-0.03367279806025777,0.04040742316866913,-0.009642426139810123,-0.003228409587368116,-0.1225648583535144,-0.12256829800163806,3.5118429542372662,3.185954450335844,0.29667904506705334,-0.0033899560066434115,-0.04515801087613454,-0.5597892736909107
1750260153.7032256,-1.729694005247394,-2.199892734505908,-0.8087416033697252,1.5948488005968742,-0.04057566984154448,-1.6102758844250173,-0.03413901538913139,0.04097088620074506,-0.009776870976630077,-0.0032713450633937583,-0.12416749144047504,-0.12417101418146392,3.5120157098265046,3.1861519862658016,0.29667127206154076,-0.0033909636495566943,-0.04514669325756814,-0.5596795107326045
1750260153.70858,-1.7297627502440616,-2.199810228236263,-0.8087612918072793,1.5948422149569865,-0.040825607118128104,-1.6105258288314,-0.034606132102733715,0.04153559187450214,-0.009911617149973875,-0.003314297698902119,-0.125769716652509,-0.12577332395748753,3.5121912184417474,3.1863521379679285,0.2966633892498342,-0.003391982964386097,-0.045135203288988804,-0.5595681114253372
1750260153.70982,-1.7297627502440616,-2.199810228236263,-0.8087612918072793,1.5948422149569865,-0.040825607118128104,-1.6105258288314,-0.034606132102733715,0.04153559187450214,-0.009911617149973875,-0.003314297698902119,-0.125769716652509,-0.12577332395748753,3.5121912184417474,3.1863521379679285,0.2966633892498342,-0.003391982964386097,-0.045135203288988804,-0.5595681114253372
1750260153.7101767,-1.729903047495739,-2.1996418211623654,-0.8088014786892321,1.5948287858746397,-0.041335092949348784,-1.6110353294370592,-0.035543108136135176,0.0426687946746982,-0.010182030329234964,-0.003400255146033325,-0.12897291881955147,-0.12897669973892295,3.512550576717679,3.1867602907624413,0.2966472929652689,-0.003394056379846321,-0.04511170270159901,-0.5593403753671086
1750260153.7115073,-1.729903047495739,-2.1996418211623654,-0.8088014786892321,1.5948287858746397,-0.041335092949348784,-1.6110353294370592,-0.035543108136135176,0.0426687946746982,-0.010182030329234964,-0.003400255146033325,-0.12897291881955147,-0.12897669973892295,3.512550576717679,3.1867602907624413,0.2966472929652689,-0.003394056379846321,-0.04511170270159901,-0.5593403753671086
1750260153.7135758,-1.7299746034371353,-2.1995559152605164,-0.808821978372654,1.5948219423621526,-0.041594639823135715,-1.6112948839615164,-0.03601298962690513,0.0432373235399611,-0.010317705775096211,-0.0034432603017593975,-0.13057388337753903,-0.13057775338374655,3.512734467996062,3.1869682929213385,0.2966390788592301,-0.0033951103623261463,-0.04509969025683557,-0.5592240242217775
1750260153.7154539,-1.7300471000833983,-2.1994688709974595,-0.8088427497244766,1.5948150128215342,-0.04185738819441287,-1.611557640163178,-0.0364838148437291,0.04380715852424365,-0.010453699437642532,-0.0034862833051836446,-0.1321744152658645,-0.13217837590286544,3.5129211955576243,3.187178912974139,0.29663075368198494,-0.0033961757816519493,-0.045087501812537,-0.5591060079406623
1750260153.7175646,-1.7301205393330141,-2.199380685745111,-0.8088637933853811,1.5948079972169218,-0.04212333719156636,-1.6118235971735357,-0.036955594815728535,0.04437831547129698,-0.010590015565879516,-0.003529324323588634,-0.13377450820347916,-0.1337785610333828,3.5131107808576596,3.187392151467647,0.29662231710797277,-0.0033972525771905657,-0.04507513642906427,-0.5589863191346603
1750260153.7193189,-1.7301949231065024,-2.1992913568437107,-0.8088851100045575,1.5948008955121196,-0.04239248593038436,-1.6120927541115222,-0.03742834054893481,0.04495081021435128,-0.010726658420674951,-0.003572383522328704,-0.1353741558757158,-0.1353783024787009,3.513303245628006,3.1876080089558863,0.29661376880750046,-0.0033983406882034323,-0.04506259315937182,-0.5588649503312163
1750260153.7214012,-1.7302702533463732,-2.1992008816018416,-0.8089067002397305,1.5947937076706034,-0.04266483351399408,-1.6123651100834406,-0.03790206302603338,0.04552465857602011,-0.010863632275019726,-0.003615461064723746,-0.13697335193390303,-0.13697759390819617,3.513498611847641,3.187826486005489,0.29660510844342536,-0.0033994400509116725,-0.04504987104555273,-0.5587418939899996
1750260153.7232406,-1.7303465320170757,-2.1991092572964526,-0.8089285647571804,1.594786433655524,-0.04294037903278891,-1.6126406641829014,-0.038376773206044254,0.046099876368126166,-0.011000941414087178,-0.00365855711212753,-0.1385720899950187,-0.1385764289568562,3.513696901766532,3.188047583184568,0.2965963356770585,-0.0034005506033740634,-0.045036969119933844,-0.5586171424923824
1750260153.725265,-1.7304237611049569,-2.1990164811728814,-0.8089507042317745,1.5947790734297118,-0.04321912156436447,-1.6129194154907491,-0.03885248202405343,0.04667647939154204,-0.011138590135287434,-0.003701671823890582,-0.14017036364132807,-0.14017480122491324,3.5138981378839578,3.188271301063323,0.29658745016802174,-0.0034016722824633493,-0.04502388640465182,-0.5584906881379222
1750260153.7272456,-1.7305019426182051,-2.1989225504448715,-0.8089731193469829,1.5947716269556806,-0.04350106017344313,-1.6132013630749915,-0.03932920039089525,0.04725448343613873,-0.011276582748701016,-0.0037448053572912503,-0.14176816642006307,-0.14177270427752284,3.5141023429730494,3.188497640236899,0.2965784515642577,-0.003402805023064346,-0.045010621912804645,-0.5583625231602599
1750260153.729256,-1.7305810785868108,-2.1988274622946022,-0.8089958107949116,1.5947640941956316,-0.04378619391180827,-1.6134865059907355,-0.0398069391929021,0.04783390428053524,-0.011414923576882416,-0.0037879578674930034,-0.1433654918430708,-0.1433701316444301,3.5143095400460687,3.188726601282673,0.2965693395185072,-0.003403948758791969,-0.04499717464759069,-0.5582326397235011
1750260153.7312596,-1.7306611710625086,-2.198731213872705,-0.8090187792763235,1.5947564751114574,-0.044074521818229684,-1.6137748432801091,-0.04028570929155558,0.048414757692055006,-0.011553616955289744,-0.003831129507643202,-0.14496233338643172,-0.14496707681957177,3.514519752400204,3.188958184808583,0.2965601136723722,-0.0034051034258497943,-0.04498354360145293,-0.5581010298987195
1750260153.7334573,-1.7307422221187334,-2.1986338022982856,-0.8090420255006654,1.5947487696647469,-0.04436604291839519,-1.614066373972192,-0.04076552152324571,0.04899705942652664,-0.011692667232258052,-0.0038743204287193943,-0.14655868449019815,-0.14656353326079335,3.5147330035696505,3.1891923914133455,0.2965507736675131,-0.003406268956120883,-0.04496972775946619,-0.557967685704137
1750260153.735502,-1.7307422221187334,-2.1986338022982856,-0.8090420255006654,1.5947487696647469,-0.04436604291839519,-1.614066373972192,-0.04076552152324571,0.04899705942652664,-0.011692667232258052,-0.0038743204287193943,-0.14655868449019815,-0.14656353326079335,3.5147330035696505,3.1891923914133455,0.2965507736675131,-0.003406268956120883,-0.04496972775946619,-0.557967685704137
1750260153.7374227,-1.7308242338505648,-2.1985352246589525,-0.8090655501860926,1.5947409778167891,-0.04466075622483423,-1.614361097082945,-0.04124638669894909,0.049580825228185126,-0.011832078769321533,-0.003917530779535285,-0.14815453855800775,-0.14815949438949647,3.5149493173605526,3.1894292217123095,0.29654131913687565,-0.0034074452815346322,-0.044955726095817806,-0.5578325990807508
1750260153.7392924,-1.7309072083746821,-2.198435478010839,-0.8090893540594983,1.5947330995285776,-0.04495866073684862,-1.6146590116151316,-0.04172831560395246,0.05016607082946639,-0.011971855941086776,-0.00396076070683515,-0.1497498889567262,-0.14975495359027072,3.5151687178288413,3.1896686763154896,0.29653174971681895,-0.00340863233654916,-0.044941537574629355,-0.5576957618869302
1750260153.7412899,-1.7309911478293074,-2.1983345593786208,-0.8091134378565386,1.5947251347608145,-0.045259755440436145,-1.6149601165582528,-0.042211318997543844,0.05075281195099434,-0.012112003135777082,-0.004004010355021986,-0.15134472901617446,-0.15134990421062972,3.515391229301183,3.1899107558644957,0.2965220650289547,-0.0034098300479509422,-0.0449271611523394,-0.5575571659331121
1750260153.7432685,-1.731076054374154,-2.1982324657555488,-0.8091378023216578,1.5947170834739153,-0.04556403930821595,-1.6152644108884617,-0.042695407612731294,0.05134106430128876,-0.012252524754980471,-0.0040472798664162426,-0.15293905202875585,-0.1529443395605915,3.515616876350566,3.1901554609786236,0.2965122647013093,-0.0034110383496042665,-0.04491259577488035,-0.5574168029298762
1750260153.7453272,-1.7311619301903773,-2.1981291941034655,-0.8091624482081183,1.5947089456280132,-0.045871511299356627,-1.6155718935684975,-0.04318059215595109,0.05193084357672593,-0.012393425214055407,-0.004090569381019282,-0.15453285124915547,-0.15453825291243675,3.515845683813059,3.1904027923029283,0.2965023483509274,-0.0034122571687549494,-0.04489784037971817,-0.5572746645473571
1750260153.7474735,-1.7312487774805163,-2.1980247413528353,-0.8091873762780262,1.5947007211829638,-0.04618217035949623,-1.6158825635476033,-0.043666883306758955,0.05252216546136807,-0.012534708942246377,-0.004133879036623838,-0.15612611989397226,-0.15613163750031903,3.5160776767862645,3.190652750485458,0.29649231559159733,-0.0034134864355527127,-0.04488289389395297,-0.5571307423647053
1750260153.7492895,-1.7313365984684452,-2.197919104402766,-0.8092125873023619,1.594692410098349,-0.04649601542066861,-1.6161964197614545,-0.044154291717560225,0.053115045626825515,-0.012676380382757875,-0.004177208968687142,-0.15771885114147993,-0.15772448651998766,3.516312880617326,3.1909053361806436,0.29648216603501243,-0.003414726076558377,-0.044867755237951085,-0.5569850279083944
1750260153.751283,-1.7314253953993113,-2.1978122801210347,-0.8092380820610039,1.5946840123334824,-0.04681304540122522,-1.6165134611320768,-0.04464282801328357,0.05370949973209588,-0.012818443992901718,-0.0042205593103969595,-0.15931103813119152,-0.15931679312842947,3.5165513209229182,3.1911605500484748,0.29647189928888423,-0.0034159760200345567,-0.04485242331981146,-0.556837512625036
1750260153.753418,-1.7315151705394864,-2.197704265344113,-0.8092638613427603,1.5946755278474136,-0.04713325920575606,-1.616833686567773,-0.04513250279113218,0.05430554342346211,-0.01296090424441096,-0.004263930192603001,-0.16090267396365254,-0.16090855044358,3.5167930235589284,3.19141839276018,0.29646151495175566,-0.0034172361922775985,-0.04483689704180685,-0.5566881879028609
1750260153.7553992,-1.7316059261765098,-2.1975950568771943,-0.8092899259453992,1.5946669565989327,-0.047456655725016006,-1.6171570949630416,-0.04562332662025293,0.05490319233431843,-0.013103765623381409,-0.004307321743746117,-0.16249375170007652,-0.16249975154400165,3.517038014654066,3.1916788649915375,0.2964510126243048,-0.0034185065174565685,-0.044821175295941755,-0.5565370450628264
1750260153.7572806,-1.7316976646190296,-2.1974846514942152,-0.8093162766756725,1.5946582985465751,-0.047783233835841266,-1.6174836851984988,-0.04611531004144609,0.055502462085046056,-0.013247032630549152,-0.004350734089973851,-0.16408426436199322,-0.16409038946854954,3.5172863205913547,3.1919419674285967,0.2964403918993259,-0.0034197869228989927,-0.044805256964312284,-0.5563840753524388
1750260153.7631264,-1.731790388196746,-2.197373045937889,-0.80934291434935,1.594649553648627,-0.048112992401069477,-1.6178134561407989,-0.04660846356688108,0.056103368282851895,-0.01339070978143476,-0.0043941673549688,-0.16567420493102142,-0.16568045721609234,3.5175379680059007,3.192207700759193,0.29642965236530067,-0.0034210773310264977,-0.04478914092261251,-0.5562292699652076
1750260153.7635257,-1.7319788001814942,-2.197146221120054,-0.8093970538352551,1.594631803147881,-0.04878204627563054,-1.6184825355422472,-0.0475983228342698,0.057310152381887976,-0.013679312650932555,-0.004481097123863237,-0.16885234151529,-0.16885885397379533,3.5180513950820607,3.1927470629078063,0.29640781521083687,-0.0034236878490041802,-0.0447563111640224,-0.5559141165926953
1750260153.7653365,-1.7320744933526715,-2.1970309951880695,-0.8094245573243715,1.5946227974604497,-0.04912133923993345,-1.6188218416641664,-0.04809504945474941,0.05791606143044001,-0.013824247475689123,-0.004524593862957836,-0.17044052329124354,-0.17044716877893437,3.5183132293011092,3.193020693144289,0.29639671674758866,-0.0034250078040992003,-0.044739595152851724,-0.5557537506642838
1750260153.7673416,-1.732171181187221,-2.196914555741838,-0.8094523511107283,1.5946137047581699,-0.0494638079684151,-1.619164323818305,-0.048592987935957316,0.05852366922044672,-0.013969610656753737,-0.004568111991117706,-0.1720281044951664,-0.1720348849964374,3.51857851409884,3.193296957116378,0.29638549779025136,-0.003426337451281639,-0.044722676844501694,-0.5555915131800515
1750260153.7695174,-1.7322688661192327,-2.1967968993683336,-0.8094804360556296,1.5946045249981518,-0.04980945125271852,-1.6195099808002906,-0.049092148642486726,0.05913299129116144,-0.014115406785660521,-0.004611651619644737,-0.17361507790438488,-0.1736219954206299,3.518847277391233,3.1935758555505096,0.2963741579090267,-0.003427676710201757,-0.04470555507109699,-0.5554273950165395
1750260153.7714772,-1.7322688661192327,-2.1967968993683336,-0.8094804360556296,1.5946045249981518,-0.04980945125271852,-1.6195099808002906,-0.049092148642486726,0.05913299129116144,-0.014115406785660521,-0.004611651619644737,-0.17361507790438488,-0.1736219954206299,3.518847277391233,3.1935758555505096,0.2963741579090267,-0.003427676710201757,-0.04470555507109699,-0.5554273950165395
1750260153.7733896,-1.732367550603497,-2.196678022623469,-0.8095088130295744,1.5945952581372853,-0.05015826786999433,-1.6198588113912944,-0.049592541908528597,0.05974404316780652,-0.014261640469619795,-0.004655212857338099,-0.17520143625446025,-0.17520849280401987,3.519119547347248,3.1938573891810202,0.29636269666762066,-0.0034290255016036055,-0.04468822865610222,-0.5552613869825449
1750260153.775416,-1.7324672371154426,-2.1965579220321176,-0.809537482912293,1.5945859041322454,-0.05051025658282615,-1.6202108143579537,-0.050094178037581163,0.060356840361459406,-0.014408316331703367,-0.004698795810450674,-0.1767871722389391,-0.1767943698570366,3.5193953523904415,3.194141558755566,0.29635111362472855,-0.0034303837449731096,-0.04467069641595148,-0.555093479836888
1750260153.7772238,-1.732567928151072,-2.196436594088147,-0.809566446592779,1.5945764629394974,-0.05086541613914175,-1.6205659884522818,-0.05059706730214674,0.06097139836887374,-0.014555439010923286,-0.004742400582573011,-0.17837227850904072,-0.1783796192477301,3.519674721200543,3.194428365023064,0.296339408336752,-0.00343175135636119,-0.04465295715826916,-0.5549236642751859
1750260153.7792964,-1.7326696262269028,-2.196314035254444,-0.8095957049693183,1.5945669345153017,-0.05122374527212603,-1.6209243324115876,-0.051101219943459605,0.06158773267234551,-0.014703013162386647,-0.004786027274716631,-0.17995674767336844,-0.17996423360149505,3.519957682701886,3.194717808740965,0.29632758035565837,-0.0034331282541309456,-0.04463500968255183,-0.5547519309371324
1750260153.782408,-1.732772333879904,-2.196190241962948,-0.8096252589495236,1.5945573188157196,-0.051585242700142864,-1.6212858449583862,-0.05160664617115839,0.06220585873957334,-0.014851043457541901,-0.004829675985305481,-0.1815405722976411,-0.1815482055007665,3.5202442660852635,3.1950098906770417,0.2963156292266718,-0.003434514356252636,-0.04461685278072787,-0.5545782703976171
1750260153.7835104,-1.7328760536674315,-2.196065210614675,-0.809655109450369,1.5945476157966179,-0.05194990712663916,-1.621650524800315,-0.05211335616301396,0.06282579202352291,-0.014999534584231285,-0.0048733468099959815,-0.1831237449044382,-0.1831315274847836,3.5205345007871465,3.1953046116078374,0.29630355449364565,-0.003435909575577706,-0.04459848523755009,-0.5544026731887829
1750260153.7853663,-1.732980788167163,-2.1959389375797507,-0.8096852573982174,1.5945378254136748,-0.052317737240068496,-1.6220183706300464,-0.05262136006463057,0.06344754796224411,-0.015148491246817893,-0.004917039841879824,-0.18470625797288281,-0.184714192049266,3.5208284164953363,3.1956019723105453,0.2962913556966292,-0.0034373138305355522,-0.04457990582883523,-0.5542251297706101
1750260153.7874,-1.7330865399770392,-2.1958114191974403,-0.8097157037288607,1.5945279476223853,-0.052688731713796955,-1.6223893811252008,-0.053130667989151066,0.06407114197875992,-0.015297918166468536,-0.0049607551712676085,-0.1862881039383885,-0.18629619164618125,3.521126043151808,3.1959019735758356,0.29627903236777814,-0.0034387270333898993,-0.04456111332327203,-0.5540456305613038
1750260153.7894247,-1.7331933117151896,-2.1956826517761776,-0.8097464493875464,1.5945179823780662,-0.053062889206016095,-1.6227635549482589,-0.05364129001694483,0.06469658948092347,-0.01544782008122471,-0.005004492885757578,-0.18786927519238603,-0.18787751868345362,3.5214274109581374,3.1962046162053186,0.2962665840376507,-0.003440149098218506,-0.04454210648185262,-0.553864165917378
1750260153.7914367,-1.7333011060198746,-2.195552631593597,-0.8097774953290182,1.5945079296358622,-0.05344020835965768,-1.6231408907464715,-0.054153236195352096,0.06532390586123253,-0.015598201746071783,-0.0050482530701926025,-0.18944976408210104,-0.18945816552470535,3.5217325503494274,3.1965099009977727,0.2962540102343087,-0.0034415799378023555,-0.04452288405930295,-0.5536807261438207
1750260153.7933502,-1.7334099255494149,-2.1954213548965624,-0.8098088425175458,1.5944977893507508,-0.05382068780230398,-1.623521387151774,-0.05466651653834822,0.06595310649673572,-0.015749067933270793,-0.0050920358066320155,-0.19102956291021336,-0.19103812448900337,3.522041492031293,3.196817828772333,0.29624131047700586,-0.0034430194640493435,-0.04450344480075303,-0.5534953014967694
1750260153.795333,-1.7335197729821257,-2.195288817901199,-0.8098404919269591,1.5944875614775482,-0.05420432614609716,-1.6239050427806934,-0.05518114102627237,0.06658420674884026,-0.0159004234323684,-0.005135841174401639,-0.1926086639346589,-0.1926173878505681,3.5223542669479633,3.1971284003463945,0.2962284842843993,-0.003444467590125271,-0.04448378744575249,-0.5533078821691354
1750260153.7974424,-1.7336306510162487,-2.195155016792925,-0.8098724445406873,1.5944772459709147,-0.05459112198764959,-1.6242918562342616,-0.05569711960552163,0.06721722196319602,-0.016052273050443655,-0.005179669249937829,-0.19418705936834998,-0.19419594783856275,3.522670906301141,3.1974416165511474,0.2962155311684003,-0.0034459242247686078,-0.044463910725973145,-0.5531184583189187
1750260153.7994602,-1.7337425623698834,-2.1950199477264842,-0.8099047013517895,1.5944668427853608,-0.054981073907955924,-1.6246818260979223,-0.056214462188276915,0.06785216746951504,-0.016204621612064443,-0.0052235201068216025,-0.19576474137895863,-0.19577379663681171,3.5229914415327515,3.19775747821966,0.29620245064209105,-0.0034473892775274714,-0.044443813366979806,-0.5529270200434491
1750260153.8014665,-1.7337425623698834,-2.1950199477264842,-0.8099047013517895,1.5944668427853608,-0.054981073907955924,-1.6246818260979223,-0.056214462188276915,0.06785216746951504,-0.016204621612064443,-0.0052235201068216025,-0.19576474137895863,-0.19577379663681171,3.5229914415327515,3.19775747821966,0.29620245064209105,-0.0034473892775274714,-0.044443813366979806,-0.5529270200434491
1750260153.8033864,-1.7338555097809225,-2.194883606825976,-0.8099372633629924,1.5944563518752526,-0.05537418047229892,-1.6250749509414426,-0.056733178652183865,0.06848905858147994,-0.016357473959788062,-0.005267393815825957,-0.19734170208859805,-0.19735092638355495,3.523315904345214,3.19807598620348,0.2961892422045205,-0.0034488626592198133,-0.04442349408536624,-0.5527335573923831
1750260153.805406,-1.733969496006976,-2.19474599018489,-0.8099701315867263,1.5944457731948174,-0.05577044023016153,-1.6254712293188183,-0.05725327884005855,0.06912791059652657,-0.01651083495394673,-0.005311290444825225,-0.19891793357364773,-0.19892732917119813,3.5236443266894897,3.198397141350332,0.29617590536087773,-0.003450344277973625,-0.04440295159279929,-0.5525380603663632
1750260153.8074548,-1.7340845238253042,-2.194607093866134,-0.8100033070451582,1.59443510669815,-0.05616985171513189,-1.6258706597681858,-0.05777477255962156,0.06976873879575421,-0.016664709473010193,-0.005355210058720483,-0.2004934278644767,-0.20050299704609853,3.5239767407550993,3.1987209445248306,0.2961624396060307,-0.0034518340397705137,-0.04438218459314856,-0.5523405189270884
1750260153.8115373,-1.7342005960327507,-2.1944669139020734,-0.8100367907702317,1.5944243523392179,-0.05657241344481356,-1.6262732408117282,-0.058297669583188244,0.0704115584437398,-0.01681910241369396,-0.005399152719564297,-0.20206817694521587,-0.20207792200827931,3.5243131789838817,3.199047396593491,0.29614884443170647,-0.0034533318539424563,-0.04436119178387312,-0.5521409229741312
1750260153.8119493,-1.7342005960327507,-2.1944669139020734,-0.8100367907702317,1.5944243523392179,-0.05657241344481356,-1.6262732408117282,-0.058297669583188244,0.0704115584437398,-0.01681910241369396,-0.005399152719564297,-0.20206817694521587,-0.20207792200827931,3.5243131789838817,3.199047396593491,0.29614884443170647,-0.0034533318539424563,-0.04436119178387312,-0.5521409229741312
1750260153.813426,-1.7343177154456653,-2.1943254462945605,-0.8100705838037037,1.5944135100718677,-0.056978123920732315,-1.626678970955581,-0.05882197964735246,0.07105638478840985,-0.01697401869108376,-0.005443118486405477,-0.20364217275350124,-0.20365209601122589,3.5246536740774728,3.199376498436752,0.2961351193265872,-0.0034548376253770645,-0.044339971855194116,-0.5519392623729495
1750260153.8153293,-1.7344358848998356,-2.194182687014967,-0.8101046871971764,1.594402579849831,-0.057386981628241074,-1.6270878486897384,-0.05934771245273319,0.07170323306089368,-0.017129463238788663,-0.005487107415308517,-0.20521540718026846,-0.20522551096165398,3.524998258967538,3.199708250941242,0.2961212637747186,-0.003456351259427935,-0.04431852349154791,-0.5517355269431635
1750260153.8173354,-1.7345551072504142,-2.1940386320042222,-0.8101391020121405,1.5943915616267297,-0.05779898503642933,-1.6274998724879666,-0.05987487766365839,0.07235211847534757,-0.01728544100910287,-0.0055311195593478095,-0.20678787206955226,-0.20679815871927626,3.525346966841007,3.2000426549970418,0.2961072772555188,-0.0034578726611789335,-0.044296845371722265,-0.5515297064599104
1750260153.8193152,-1.7346753853718457,-2.1938932771728403,-0.810173829320008,1.5943804553560832,-0.058214132598026325,-1.6279150408076966,-0.06040348490787541,0.07300305622884365,-0.017441956973145024,-0.005575154968601944,-0.20835955921817162,-0.20837003109654642,3.525699831130839,3.200379711511921,0.2960931592449029,-0.0034594017353769754,-0.04427493616563197,-0.5513217906433626
1750260153.821307,-1.734796722157796,-2.1937466184009597,-0.810208870202155,1.5943692609913136,-0.05863242274930869,-1.6283333520899435,-0.06093354377626195,0.07365606150119616,-0.01759901612105031,-0.005619213690032258,-0.2099304603755989,-0.2099411198585107,3.526056885514846,3.2007194213941466,0.2960789092129649,-0.003460938383399051,-0.0442527945395086,-0.5511117691982426
1750260153.8232093,-1.7349191205210701,-2.1935986515383803,-0.8102442257499538,1.5943579784857522,-0.05905385391000362,-1.6287548047592004,-0.061465063822515376,0.07431114945480528,-0.017756623462039066,-0.005663295767613325,-0.21150056724371577,-0.21151141672250187,3.52641816392191,3.201061785562773,0.2960645266282188,-0.0034624825100251105,-0.0442304191527073,-0.550899631756996
1750260153.8252072,-1.7350425833935494,-2.19344937240459,-0.8102798970648166,1.5943466077926451,-0.059478424483194736,-1.6291793972233481,-0.06199805456290505,0.07496833523455997,-0.017914784024680136,-0.005707401242183761,-0.21306987147654846,-0.2130809133579964,3.5267837005102765,3.201406804951986,0.29605001095161626,-0.0034640340158674943,-0.044207808657123614,-0.5506853679352999
1750260153.8271935,-1.7351671137261047,-2.193298776788806,-0.8103158852582322,1.5943351488651603,-0.05990613285522439,-1.6296071278735615,-0.06253252547591487,0.07562763396759901,-0.01807350285685328,-0.005751530151479236,-0.21463836468016634,-0.21464960138637013,3.5271535297071153,3.201754480490759,0.29603536164528654,-0.0034655928022985015,-0.04418496170179837,-0.5504689673007267
1750260153.8292367,-1.735292714488529,-2.1931468604500104,-0.8103521914518019,1.5943236016563929,-0.060336977395602176,-1.6300379950842059,-0.06306848600202715,0.07628906076325498,-0.01823278502616565,-0.005795682530099289,-0.21620603841234617,-0.21621747238068312,3.5275276861529705,3.202104813130964,0.2960205781593637,-0.0034671587696297663,-0.04416187692631278,-0.5502504193757314
1750260153.831208,-1.7354193886694569,-2.192993619116983,-0.8103888167772855,1.5943119661193725,-0.060770956456900116,-1.6304719972127453,-0.06360594554336474,0.07695263071282604,-0.018392635619790015,-0.005839858409457119,-0.21777288418250904,-0.21778451786551584,3.527906204760411,3.2024578038218374,0.29600565994898353,-0.003468731816742836,-0.044138552968471675,-0.5500297136626457
1750260153.833208,-1.7355471392762887,-2.1928390484883407,-0.8104257623766351,1.594300242207069,-0.061208068374665636,-1.6309091325996459,-0.06414491346343763,0.07761835888946947,-0.018553059744837147,-0.005884057817873608,-0.21933889345137833,-0.21935072931672456,3.5282891206675426,3.2028134535276385,0.29599060645847636,-0.0034703118449944006,-0.04411498845644548,-0.5498068396094241
1750260153.836218,-1.735675969335114,-2.1926831442325705,-0.8104630294020367,1.5942884298723983,-0.06164831146731409,-1.6313493995682755,-0.06468539908684456,0.07828626034806732,-0.018714062528496885,-0.0059282807803932224,-0.22090405763090143,-0.22091609816127242,3.528676469259787,3.203171763225179,0.2959754171284448,-0.0034718987504566575,-0.044091182016198,-0.5495817866377294
1750260153.8377209,-1.73580588189063,-2.192525901988069,-0.8105006190159525,1.59427652906823,-0.06209168403603904,-1.631792796424807,-0.06522741169897522,0.0789563501250221,-0.018875649118043562,-0.005972527318833791,-0.2224683680839947,-0.22248061577703912,3.5290682861660034,3.2035327338897397,0.29596009139917373,-0.0034734924305317282,-0.044067132266509663,-0.549354544136408
1750260153.8393476,-1.7359368800060668,-2.1923673173631784,-0.810538532391158,1.5942645397473931,-0.06253818436470926,-1.6322393214581181,-0.0657709605457414,0.07962864323814577,-0.019037824681096285,-0.006016797451805886,-0.22403181612439046,-0.22404427349262065,3.5294646072477898,3.2038963665124496,0.2959446287036178,-0.0034750927830472676,-0.044042837821850284,-0.549125101455074
1750260153.841469,-1.7360689667631073,-2.192207385936225,-0.8105767707107843,1.5942524618626828,-0.06298781071977189,-1.6326889729396976,-0.06631605483325785,0.08030315468648766,-0.019200594405701325,-0.0060610911946873715,-0.22559439301643927,-0.22560706258715135,3.529865468619837,3.204262662090957,0.2959290284726069,-0.003476699705021812,-0.04401829729111924,-0.5488934479141054
1750260153.8433785,-1.7362021452618048,-2.1920461032555547,-0.81061533516836,1.5942402953668664,-0.06344056135015386,-1.6331417491235403,-0.06686270372757537,0.08097989945021657,-0.019363963500564265,-0.006105408559466048,-0.22715608997492118,-0.2271689742901305,3.530270906628371,3.204631621637197,0.29591329013039924,-0.003478313088901849,-0.0439935092778996,-0.5486595728032176
1750260153.8453338,-1.7363364186205068,-2.191883464839573,-0.8106542269678529,1.594228040212691,-0.06389643448716065,-1.6335976482460515,-0.06741091635438826,0.08165889249043372,-0.01952793719512172,-0.006149749554924247,-0.22871689816489518,-0.2287299997812341,3.530680957859139,3.2050032461652807,0.2958974130990832,-0.003479932832276455,-0.04396847238153329,-0.548423465378255
1750260153.8472865,-1.7364717899757682,-2.1917194661767807,-0.8106934473237075,1.5942156963528893,-0.06435542834437857,-1.634056668525945,-0.06796070179873945,0.0823401487490296,-0.01969252073963979,-0.006194114186433385,-0.23027680870149755,-0.2302901301901577,3.5310956591408056,3.2053775367010413,0.2958813967982204,-0.003481558826808159,-0.04394318519568041,-0.5481851148704817
1750260153.8493907,-1.7366082624822772,-2.1915541027258154,-0.8107329974608914,1.5942032637401864,-0.06481754111757532,-1.6345188081641444,-0.06851206910474883,0.08302368314854745,-0.01985771940553626,-0.0062385024560869876,-0.23183581264982417,-0.23184935659643424,3.531515047532172,3.2057544942803764,0.29586524063795255,-0.0034831909678251197,-0.04391764631068757,-0.5479445104771802
1750260153.8514214,-1.736745839312765,-2.19138736991549,-0.8107728786149382,1.594190742327307,-0.0652827709845969,-1.6349840653436827,-0.0690650272753004,0.08370951059202009,-0.020023538485352727,-0.006282914362585018,-0.2333939010247003,-0.23340767002927923,3.531939160341792,3.2061341199491573,0.2958489440296908,-0.00348482914727519,-0.04389185431041531,-0.5477016413720366
1750260153.8533263,-1.7368845236579293,-2.191219263144829,-0.8108130920319843,1.5941781320669812,-0.06575111610526907,-1.6354524382295992,-0.06961958527179214,0.08439764596281,-0.02018998329288321,-0.006327349901191998,-0.23495106479058991,-0.23496506146743457,3.5323680350990365,3.206516414758629,0.29583250638085673,-0.003486473255823473,-0.04386580777616842,-0.5474564967025597
1750260153.8554044,-1.7368845236579293,-2.191219263144829,-0.8108130920319843,1.5941781320669812,-0.06575111610526907,-1.6354524382295992,-0.06961958527179214,0.08439764596281,-0.02018998329288321,-0.006327349901191998,-0.23495106479058991,-0.23496506146743457,3.5323680350990365,3.206516414758629,0.29583250638085673,-0.003486473255823473,-0.04386580777616842,-0.5474564967025597
1750260153.8575249,-1.73702431872635,-2.1910497777831104,-0.8108536389688181,1.5941654329119528,-0.06622257462129699,-1.635923924968842,-0.07017575201381812,0.08508810412450656,-0.02035705916362047,-0.0063718090637856694,-0.23650729486141664,-0.23652152183901312,3.5328017095834414,3.2069013797794144,0.29581592708645094,-0.0034881231854250925,-0.043839505284211176,-0.5472090655913374
1750260153.8595173,-1.7371652277444012,-2.190878909169907,-0.8108945206929183,1.5941526448149843,-0.06669714465616128,-1.636398523690164,-0.07073353637889354,0.08578089992068852,-0.020524771454421924,-0.006416291838848427,-0.23806258210035877,-0.23807704202132696,3.533240221804387,3.207289016077019,0.29579920555096045,-0.003489778827638022,-0.04381294540502937,-0.5469593371300304
1750260153.8646696,-1.737307253956172,-2.1907066526151224,-0.8109357384825007,1.5941397677288656,-0.06717482431501942,-1.6368762325040205,-0.07129294720218447,0.08647604817485921,-0.020693125544064845,-0.006460798211345953,-0.23961691731981902,-0.2396316128407732,3.5336836100018627,3.207679324740519,0.2957823411630987,-0.0034914400705422046,-0.04378612670825927,-0.5467073003971313
1750260153.865132,-1.737450400623378,-2.1905330033990333,-0.8109772936265607,1.5941268016064196,-0.06765561168460277,-1.6373570495024694,-0.07185399327620406,0.08717356369024318,-0.020862126833190883,-0.006505328162803397,-0.24117029128118092,-0.2411852250726762,3.5341319126571165,3.2080723068605743,0.29576533331323634,-0.00349310680425328,-0.043759047756674024,-0.5464529444450078
1750260153.8657427,-1.7375946710252776,-2.1903579567723312,-0.8110191874249146,1.5941137464005097,-0.06813950483311348,-1.6378409727590695,-0.07241668335054663,0.08787346124963911,-0.021031780744445786,-0.006549881671229001,-0.24272269469470434,-0.24273786944114906,3.534585168477453,3.208467963537717,0.29574818138771475,-0.003494778916607121,-0.04373170711010274,-0.5461962583041593
1750260153.867359,-1.737740068458585,-2.1901815079561633,-0.8110614211882492,1.594100602064047,-0.06862650181012331,-1.6383280003287748,-0.07298102613158926,0.08857575561527384,-0.021202092722653137,-0.0065944587111540125,-0.24427411821941197,-0.24428953661894753,3.535043416409404,3.208866295884603,0.29573088476813214,-0.0034964562964472598,-0.04370410332517866,-0.5459372309812361
1750260153.869322,-1.7378865962373844,-2.190003652142172,-0.8111039962381614,1.5940873685499968,-0.0691166006464714,-1.6388181302478335,-0.07354703028222587,0.08928046152868538,-0.021373068235054585,-0.00663905925349932,-0.24582455246295715,-0.24584021722737462,3.5355066956264554,3.2092673050291607,0.29571344282930373,-0.0034981388287981404,-0.04367623495480952,-0.5456758514751746
1750260153.8713088,-1.738034257693041,-2.1898243844925362,-0.811146913907205,1.5940740458113862,-0.06960979935415956,-1.6393113605336858,-0.07411470442157324,0.08998759371052185,-0.021544712771314506,-0.006683683265714172,-0.247373987981465,-0.24738990183611873,3.5359750455363983,3.20967099210109,0.2956958549458512,-0.0034998264024500795,-0.04364810054742995,-0.5454121087553078
1750260153.873369,-1.7381830561741145,-2.1896437001400173,-0.8111901755389361,1.5940606338013112,-0.07010609592625183,-1.6398076891848579,-0.07468405712470201,0.0906971668603847,-0.02171703184366012,-0.006728330711618679,-0.24892241527944176,-0.2489385809631562,3.5364485057729302,3.210077358237945,0.2956781204882883,-0.0035015189016568606,-0.04361969864891716,-0.5451459917822101
1750260153.8752964,-1.738332995046271,-2.1894615941879962,-0.8112337824879594,1.5940471324729437,-0.07060548833676705,-1.640307114180862,-0.07525509692235506,0.0914091956567364,-0.021890030987111054,-0.006773001551401126,-0.25046982480968705,-0.25048624507464257,3.5369271162028046,3.210486404600264,0.2956602388210944,-0.00350321621051237,-0.043591027802681794,-0.5448774895028048
1750260153.877281,-1.738484077692192,-2.189278061710521,-0.8112777361199708,1.5940335417795386,-0.07110797454058027,-1.6408096334820899,-0.07582783230066086,0.09212369475668512,-0.022063715759552793,-0.0068176957417368745,-0.252016206973097,-0.2520328845847579,3.5374109169211487,3.210898132346398,0.2956422093062842,-0.0035049182162946936,-0.043562086546584014,-0.5446065908355513
1750260153.879316,-1.7386363075114888,-2.189093097752343,-0.811322037811804,1.5940198616744412,-0.07161355247331525,-1.641315245029709,-0.07640227170087201,0.09284067879587678,-0.022238091741895356,-0.0068624132355653246,-0.2535615521186693,-0.25357848985565556,3.537899948247703,3.211312542652853,0.2956240313016212,-0.003506624799956475,-0.04353287341862795,-0.5443332847043383
1750260153.8813982,-1.7387896879206082,-2.188906697328968,-0.8113666889514803,1.5940060921110946,-0.07212222005124236,-1.6418239467455606,-0.07697842351907258,0.09356016238830682,-0.02241316453819782,-0.006907153982202096,-0.2551058505433123,-0.255123051197326,3.5383942507335693,3.211729636700076,0.2956057041611891,-0.003508335845465631,-0.04350338695143982,-0.5440575600101192
1750260153.8837163,-1.7389442223527452,-2.1887188554266928,-0.8114116909382512,1.5939922330430467,-0.07263397517117198,-1.6423357365320514,-0.07755629610591029,0.09428216012622881,-0.02258893977593429,-0.006951917927327891,-0.2566490924917876,-0.2566665588674973,3.5388938651546686,3.2121494156911807,0.29558722723185105,-0.0035100512363650726,-0.04347362567602954,-0.543779405641136
1750260153.8855972,-1.739099914257749,-2.188529567002652,-0.811457045182645,1.5939782844239583,-0.07314881571035414,-1.6428506122720545,-0.07813589776631998,0.09500668657990215,-0.022765423105788985,-0.006996705012830062,-0.25819126815662674,-0.25820900307157657,3.5393988325117616,3.2125718808199104,0.29556859986593415,-0.003511770851663038,-0.04344358812106106,-0.5434988104896944
1750260153.8875496,-1.7392567671020327,-2.1883388269848636,-0.8115027531065175,1.5939642462076096,-0.07366673952637104,-1.6433685718287965,-0.078717236759256,0.09573375629753461,-0.02294262020219123,-0.007041515177001746,-0.25973236767801,-0.25975037396250206,3.539909194027318,3.2129970333089988,0.2955498214007945,-0.0035134945757975067,-0.043413272811778654,-0.5432157634168403
1750260153.8895078,-1.739414784368484,-2.1881466302722687,-0.8115488161430964,1.5939501183479081,-0.07418774445703047,-1.6438896130457632,-0.0793003212974191,0.09646338380511303,-0.02312053676325301,-0.007086348354279923,-0.2612723811437293,-0.26129066164074005,3.5404249911507444,3.213424874388479,0.29553089117572556,-0.0035152222858337075,-0.04338267827238776,-0.5429302533052669
1750260153.8914437,-1.739573969556365,-2.1879529717347808,-0.8115952357370286,1.5939359007988965,-0.07471182832026635,-1.6444137337465845,-0.0798851595469623,0.09719558360620162,-0.02329917851088797,-0.0071312044754286525,-0.26281129858905505,-0.26282985615411725,3.540946265558957,3.2138554052912185,0.2955118085264582,-0.0035169538637364775,-0.043351803023339755,-0.5426422690010713
1750260153.8933783,-1.7397343261812264,-2.1877578462133265,-0.8116420133444278,1.593921593514759,-0.07523898891402947,-1.6449409317349346,-0.08047175962725933,0.09793037018183058,-0.023478551190962954,-0.007176083467427103,-0.26434910999671485,-0.2643679474978139,3.5414730591376533,3.2142886272663755,0.29549257278441726,-0.0035186891883468778,-0.04332064558448683,-0.542351799367869
1750260153.895341,-1.73989585777481,-2.1875612485198968,-0.8116891504329269,1.5939071964498306,-0.07576922401618269,-1.6454712047944255,-0.08106012961061151,0.09866775799034586,-0.023658660573505727,-0.00722098525343093,-0.26588580529681777,-0.2659049256142717,3.5420054140025368,3.214724541575633,0.2954731832752528,-0.0035204281372404798,-0.04328920447354843,-0.5420588332578322
1750260153.8973508,-1.7400585678849554,-2.1873631734375856,-0.8117366484817197,1.5938927095586028,-0.07630253138439791,-1.6460045506885015,-0.08165027752196972,0.09940776146725545,-0.02383951245276467,-0.007265909752839896,-0.2674213743667249,-0.26744078039311553,3.54254337249367,3.2151631494931037,0.2954536393231534,-0.003522170589783325,-0.04325747820459648,-0.5417633595159497
1750260153.8993733,-1.7402224600755023,-2.1871636157206407,-0.8117845089816136,1.5938781327957332,-0.07683890875604682,-1.6465409671603322,-0.08224221133869028,0.1001503950250644,-0.02402111264734552,-0.007310856881140115,-0.2689558070311035,-0.2689755016711237,3.5430869771602436,3.2156044522989355,0.29543394024806696,-0.0035239164208138384,-0.043225465293227315,-0.5414653669959983
1750260153.901403,-1.7403875379262015,-2.1869625700945043,-0.8118327334350806,1.5938634661160511,-0.07737835384810055,-1.647080451932709,-0.08283593899026555,0.10089567305314354,-0.02420346700040016,-0.007355826550057143,-0.27048909306177027,-0.2705090792321455,3.5436362707708127,3.2160484512894842,0.29541408536474306,-0.0035256655093650956,-0.04319316425062626,-0.5411648445415922
1750260153.903437,-1.7405538050326088,-2.1867600312558695,-0.8118813233562996,1.5938487094745672,-0.07792086435701862,-1.6476230027079382,-0.08343146835803028,0.10164360991752866,-0.024386581379591824,-0.007400818667383263,-0.27202122217771985,-0.2720415028070709,3.5441912963230093,3.216495147764347,0.29539407398898754,-0.003527417729484551,-0.04316057358877712,-0.5408617810057722
1750260153.9057283,-1.740721265006,-2.186555993872715,-0.811930280271211,1.5938338628264799,-0.07846643795864683,-1.648168617167733,-0.08402880727495335,0.10239421996086581,-0.02457046167748407,-0.007445833137109915,-0.2735521840450183,-0.2735727620737591,3.544752097008592,3.216944543051251,0.295373905425589,-0.0035291729588287656,-0.04312769181666528,-0.5405561652313486
1750260153.9073682,-1.740889921473265,-2.1863504525843602,-0.8119796057175659,1.5938189261271838,-0.07901507230810978,-1.648717292973112,-0.08462796352531296,0.10314751750217219,-0.02475511381148634,-0.0074908698592498005,-0.27508196827679327,-0.2751028466570452,3.5453187162600646,3.2173966384741894,0.29535357898086917,-0.0035309310699902802,-0.04309451744299758,-0.5402479860844897
1750260153.9093409,-1.7410597780768153,-2.1861434020015107,-0.8120293012449755,1.5938038993322772,-0.07956676503970517,-1.6492690277642872,-0.08522894484448298,0.10390351683672136,-0.02494054372398938,-0.007535928729922847,-0.2766105644332261,-0.27663174612865676,3.545891197703823,3.217851435375312,0.2953330939572822,-0.0035326919377853864,-0.04306104897626155,-0.5399372324165205
1750260153.9153888,-1.7412308384744808,-2.185934836706303,-0.8120793684149588,1.5937887823975703,-0.0801215137667981,-1.6498238191605648,-0.08583175891864314,0.10466223223589845,-0.025126757382571422,-0.007581009641286765,-0.2781379620214804,-0.27815945000722747,3.5464695851934604,3.2183089351101066,0.29531244965158365,-0.003534455435055065,-0.04302728492292605,-0.5396238931014177
1750260153.9158142,-1.7414031063394182,-2.1857247512523585,-0.8121298088009974,1.5937735752790927,-0.0806793160817163,-1.650381664760232,-0.0864364133845518,0.10542367794700466,-0.025313760779976498,-0.0076261124816333105,-0.27966415049569454,-0.279685947758215,3.5470539227783306,3.2187691390366155,0.29529164536074,-0.003536221437135823,-0.042993223789259405,-0.5393079569993879
1750260153.91735,-1.741576585360006,-2.185513140164824,-0.8121806239885832,1.5937582779331017,-0.08124016955563995,-1.6509425621404556,-0.08704291582925627,0.1061878681932117,-0.02550155993450428,-0.007671237135157913,-0.2811891192569764,-0.2812112287939543,3.5476442547384592,3.2192320485467762,0.29527068037145865,-0.0035379898128666677,-0.04295886408137104,-0.5389894130046228
1750260153.919557,-1.7417512792397467,-2.1852999979404295,-0.8122318155752684,1.5937428903160897,-0.08180407173850224,-1.6515065088571719,-0.08765127378985348,0.10695481717327852,-0.02569016088984488,-0.007716383482154985,-0.28271285765336435,-0.2827352824735859,3.548240625550674,3.2196976650174425,0.2952495539742366,-0.00353976043641177,-0.04292420430427472,-0.5386682500021948
1750260153.921575,-1.7419271916971688,-2.1850853190475252,-0.8122833851707218,1.593727412384793,-0.08237102015887476,-1.6520735024449849,-0.08826149475324287,0.10772453906152014,-0.02587956971538465,-0.007761551398892488,-0.28423535497985153,-0.284258098103077,3.54884307990313,3.2201659898621493,0.2952282654516666,-0.0035415331783239024,-0.0428892429636738,-0.5383444568970227
1750260153.923583,-1.7421043264657206,-2.1848690979261445,-0.8123353343967734,1.5937118440961995,-0.08294101232387074,-1.6526435404170536,-0.08887358615584963,0.10849704800756009,-0.026069792506237238,-0.007806740757612209,-0.2857566004783365,-0.28577966493519835,3.5494516626975274,3.2206370244872313,0.2952068140848742,-0.003543307909009465,-0.042853978563873255,-0.5380180226017032
1750260153.925364,-1.7422826872936756,-2.184651328988039,-0.8123876648874706,1.593696185407556,-0.08351404571902954,-1.6532166202649945,-0.08948755538341469,0.10927235813628362,-0.026260835383478277,-0.007851951426497805,-0.2872765833377032,-0.2872999721695563,3.5500664190295828,3.221110770330878,0.2951851991487579,-0.003545084497934571,-0.0428184096114337,-0.5376889360507527
1750260153.9273,-1.7424622779440284,-2.1844320066167437,-0.8124403782891285,1.5936804362763772,-0.08409011780821984,-1.6537927394587655,-0.0901034097707028,0.11005048354757159,-0.02645270449405407,-0.007897183269724582,-0.2887952926937348,-0.28881900895254786,3.5506873942133086,3.2215872288230316,0.29516341992044165,-0.0035468628157467185,-0.042782534610492855,-0.537357186178136
1750260153.9293466,-1.7426431021943891,-2.184211125167611,-0.8124934762603839,1.5936645966604541,-0.084669226033526,-1.654371895446567,-0.09072115660126823,0.1108314383162854,-0.026645406011178808,-0.007942436147321513,-0.29031271762917454,-0.29033676437743794,3.551314633767725,3.2220664014321283,0.295141475666433,-0.003548642729213659,-0.04274635206689576,-0.5370227619550205
1750260153.9313962,-1.7428251638368852,-2.1839886789678733,-0.8125469604722442,1.593648666517861,-0.08525136781514409,-1.6549540856547313,-0.09134080310722585,0.11161523649198797,-0.02683894613420451,-0.007987709915323776,-0.29182884717378965,-0.29185322748431286,3.5519481834009827,3.222548289612421,0.2951193656559645,-0.0035504241091902766,-0.042709860488290646,-0.5366856523489288
1750260153.9333725,-1.7430084666780559,-2.1837646623166878,-0.8126008326081413,1.5936326458069647,-0.08583654055127887,-1.6555393074876186,-0.09196235646898919,0.11240189209889516,-0.0270333310888865,-0.008033004425582501,-0.2933436703042978,-0.2933683872601543,3.5525880890363117,3.2230328948526785,0.2950970891515788,-0.003552206821120979,-0.042673058380256125,-0.536345846363417
1750260153.935375,-1.7431930145387513,-2.1835390694851906,-0.8126550943639881,1.5936165344864321,-0.08642474161803548,-1.6561275583275084,-0.09258582381503674,0.11319141913566932,-0.027228567127409363,-0.008078319525870521,-0.2948571759444746,-0.29488223263883767,3.5532343967906597,3.2235202186424043,0.29507464541458917,-0.003553990733286966,-0.04263594425139525,-0.5360033330123903
1750260153.9373798,-1.7433788112540247,-2.1833118947165424,-0.8127097474482259,1.5936003325152388,-0.08701596836931191,-1.6567188355344973,-0.09321121222165515,0.11398383157533268,-0.027424660528645246,-0.008123655059806249,-0.2963693529651646,-0.29639475250118225,3.5538871529899447,3.2240102624976004,0.2950520336994459,-0.003555775711729042,-0.04259851661062631,-0.535658101336702
1750260153.9398298,-1.743565860673029,-2.1830831322259883,-0.8127647935818807,1.5935840398526773,-0.087610218136696,-1.6573131364463887,-0.09383852871271359,0.11477914336503049,-0.027621617598044115,-0.00816901086687877,-0.2978801901842657,-0.29790593567496776,3.554546404149086,3.2245030279291624,0.29502925326311286,-0.003557561623040732,-0.04256077396642144,-0.5353101403930125
1750260153.941343,-1.7437541666589134,-2.1828527762009013,-0.8128202344986182,1.5935676564583654,-0.08820748822935887,-1.6579104583785886,-0.09446778025943355,0.11557736842598328,-0.027819444667972402,-0.008214386782395097,-0.29938967636690655,-0.29941577093500865,3.5552121969811035,3.224998516480903,0.2950063033534183,-0.0035593483322770513,-0.04252271483225524,-0.5349594392712104
1750260153.9433012,-1.7439437330887166,-2.1826208208008397,-0.8128760719447925,1.5935511822922546,-0.08880777593394917,-1.6585107986240022,-0.09509897378014012,0.11637852065328404,-0.028018148097688947,-0.008259782637484175,-0.30089780022535856,-0.3009242470031861,3.5558845783983375,3.2254967297000876,0.29498318321867756,-0.0035611357044522222,-0.0424843377191219,-0.5346059870814862
1750260153.9456656,-1.7441345638532617,-2.182387260157597,-0.812932307679505,1.5935346173146379,-0.08941107851448482,-1.6591141544529204,-0.09573211614002251,0.11718261391575024,-0.028217734273464388,-0.008305198259087026,-0.3024045504191692,-0.30243135254849474,3.5565635955098505,3.225997669147884,0.2949598921038242,-0.003562923604167392,-0.042445641141771524,-0.5342497729579349
1750260153.9471886,-1.7443266628570457,-2.1821520883752576,-0.8129889434746582,1.5935179614861588,-0.09001739321225521,-1.6597205231129255,-0.09636721415091445,0.11798966205580978,-0.028418209608746133,-0.008350633469904027,-0.30390991555524244,-0.3039370761871484,3.557249295615121,3.2265013364044606,0.29493642924916175,-0.0035647118945255148,-0.042406623617219696,-0.5338907860782782
1750260153.949226,-1.744520034018139,-2.181915299530244,-0.8130459811150068,1.5935012147678196,-0.09062671724570492,-1.6603299018287752,-0.09700427457106989,0.118799678889341,-0.028619580544214367,-0.00839608808848681,-0.30541388418780047,-0.30544140648256723,3.5579417262006143,3.2270077330626843,0.29491279389334785,-0.003566500440937072,-0.042367283661402605,-0.533529015621087
1750260153.9513183,-1.7447146812680732,-2.1816768876713777,-0.8131034223982141,1.5934843771209901,-0.09123904781033954,-1.6609422878023024,-0.09764330410491845,0.11961267820553421,-0.02882185354796532,-0.008441561929028814,-0.30691644481860136,-0.3069443319455454,3.558640934953226,3.2275168607293656,0.29488898526981244,-0.0035682891029710966,-0.04232761979639028,-0.5331644508307168
1750260153.9532168,-1.744910608551736,-2.181436846819925,-0.8131612691349073,1.5934674485074154,-0.09185438207861196,-1.6615576782123087,-0.09828430940284777,0.12042867376673577,-0.02902503511549262,-0.00848705480158983,-0.3084175858968933,-0.3084458410342521,3.5593469697438382,3.2280287210255802,0.29486500261259596,-0.0035700777462974675,-0.04228763054296034,-0.5327970809562682
1750260153.9552271,-1.7451078198272594,-2.181195170969657,-0.8132195231487334,1.593450428889225,-0.09247271719982386,-1.6621760702144615,-0.09892729706097293,0.12124767930831672,-0.029229131769900295,-0.008532566511909733,-0.30991729581957916,-0.30994592215435574,3.5600598786351987,3.2285433155882823,0.294840845149621,-0.0035718662312630893,-0.04224731442653227,-0.5324268952949373
1750260153.957336,-1.7453063190659153,-2.1809518540868984,-0.8132781862764116,1.5934333182289415,-0.09309405030001727,-1.6627974609411842,-0.09957227362093697,0.12206970853853744,-0.029434150061969207,-0.008578096861412511,-0.31141556293127814,-0.3114445636591024,3.5607797098674134,3.229060646070272,0.2948165121068581,-0.00357365441819228,-0.04220666997425324,-0.5320538831743808
1750260153.959318,-1.7455061102520038,-2.1807068901105886,-0.8133372603677911,1.5934161164894884,-0.09371837848187159,-1.6634218475015556,-0.10021924556965706,0.122894775138377,-0.029640096570230007,-0.008623645647323715,-0.3129123755244304,-0.3129417538494066,3.5615065118794536,3.2295807141353743,0.294792002708263,-0.0035754421706400367,-0.042165695716226144,-0.5316780339588932
1750260153.961435,-1.7457071973827425,-2.1804602729523292,-0.8133967472859069,1.5933988236341994,-0.09434569882459787,-1.6640492269812057,-0.10086821933913291,0.12372289276145028,-0.029846977901157205,-0.008669212662459224,-0.3144077218393681,-0.3144374809739714,3.562240333285719,3.230103521473161,0.2947673161724343,-0.0035772293460694647,-0.04212439018455001,-0.5312993370555502
1750260153.9633367,-1.7459095844681602,-2.1802119964964426,-0.8134566489070334,1.5933814396268267,-0.09497600838383669,-1.6646795964422072,-0.10151920130622415,0.1245540750337866,-0.0300548006891007,-0.008714797695389645,-0.3159015900644611,-0.3159317332293579,3.562981222882479,3.2306290697731312,0.29474245171948854,-0.0035790158064313584,-0.04208275191543151,-0.5309177818990185
1750260153.968376,-1.7461132755309814,-2.1799620546000282,-0.8135169671207425,1.5933639644315498,-0.09560930419155422,-1.6653129529229744,-0.10217219779243288,0.12538833555376014,-0.030263571596559027,-0.008760400530309676,-0.31739396833622696,-0.3174244987601451,3.5637292296525556,3.231157360754034,0.29471740856215184,-0.003580801409957638,-0.042040779448172756,-0.5305333579807475
1750260153.9687047,-1.7461132755309814,-2.1799620546000282,-0.8135169671207425,1.5933639644315498,-0.09560930419155422,-1.6653129529229744,-0.10217219779243288,0.12538833555376014,-0.030263571596559027,-0.008760400530309676,-0.31739396833622696,-0.3174244987601451,3.5637292296525556,3.231157360754034,0.29471740856215184,-0.003580801409957638,-0.042040779448172756,-0.5305333579807475
1750260153.9693482,-1.7463182746065211,-2.1797104410930146,-0.8135777038299592,1.593346398012984,-0.09624558325593746,-1.6659492934381603,-0.10282721506370285,0.1262256878919245,-0.03047329731419841,-0.008806020947122222,-0.31888484473944245,-0.31891576565900803,3.5644844027522162,3.231688396145501,0.29469218591241303,-0.0035825860170668887,-0.0419984713252211,-0.5301460548199332
1750260153.9714172,-1.7465245857425673,-2.1794571497782194,-0.8136388609510181,1.5933287403361895,-0.09688484256128937,-1.6665886149785507,-0.10348425933018876,0.12706614559085588,-0.030683984560918337,-0.008851658721326622,-0.3203742073072602,-0.32040552196686545,3.5652467915255976,3.232222177690198,0.2946667829804323,-0.003584369484935583,-0.04195582609230577,-0.529755861988592
1750260153.9733613,-1.7467322129992757,-2.179202174431401,-0.8137004404137196,1.5933109913666796,-0.09752707906793123,-1.6672309145109612,-0.10414333674609023,0.12790972216506574,-0.030895640084007584,-0.008897313624035164,-0.321862044021345,-0.3218937556730054,3.5660164454779855,3.232758707155578,0.2946411989719579,-0.003586151671088948,-0.041912842298999844,-0.5293627691000687
1750260153.97543,-1.746941160449051,-2.178945508801317,-0.8137624441613882,1.5932931510704298,-0.09817228971209424,-1.667876188978135,-0.10480445340939597,0.1287564311007974,-0.031108270659192007,-0.008942985422051727,-0.3233483428120137,-0.3233804547152104,3.566793414309297,3.233297986314163,0.29461543309124794,-0.003587932435157486,-0.041869518498812625,-0.5289667658129806
1750260153.9773004,-1.747151432176441,-2.178687146609784,-0.8138248741509271,1.5932752194138862,-0.0988204714058174,-1.6685244352986386,-0.10546761536173076,0.1296062858559409,-0.031321883090745184,-0.008988673877741183,-0.32483309155840107,-0.3248656069799133,3.567577747874891,3.233840016963343,0.2945894845394343,-0.003589711632967794,-0.041825853249930794,-0.5285678418362348
1750260153.9794238,-1.7473630322780158,-2.1784270815517264,-0.8138877323528764,1.5932571963639748,-0.0994716210368507,-1.6691756503667605,-0.10613282858811914,0.13045929985987736,-0.03153648421153726,-0.009034378749086653,-0.3263162780885435,-0.32634920030234366,3.5683694962179597,3.234384800915531,0.2945633525164532,-0.0035914891218637264,-0.041781845112895066,-0.5281659869289633
1750260153.9813766,-1.7475759648622624,-2.1781653072952434,-0.8139510207514729,1.5932390818881101,-0.10012573546854675,-1.66982983105241,-0.10680009901682787,0.13131548651336059,-0.03175208088326683,-0.0090800997895986,-0.32779789017964467,-0.327831222466682,3.5691687095350155,3.2349323399998045,0.2945370362151758,-0.003593264756485371,-0.04173749265573047,-0.5277611908996127
1750260153.9833016,-1.7477902340494662,-2.1779018174816587,-0.8140147413447032,1.593220875954204,-0.10078281153976221,-1.6704869742010118,-0.10746943251912987,0.13217485918834937,-0.031968679996293235,-0.009125836748466933,-0.3292779155581006,-0.3293116612061946,3.569975438209731,3.235482636060681,0.2945105348337511,-0.00359503839563404,-0.04169279444717189,-0.5273534436014892
1750260153.9862125,-1.7480058439715984,-2.1776366057255796,-0.8140788961443652,1.593202578530674,-0.10144284606475562,-1.6711470766334076,-0.10814083490914192,0.1330374312279048,-0.03218628846995131,-0.009171589370357267,-0.33075634189976566,-0.33079050420344464,3.570789732781615,3.2360356909617303,0.2944838475609447,-0.0035968098923027125,-0.041647749063442284,-0.5269427349563889
1750260153.9876635,-1.7482227987722005,-2.177369665614961,-0.8141434871761222,1.5931841895864536,-0.10210583583308797,-1.671810135145753,-0.10881431194362276,0.13390321594605273,-0.032404913252584336,-0.009217357395539232,-0.33223315683010596,-0.3322677390904286,3.5716116439609835,3.2365915065850364,0.29445697358475087,-0.0035985791029408127,-0.041602355085088714,-0.526529054928771
1750260153.9895034,-1.7484411026062698,-2.1771009907111534,-0.8142085164795656,1.5931657090909992,-0.10277177760951961,-1.6724761465094176,-0.10948986932179161,0.13477222662763366,-0.032624561321479936,-0.00926314055982666,-0.3337083479243514,-0.3337433534487652,3.5724412226210047,3.237150084827248,0.2944299120949953,-0.003600345882205234,-0.04155661109694082,-0.5261123935434792
1750260153.9919884,-1.7486607596401456,-2.17683057454897,-0.8142739861082697,1.5931471370143007,-0.10344066813391262,-1.6731451074708845,-0.11016751268515446,0.1356444765281881,-0.03284523968313977,-0.009308938594524634,-0.3351819027077085,-0.33521733480989097,3.5732785197929284,3.237711427603703,0.29440266227352613,-0.0036021100831603444,-0.04151051568982393,-0.5256927408869497
1750260153.9934847,-1.748881774051391,-2.1765584106367424,-0.81433989812985,1.5931284733268896,-0.1041125041211286,-1.6738170147516485,-0.11084724761729992,0.13651997887383385,-0.03306695537329411,-0.00935475122651239,-0.3366538086555345,-0.3366896706552257,3.574123586679491,3.2382755368522598,0.2943752233021747,-0.0036038715610569694,-0.041464067459469074,-0.5252700870965714
1750260153.9955113,-1.7491041500286792,-2.1762844924563796,-0.8144062546260242,1.5931097179998481,-0.10478728226092926,-1.6744918650481164,-0.11152907964374653,0.13739874686111955,-0.0332897154569132,-0.009400578178169526,-0.33812405319355265,-0.3381603484163963,3.5749764746321957,3.238842414523592,0.2943475943621149,-0.003605630168999307,-0.0414172650076667,-0.5248444223799706
1750260153.9974287,-1.7493278917716752,-2.176008813463426,-0.8144730576926689,1.5930908710048184,-0.10546499921788133,-1.675169655031513,-0.11221301423174988,0.1382807936569105,-0.033513527028353855,-0.009446419167380784,-0.3395926236980321,-0.3396293554754266,3.57583723516782,3.2394120625907563,0.2943197746305057,-0.0036073857600809594,-0.0413701069412831,-0.5244157370027578
1750260153.9994605,-1.749553003490921,-2.1757313670871206,-0.8145403094398782,1.5930719323140112,-0.10614565163125178,-1.6758503813477734,-0.11289905679014516,0.13916613239824974,-0.03373839721143769,-0.009492273907529328,-0.3410595074960086,-0.34109667916492703,3.576705919951455,3.239984483042219,0.2942917632820037,-0.003609138187041407,-0.04132259187339468,-0.5239840212870551
1750260154.001504,-1.7497794894077172,-2.1754521467304633,-0.814608011992024,1.593052901900215,-0.10682923611491368,-1.67653404061745,-0.1135872126691614,0.1400547761922152,-0.03396433315942996,-0.009538142107505879,-0.34252469186552803,-0.342562306768347,3.5775825808106134,3.2405596778828176,0.2942635594919576,-0.0036108873028649654,-0.04127471842394273,-0.5235492656347043
1750260154.0033197,-1.7500073537540066,-2.175171145770265,-0.8146761674878142,1.593033779736805,-0.1075157492572485,-1.6772206294356131,-0.11427748716027328,0.14094673811585648,-0.0341913420552344,-0.009584023471674427,-0.34398816403580607,-0.34402622552017176,3.5784672697189146,3.241137649148823,0.2942351624303973,-0.0036126329593794033,-0.0412264852173637,-0.5231114605037612
1750260154.0055668,-1.750236600772256,-2.174888357557215,-0.8147447780803514,1.5930145657977524,-0.1082051876210457,-1.6779101443717543,-0.11496988549602655,0.1418420312160217,-0.03441943111145905,-0.00962991769984381,-0.34544991118753815,-0.34548842260616036,3.579360038803401,3.241718398885092,0.2942065712650479,-0.0036143750075162745,-0.04117789088682721,-0.5226705964254048
1750260154.0074587,-1.7504672347153374,-2.174603775415938,-0.8148138459371941,1.5929952600576327,-0.10889754774340865,-1.6786025819696864,-0.11566441284986761,0.1427406685091937,-0.0346486075702335,-0.009675824487378746,-0.3469099204530338,-0.34694888516355377,3.5802609403436976,3.242301929150578,0.2941777851689524,-0.0036161133011961676,-0.041128934069286124,-0.5222266639922477
1750260154.0095127,-1.750699259846412,-2.174317392645058,-0.8148833732404146,1.592975862491636,-0.1095928261356578,-1.6792979387474496,-0.11636107433602223,0.14364266298147996,-0.0348788787037019,-0.009721743525009601,-0.34836817891656335,-0.3484076002813585,3.5811700267544815,3.2428882420419693,0.2941488033010879,-0.0036178476889102452,-0.041079613411459874,-0.5217796538809614
1750260154.013827,-1.7509326804388081,-2.1740292025172554,-0.8149533621866594,1.592956373075575,-0.11029101928323204,-1.6799962111972135,-0.11705987500930179,0.1445480275883996,-0.0351102518136917,-0.009767674498931723,-0.34982467361454417,-0.34986455500056296,3.5820873506106903,3.243477339662214,0.2941196248299871,-0.003619578021792087,-0.04102992756531706,-0.5213295568326192
1750260154.0156503,-1.7514037251510146,-2.173447373152266,-0.8150947338680341,1.5929171185996813,-0.11169613565615322,-1.681401488951499,-0.11846391383862624,0.1463689188746912,-0.03557633332040911,-0.009859570977884912,-0.3527323196217641,-0.352773131168544,3.58394692163287,3.2446638976123032,0.2940606747180942,-0.0036230259293234205,-0.04092945495153159,-0.5204200652549473
1750260154.0173378,-1.751641357867257,-2.173153720331287,-0.815166121069864,1.5928973534946713,-0.11240305172212661,-1.6821084871101508,-0.11916916180596902,0.14728447131124112,-0.03581105647067492,-0.009905535832574128,-0.3541834447669396,-0.3542247264615315,3.584889274650566,3.245261362261712,0.2940309013964632,-0.003624743203152989,-0.04087866552556173,-0.5199606525901771
1750260154.0193295,-1.751880403237446,-2.172858232985922,-0.8152379788482387,1.5928774964492605,-0.11311286822449329,-1.682818386648874,-0.11987656858277013,0.14820344539652455,-0.036046911104621764,-0.009951511322886372,-0.3556327538189183,-0.3556745090448614,3.585840076792779,3.2458616202677306,0.29400092810884615,-0.003626455823008947,-0.040827505592640374,-0.519498116708269
1750260154.0214112,-1.751880403237446,-2.172858232985922,-0.8152379788482387,1.5928774964492605,-0.11311286822449329,-1.682818386648874,-0.11987656858277013,0.14820344539652455,-0.036046911104621764,-0.009951511322886372,-0.3556327538189183,-0.3556745090448614,3.585840076792779,3.2458616202677306,0.29400092810884615,-0.003626455823008947,-0.040827505592640374,-0.519498116708269
1750260154.0233085,-1.752120865583966,-2.1725609042600666,-0.8153103094735723,1.5928575474425135,-0.11382558151787503,-1.6835311839290608,-0.12058613892465225,0.14912585393147382,-0.03628390467424083,-0.00999749711222039,-0.35708023357884816,-0.35712246572337175,3.5867993813349504,3.2464646738399723,0.29397075400929834,-0.003628163638600884,-0.04077597384378549,-0.5190324487414757
1750260154.0255203,-1.752362749238653,-2.1722617272720486,-0.8153831152312137,1.5928375064541729,-0.11454118793045165,-1.6842468752856705,-0.12129787752699529,0.1500517096857806,-0.03652204466172418,-0.010043492859391804,-0.3585258708016449,-0.3585685832554966,3.587767241673859,3.2470705252137435,0.29394037825128716,-0.0036298664990181023,-0.04072406897661985,-0.5185636398977891
1750260154.0274277,-1.7526060585426722,-2.1719606951146844,-0.8154563984215049,1.5928173734646678,-0.1152596837638642,-1.6849654570271282,-0.1220117890247917,0.1509810253977486,-0.036761338579447085,-0.010089498218670785,-0.35996965219621624,-0.3600128483535281,3.5887437113422673,3.2476791766401876,0.2939097999886524,-0.003631564254236565,-0.040671789695084774,-0.5180916814587698
1750260154.0294704,-1.7528507978464,-2.171657800855347,-0.8155301613598454,1.5927971484551235,-0.11598106529312702,-1.68568692543524,-0.12272787799253261,0.15191381377418897,-0.03700179397007591,-0.010135512839667698,-0.3614115644259264,-0.3614552476839783,3.5897288439988704,3.248290630390947,0.29387901837189884,-0.003633256751025927,-0.040619134716204076,-0.5176165648137749
1750260154.0314715,-1.753096971509299,-2.1713530375360275,-0.8156044063767487,1.5927768314073711,-0.11670532876653716,-1.6864112767651003,-0.12344614894405055,0.15285008749033416,-0.03724341840668833,-0.010181536367450209,-0.3628515941087535,-0.36289576786782307,3.5907226934439915,3.2489048887678487,0.2938480325485148,-0.0036349438392261004,-0.04056610276143504,-0.517138281417104
1750260154.0334053,-1.7533445838998016,-2.171046398173396,-0.8156791358179047,1.5927564223039556,-0.11743247040558025,-1.687138507244999,-0.12416660633244633,0.15378985918968466,-0.037486219492597686,-0.010227568442460595,-0.36428972781767016,-0.36433439548083346,3.591725313583467,3.249521954083738,0.293816841670437,-0.003636625366261828,-0.040512692562961604,-0.5166568228176648
1750260154.0354083,-1.7535936393951834,-2.1707378757588707,-0.815754352044241,1.592735921128146,-0.11816248640484517,-1.6878686130763318,-0.12488925454992306,0.1547331414839322,-0.03773020486162202,-0.010273608700565066,-0.36572595208090297,-0.3657711170538922,3.5927367584685475,3.25014182868169,0.29378544488223185,-0.0036383011808511913,-0.04045890286027112,-0.5161721806546776
1750260154.0373764,-1.7538441423814426,-2.170427463258676,-0.8158300574319828,1.5927153278639439,-0.11889537293193086,-1.688601590433513,-0.12561409792771094,0.15567994695286078,-0.037975382178018595,-0.010319656773020401,-0.36716025338236113,-0.3672059190733178,3.5937570822571545,3.250764514927971,0.2937538413301914,-0.0036399711306504905,-0.04040473240492958,-0.5156843466570645
1750260154.0395272,-1.754096097253182,-2.17011515361391,-0.815906254372714,1.5926946424960933,-0.11963112612736104,-1.6893374354638846,-0.1263411407359476,0.1566302881442014,-0.038221759136464625,-0.010365712286455936,-0.3685926181618445,-0.36863878798118893,3.594786339229937,3.251390015203879,0.2937220301608839,-0.003641635062676448,-0.04035017995436209,-0.5151933126450158
1750260154.0415864,-1.7543495084134815,-2.1698009397406075,-0.8159829452734391,1.5926738650100893,-0.12036974210449536,-1.6900761442876302,-0.1270703871835514,0.15758417757359894,-0.038469343462337,-0.010411774862910813,-0.3700230328154672,-0.37006971017567325,3.5958245837961007,3.2520183319289884,0.29369001051331894,-0.00364329282487563,-0.04029524427792677,-0.5146990705293846
1750260154.043468,-1.7546043802737756,-2.1694848145298007,-0.816060132556645,1.592652995392188,-0.12111121694944149,-1.6908177129976831,-0.12780184141814313,0.15854162772441935,-0.038718142911387136,-0.010457844119826157,-0.3714514836959164,-0.37149867201136905,3.59687187046849,3.252649467527916,0.29365778153521155,-0.0036449442648589965,-0.04023992415227232,-0.5142016123166168
1750260154.045603,-1.7548607172537372,-2.1691667708475935,-0.8161378186603576,1.5926320336294144,-0.12185554672097076,-1.6915621376596448,-0.1285355075259498,0.15950265104770212,-0.038968165270017716,-0.010503919669986888,-0.3728779571129177,-0.37292565979968184,3.5979282538743527,3.253283424457777,0.2936253423663838,-0.003646589228536849,-0.04018421836715939,-0.5137009301191114
1750260154.0474966,-1.755118523781146,-2.1688468015352154,-0.8162160060382089,1.5926109797095735,-0.12260272745043022,-1.692309414311696,-0.12927138953168307,0.1604672599620966,-0.03921941835535816,-0.010550001121578738,-0.374302439333493,-0.37435065980913895,3.598993788764833,3.2539202052099974,0.29359269214499767,-0.0036482275632246635,-0.040128125719608276,-0.513197016132782
1750260154.0493774,-1.755377804291773,-2.1685248994090927,-0.8162946971594947,1.592589833621258,-0.12335275514165822,-1.6930595389645138,-0.1300094913984755,0.1614354668536744,-0.03947191001504567,-0.010596088078205891,-0.37572491658233687,-0.3757736582657658,3.6000685299864927,3.2545598122801462,0.2935598300146514,-0.003649859116670719,-0.04007164501724636,-0.5126898626592372
1750260154.051374,-1.7556385632292502,-2.168201057260913,-0.8163738945092369,1.592568595353858,-0.124105625770901,-1.693812507601181,-0.13074981702777203,0.16240728407589747,-0.0397256481274586,-0.010642180138846572,-0.37714537504222023,-0.3771946413534434,3.601152532504206,3.2552022482024388,0.293526755112711,-0.003651483735212208,-0.04001477507907028,-0.5121794620968345
1750260154.053345,-1.755900805044953,-2.1678752678576885,-0.816453600588245,1.5925472648975703,-0.12486133528672916,-1.6945683161771106,-0.13149237025927718,0.1633827239495239,-0.039980640601706724,-0.010688276897811613,-0.37856380085433694,-0.3786135952143221,3.6022458513762907,3.2558475155335644,0.2934934665765026,-0.0036531012639960353,-0.03995751473383974,-0.5116658069600615
1750260154.0553594,-1.7561645341978753,-2.1675475239418214,-0.8165338179131769,1.5925258422434079,-0.12561987960995413,-1.6953269606199548,-0.13223715487084095,0.1643617987624616,-0.040236895377511114,-0.010734377944851187,-0.3799801801186969,-0.3800305059491408,3.603348541776184,3.2564956168480066,0.2934599635467785,-0.0036547115509387843,-0.03989986282139025,-0.5111488898467348
