mathias31415/primitives_from_planned_trajectory_python/data/saved_trajectories/trajectory_20250624_150214_planned.csv
time_from_start,shoulder_pan_joint_pos,shoulder_lift_joint_pos,elbow_joint_pos,wrist_1_joint_pos,wrist_2_joint_pos,wrist_3_joint_pos,shoulder_pan_joint_vel,shoulder_lift_joint_vel,elbow_joint_vel,wrist_1_joint_vel,wrist_2_joint_vel,wrist_3_joint_vel,shoulder_pan_joint_acc,shoulder_lift_joint_acc,elbow_joint_acc,wrist_1_joint_acc,wrist_2_joint_acc,wrist_3_joint_acc,fk_x,fk_y,fk_z,fk_qx,fk_qy,fk_qz,fk_qw
0.0,-2.0224840000000004,-1.7245999999999997,-2.4908779999999995,-0.5302379999999998,1.582503,-0.45276400000000017,-8.579967619641953e-05,-0.0002495526283289203,0.0005,-0.0002510499228772841,-2.935336271162158e-06,-8.581491653259436e-05,-0.08579967619641952,-0.2495526283289203,0.5,-0.25104992287728406,-0.002935336271162158,-0.08581491653259435,-0.36594300954837555,-0.358449331120704,0.16327022939650304,-0.00044054749660349537,0.9998439462840056,0.012430133440775752,0.012545149651325497
0.1,-2.022912998380982,-1.7258477631416445,-2.4883779999999995,-0.5314932496143862,1.5824883233186442,-0.4531930745826631,-0.008579967619641998,-0.02495526283289216,0.050000000000000266,-0.02510499228772854,-0.00029353362711621736,-0.00858149165325948,-0.08579967619645044,-0.24955262832901023,0.5000000000001804,-0.25104992287737815,-0.0029353362711632813,-0.0858149165326258,-0.36670291132396243,-0.3595364911464325,0.16349385286554552,-0.00044069907082219594,0.9998439640257075,0.01242931409199681,0.012544542115646507
0.2,-2.0241999935239288,-1.729591052566578,-2.4808779999999993,-0.5352589984575454,1.5824442932745766,-0.45448029833065207,-0.01715993523928387,-0.04991052566578396,0.09999999999999981,-0.05020998457545671,-0.0005870672542324305,-0.017162983306518838,-0.08579967619633942,-0.24955262832868758,0.49999999999952816,-0.2510499228770486,-0.0029353362711594866,-0.08581491653251651,-0.36898709886043285,-0.36279133890116855,0.16416379106575596,-0.0004411539259683951,0.999844016913998,0.012426872886160848,0.01254272915937831
0.30000000000000004,-2.0263449854288393,-1.735829868274801,-2.4683779999999995,-0.5415352465294776,1.5823709098677978,-0.4566256712439669,-0.025739902858926224,-0.07486578849867716,0.15000000000000213,-0.07531497686318628,-0.0008806008813486599,-0.02574447495977867,-0.08579967619670371,-0.2495526283297631,0.5000000000016653,-0.25104992287811023,-0.002935336271171955,-0.0858149165328808,-0.37280889990536276,-0.36819384116512144,0.16527722626497318,-0.00044191245951390445,0.9998441039384328,0.012422860252771402,0.012539739872529796
0.4,-2.029347974095714,-1.7445642102663133,-2.4508779999999994,-0.5503219938301824,1.5822681730983068,-0.4596291933226077,-0.03431987047856858,-0.09982105133157035,0.20000000000000448,-0.10041996915091586,-0.0011741345084648894,-0.03432596661303851,-0.08579967619707494,-0.24955262833081782,0.5000000000038025,-0.2510499228791927,-0.002935336271184423,-0.08581491653324856,-0.37819012856377604,-0.37571015778129596,0.16682939206941458,-0.0004429753339087455,0.9998442234149368,0.012417359933112803,0.012535623196593031
0.5,-2.033208959524553,-1.7557940785411148,-2.4283779999999995,-0.5616192403596603,1.5821360829661046,-0.4634908645665745,-0.042899838098211296,-0.1247763141644646,0.25000000000000894,-0.1255249614386465,-0.0014676681355811313,-0.04290745826629871,-0.08579967619817823,-0.24955262833403746,0.5000000000102418,-0.2510499228824401,-0.0029353362712221534,-0.08581491653435878,-0.385160478295327,-0.3852919740668479,0.16881346886421256,-0.00044434347657733487,0.9998443729858053,0.012410488514160541,0.012530448608749382
0.6000000000000001,-2.0379279417153557,-1.769519473099205,-2.4008779999999996,-0.5754269861179108,1.5819746394711909,-0.46821068497586704,-0.05147980571785213,-0.14973157699735337,0.30000000000000243,-0.15062995372637164,-0.001761201762697309,-0.05148894991955702,-0.08579967619740801,-0.24955262833178926,0.5000000000057732,-0.2510499228801919,-0.0029353362711961326,-0.08581491653358163,-0.39375665483222044,-0.39687558569112924,0.1712204388616989,-0.0004460180799138896,0.9998445496197026,0.012402394767567725,0.0125243070736776
0.7000000000000001,-2.0432844819830303,-1.785099237054115,-2.3696626125700284,-0.5911002273316684,1.5817913841533078,-0.47356817670953827,-0.053909526483810595,-0.15679854076843106,0.31415926535897737,-0.15773931867911098,-0.0018443261730597272,-0.0539191022694436,3.258686954152692e-13,9.429392037548216e-13,-1.941345419495221e-12,9.429392037548216e-13,1.1050068794001815e-14,3.3280207191346646e-13,-0.4036133929645066,-0.40985079269453256,0.17392804425564878,-0.00044792216822831047,0.9998447418867541,0.012393611109690745,0.012517583265271035
0.8,-2.0486754346314116,-1.8007790911309582,-2.3382466860341307,-0.6068741591995797,1.5816069515360018,-0.4789600869364826,-0.053909526483810595,-0.15679854076843106,0.31415926535897737,-0.15773931867911098,-0.0018443261730597272,-0.0539191022694436,3.258686954152692e-13,9.429392037548216e-13,-1.941345419495221e-12,9.429392037548216e-13,1.1050068794001815e-14,3.3280207191346646e-13,-0.4136359592740355,-0.42271914623751244,0.1766260324028655,-0.000449841964899604,0.9998449265526737,0.012385201292249567,0.012511086205271428
0.9,-2.054066387279793,-1.8164589452078013,-2.306830759498233,-0.6226480910674907,1.5814225189186957,-0.48435199716342703,-0.053909526483810595,-0.15679854076843106,0.31415926535897737,-0.15773931867911098,-0.0018443261730597272,-0.0539191022694436,3.258686954152692e-13,9.429392037548216e-13,-1.941345419495221e-12,9.429392037548216e-13,1.1050068794001815e-14,3.3280207191346646e-13,-0.4237571421446341,-0.4353925249269801,0.17929625065019272,-0.0004517652484703075,0.9998451023539725,0.012377219940066096,0.012504864393100244
1.0,-2.0594573399281737,-1.8321387992846445,-2.2754148329623347,-0.6384220229354018,1.5812380863013897,-0.4897439073903714,-0.053909526483810595,-0.15679854076843106,0.31415926535897737,-0.15773931867911098,-0.0018443261730597272,-0.0539191022694436,3.258686954152692e-13,9.429392037548216e-13,-1.941345419495221e-12,9.429392037548216e-13,1.1050068794001815e-14,3.3280207191346646e-13,-0.4339726488007319,-0.44786685307940327,0.18193803266077369,-0.00045369201891559165,0.999845269290649,0.012369663828739118,0.01249892225055344
1.1,-2.0648482925765554,-1.8478186533614893,-2.2439989064264334,-0.6541959548033147,1.5810536536840838,-0.49513581761731634,-0.053909526483822565,-0.15679854076846586,0.31415926535904715,-0.15773931867914598,-0.0018443261730601364,-0.05391910226945557,-1.1634205763976222e-11,-3.3834877311206173e-11,6.778068864638352e-11,-3.402901185315572e-11,-3.978024765841095e-13,-1.1627272387478024e-11,-0.44427812098808234,-0.4601381448016,0.18455071888207997,-0.000455622276210104,0.999845427362702,0.012362529698690825,0.012493264172590363
1.2,-2.0702392452249367,-1.8634985074383341,-2.212582979890532,-0.6699698866712276,1.5808692210667776,-0.5005277278442614,-0.05390952648382252,-0.15679854076846575,0.31415926535904737,-0.15773931867914584,-0.0018443261730601349,-0.05391910226945553,-1.167580602296541e-11,-3.394581133517734e-11,6.800255669432585e-11,-3.413994587712689e-11,-3.993191526930903e-13,-1.167580602296541e-11,-0.4546691368981341,-0.47220250556153104,0.18713365671027518,-0.00045755602032923306,0.9998455765701301,0.012355814255362174,0.012487894527083168
1.3,-2.075630197873319,-1.8791783615151791,-2.1811670533546312,-0.6857438185391406,1.5806847884494717,-0.5059196380712063,-0.05390952648382252,-0.15679854076846575,0.31415926535904737,-0.15773931867914584,-0.0018443261730601349,-0.05391910226945553,-1.167580602296541e-11,-3.394581133517734e-11,6.800255669432585e-11,-3.413994587712689e-11,-3.993191526930903e-13,-1.167580602296541e-11,-0.465141213122991,-0.48405613371829637,0.1896862006529202,-0.00045949325124713724,0.9998457169129317,0.01234951416941121,0.012482817654568297
1.4,-2.0810211505217002,-1.894858215592024,-2.1497511268187295,-0.7015177504070533,1.5805003558321657,-0.5113115482981513,-0.05390952648382252,-0.15679854076846575,0.31415926535904737,-0.15773931867914584,-0.0018443261730601349,-0.05391910226945553,-1.167580602296541e-11,-3.394581133517734e-11,6.800255669432585e-11,-3.413994587712689e-11,-3.993191526930903e-13,-1.167580602296541e-11,-0.47568980664007443,-0.49569532201066874,0.1922077124899843,-0.0004614339689396591,0.999845848391106,0.012343626076910847,0.012478037867997066
1.5,-2.086412103170082,-1.9105380696688687,-2.118335200282828,-0.7172916822749662,1.5803159232148598,-0.5167034585250962,-0.05390952648382252,-0.15679854076846575,0.31415926535904737,-0.15773931867914584,-0.0018443261730601349,-0.05391910226945553,-1.167580602296541e-11,-3.394581133517734e-11,6.800255669432585e-11,-3.413994587712689e-11,-3.993191526930903e-13,-1.167580602296541e-11,-0.4863103168256207,-0.5071164590035195,0.19469756143311162,-0.00046337817338084215,0.9998459710046518,0.01233814657955306,0.012473559452491314
1.6,-2.0918030558184637,-1.9262179237457135,-2.086919273746927,-0.7330656141428792,1.5801314905975539,-0.5220953687520413,-0.05390952648382252,-0.15679854076846575,0.31415926535904737,-0.15773931867914584,-0.0018443261730601349,-0.05391910226945553,-1.167580602296541e-11,-3.394581133517734e-11,6.800255669432585e-11,-3.413994587712689e-11,-3.993191526930903e-13,-1.167580602296541e-11,-0.49699808749610647,-0.5183160304915345,0.19715512428311632,-0.00046532586454565056,0.9998460847535682,0.012333072244848656,0.012469386665096678
1.7000000000000002,-2.0971940084668454,-1.9418977778225588,-2.0555033472110256,-0.7488395460107921,1.5799470579802477,-0.5274872789789862,-0.05390952648382252,-0.15679854076846575,0.31415926535904737,-0.15773931867914584,-0.0018443261730601349,-0.05391910226945553,-1.167580602296541e-11,-3.394581133517734e-11,6.800255669432585e-11,-3.413994587712689e-11,-3.993191526930903e-13,-1.167580602296541e-11,-0.5077484089767009,-0.5292906208595985,0.19957978558565626,-0.00046727704240858217,0.9998461896378542,0.012328399606332863,0.012465523734539276
1.8,-2.102584961115227,-1.9575776318994036,-2.0240874206751243,-0.7646134778787049,1.5797626253629418,-0.5328791892059311,-0.05390952648382252,-0.15679854076846575,0.31415926535904737,-0.15773931867914584,-0.0018443261730601349,-0.05391910226945553,-1.167580602296541e-11,-3.394581133517734e-11,6.800255669432585e-11,-3.413994587712689e-11,-3.993191526930903e-13,-1.167580602296541e-11,-0.5185565201958213,-0.5400369143992778,0.20197093778505293,-0.00046923170694438944,0.999846285657509,0.012324125163770999,0.012461974860983698
1.9,-2.1079759137636085,-1.9732574859762484,-1.9926714941392227,-0.7803874097466178,1.5795781927456358,-0.5382710994328762,-0.05390952648382252,-0.15679854076846575,0.31415926535904737,-0.15773931867914584,-0.0018443261730601349,-0.05391910226945553,-1.167580602296541e-11,-3.394581133517734e-11,6.800255669432585e-11,-3.413994587712689e-11,-3.993191526930903e-13,-1.167580602296541e-11,-0.5294176108048593,-0.5505516965808339,0.2043279813762149,-0.00047118985812792663,0.999846372812532,0.01232024538336625,0.012458744215791457
2.0,-2.1133668664119902,-1.9889373400530932,-1.9612555676033216,-0.7961613416145306,1.5793937601283297,-0.5436630096598211,-0.05390952648382206,-0.15679854076846597,0.3141592653590473,-0.1577393186791458,-0.0018443261730601377,-0.05391910226945575,-1.1661939269969014e-11,-3.3918077829184554e-11,6.794708968234027e-11,-3.4112212371134095e-11,-3.9888581666195293e-13,-1.1661939269969014e-11,-0.5403268233221363,-0.5608318552802245,0.20665032505462977,-0.00047315149593290157,0.9998464511029225,0.012316756697969364,0.01245583594128208
2.1,-2.118757819060372,-2.0046171941299384,-1.9298396410674203,-0.8119352734824434,1.579209327511024,-0.5490549198867661,-0.05390952648382206,-0.15679854076846597,0.3141592653590473,-0.1577393186791458,-0.0018443261730601377,-0.05391910226945575,-1.1661939269969014e-11,-3.3918077829184554e-11,6.794708968234027e-11,-3.4112212371134095e-11,-3.9888581666195293e-13,-1.1661939269969014e-11,-0.5512792553001286,-0.5708743819605733,0.20893738586438643,-0.00047511662033435884,0.9998465205286801,0.012313655507288385,0.012453254150494801
2.2,-2.1241487717087537,-2.020297048206783,-1.8984237145315188,-0.8277092053503564,1.5790248948937178,-0.5544468301137111,-0.05390952648382206,-0.15679854076846597,0.3141592653590473,-0.1577393186791458,-0.0018443261730601377,-0.05391910226945575,-1.1661939269969014e-11,-3.3918077829184554e-11,6.794708968234027e-11,-3.4112212371134095e-11,-3.9888581666195293e-13,-1.1661939269969014e-11,-0.562269961515002,-0.5806763728075992,0.21118858934419082,-0.00047708523130626654,0.9998465810898041,0.012310938178101511,0.012451002926950835
2.3,-2.1295397243571355,-2.035976902283628,-1.8670077879956177,-0.8434831372182694,1.5788404622764118,-0.5598387403406562,-0.05390952648382206,-0.15679854076846597,0.3141592653590473,-0.1577393186791458,-0.0018443261730601377,-0.05391910226945575,-1.1661939269969014e-11,-3.3918077829184554e-11,6.794708968234027e-11,-3.4112212371134095e-11,-3.9888581666195293e-13,-1.1661939269969014e-11,-0.5732939561774764,-0.5902350298185275,0.21340336967133366,-0.0004790573288230824,0.9998466327862943,0.012308601044472317,0.012449086324420471
2.4,-2.1349306770055168,-2.051656756360473,-1.8355918614597162,-0.8592570690861822,1.578656029659106,-0.5652306505676011,-0.05390952648382206,-0.15679854076846597,0.3141592653590473,-0.1577393186791458,-0.0018443261730601377,-0.05391910226945575,-1.1661939269969014e-11,-3.3918077829184554e-11,6.794708968234027e-11,-3.4112212371134095e-11,-3.9888581666195293e-13,-1.1661939269969014e-11,-0.5843462151640375,-0.5995476618440206,0.21558116980358638,-0.000481032912859228,0.9998466756181504,0.012306640407962683,0.012447508366686465
2.5,-2.1403216296538985,-2.0673366104373176,-1.8041759349238151,-0.8750310009540949,1.5784715970418,-0.5706225607945461,-0.05390952648382206,-0.15679854076846597,0.3141592653590473,-0.1577393186791458,-0.0018443261730601377,-0.05391910226945575,-1.1661939269969014e-11,-3.3918077829184554e-11,6.794708968234027e-11,-3.4112212371134095e-11,-3.9888581666195293e-13,-1.1661939269969014e-11,-0.5954216782675,-0.6086116855826835,0.21772144161897333,-0.0004830119833883249,0.9998467095853726,0.012305052537852827,0.01244627304731394
2.6,-2.1457125823022802,-2.0830164645141624,-1.7727600083879138,-0.8908049328220078,1.578287164424494,-0.5760144710214911,-0.05390952648382206,-0.15679854076846597,0.3141592653590473,-0.1577393186791458,-0.0018443261730601377,-0.05391910226945575,-1.1661939269969014e-11,-3.3918077829184554e-11,6.794708968234027e-11,-3.4112212371134095e-11,-3.9888581666195293e-13,-1.1661939269969014e-11,-0.6065152514659162,-0.6174246265277341,0.21982364605339982,-0.00048499454038481875,0.9998467346879603,0.01230383367135819,0.01244538432941831
2.7,-2.1511035349506615,-2.0986963185910077,-1.7413440818520123,-0.9065788646899208,1.5781027318071879,-0.581406381248436,-0.05390952648382206,-0.15679854076846597,0.3141592653590473,-0.1577393186791458,-0.0018443261730601377,-0.05391910226945575,-1.1661939269969014e-11,-3.3918077829184554e-11,6.794708968234027e-11,-3.4112212371134095e-11,-3.9888581666195293e-13,-1.1661939269969014e-11,-0.6176218092088226,-0.6259841198654282,0.22188725323609143,-0.00048698058382296526,0.9998467509259137,0.012302980013850447,0.01244484614543634
2.8,-2.1564944875990437,-2.1143761726678525,-1.709928155316111,-0.9223527965578336,1.577918299189882,-0.586798291475381,-0.053909526483822516,-0.15679854076846572,0.31415926535904715,-0.15773931867914612,-0.0018443261730601349,-0.05391910226945553,-1.1627272387478024e-11,-3.3834877311206173e-11,6.778068864638352e-11,-3.402901185315572e-11,-3.980191445996782e-13,-1.1634205763976222e-11,-0.6287361967198041,-0.6342879113248685,0.2239117426228171,-0.0004889701136759153,0.9998467582992331,0.012302487739078686,0.012444662396898131
2.9,-2.161885440247425,-2.1300560267446973,-1.6785122287802097,-0.9381267284257466,1.577733866572576,-0.5921902017023261,-0.053909526483822516,-0.15679854076846572,0.31415926535904715,-0.15773931867914612,-0.0018443261730601349,-0.05391910226945553,-1.1627272387478024e-11,-3.3834877311206173e-11,6.778068864638352e-11,-3.402901185315572e-11,-3.980191445996782e-13,-1.1634205763976222e-11,-0.6398532323143413,-0.6423338579788469,0.22589660312685766,-0.0004909631299187677,0.9998467568079185,0.01230235298939353,0.012444836954200804
3.0,-2.1672763928958068,-2.145735880821542,-1.6470963022443084,-0.9539006602936595,1.57754943395527,-0.597582111929271,-0.053909526483822516,-0.15679854076846572,0.31415926535904715,-0.15773931867914612,-0.0018443261730601349,-0.05391910226945553,-1.1627272387478024e-11,-3.3834877311206173e-11,6.778068864638352e-11,-3.402901185315572e-11,-3.980191445996782e-13,-1.1634205763976222e-11,-0.650967709731921,-0.6501199289953735,0.22784133324769024,-0.000492959632524447,0.99984674645197,0.012302571875971627,0.012445373656383494
3.1,-2.1726673455441885,-2.1614157348983873,-1.6156803757084073,-0.9696745921615725,1.5773650013379639,-0.602974022156216,-0.053909526483822516,-0.15679854076846572,0.31415926535904715,-0.15773931867914612,-0.0018443261730601349,-0.05391910226945553,-1.1627272387478024e-11,-3.3834877311206173e-11,6.778068864638352e-11,-3.402901185315572e-11,-3.980191445996782e-13,-1.1634205763976222e-11,-0.6620744004813504,-0.6576442063395962,0.22974544119735343,-0.0004949596214669519,0.9998467272313885,0.012303140479042211,0.012446276310904291
3.2,-2.1780582981925702,-2.1770955889752317,-1.5842644491725058,-0.9854485240294852,1.577180568720658,-0.608365932383161,-0.053909526483822516,-0.15679854076846572,0.31415926535904715,-0.15773931867914612,-0.0018443261730601349,-0.05391910226945553,-1.1627272387478024e-11,-3.3834877311206173e-11,6.778068864638352e-11,-3.402901185315572e-11,-3.980191445996782e-13,-1.1634205763976222e-11,-0.6731680561982447,-0.6649048854258092,0.23160844502446848,-0.0004969630967201464,0.9998466991461743,0.012304054848113328,0.012447548693417456
3.3,-2.183449250840952,-2.192775443052077,-1.5528485226366042,-1.0012224558973983,1.5769961361033518,-0.6137578426101059,-0.053909526483822516,-0.15679854076846572,0.31415926535904715,-0.15773931867914612,-0.0018443261730601349,-0.05391910226945553,-1.1627272387478024e-11,-3.3834877311206173e-11,6.778068864638352e-11,-3.402901185315572e-11,-3.980191445996782e-13,-1.1634205763976222e-11,-0.684243411013625,-0.6719002757192901,0.23342987273586713,-0.0004989700582576787,0.9998466621963276,0.012305311002205183,0.01244919454755528
3.4,-2.1888402034893333,-2.2084552971289217,-1.521432596100703,-1.0169963877653112,1.576811703486046,-0.6191497528370509,-0.053909526483822516,-0.15679854076846572,0.31415926535904715,-0.15773931867914612,-0.0018443261730601349,-0.05391910226945553,-1.1627272387478024e-11,-3.3834877311206173e-11,6.778068864638352e-11,-3.402901185315572e-11,-3.980191445996782e-13,-1.1634205763976222e-11,-0.6952951839325725,-0.6786288012877179,0.2352092624158244,-0.0005009805060532284,0.9998466163818492,0.012306904930076116,0.01245121758470689
3.5,-2.194231156137715,-2.2241351512057665,-1.4900166695648016,-1.032770319633224,1.5766272708687399,-0.6245416630639958,-0.053909526483822516,-0.15679854076846572,0.31415926535904715,-0.15773931867914612,-0.0018443261730601349,-0.05391910226945553,-1.1627272387478024e-11,-3.3834877311206173e-11,6.778068864638352e-11,-3.402901185315572e-11,-3.980191445996782e-13,-1.1634205763976222e-11,-0.7063180812218779,-0.685089001301949,0.23694616234283616,-0.000502994440080134,0.9998465617027402,0.012308832590458459,0.012453621483802215
3.6,-2.1996221087860963,-2.239815005282612,-1.4586007430289005,-1.048544251501137,1.576442838251434,-0.6299335732909408,-0.053909526483822565,-0.1567985407684659,0.31415926535904737,-0.15773931867914573,-0.0018443261730601366,-0.053919102269455586,-1.167580602296541e-11,-3.3973544841170134e-11,6.800255669432585e-11,-3.416767938311968e-11,-3.993191526930903e-13,-1.167580602296541e-11,-0.7173067988056132,-0.6912795304859534,0.23864013110393217,-0.000505011860312002,0.9998464981590011,0.012311089912290784,0.01245640989109694
3.7,-2.205013061434478,-2.255494859359456,-1.427184816492999,-1.0643181833690496,1.5762584056341278,-0.6353254835178858,-0.053909526483822565,-0.1567985407684659,0.31415926535904737,-0.15773931867914573,-0.0018443261730601366,-0.053919102269455586,-1.167580602296541e-11,-3.3973544841170134e-11,6.800255669432585e-11,-3.416767938311968e-11,-3.993191526930903e-13,-1.167580602296541e-11,-0.7282560246675636,-0.6971991595157306,0.24029073770648973,-0.0005070327667221808,0.9998464257506329,0.012313672794952693,0.012459586419956719
3.8,-2.21040401408286,-2.271174713436301,-1.3957688899570977,-1.0800921152369625,1.5760739730168218,-0.6407173937448307,-0.053909526483822565,-0.1567985407684659,0.31415926535904737,-0.15773931867914573,-0.0018443261730601366,-0.053919102269455586,-1.167580602296541e-11,-3.3973544841170134e-11,6.800255669432585e-11,-3.416767938311968e-11,-3.993191526930903e-13,-1.167580602296541e-11,-0.739160441259437,-0.7028467753670543,0.241897561687512,-0.0005090571592840508,0.9998463444776368,0.012316577108503644,0.01246315465064752
3.9,-2.215794966731242,-2.286854567513146,-1.3643529634211964,-1.0958660471048756,1.575889540399516,-0.6461093039717758,-0.053909526483822565,-0.1567985407684659,0.31415926535904737,-0.15773931867914573,-0.0018443261730601366,-0.053919102269455586,-1.167580602296541e-11,-3.3973544841170134e-11,6.800255669432585e-11,-3.416767938311968e-11,-3.993191526930903e-13,-1.167580602296541e-11,-0.7500147279137835,-0.7082213816119062,0.2434601932203601,-0.0005110850379705956,0.9998462543400134,0.012319798693918724,0.012467118130122124
4.0,-2.2211859193796233,-2.302534421589991,-1.332937036885295,-1.1116399789727884,1.57570510778221,-0.6515012141987206,-0.053909526483774714,-0.15679854076832672,0.31415926535876854,-0.15773931867900573,-0.0018443261730584997,-0.05391910226940773,3.613675830859187e-11,1.0508225420664206e-10,-2.106082445091686e-10,1.05720124844476e-10,1.2363076968343799e-12,3.614369168509007e-11,-0.7608135632605357,-0.7133220986635036,0.2449782332188963,-0.0005131164027558578,0.9998461553377644,0.012323333363328512,0.012471480371811713
4.1,-2.2264897389624654,-2.317960844809241,-1.3020288807128875,-1.1271589594195122,1.5755236561184347,-0.6568059758829438,-0.05002121122249431,-0.14548918231570737,0.29149999999989373,-0.14636210503740288,-0.0017113010460869129,-0.05003009633848423,0.08579967621411604,0.24955262838041717,-0.5000000001031397,0.25104992292906914,0.002935336271767614,0.08581491655029659,-0.771378581240782,-0.7180723483341174,0.24642784423673636,-0.0005151183369413498,0.999846049284806,0.012327112344354222,0.012476164631561218
4.2,-2.2310650153637637,-2.331268263926552,-1.2753663301991518,-1.140546221919882,1.5753671290152254,-0.6613820649767084,-0.04144124360285539,-0.12053391948282419,0.24149999999991137,-0.12125711274968339,-0.0014177674189708009,-0.04144860468522783,0.08579967621143068,0.2495526283725901,-0.5000000000875133,0.2510499229212143,0.0029353362716758903,0.08581491654761124,-0.7804412293192126,-0.7219560416281802,0.2476430803403119,-0.000516847992332468,0.9998459509060875,0.01233060932403486,0.0124805207644762
4.3,-2.234782295003098,-2.3420801567605736,-1.2537037796854156,-1.1514229851914797,1.5752399552747278,-0.6651000049051472,-0.03286127598321653,-0.09557865664994114,0.19149999999992937,-0.09615212046196407,-0.0011242337918546908,-0.03286711303197149,0.08579967620862737,0.24955262836444383,-0.5000000000711653,0.2510499229130264,0.002935336271580047,0.08581491654480793,-0.7877671252164119,-0.7249652037635123,0.24860621780599876,-0.0005182551360408754,0.9998458662749818,0.012333610307131086,0.012484276560412809
4.4,-2.2376415778804684,-2.350396523311306,-1.2370412291716792,-1.1597892492343043,1.5751421348969417,-0.6679597956682599,-0.024281308363577992,-0.07062339381705904,0.14149999999994922,-0.0710471281742457,-0.0008307001647385919,-0.02428562137871547,0.08579967620518568,0.24955262835442407,-0.500000000051098,0.25104992290293726,0.0029353362714620856,0.08581491654136277,-0.7933782062154475,-0.7271905091531936,0.24933220381149446,-0.0005193386203525025,0.9998457983100004,0.012336015140860954,0.012487298333899983
4.5,-2.239642863995874,-2.3562173635787493,-1.225378678657943,-1.165645014048356,1.575073667881867,-0.669961437266047,-0.01570134074393945,-0.04566813098417693,0.09149999999996904,-0.04594213588652732,-0.0005371665376224927,-0.015704129725459443,0.08579967620174746,0.2495526283444182,-0.5000000000310585,0.25104992289287587,0.0029353362713444497,0.08581491653792454,-0.7972927122220286,-0.7287018276295495,0.24983262871990936,-0.0005200975624685357,0.9998457492560233,0.012337747891862164,0.012489482380925915
4.6,-2.240786153349316,-2.359542677562904,-1.2187161281442067,-1.1689902796336353,1.5750345542295043,-0.6711049296985079,-0.007121373124300908,-0.020712868151294823,0.04149999999998889,-0.020837143598808946,-0.0002436329105063937,-0.007122638072203419,0.08579967619830577,0.24955262833440536,-0.5000000000109912,0.2510499228828006,0.002935336271226678,0.08581491653448112,-0.799524115502981,-0.7295481155755504,0.25011565202964126,-0.0005205313444970837,0.9998457206843006,0.01233875598565784,0.01249075566718858
4.68325101,-2.2410834805747526,-2.3604074685955836,-1.2169834454662665,-1.1698602593389706,1.5750243822168823,-0.6714023097372777,3.777393941674162e-17,1.098673827416921e-16,-2.2012868283014557e-16,1.1052657769517206e-16,1.2923034140689526e-18,3.778064908699773e-17,0.08579967622416736,0.24955262840962628,-0.5000000001617017,0.2510499229584738,0.0029353362721114534,0.08581491656034712,-0.8001038329245939,-0.7297661666485475,0.2501889148538286,-0.0005206441808289623,0.999845713188528,0.012339020316607505,0.012491089855855229
