mathias31415/primitives_from_planned_trajectory_python/data/saved_trajectories/trajectory_20250624_125509_planned.csv
time_from_start,shoulder_pan_joint_pos,shoulder_lift_joint_pos,elbow_joint_pos,wrist_1_joint_pos,wrist_2_joint_pos,wrist_3_joint_pos,shoulder_pan_joint_vel,shoulder_lift_joint_vel,elbow_joint_vel,wrist_1_joint_vel,wrist_2_joint_vel,wrist_3_joint_vel,shoulder_pan_joint_acc,shoulder_lift_joint_acc,elbow_joint_acc,wrist_1_joint_acc,wrist_2_joint_acc,wrist_3_joint_acc,fk_x,fk_y,fk_z,fk_qx,fk_qy,fk_qz,fk_qw
0.0,-2.0403984957019246,-1.9171691901316832,-2.436304228910136,-0.39230639628747443,1.5818591839639156,-0.47069756277506336,-0.0003169620419388541,-7.740122603012458e-05,0.0005,-0.00042394242054345153,-1.1116563000782565e-05,-0.0003165459237083141,-0.3169620419388541,-0.07740122603012457,0.5,-0.42394242054345155,-0.011116563000782564,-0.3165459237083141,-0.39157300109288184,-0.38963900012336755,0.10140300043997937,-0.0004552675693318162,0.9998452391867337,0.01237756717096927,0.01249344780241149
0.1,-2.041983305911619,-1.9175561962618337,-2.433804228910136,-0.3944261083901917,1.5818036011489118,-0.4722802923936049,-0.031696204193885254,-0.007740122603012418,0.049999999999999746,-0.04239424205434494,-0.0011116563000782508,-0.03165459237083125,-0.316962041938727,-0.07740122603009339,0.49999999999979877,-0.42394242054327697,-0.011116563000777966,-0.31654592370818746,-0.39280973806624686,-0.3902201073174956,0.10174701169776278,-0.0004546729636820456,0.9998453366500902,0.012373386439016918,0.012489810230523802
0.2,-2.0467377365407016,-1.9187172146522857,-2.4263042289101358,-0.4007852446983434,1.5816368527038998,-0.4770284812492296,-0.06339240838777001,-0.015480245206024715,0.09999999999999871,-0.08478848410868922,-0.0022233126001564843,-0.063309184741662,-0.3169620419380817,-0.0774012260299338,0.49999999999877875,-0.42394242054241654,-0.011116563000755197,-0.31654592370752827,-0.3965342939519782,-0.3919407410339806,0.10279284613764698,-0.0004528902634763308,0.9998456243373687,0.012361099089157859,0.012479006896965615
0.30000000000000004,-2.054661787589173,-1.9206522453030388,-2.413804228910136,-0.41138380521192974,1.5813589386288802,-0.4849421293419375,-0.09508861258165513,-0.0232203678090371,0.14999999999999825,-0.12718272616303397,-0.0033349689002347307,-0.09496377711249313,-0.3169620419374711,-0.07740122602978634,0.4999999999978073,-0.4239424205415839,-0.011116563000733947,-0.3165459237069315,-0.4027889494986774,-0.3947322439757926,0.10458179060988987,-0.0004499228190712436,0.9998460881402317,0.012341465540574272,0.012461373457356241
0.4,-2.0657554590570326,-1.9233612882140931,-2.396304228910136,-0.4262217899309505,1.580969858923853,-0.4960212366717284,-0.1267848167755384,-0.030960490412049037,0.19999999999999488,-0.16957696821737628,-0.004446625200312912,-0.1266183694833224,-0.3169620419359584,-0.07740122602941858,0.49999999999542033,-0.4239424205395855,-0.011116563000681038,-0.31654592370541884,-0.411641628253946,-0.3984782450442466,0.1071822637942656,-0.0004457762148171292,0.9998467045449018,0.012315739186184017,0.012437494223681045
0.5,-2.080018750944281,-1.9268443433854485,-2.373804228910136,-0.44529919885540564,1.5804696135888179,-0.5102658032386025,-0.15848102096942737,-0.03870061301506236,0.2500000000000005,-0.2119712102717262,-0.0055582815003912935,-0.15827296185415737,-0.316962041940316,-0.07740122603047676,0.5000000000023037,-0.4239424205453864,-0.011116563000833694,-0.31654592370977647,-0.42318197550280295,-0.40301187647172837,0.11068919605685028,-0.00044045826969077147,0.9998474406323417,0.012285644589205159,0.012408238976434989
0.6000000000000001,-2.097451663250918,-1.9311014108171056,-2.346304228910136,-0.4686160319852954,1.5798582026237749,-0.5276758290425597,-0.19017722516330537,-0.04644073561807301,0.29999999999998883,-0.25436545232606145,-0.006669937800469291,-0.18992755422498137,-0.31696204193368244,-0.07740122602886694,0.49999999999189537,-0.4239424205365601,-0.01111656300060124,-0.3165459237031429,-0.43751566846706974,-0.4081121458637918,0.11522309967458995,-0.0004339790381794847,0.9998482540785099,0.012253345289536238,0.012374813435574748
0.7000000000000001,-2.11723984913035,-1.9359336293332758,-2.3150888414801654,-0.4950830857958226,1.5791641869818565,-0.5474380363384259,-0.199153124484378,-0.04863262461501482,0.31415926535896854,-0.26637087878486726,-0.006984742531285083,-0.19889166968916014,6.766975462240485e-12,1.657076983069135e-12,-1.0705133313216504e-11,9.09658996563475e-12,2.3833481712552937e-13,6.766975462240485e-12,-0.4540694475146227,-0.413300161291948,0.12069615706912859,-0.000426651731460345,0.9998490625032393,0.012222536249379724,0.01234016966358095
0.8,-2.1371551615787885,-1.9407968917947773,-2.283672914944268,-0.5217201736743098,1.5784657127287278,-0.5673272033073422,-0.199153124484378,-0.04863262461501482,0.31415926535896854,-0.26637087878486726,-0.006984742531285083,-0.19889166968916014,6.766975462240485e-12,1.657076983069135e-12,-1.0705133313216504e-11,9.09658996563475e-12,2.3833481712552937e-13,6.766975462240485e-12,-0.47100770057062885,-0.41786063753339825,0.12655059315210085,-0.0004193066646686229,0.9998497527485883,0.01219766310878972,0.012309066788024813
0.9,-2.1570704740272273,-1.9456601542562793,-2.252256988408369,-0.5483572615527983,1.5777672384755994,-0.5872163702762596,-0.19915312448440006,-0.0486326246150198,0.31415926535900335,-0.2663708787848968,-0.006984742531285448,-0.19889166968918215,-1.522569479004109e-11,-3.7093564265355116e-12,2.4017216189755162e-11,-2.035639339870703e-11,-5.330033182989112e-13,-1.5197961284048302e-11,-0.48819677887747526,-0.42174327103530485,0.13274750118690762,-0.00041199100912590344,0.9998503192271472,0.012178779058052888,0.01228196830460452
1.0,-2.1769857864756665,-1.9505234167177807,-2.22084106187247,-0.5749943494312869,1.5770687642224708,-0.607105537245177,-0.19915312448440006,-0.0486326246150198,0.31415926535900335,-0.2663708787848968,-0.006984742531285448,-0.19889166968918215,-1.522569479004109e-11,-3.7093564265355116e-12,2.4017216189755162e-11,-2.035639339870703e-11,-5.330033182989112e-13,-1.5197961284048302e-11,-0.505607755908181,-0.42493442117699753,0.1392817662573013,-0.0004047047689887514,0.9998507619401699,0.012165712721601057,0.012259098485905517
1.1,-2.196901098924104,-1.9553866791792822,-2.189425135336574,-0.6016314373097726,1.5763702899693426,-0.6269947042140922,-0.19915312448435582,-0.048632624615008994,0.31415926535893357,-0.2663708787848376,-0.006984742531283897,-0.19889166968913796,2.8981513762461156e-11,7.0859107811567704e-12,-4.570481787611099e-11,3.877144137791454e-11,1.0174730011103288e-12,2.895378025646837e-11,-0.5232110861552676,-0.4274217282054935,0.14614802646219527,-0.0003974479484063416,0.9998510808889267,0.012158286205004948,0.012240676326508148
1.2,-2.216816411372541,-1.9602499416407833,-2.1580092088006784,-0.6282685251882584,1.575671815716214,-0.6468838711830075,-0.19915312448435582,-0.048632624615008994,0.31415926535893357,-0.2663708787848376,-0.006984742531283897,-0.19889166968913796,2.8981513762461156e-11,7.0859107811567704e-12,-4.570481787611099e-11,3.877144137791454e-11,1.0174730011103288e-12,2.895378025646837e-11,-0.5409766633003742,-0.42919414066247175,0.15334067671351076,-0.00039022055152175485,0.9998512760747045,0.01215631523803389,0.012226915373057643
1.3,-2.236731723820978,-1.9651132041022847,-2.126593282264783,-0.654905613066744,1.5749733414630855,-0.6667730381519228,-0.19915312448435582,-0.048632624615008994,0.31415926535893357,-0.2663708787848376,-0.006984742531283897,-0.19889166968913796,2.8981513762461156e-11,7.0859107811567704e-12,-4.570481787611099e-11,3.877144137791454e-11,1.0174730011103288e-12,2.895378025646837e-11,-0.5588738795873828,-0.4302419401306476,0.16085387270568163,-0.0003830225824694578,0.9998513474988057,0.01215960932188292,0.012218023557958344
1.4,-2.256647036269415,-1.9699764665637858,-2.095177355728887,-0.6815427009452298,1.5742748672099571,-0.6866622051208381,-0.19915312448435582,-0.048632624615008994,0.31415926535893357,-0.2663708787848376,-0.006984742531283897,-0.19889166968913796,2.8981513762461156e-11,7.0859107811567704e-12,-4.570481787611099e-11,3.877144137791454e-11,1.0174730011103288e-12,2.895378025646837e-11,-0.5768716862745364,-0.4305567632468672,0.16868153505403033,-0.0003758540453769728,0.9998512951625499,0.01216797188047892,0.012214203036783033
1.5,-2.276562348717852,-1.974839729025287,-2.0637614291929913,-0.7081797888237155,1.5735763929568285,-0.7065513720897533,-0.19915312448435643,-0.04863262461500894,0.31415926535893324,-0.26637087878483734,-0.006984742531284298,-0.19889166968913777,2.917564830441066e-11,7.127511040145949e-12,-4.6037619948024416e-11,3.899330942585683e-11,1.0235397055462508e-12,2.914791479841787e-11,-0.5949386550387177,-0.4301316209350323,0.17681735359908635,-0.000368714944364662,0.9998511190672725,0.01218120041577857,0.012215650029502007
1.6,-2.296477661166289,-1.9797029914867885,-2.032345502657096,-0.7348168767022012,1.5728779187037003,-0.7264405390586686,-0.19915312448435643,-0.04863262461500894,0.31415926535893324,-0.26637087878483734,-0.006984742531284298,-0.19889166968913777,2.917564830441066e-11,7.127511040145949e-12,-4.6037619948024416e-11,3.899330942585683e-11,1.0235397055462508e-12,2.914791479841787e-11,-0.613043040203035,-0.4289609148178958,0.18525479187382216,-0.00036160528354552444,0.999850819214325,0.012199086666960455,0.012222554665618234
1.7000000000000002,-2.316392973614726,-1.9845662539482898,-2.0009295761212003,-0.7614539645806869,1.5721794444505717,-0.7463297060275838,-0.19915312448435643,-0.04863262461500894,0.31415926535893324,-0.26637087878483734,-0.006984742531284298,-0.19889166968913777,2.917564830441066e-11,7.127511040145949e-12,-4.6037619948024416e-11,3.899330942585683e-11,1.0235397055462508e-12,2.914791479841787e-11,-0.6311528416570945,-0.4270404507727466,0.19398709173064801,-0.00035452506702492284,0.9998503956050756,0.01222141677342232,0.012235100833304327
1.8,-2.336308286063163,-1.9894295164097908,-1.9695136495853045,-0.7880910524591727,1.5714809701974433,-0.7662188729964989,-0.19915312448435643,-0.04863262461500894,0.31415926535893324,-0.26637087878483734,-0.006984742531284298,-0.19889166968913777,2.917564830441066e-11,7.127511040145949e-12,-4.6037619948024416e-11,3.899330942585683e-11,1.0235397055462508e-12,2.914791479841787e-11,-0.6492358683378732,-0.42436744960208694,0.20300727812490804,-0.00034747429890115926,0.9998498482409083,0.01224797144148413,0.012253466032633747
1.9,-2.3562235985116002,-1.9942927788712923,-1.9380977230494087,-0.8147281403376583,1.5707824959443146,-0.7861080399654142,-0.19915312448435643,-0.04863262461500894,0.31415926535893324,-0.26637087878483734,-0.006984742531284298,-0.19889166968913777,2.917564830441066e-11,7.127511040145949e-12,-4.6037619948024416e-11,3.899330942585683e-11,1.0235397055462508e-12,2.914791479841787e-11,-0.6672598021379105,-0.4209405547965322,0.21230816405150205,-0.0003404529832654371,0.9998491771232237,0.012278526114699373,0.012277821232986671
2.0,-2.3761389109600377,-1.9991560413327936,-1.9066817965135134,-0.8413652282161439,1.5700840216911864,-0.8059972069343294,-0.19915312448435576,-0.04863262461500939,0.3141592653589335,-0.26637087878483756,-0.006984742531284304,-0.19889166968913793,2.8981513762461156e-11,7.0859107811567704e-12,-4.570481787611099e-11,3.877144137791454e-11,1.0166063290480542e-12,2.895378025646837e-11,-0.6851922621066281,-0.4167598373733458,0.2218823556311578,-0.0003334611242007994,0.9998483822534387,0.012312851147671933,0.012308330734721961
2.1,-2.396054223408479,-2.004019303794296,-1.875265869977611,-0.8680023160946355,1.5693855474380578,-0.8258863739032491,-0.1991531244844442,-0.04863262461503099,0.314159265359073,-0.26637087878495586,-0.006984742531287406,-0.19889166968922625,-5.937743633056756e-11,-1.4497690257731991e-11,9.368378324365119e-11,-7.942876116335613e-11,-2.0826129656462205e-12,-5.929423581258918e-11,-0.7030008688099694,-0.41182679778024345,0.2317222573427611,-0.0003264987257841586,0.9998474636329865,0.012350711983279718,0.012345152035194271
2.2,-2.415865269509513,-2.0088571047113377,-1.8440144210977223,-0.8944999458618951,1.5686907300373796,-0.8456714114090639,-0.19081114924722536,-0.046595538070143584,0.3010000000000555,-0.2552133371672049,-0.006692170926472338,-0.19056064607244022,0.3169620419017432,0.07740122602106234,-0.49999999994143574,0.4239424204938081,0.011116562999480977,0.3165459236712591,-0.7205613520667484,-0.4061760596899928,0.24176655250941437,-0.0003196020126300395,0.9998464270428734,0.012391645690468906,0.012388192008341735
2.3,-2.4333827714823917,-2.013134828698072,-1.816380982933133,-0.9179299191887627,1.5680763523248098,-0.863165915827157,-0.15911494505330726,-0.03885541546712314,0.25100000000000394,-0.21281909511281602,-0.005580514626392936,-0.15890605370157618,0.31696204193521643,0.07740122602923635,-0.49999999999428235,0.4239424205386056,0.011116563000654518,0.3165459237046768,-0.7359347283013573,-0.40056515026436584,0.25085433497752885,-0.00031352803097901735,0.9998454084489097,0.012430365803638745,0.012431689740115959
2.4,-2.4477306530358804,-2.0166385404245037,-1.793747544768546,-0.9371204683101938,1.567573140242248,-0.8774949610081654,-0.12741874085936414,-0.031115292864096592,0.2009999999999129,-0.17042485305839367,-0.004468858326312655,-0.12725146133068713,0.3169620419935844,0.07740122604349263,-0.5000000000863476,0.4239424206166603,0.011116563002701758,0.31654592376296176,-0.7484027257697089,-0.3955427077325522,0.2584379725155833,-0.0003085700637114219,0.9998445028355394,0.012463722129410089,0.012471189387932612
2.5,-2.45890891416998,-2.0193682398906345,-1.7761141066039592,-0.9520715932261902,1.5671810937896937,-0.8886585469520905,-0.0957225366655595,-0.023375170261103858,0.1510000000000403,-0.12803061100415652,-0.003357202026237231,-0.09559686895993637,0.3169620419136226,0.07740122602396626,-0.4999999999601985,0.4239424205097398,0.011116562999897744,0.3165459236831246,-0.7580309313628005,-0.39136517092199546,0.26443164418058684,-0.0003047179738543377,0.9998437527703508,0.012490669519065368,0.012504413941625554
2.6,-2.4669175548846916,-2.0213239270964642,-1.763480668439372,-0.9627832939367523,1.5669002129671474,-0.8966566736589328,-0.06402633247164251,-0.015635047658083694,0.10099999999999051,-0.08563636894976917,-0.002245545726157867,-0.06394227658907344,0.31696204194488925,0.07740122603159558,-0.5000000000095063,0.42394242055151193,0.01111656300099409,0.31654592371433576,-0.7648795746079078,-0.38823050957518,0.26877084749521324,-0.00030196386265438936,0.9998431914168114,0.01251046526274524,0.012529551236204778
2.7,-2.471756575180015,-2.0225056020419925,-1.7558472302747852,-0.9692555704418799,1.566730497774609,-0.9014893411286916,-0.03233012827775411,-0.007894925055070506,0.050999999999985786,-0.04324212689542001,-0.0011338894260795058,-0.03228768421823904,0.3169620419479999,0.07740122603235854,-0.500000000014426,0.42394242055568315,0.01111656300110311,0.31654592371744616,-0.7689966903375567,-0.3862794092569996,0.27141066195476493,-0.00030030207044363065,0.9998428425345836,0.012522616277255294,0.01254528328110228
2.8,-2.4734259750559495,-2.02291326472722,-1.753213792110198,-0.971488422741573,1.5666719482120786,-0.9031565493613675,-0.0006339240838776083,-0.00015480245206022476,0.0009999999999998424,-0.0008478848410867695,-2.2233126001561627e-05,-0.0006330918474165285,0.3169620419529241,0.0774012260335604,-0.5000000000221949,0.4239424205622704,0.011116563001276026,0.31654592372236556,-0.7704132669910355,-0.38559636164027106,0.27232447435982615,-0.000299729177257867,0.999842720479753,0.012526840560355015,0.012550806015645132
2.802668763,-2.4734271038049296,-2.0229135403644993,-1.7532120115358216,-0.9714899324635953,1.5666719086243441,-0.903157676628489,-6.870309412431308e-17,-1.677709950616336e-17,1.0837747905720324e-16,-9.189162160781595e-17,-2.4095701476107858e-18,-6.861289843468174e-17,0.3169620420234167,0.07740122605077453,-0.5000000001333955,0.4239424206565556,0.011116563003748366,0.3165459237927657,-0.7704142241326586,-0.38559589808080946,0.27232509276302813,-0.00029972878997176864,0.9998427203969327,0.012526843422109774,0.012550809766373882
