mathias31415/primitives_from_planned_trajectory_python/data/saved_trajectories/trajectory_20250618_172406_planned.csv
time_from_start,shoulder_pan_joint_pos,shoulder_lift_joint_pos,elbow_joint_pos,wrist_1_joint_pos,wrist_2_joint_pos,wrist_3_joint_pos,shoulder_pan_joint_vel,shoulder_lift_joint_vel,elbow_joint_vel,wrist_1_joint_vel,wrist_2_joint_vel,wrist_3_joint_vel,shoulder_pan_joint_acc,shoulder_lift_joint_acc,elbow_joint_acc,wrist_1_joint_acc,wrist_2_joint_acc,wrist_3_joint_acc,fk_x,fk_y,fk_z,fk_qx,fk_qy,fk_qz,fk_qw
0.0,-1.9092181433261715,-1.852021719150402,-2.0417902867867825,-0.8503065683687598,1.5860492263195054,-0.3394570435551145,0.00031093990983991964,0.00028423347903886505,0.0003027526095095403,-0.00015651395396043568,-0.00029744862649506645,0.0005,0.31093990983991965,0.28423347903886503,0.3027526095095403,-0.1565139539604357,-0.2974486264950664,0.5,-0.3961460010402526,-0.6063399999831546,0.25853299998771884,-0.00039654759204914747,0.9998450078611539,0.01242579934055738,0.012466054543611839
0.1,-1.9076634437769717,-1.8506005517552075,-2.0402765237392346,-0.8510891381385619,1.5845619831870301,-0.3369570435551145,0.031093990983991637,0.028423347903886207,0.030275260950953713,-0.015651395396043405,-0.029744862649506335,0.049999999999999475,0.31093990983962316,0.284233479038595,0.3027526095092517,-0.15651395396028783,-0.2974486264947851,0.49999999999952816,-0.3955535623693845,-0.6074322170084349,0.2602482229797083,5.682558393520571e-05,0.9998669699873034,0.011681340866948253,0.011383557212578948
0.2,-1.902999345129373,-1.8463370495696247,-2.035735234596592,-0.8534368474479685,1.580100253789604,-0.3294570435551145,0.06218798196798356,0.05684669580777267,0.060550521901907704,-0.03130279079208695,-0.05948972529901294,0.09999999999999941,0.3109399098394011,0.2842334790383938,0.3027526095090366,-0.1565139539601751,-0.29744862649457,0.49999999999916733,-0.39375287099839934,-0.6106811943764566,0.2654117073945463,0.0014266558675041525,0.9999213471216299,0.00942186391869543,0.008154305844031836
0.30000000000000004,-1.8952258473833752,-1.839231212593653,-2.028166419358853,-0.8573496962969794,1.5726640381272274,-0.3169570435551145,0.0932819729519738,0.0852700437116576,0.09082578285286005,-0.04695418618812965,-0.08923458794851793,0.14999999999999664,0.31093990983717373,0.2842334790363607,0.3027526095068647,-0.1565139539590614,-0.2974486264924467,0.49999999999558686,-0.3906747415574422,-0.6160025970352786,0.2740761657968361,0.0037419271418843874,0.9999734717759857,0.005569733366180007,0.0028340423032408094
0.4,-1.884342950538978,-1.8292830408272927,-2.017570078026019,-0.8628276846855948,1.5622533361999,-0.2994570435551144,0.124375963935964,0.11369339161554251,0.12110104380381238,-0.06260558158417234,-0.11897945059802291,0.19999999999999382,0.31093990983492553,0.2842334790343068,0.3027526095046859,-0.15651395395793036,-0.29744862649029563,0.49999999999197864,-0.3862070885409584,-0.623251544863653,0.2863269761287673,0.007050444814820281,0.9999651054814503,-2.155403864611423e-06,-0.004480964487623129
0.5,-1.8703506545961812,-1.8164925342705436,-2.0039462105980896,-0.8698708126138144,1.5488681480076218,-0.2769570435551142,0.15546995491996513,0.14211673951943737,0.15137630475477531,-0.07825697698022051,-0.1487243132475383,0.25000000000000855,0.3109399098435714,0.28423347904221713,0.30275260951309585,-0.15651395396226717,-0.2974486264985529,0.5000000000058842,-0.3802000643165692,-0.6322163410444003,0.30227836198789343,0.01141806186224431,0.9998137728846057,-0.007466752698966169,-0.01364899328494969
0.6000000000000001,-1.8532489595549855,-1.8008596929234058,-1.9872948170750648,-0.8784790800816384,1.532508473550393,-0.2494570435551139,0.18656394590395534,0.1705400874233223,0.18165156570572766,-0.0939083723762632,-0.17846917589704328,0.30000000000000576,0.3109399098413232,0.2842334790401632,0.3027526095109309,-0.15651395396115694,-0.29744862649641574,0.5000000000023315,-0.3724738416787387,-0.6426101409965471,0.32206784008527145,0.016927551384695122,0.9994118764280197,-0.017037403972911692,-0.024476235915825623
0.7000000000000001,-1.8338367400487985,-1.7831147765858721,-1.9683937370725144,-0.8882503675037821,1.5139385253172801,-0.21824165612514201,0.19536930729219637,0.17858916193055663,0.1902250747780657,-0.09834061758928096,-0.18689248396345842,0.31415926535898503,3.5498887670769753e-12,3.244820201156298e-12,3.466688249098609e-12,-1.8026778895312766e-12,-3.411221237113031e-12,5.713102234514507e-12,-0.36322086372886114,-0.6536260602221615,0.34490101644768156,0.023405466171121672,0.9986631696678555,-0.028476700991231185,-0.03623720743821826
0.8,-1.8142998093195788,-1.7652558603928166,-1.949371229594708,-0.89808442926271,1.4952492769209345,-0.18682572958924382,0.19536930729219637,0.17858916193055663,0.1902250747780657,-0.09834061758928096,-0.18689248396345842,0.31415926535898503,3.5498887670769753e-12,3.244820201156298e-12,3.466688249098609e-12,-1.8026778895312766e-12,-3.411221237113031e-12,5.713102234514507e-12,-0.35342701464371507,-0.6638374280422086,0.36825244950692976,0.030160315039353968,0.99759181561179,-0.0405816113051869,-0.04747691696997621
0.9,-1.7947628785903602,-1.747396944199762,-1.9303487221169024,-0.9079184910216377,1.4765600285245897,-0.155409803053347,0.19536930729217458,0.17858916193053673,0.1902250747780449,-0.09834061758926979,-0.1868924839634376,0.31415926535895,-1.822091343726229e-11,-1.6640103595673324e-11,-1.772171032939209e-11,9.165923730616722e-12,1.741664176347141e-11,-2.928658232838505e-11,-0.34319109617099897,-0.6731355025721344,0.3919489858651929,0.0371455941139954,0.9961978176058338,-0.053252095916984474,-0.058088960360300285
1.0,-1.775225947861142,-1.7295380280067074,-1.911326214639097,-0.9177525527805651,1.4578707801282451,-0.1239938765174506,0.19536930729221796,0.1785891619305764,0.19022507477808714,-0.09834061758929163,-0.1868924839634791,0.3141592653590198,2.5126556429469506e-11,2.2991076468024523e-11,2.448868579163529e-11,-1.2660345485709523e-11,-2.4044949695750618e-11,4.043545173749066e-11,-0.3325562247106624,-0.6814874127748141,0.41596215639651607,0.04435548074118773,0.9944775910088582,-0.06645823601974593,-0.0680456844669809
1.1,-1.7556890171319213,-1.7116791118136507,-1.8923037071612896,-0.9275866145394935,1.4391815317318981,-0.09257794998155058,0.19536930729221796,0.1785891619305764,0.19022507477808714,-0.09834061758929163,-0.1868924839634791,0.3141592653590198,2.5126556429469506e-11,2.2991076468024523e-11,2.448868579163529e-11,-1.2660345485709523e-11,-2.4044949695750618e-11,4.043545173749066e-11,-0.32156752018388546,-0.6888627961543478,0.4402627723484263,0.05178398746336082,0.9924277677648937,-0.08016876121526617,-0.07732085188870029
1.2,-1.736152086402701,-1.6938201956205945,-1.873281199683482,-0.9374206762984221,1.4204922833355516,-0.061162023445650596,0.19536930729221796,0.1785891619305764,0.19022507477808714,-0.09834061758929163,-0.1868924839634791,0.3141592653590198,2.5126556429469506e-11,2.2991076468024523e-11,2.448868579163529e-11,-1.2660345485709523e-11,-2.4044949695750618e-11,4.043545173749066e-11,-0.3102719676279023,-0.6952339234117304,0.4648209639414963,0.05942496740986401,0.9900452001100192,-0.09435111705321964,-0.08588970659082684
1.3,-1.71661515567348,-1.6759612794275378,-1.8542586922056747,-0.9472547380573506,1.4018030349392048,-0.029746096909750705,0.19536930729221796,0.1785891619305764,0.19022507477808714,-0.09834061758929163,-0.1868924839634791,0.3141592653590198,2.5126556429469506e-11,2.2991076468024523e-11,2.448868579163529e-11,-1.2660345485709523e-11,-2.4044949695750618e-11,4.043545173749066e-11,-0.29871827134172363,-0.7005758152038218,0.4896062201449042,0.06727211980976441,0.9873269641083033,-0.10897153573197474,-0.09372903627583537
1.4,-1.6970782249442598,-1.6581023632344813,-1.835236184727867,-0.957088799816279,1.383113786542858,0.0016698296261492146,0.19536930729221796,0.1785891619305764,0.19022507477808714,-0.09834061758929163,-0.1868924839634791,0.3141592653590198,2.5126556429469506e-11,2.2991076468024523e-11,2.448868579163529e-11,-1.2660345485709523e-11,-2.4044949695750618e-11,4.043545173749066e-11,-0.28695670203390433,-0.704866350562923,0.5145874295726789,0.07531899562208312,0.9842703630136361,-0.12399510980276318,-0.10081723134705849
1.5,-1.6775412942150392,-1.640243447041425,-1.8162136772500594,-0.9669228615752077,1.3644245381465114,0.033085756162049146,0.1953693072922184,0.17858916193057642,0.19022507477808678,-0.09834061758929186,-0.18689248396347874,0.3141592653590198,2.5126556429469506e-11,2.2991076468024523e-11,2.448868579163529e-11,-1.2660345485709523e-11,-2.4044949695750618e-11,4.043545173749066e-11,-0.27503893744954294,-0.7080863665602976,0.5397329224434364,0.08355900327864706,0.9808729304544316,-0.13938586871177133,-0.1071343403222312
1.6,-1.6580043634858188,-1.6223845308483686,-1.7971911697722525,-0.9767569233341363,1.3457352897501649,0.06450168269794912,0.1953693072922184,0.17858916193057642,0.19022507477808678,-0.09834061758929186,-0.18689248396347874,0.3141592653590198,2.5126556429469506e-11,2.2991076468024523e-11,2.448868579163529e-11,-1.2660345485709523e-11,-2.4044949695750618e-11,4.043545173749066e-11,-0.2630178969782809,-0.710219748824563,0.5650105135445671,0.09198541453465364,0.9771324334383231,-0.15510685800789714,-0.11266212156136175
1.7000000000000002,-1.638467432756598,-1.604525614655312,-1.7781686622944446,-0.9865909850930648,1.327046041353818,0.09591760923384907,0.1953693072922184,0.17858916193057642,0.19022507477808678,-0.09834061758929186,-0.18689248396347874,0.3141592653590198,2.5126556429469506e-11,2.2991076468024523e-11,2.448868579163529e-11,-1.2660345485709523e-11,-2.4044949695750618e-11,4.043545173749066e-11,-0.2509475707680132,-0.7112535125548797,0.590387546140073,0.10059137042194607,0.9730468751741235,-0.17112022103748495,-0.11738409118185929
1.8,-1.6189305020273772,-1.5866666984622553,-1.7591461548166372,-0.9964250468519933,1.3083567929574715,0.12733353576974904,0.1953693072922184,0.17858916193057642,0.19022507477808678,-0.09834061758929186,-0.18689248396347874,0.3141592653590198,2.5126556429469506e-11,2.2991076468024523e-11,2.448868579163529e-11,-1.2660345485709523e-11,-2.4044949695750618e-11,4.043545173749066e-11,-0.23888284389030728,-0.7111778736992396,0.6158309367595919,0.10936988729992683,0.9686144977084686,-0.18738728294133913,-0.1212855670425578
1.9,-1.5993935712981568,-1.5688077822691988,-1.7401236473388297,-1.0062591086109218,1.289667544561125,0.158749462305649,0.1953693072922184,0.17858916193057642,0.19022507477808678,-0.09834061758929186,-0.18689248396347874,0.3141592653590198,2.5126556429469506e-11,2.2991076468024523e-11,2.448868579163529e-11,-1.2660345485709523e-11,-2.4044949695750618e-11,4.043545173749066e-11,-0.22687931612302217,-0.709986309999784,0.6413072208045925,0.11831386299895089,0.9638337843747146,-0.20386863676374029,-0.12435370868725999
2.0,-1.5798566405689363,-1.5509488660761426,-1.7211011398610223,-1.0160931703698506,1.2709782961647782,0.19016538884154893,0.1953693072921312,0.17858916193049706,0.19022507477800263,-0.09834061758924795,-0.18689248396339606,0.3141592653588802,-6.154064979799168e-11,-5.627128365936238e-11,-5.99598399564029e-11,3.099219294693813e-11,5.887823322268424e-11,-9.900861639424528e-11,-0.21499311793329334,-0.7076756116398464,0.6667825989062226,0.127416083050972,0.9587034620518098,-0.22052423147801786,-0.1265775531476716
2.1,-1.5603197098397157,-1.533089949883086,-1.7020786323832149,-1.025927232128779,1.2522890477684314,0.2215813153774488,0.19536930729221788,0.1785891619305763,0.19022507477808703,-0.09834061758929158,-0.186892483963479,0.3141592653590196,2.5071089417483922e-11,2.290787595004615e-11,2.4377751767664122e-11,-1.260487847372394e-11,-2.3989482683765034e-11,4.026905070153391e-11,-0.20328072325980834,-0.7042459212612387,0.6922229839679339,0.1366692270021467,0.9532225032310241,-0.23731346172855075,-0.1279480465150901
2.2,-1.5407827791104953,-1.5152310336900296,-1.6830561249054075,-1.0357612938877074,1.2335997993720849,0.25299724191334877,0.19536930729221788,0.1785891619305763,0.19022507477808703,-0.09834061758929158,-0.186892483963479,0.3141592653590196,2.5071089417483922e-11,2.290787595004615e-11,2.4377751767664122e-11,-1.260487847372394e-11,-2.3989482683765034e-11,4.026905070153391e-11,-0.191798759707081,-0.6997007631550496,0.7175940488247229,0.1460658748020312,0.9473901278885671,-0.25419525908481944,-0.1284580711999184
2.3,-1.5212458483812747,-1.497372117496973,-1.6640336174276,-1.045595355646636,1.214910550975738,0.2844131684492488,0.19536930729221788,0.1785891619305763,0.19022507477808703,-0.09834061758929158,-0.186892483963479,0.3141592653590196,2.5071089417483922e-11,2.290787595004615e-11,2.4377751767664122e-11,-1.260487847372394e-11,-2.3989482683765034e-11,4.026905070153391e-11,-0.18060381677620474,-0.6940470614647744,0.7428612744496556,0.15559851326395274,0.9412058051622895,-0.27112818459937943,-0.1281024688079771
2.4,-1.5017089176520577,-1.4795132013039198,-1.645011109949796,-1.0554294174055627,1.1962213025793949,0.31582909498514294,0.19536930729213128,0.17858916193049712,0.1902250747780027,-0.09834061758924799,-0.18689248396339614,0.31415926535888034,-6.145744927999969e-11,-5.621581664736433e-11,-5.987663943841124e-11,3.095059268794208e-11,5.879503270469284e-11,-9.88976823702522e-11,-0.16975225276625897,-0.6872951472768802,0.7679899986372644,0.1652595425910757,0.9346692548308247,-0.28807052245832,-0.12687805857266954
2.5,-1.4821719869228416,-1.4616542851108671,-1.6259886024719927,-1.065263479164489,1.177532054183052,0.3472450215210358,0.1953693072921314,0.17858916193049723,0.1902250747780024,-0.09834061758924845,-0.18689248396339628,0.31415926535888034,-6.145744927999969e-11,-5.621581664736433e-11,-5.987663943841124e-11,3.095059268794208e-11,5.879503270469284e-11,-9.88976823702522e-11,-0.15930000098810967,-0.6794587545107175,0.7929454650924783,0.17504128296264498,0.9277804485936786,-0.3049803745100171,-0.12478365129228104
2.6,-1.4626350561936252,-1.4437953689178147,-1.6069660949941895,-1.0750975409234154,1.1588428057867097,0.3786609480569288,0.1953693072921314,0.17858916193049723,0.1902250747780024,-0.09834061758924845,-0.18689248396339628,0.31415926535888034,-6.145744927999969e-11,-5.621581664736433e-11,-5.987663943841124e-11,3.095059268794208e-11,5.879503270469284e-11,-9.88976823702522e-11,-0.14930237593780782,-0.6705550045570126,0.8176928728528245,0.18493598117481452,0.9205396111509562,-0.32181575545562735,-0.12182005873204489
2.7,-1.443098125464409,-1.4259364527247622,-1.5879435875163863,-1.084931602682342,1.140153557390367,0.4100768745928218,0.1953693072921314,0.17858916193049723,0.1902250747780024,-0.09834061758924845,-0.18689248396339628,0.31415926535888034,-6.145744927999969e-11,-5.621581664736433e-11,-5.987663943841124e-11,3.095059268794208e-11,5.879503270469284e-11,-9.88976823702522e-11,-0.13981388008001686,-0.660604379651764,0.8421974259709772,0.19493581733046306,0.9129472210815615,-0.338534688483035,-0.11799009846107135
2.8,-1.423561194735193,-1.4080775365317098,-1.5689210800385829,-1.0947656644412682,1.1214643089940244,0.4414928011287149,0.1953693072921314,0.17858916193049723,0.1902250747780024,-0.09834061758924845,-0.18689248396339628,0.31415926535888034,-6.145744927999969e-11,-5.621581664736433e-11,-5.987663943841124e-11,3.095059268794208e-11,5.879503270469284e-11,-9.88976823702522e-11,-0.13088801189298135,-0.6496306850101922,0.866424383384052,0.2050329115723376,0.9050040115188765,-0.35509530112463655,-0.11329859410475798
2.9,-1.4040242640059768,-1.3902186203386573,-1.5498985725607797,-1.1045997262001945,1.1027750605976818,0.4729087276646079,0.1953693072921314,0.17858916193049723,0.1902250747780024,-0.09834061758924845,-0.18689248396339628,0.31415926535888034,-6.145744927999969e-11,-5.621581664736433e-11,-5.987663943841124e-11,3.095059268794208e-11,5.879503270469284e-11,-9.88976823702522e-11,-0.1225770758254145,-0.6376609997832823,0.8903391088955357,0.21521933085384176,0.896710970623099,-0.37145592111856546,-0.10775237100390127
3.0,-1.3844873332767604,-1.3723597041456046,-1.5308760650829767,-1.114433787959121,1.0840858122013395,0.5043246542005008,0.1953693072921314,0.17858916193049723,0.1902250747780024,-0.09834061758924845,-0.18689248396339628,0.31415926535888034,-6.145744927999969e-11,-5.621581664736433e-11,-5.987663943841124e-11,3.095059268794208e-11,5.879503270469284e-11,-9.88976823702522e-11,-0.11493199481232493,-0.6247256169372746,0.9139071211953482,0.225487095741758,0.8880693418495719,-0.3875751720527,-0.1013602472823321
3.1,-1.364950402547544,-1.354500787952552,-1.5118535576051733,-1.1242678497180474,1.0653965638049967,0.535740580736394,0.1953693072921315,0.17858916193049737,0.19022507477800255,-0.09834061758924811,-0.18689248396339617,0.3141592653588808,-6.123558123205744e-11,-5.5966215093429314e-11,-5.959930437848345e-11,3.081192515797818e-11,5.85731646567506e-11,-9.845394627436773e-11,-0.10800212599125548,-0.6108579721941105,0.9370941438432427,0.23582818724517032,0.8790806240126194,-0.40341206857102274,-0.09413302033552783
3.2,-1.345413471818328,-1.3366418717594994,-1.49283105012737,-1.1341019114769737,1.0467073154086541,0.567156507272287,0.1953693072921315,0.17858916193049737,0.19022507477800255,-0.09834061758924811,-0.18689248396339617,0.3141592653588808,-6.123558123205744e-11,-5.5966215093429314e-11,-5.959930437848345e-11,3.081192515797818e-11,5.85731646567506e-11,-9.845394627436773e-11,-0.10183508025265542,-0.5960945622081496,0.9598661551405798,0.24623455366483238,0.8697465711445612,-0.41892611092266,-0.08608344876324746
3.3,-1.3258765410891118,-1.318782955566447,-1.4738085426495666,-1.1439359732359002,1.0280180670123116,0.5985724338081801,0.1953693072921315,0.17858916193049737,0.19022507477800255,-0.09834061758924811,-0.18689248396339617,0.3141592653588808,-6.123558123205744e-11,-5.5966215093429314e-11,-5.959930437848345e-11,3.081192515797818e-11,5.85731646567506e-11,-9.845394627436773e-11,-0.0964765462481846,-0.5804748521913613,0.9821894378154676,0.25669811745722193,0.8600691921497472,-0.43407737863518986,-0.07722622977979329
3.4,-1.3063396103598954,-1.3009240393733943,-1.4547860351717634,-1.1537700349948266,1.009328818615969,0.629988360344073,0.1953693072921315,0.17858916193049737,0.19022507477800255,-0.09834061758924811,-0.18689248396339617,0.3141592653588808,-6.123558123205744e-11,-5.5966215093429314e-11,-5.959930437848345e-11,3.081192515797818e-11,5.85731646567506e-11,-9.845394627436773e-11,-0.09197011946867328,-0.5640411732354895,1.0040306284463194,0.26721078210750415,0.8500507502536292,-0.44882662309557175,-0.06757797214598608
3.5,-1.2868026796306795,-1.2830651231803418,-1.4357635276939602,-1.1636040967537529,0.9906395702196266,0.661404286879966,0.1953693072921315,0.17858916193049737,0.19022507477800255,-0.09834061758924811,-0.18689248396339617,0.3141592653588808,-6.123558123205744e-11,-5.5966215093429314e-11,-5.959930437848345e-11,3.081192515797818e-11,5.85731646567506e-11,-9.845394627436773e-11,-0.08835713698927058,-0.5468386096152966,1.0253567665490662,0.27776443900562975,0.8396937622470464,-0.4631353588243261,-0.057157164677329404
3.6,-1.267265748901463,-1.2652062069872891,-1.4167410202161568,-1.1734381585126792,0.9719503218232839,0.6928202134158591,0.19536930729213134,0.1785891619304972,0.1902250747780028,-0.09834061758924803,-0.18689248396339622,0.3141592653588801,-6.162385031595636e-11,-5.632675067133545e-11,-6.001530696837514e-11,3.1019926452924026e-11,5.896143374064952e-11,-9.911955041819443e-11,-0.08567651846304632,-0.5289148763917676,1.0461353432535685,0.28835097431979156,0.8290009975260751,-0.47696595323136615,-0.045984140393112605
3.7,-1.2477288181722468,-1.2473472907942367,-1.3977185127383538,-1.1832722202716057,0.9532610734269413,0.7242361399517521,0.19536930729213134,0.1785891619304972,0.1902250747780028,-0.09834061758924803,-0.18689248396339622,0.3141592653588801,-6.162385031595636e-11,-5.632675067133545e-11,-6.001530696837514e-11,3.1019926452924026e-11,5.896143374064952e-11,-9.911955041819443e-11,-0.0839646139260246,-0.5103201876680032,1.0663343494951911,0.29896227586147317,0.8179754769279617,-0.4902817146451379,-0.03408103638133074
3.8,-1.2281918874430306,-1.2294883746011842,-1.3786960052605504,-1.193106282030532,0.9345718250305988,0.7556520664876452,0.19536930729213134,0.1785891619304972,0.1902250747780028,-0.09834061758924803,-0.18689248396339622,0.3141592653588801,-6.162385031595636e-11,-5.632675067133545e-11,-6.001530696837514e-11,3.1019926452924026e-11,5.896143374064952e-11,-9.911955041819443e-11,-0.08325505895635421,-0.4911071158832867,1.0859223236480344,0.3095902399363302,0.806620471363817,-0.5030469784104891,-0.021471749464258158
3.9,-1.2086549567138143,-1.2116294584081317,-1.359673497782747,-1.2029403437894584,0.9158825766342562,0.787067993023538,0.19536930729213134,0.1785891619304972,0.1902250747780028,-0.09834061758924803,-0.18689248396339622,0.3141592653588801,-6.162385031595636e-11,-5.632675067133545e-11,-6.001530696837514e-11,3.1019926452924026e-11,5.896143374064952e-11,-9.911955041819443e-11,-0.08357863770815603,-0.4713304425624189,1.1048683985269871,0.3202267781751637,0.7949395002489351,-0.515227190854891,-0.008181887759295242
4.0,-1.1891180259845981,-1.1937705422150793,-1.3406509903049437,-1.2127744055483847,0.8971933282379136,0.818483919559431,0.1953693072923047,0.17858916193065566,0.19022507477817158,-0.09834061758933528,-0.18689248396356206,0.3141592653591589,1.1159962811499479e-10,1.0200383504148879e-10,1.0863214297376606e-10,-5.6160349635403697e-11,-1.067462645662562e-10,1.794357837733639e-10,-0.08496315431657117,-0.45104700096771355,1.1231423476865257,0.33086382433926376,0.7829363297317435,-0.5267889909273511,0.005761281760740499
4.1,-1.1695810952553818,-1.1759116260220264,-1.3216284828271403,-1.222608467307311,0.8785040798415709,0.8498998460953241,0.19536930729213134,0.1785891619304972,0.1902250747780028,-0.09834061758924803,-0.18689248396339622,0.3141592653588801,-6.162385031595636e-11,-5.632675067133545e-11,-6.001530696837514e-11,3.1019926452924026e-11,5.896143374064952e-11,-9.911955041819443e-11,-0.08743331314475736,-0.4303155111299479,1.140714630945069,0.3414933410944296,0.770614970722581,-0.537700289319486,0.020328889594373546
4.2,-1.1500441645261656,-1.158052709828974,-1.302605975349337,-1.2324425290662375,0.8598148314452284,0.8813157726312171,0.19536930729213162,0.17858916193049704,0.19022507477800263,-0.09834061758924795,-0.18689248396339608,0.31415926535888067,-6.1291048244043e-11,-5.6049415611407656e-11,-5.971023840245457e-11,3.086739216996374e-11,5.862863166873616e-11,-9.856488029833885e-11,-0.09101060831612279,-0.4091964077619864,1.1575564390647166,0.35210732674799755,0.7579796767236437,-0.5479303448838264,0.035490523802703025
4.3,-1.1305072337969495,-1.1401937936359214,-1.2835834678715339,-1.2422765908251638,0.8411255830488858,0.91273169916711,0.19536930729213162,0.17858916193049704,0.19022507477800263,-0.09834061758924795,-0.18689248396339608,0.31415926535888067,-6.1291048244043e-11,-5.6049415611407656e-11,-5.971023840245457e-11,3.086739216996374e-11,5.862863166873616e-11,-9.856488029833885e-11,-0.09571322294603817,-0.3877516615845757,1.1736397375172904,0.3626978219432522,0.7450349414616182,-0.5574498381704469,0.05121429373374858
4.4,-1.110970303067726,-1.1223348774428623,-1.2645609603937236,-1.2521106525840937,0.8224363346525365,0.9441476257030147,0.1953693072923049,0.17858916193065547,0.19022507477817135,-0.09834061758933518,-0.18689248396356184,0.31415926535915933,1.1184922966897955e-10,1.0225343659546928e-10,1.088817445277495e-10,-5.6299017165392634e-11,-1.0699586612023882e-10,1.798795198693284e-10,-0.10155593845671172,-0.3660445946179507,1.1889373092688487,0.37325691630562413,0.7317854963246723,-0.5662309419094576,0.06746689724003978
4.5,-1.0914333723385012,-1.104475961249802,-1.2455384529159121,-1.2619447143430245,0.8037470862561857,0.9755635522389214,0.1953693072923049,0.17858916193065547,0.19022507477817135,-0.09834061758933518,-0.18689248396356184,0.31415926535915933,1.1184922966897955e-10,1.0225343659546928e-10,1.088817445277495e-10,-5.6299017165392634e-11,-1.0699586612023882e-10,1.798795198693284e-10,-0.10855005432695464,-0.344139690015251,1.2034227965161337,0.3837767550351204,0.7182363076056661,-0.5742473882737236,0.08421369124138554
4.6,-1.0718964416092762,-1.0866170450567414,-1.2265159454381003,-1.2717787761019552,0.7850578378598349,1.0069794787748285,0.1953693072923049,0.17858916193065547,0.19022507477817135,-0.09834061758933518,-0.18689248396356184,0.31415926535915933,1.1184922966897955e-10,1.0225343659546928e-10,1.088817445277495e-10,-5.6299017165392634e-11,-1.0699586612023882e-10,1.798795198693284e-10,-0.11670331859533935,-0.3221023970341213,1.2170707413099418,0.3942495454395161,0.7043925735535352,-0.5814745327634607,0.10141876547699347
4.7,-1.0523595108800512,-1.0687581288636812,-1.2074934379602884,-1.2816128378608858,0.7663685894634839,1.0383954053107356,0.19536930729230478,0.17858916193065555,0.19022507477817083,-0.09834061758933574,-0.18689248396356214,0.314159265359159,1.1168282863302272e-10,1.0208703555951246e-10,1.0871534349179268e-10,-5.620194989441782e-11,-1.0682946508428199e-10,1.7954671779741473e-10,-0.126019869400788,-0.2999989317615546,1.2298566250018528,0.4046675634028343,0.6902597212350438,-0.5878894145618891,0.11904501928351359
4.8,-1.0328225801508264,-1.0508992126706207,-1.188470930482477,-1.2914468996198167,0.747679341067133,1.0698113318466425,0.19536930729230478,0.17858916193065555,0.19022507477817083,-0.09834061758933574,-0.18689248396356214,0.314159265359159,1.1168282863302272e-10,1.0208703555951246e-10,1.0871534349179268e-10,-5.620194989441782e-11,-1.0682946508428199e-10,1.7954671779741473e-10,-0.13650018780914147,-0.27789607422347173,1.2417569064524716,0.4150231597837396,0.6758434032092056,-0.5934708132191396,0.137054241228548
4.9,-1.0132856494216014,-1.03304029647756,-1.1694484230046651,-1.3012809613787475,0.7289900926707821,1.1012272583825495,0.19536930729230478,0.17858916193065555,0.19022507477817083,-0.09834061758933574,-0.18689248396356214,0.314159265359159,1.1168282863302272e-10,1.0208703555951246e-10,1.0871534349179268e-10,-5.620194989441782e-11,-1.0682946508428199e-10,1.7954671779741473e-10,-0.14814106213778364,-0.2558609625250427,1.2527490589410788,0.4253087667385227,0.6611494940168393,-0.5981993015298755,0.1554071914224147
5.0,-0.9937487186923766,-1.0151813802844998,-1.1504259155268537,-1.311115023137678,0.7103008442744314,1.1326431849184562,0.19536930729230478,0.17858916193065555,0.19022507477817083,-0.09834061758933574,-0.18689248396356214,0.314159265359159,1.1168282863302272e-10,1.0208703555951246e-10,1.0871534349179268e-10,-5.620194989441782e-11,-1.0682946508428199e-10,1.7954671779741473e-10,-0.16093556395310607,-0.2339608846800887,1.2628116057184227,0.43551690396341464,0.6461840864878872,-0.6020572944787038,0.1740636863246327
5.1,-0.9742117879631517,-0.9973224640914392,-1.1314034080490418,-1.320949084896609,0.6916115958780803,1.1640591114543635,0.19536930729230478,0.17858916193065555,0.19022507477817083,-0.09834061758933574,-0.18689248396356214,0.314159265359159,1.1168282863302272e-10,1.0208703555951246e-10,1.0871534349179268e-10,-5.620194989441782e-11,-1.0682946508428199e-10,1.7954671779741473e-10,-0.1748730358775837,-0.21226306879809131,1.2719241541463506,0.4456401848510452,0.630953487869256,-0.6050290941363597,0.19298268585570788
5.2,-0.9546748572339269,-0.9794635478983789,-1.1123809005712304,-1.3307831466555395,0.6729223474817296,1.1954750379902699,0.19536930729230478,0.17858916193065555,0.19022507477817083,-0.09834061758933574,-0.18689248396356214,0.314159265359159,1.1168282863302272e-10,1.0208703555951246e-10,1.0871534349179268e-10,-5.620194989441782e-11,-1.0682946508428199e-10,1.7954671779741473e-10,-0.1899390913046375,-0.19083447230530615,1.28006742837001,0.455671322555938,0.6154642157761191,-0.6071009303988194,0.21212238261931976
5.3,-0.9351952049598338,-0.9616569905504229,-1.093414163360313,-1.3405883768711218,0.6542878923019058,1.2267988591815122,0.18913464328176766,0.17288998924077517,0.1841545745340012,-0.09520235233285382,-0.18092833401720282,0.3041337526905743,-0.3109399097880108,-0.28423347899144347,-0.30275260945902954,0.15651395393430703,0.29744862644542736,-0.49999999991656674,-0.20606659687915443,-0.1698028562802377,1.2872037808297372,-0.46557416991132,-0.599769505710589,0.6082589390628289,-0.23138343800113037
5.4,-0.9178098013525532,-0.9457648081852315,-1.076486531548139,-1.3493394511901897,0.6376568190289049,1.2547550704253998,0.1580406522976463,0.1444666413367705,0.15387931358292123,-0.07955095693674522,-0.15118347136757251,0.25413375269036637,-0.310939909916576,-0.28423347910893015,-0.3027526095841881,0.15651395399901893,0.29744862656839793,-0.5000000001232348,-0.2213750586970052,-0.151367293584753,1.292730205178951,-0.47432326830883514,-0.5855561824550307,0.6085189924182656,-0.24868862096158417
5.5,-0.9035337968436719,-0.9327149606104287,-1.0625864258310602,-1.3565253859696536,0.6240002320208548,1.277711281669288,0.1269466613137397,0.11604329343296214,0.12360405263205038,-0.0638995615407447,-0.12143860871814764,0.20413375269050374,-0.3109399098309209,-0.28423347903063434,-0.30275260950077393,0.15651395395590087,0.2974486264864501,-0.4999999999855116,-0.2345778327300147,-0.1364987622536394,1.2966657015148142,-0.4814411452998029,-0.5737433551711911,0.6081829073680791,-0.2629572915791247
5.6,-0.890839730772177,-0.9225577520393529,-1.0521873631672978,-1.3627753512720615,0.6133543174768923,1.2973981783722337,0.13928898042075843,0.08591749000171957,0.07949479223253518,-0.06611357698238768,-0.09038321321261013,0.20321275701318287,0.27128157316356805,-0.3157183159106459,-0.49992900474080065,-0.08211775282460475,0.3239844173485987,0.15351042873063173,-0.24483511061160443,-0.12575829641899178,1.2991588807798575,-0.48691786438103335,-0.5647479659001411,0.6070413794883737,-0.27472075266917634
5.7,-0.87571721779085,-0.9155449302320801,-1.0466947846026626,-1.3697296922427047,0.6059379585797167,1.3182996968737235,0.1621765751192037,0.05351357418673132,0.029499331863072666,-0.072484803077717,-0.05707936747762567,0.21327167490770493,0.1884784810277863,-0.3319643738114963,-0.49997684214016885,-0.046178532335653444,0.34166209381328505,0.05017486198899418,-0.25051161074785105,-0.12109795154258181,1.2999480293703516,-0.49059453063942937,-0.5596454892576752,0.6038841053582381,-0.28537329965484787
5.8,-0.8587040547942695,-0.9118505918430025,-1.0462019581125117,-1.3771483651485785,0.60193695855895,1.3397102883750545,0.17702347418570036,0.01953287206140822,-0.020499679924270313,-0.07536618510082586,-0.0220597446999761,0.21329647084542463,0.10932504289198021,-0.3474662332832777,-0.4999844390881805,-0.011826096346863537,0.35853148346155944,-0.0485919457582755,-0.25125785719792615,-0.12245422437310612,1.2992632219521165,-0.4924036689596742,-0.5585796265887051,0.5989890417118044,-0.2945157983270993
5.9,-0.8405967157828432,-0.9116307122738881,-1.0507089457780059,-1.3846857028680841,0.6015210530875814,1.3606361265096314,0.18388272938952882,-0.016009604685778247,-0.070495973509804,-0.07478119371388763,0.014659564555271239,0.20335566023374294,0.027719551392067873,-0.3634094429150645,-0.49993957967582553,0.02358677208956414,0.3758832221227705,-0.15039890246992824,-0.24678166174457813,-0.12950187981975778,1.2972129107399897,-0.4922783225321797,-0.561587892461282,0.5926974234836807,-0.301646906832484
6.0,-0.8222170605217771,-0.9150458697913926,-1.0602153121888105,-1.3919850565237686,0.6048650063398168,1.3800518938086832,0.18216142260373722,-0.053227857023949686,-0.12048673293632402,-0.07047270828882878,0.053202730644222304,0.18271046922677783,-0.06358824752223477,-0.3812339223307596,-0.499870053391457,0.06320859913804654,0.3952831936660446,-0.26430282217515033,-0.23680716731422696,-0.14182111507786274,1.2937363402794122,-0.4901349522201213,-0.5686683517232436,0.5853155255386076,-0.3062511549758017
6.1,-0.8045224989415286,-0.922256589876553,-1.0746845803433844,-1.3986335173442528,0.6121449374820406,1.396776475577309,0.167252876805415,-0.0905904167734917,-0.16717368441897468,-0.06067644798214044,0.09203241037363641,0.1468333163649386,-0.29471838793475186,-0.3205549941938014,-0.3562892540151717,0.1532880265990551,0.334876970724928,-0.4995689970708203,-0.2211692124549995,-0.15889157818042768,1.2886131822322429,0.4858773990971852,0.5797527591684211,-0.5771378086956959,0.3077691359722209
6.2,-0.7892351665160363,-0.9329154441221459,-1.093188836331731,-1.403949800367928,0.6230191263402194,1.4090044146701728,0.1386001688449603,-0.12446418674799174,-0.20548455441889008,-0.04551207315863957,0.1273937127669583,0.0969061254690363,-0.2544183037131425,-0.41103822246316296,-0.48962903417876535,0.1452975691057235,0.42811865294253426,-0.4986223845263177,-0.20082780668814504,-0.1792364959584595,1.2817940900773186,0.47969293478978037,0.5940450763933812,-0.5687908761290998,0.3057483847182851
6.3,-0.7738459602446258,-0.946875755630991,-1.116195090673421,-1.4089895633171752,0.6373096520848269,1.4196936519176926,0.1708679147104044,-0.15503153544973008,-0.25547978550280565,-0.05595421855091992,0.1586989483487019,0.11866924669969496,0.3344059380692148,-0.30341252850333705,-0.49999999984540144,-0.10950811318300398,0.31059002963249766,0.23224782036954678,-0.17525612669932775,-0.20320263323069296,1.2725094853098784,0.47158670769626604,0.611674876321341,-0.5592807365331285,0.30110609516319947
6.4,-0.7551150512904845,-0.9638706465702949,-1.1442013352043912,-1.4151233853109284,0.654706572727743,1.4327024304198224,0.20430850852772728,-0.185372788309502,-0.30547978550289856,-0.06690502987262612,0.1897579513216111,0.14189402874387205,0.33440593813197017,-0.30341252856031925,-0.4999999999392708,-0.10950811320355698,0.31059002969078436,0.23224782041312303,-0.1437142861039301,-0.23084927003261208,1.2597962759819432,0.4616114320547834,0.6326923052583948,-0.5473787368632913,0.29494381006065856
6.5,-0.7342149013459731,-0.9828337289167893,-1.1754510044816808,-1.4219675699533418,0.6741182441474224,1.4472177655781489,0.20943951023924892,-0.19002823854473538,-0.3131516015890011,-0.06858528208169778,0.19452353049411966,0.1454575538735203,-7.055385872514542e-11,6.400876805724672e-11,1.0549798686731651e-10,2.3101951382879774e-11,-6.553410698408752e-11,-4.897724626910646e-11,-0.10811754235355861,-0.25966797007421255,1.243835435581721,0.45035954805999656,0.6555419362085492,-0.5337119332720783,0.2873893171746697
6.6,-0.7132709503220446,-1.001836552771266,-1.2067661646405863,-1.4288260981615126,0.6935705971968377,1.4617635209655033,0.20943951023924856,-0.19002823854473505,-0.31315160158900074,-0.06858528208169785,0.1945235304941198,0.1454575538735203,-7.091439338058053e-11,6.434156927764834e-11,1.0605265556798589e-10,2.3226751840530382e-11,-6.586690820448914e-11,-4.925458061944115e-11,-0.07217700023853559,-0.2863524182685521,1.2260295613846066,0.43897602273770264,0.6777727889033867,-0.5196509823063008,0.2790823438908489
6.7,-0.6923269992981163,-1.0208393766257429,-1.2380813247994915,-1.4356846263696836,0.7130229502462531,1.476309276352858,0.20943951023924856,-0.19002823854473505,-0.31315160158900074,-0.06858528208169785,0.1945235304941198,0.1454575538735203,-7.091439338058053e-11,6.434156927764834e-11,1.0605265556798589e-10,2.3226751840530382e-11,-6.586690820448914e-11,-4.925458061944115e-11,-0.03612965979630954,-0.3108027487101853,1.2064844042273528,0.4275055298388002,0.6993062314026325,-0.5052706587813526,0.27002106964707884
6.8,-0.6713830482741877,-1.0398422004802197,-1.269396484958397,-1.4425431545778546,0.7324753032956683,1.4908550317402125,0.20943951023924856,-0.19002823854473505,-0.31315160158900074,-0.06858528208169785,0.1945235304941198,0.1454575538735203,-7.091439338058053e-11,6.434156927764834e-11,1.0605265556798589e-10,2.3226751840530382e-11,-6.586690820448914e-11,-4.925458061944115e-11,-0.00013807471427220707,-0.332993821246491,1.185278977946457,0.41596934797489626,0.7201132225022886,-0.4906189366101285,0.2601912899431029
6.9,-0.6504390972502593,-1.0588450243346965,-1.3007116451173024,-1.4494016827860257,0.7519276563450836,1.505400787127567,0.20943951023924856,-0.19002823854473505,-0.31315160158900074,-0.06858528208169785,0.1945235304941198,0.1454575538735203,-7.091439338058053e-11,6.434156927764834e-11,1.0605265556798589e-10,2.3226751840530382e-11,-6.586690820448914e-11,-4.925458061944115e-11,0.03563636004549561,-0.3529125218237302,1.1624967686763263,0.40438877675821966,0.7401657886615867,-0.4757450586416793,0.24958157324808153
7.0,-0.6294951462263311,-1.077847848189173,-1.3320268052762076,-1.4562602109941967,0.7713800093944988,1.5199465425149215,0.20943951023924856,-0.19002823854473505,-0.31315160158900074,-0.06858528208169785,0.1945235304941198,0.1454575538735203,-7.091439338058053e-11,6.434156927764834e-11,1.0605265556798589e-10,2.3226751840530382e-11,-6.586690820448914e-11,-4.925458061944115e-11,0.071034314394437,-0.37055765206808094,1.13822542587249,0.39278509971301384,0.7594370622150487,-0.4606993738946949,0.23818333457790475
7.1,-0.6085511952024026,-1.0968506720436497,-1.363341965435113,-1.4631187392023677,0.7908323624439142,1.534492297902276,0.20943951023924856,-0.19002823854473505,-0.31315160158900074,-0.06858528208169785,0.1945235304941198,0.1454575538735203,-7.091439338058053e-11,6.434156927764834e-11,1.0605265556798589e-10,2.3226751840530382e-11,-6.586690820448914e-11,-4.925458061944115e-11,0.10589941120424322,-0.3859397481722321,1.11255644052722,0.38117954707651275,0.7779013177860653,-0.44553317040682117,0.22599089969397934
7.2,-0.5876072441784743,-1.1158534958981263,-1.3946571255940183,-1.4699772674105385,0.8102847154933293,1.5490380532896304,0.2094395102392482,-0.19002823854473475,-0.31315160158900057,-0.06858528208169812,0.19452353049411947,0.14545755387352005,-7.127492803601563e-11,6.467437049804998e-11,1.0655185739858834e-10,2.3351552298180994e-11,-6.622744285992424e-11,-4.950418153474237e-11,0.14007909082279013,-0.3990808309000396,1.0855848119294855,0.3695932585547055,0.7955340068499527,-0.4302985042390454,0.21300155967929954
7.3,-0.5666632931545457,-1.1348563197526031,-1.425972285752924,-1.4768357956187095,0.8297370685427448,1.563583808676985,0.2094395102392482,-0.19002823854473475,-0.31315160158900057,-0.06858528208169812,0.19452353049411947,0.14545755387352005,-7.127492803601563e-11,6.467437049804998e-11,1.0655185739858834e-10,2.3351552298180994e-11,-6.622744285992424e-11,-4.950418153474237e-11,0.17342544670713553,-0.41001408896353136,1.0574087043586349,0.35804724609844985,0.8123117903975576,-0.4150480251877998,0.19921561567843502
7.4,-0.5457193421306175,-1.1538591436070798,-1.4572874459118292,-1.4836943238268803,0.8491894215921598,1.5781295640643394,0.2094395102392482,-0.19002823854473475,-0.31315160158900057,-0.06858528208169812,0.19452353049411947,0.14545755387352005,-7.127492803601563e-11,6.467437049804998e-11,1.0655185739858834e-10,2.3351552298180994e-11,-6.622744285992424e-11,-4.950418153474237e-11,0.20579602709401648,-0.418783498448656,1.028129095132072,0.3465623567657142,0.828212569653627,-0.3998347997691178,0.18463641361963068
7.5,-0.5247753911066892,-1.1728619674615566,-1.4886026060707345,-1.4905528520350515,0.868641774641575,1.5926753194516938,0.2094395102392482,-0.19002823854473475,-0.31315160158900057,-0.06858528208169812,0.19452353049411947,0.14545755387352005,-7.127492803601563e-11,6.467437049804998e-11,1.0655185739858834e-10,2.3351552298180994e-11,-6.622744285992424e-11,-4.950418153474237e-11,0.23705459789443978,-0.42544338136579213,0.9978494154513204,0.3351592357358429,0.8432155148074101,-0.38471213204904064,0.16927036876937862
7.6,-0.5038314400827606,-1.1918647913160334,-1.5199177662296401,-1.4974113802432225,0.8880941276909905,1.6072210748390483,0.2094395102392482,-0.19002823854473475,-0.31315160158900057,-0.06858528208169812,0.19452353049411947,0.14545755387352005,-7.127492803601563e-11,6.467437049804998e-11,1.0655185739858834e-10,2.3351552298180994e-11,-6.622744285992424e-11,-4.950418153474237e-11,0.2670718622963307,-0.4300579067753671,0.9666751855082198,0.3238582895417382,0.857301091716237,-0.3697333829025353,0.1531269800025288
7.7,-0.48288748905883233,-1.21086761517051,-1.5512329263885452,-1.5042699084513935,0.9075464807404056,1.6217668302264028,0.2094395102392482,-0.19002823854473475,-0.31315160158900057,-0.06858528208169812,0.19452353049411947,0.14545755387352005,-7.127492803601563e-11,6.467437049804998e-11,1.0655185739858834e-10,2.3351552298180994e-11,-6.622744285992424e-11,-4.950418153474237e-11,0.2957261328854339,-0.4327005382855416,0.9347136453235084,0.312679649585724,0.870451086546181,-0.35495178828935775,0.13621883370411283
7.8,-0.46194353803490396,-1.2298704390249866,-1.5825480865474506,-1.5111284366595643,0.9269988337898207,1.636312585613757,0.20943951023924837,-0.1900282385447353,-0.31315160158900046,-0.06858528208169819,0.19452353049411983,0.1454575538735198,-7.11085274258148e-11,6.448023645281569e-11,1.0632998991832058e-10,2.328221871059732e-11,-6.603330881468997e-11,-4.9365514359575026e-11,0.32290395244704306,-0.4334534320355113,0.9020733827937244,0.3016431360046241,0.8826486283173047,-0.3404202771396195,0.11856159725248674
7.9,-0.44099958701097575,-1.2488732628794634,-1.6138632467063558,-1.5179869648677353,0.946451186839236,1.6508583410011117,0.20943951023924837,-0.1900282385447353,-0.31315160158900046,-0.06858528208169819,0.19452353049411983,0.1454575538735198,-7.11085274258148e-11,6.448023645281569e-11,1.0632998991832058e-10,2.328221871059732e-11,-6.603330881468997e-11,-4.9365514359575026e-11,0.34850065998685026,-0.4324067895625487,0.868863960419278,0.29076822194923213,0.8938782093244388,-0.32619128944423265,0.10017400206703198
8.0,-0.4200556359870471,-1.2678760867339403,-1.6451784068652615,-1.5248454930759063,0.9659035398886515,1.6654040963884662,0.20943951023962015,-0.1900282385450726,-0.31315160158955635,-0.06858528208181992,0.19452353049446514,0.14545755387377798,3.0038083484777054e-10,-2.7253646607414287e-10,-4.491152469323974e-10,-9.83566273462855e-11,2.789983564369469e-10,2.086108983219398e-10,0.37242089890531543,-0.4296581702017296,0.8351955421767171,0.28007399834287294,0.9041257034079213,-0.31231659514592713,0.08107781623738462
8.1,-0.3991116849631001,-1.286878910588434,-1.6764935670241947,-1.5317040212840833,0.985355892938084,1.6799498517758336,0.20943951023962015,-0.1900282385450726,-0.31315160158955635,-0.06858528208181992,0.19452353049446514,0.14545755387377798,3.0038083484777054e-10,-2.7253646607414287e-10,-4.491152469323974e-10,-9.83566273462855e-11,2.789983564369469e-10,2.086108983219398e-10,0.3945790646733065,-0.4253117678828718,0.8011785219817614,0.26957913918316656,0.9133783820522574,-0.29884711442513123,0.06129780678487449
8.2,-0.37816773393915293,-1.3058817344429277,-1.7078087271831284,-1.5385625494922606,1.0048082459875167,1.694495607163201,0.20943951023962015,-0.1900282385450726,-0.31315160158955635,-0.06858528208181992,0.19452353049446514,0.14545755387377798,3.0038083484777054e-10,-2.7253646607414287e-10,-4.491152469323974e-10,-9.83566273462855e-11,2.789983564369469e-10,2.086108983219398e-10,0.41489968978405944,-0.41947765736841963,0.7669231551669637,0.2593018674504484,0.9216249282941515,-0.28583273997179065,0.040861691640568326
8.3,-0.3572237829152062,-1.3248845582974211,-1.7391238873420611,-1.5454210777004376,1.024260599036949,1.7090413625505683,0.20943951023962015,-0.1900282385450726,-0.31315160158955635,-0.06858528208181992,0.19452353049446514,0.14545755387377798,3.0038083484777054e-10,-2.7253646607414287e-10,-4.491152469323974e-10,-9.83566273462855e-11,2.789983564369469e-10,2.086108983219398e-10,0.4333177641949696,-0.4122710151178357,0.7325391943682321,0.24925992168535316,0.9288554484250485,-0.27332216182884284,0.019800081457445128
8.4,-0.3362798318912591,-1.3438873821519146,-1.7704390475009941,-1.5522796059086146,1.0437129520863817,1.7235871179379354,0.20943951023961996,-0.19002823854507203,-0.3131516015895568,-0.06858528208181948,0.19452353049446458,0.14545755387377823,3.001867008025361e-10,-2.723423320289084e-10,-4.488379125820625e-10,-9.830116047621851e-11,2.7880422239171244e-10,2.0847223114677235e-10,0.4497789899179502,-0.4038113200681225,0.6981355311797337,0.23947052329730922,0.9350614814767466,-0.2613626953862294,-0.001853588592373904
8.5,-0.3153358808673122,-1.3628902060064083,-1.8017542076599276,-1.5591381341167918,1.063165305135814,1.738132873325303,0.20943951023961996,-0.19002823854507203,-0.3131516015895568,-0.06858528208181948,0.19452353049446458,0.14545755387377823,3.001867008025361e-10,-2.723423320289084e-10,-4.488379125820625e-10,-9.830116047621851e-11,2.7880422239171244e-10,2.0847223114677235e-10,0.4642399688671147,-0.39422153968586776,0.6638198448951494,0.22995034466452763,0.9402360064823464,-0.25000011309524317,-0.02406313685203103
8.6,-0.29439192984336515,-1.381893029860902,-1.8330693678188608,-1.5659966623249688,1.0826176581852467,1.7526786287126703,0.20943951023961996,-0.19002823854507203,-0.3131516015895568,-0.06858528208181948,0.19452353049446458,0.14545755387377823,3.001867008025361e-10,-2.723423320289084e-10,-4.488379125820625e-10,-9.830116047621851e-11,2.7880422239171244e-10,2.0847223114677235e-10,0.4766683235229033,-0.3836273066738523,0.6296982596066519,0.2207154780849473,0.9443734475083609,-0.23927848046231076,-0.046789722830486234
8.7,-0.273447978819418,-1.4008958537153955,-1.8643845279777942,-1.5728551905331458,1.1020700112346793,1.767224384100038,0.20943951023961996,-0.19002823854507203,-0.3131516015895568,-0.06858528208181948,0.19452353049446458,0.14545755387377823,3.001867008025361e-10,-2.723423320289084e-10,-4.488379125820625e-10,-9.830116047621851e-11,2.7880422239171244e-10,2.0847223114677235e-10,0.48704275041971795,-0.3721560917050124,0.5958750108809183,0.21178140563634607,0.9474696764573975,-0.22923999686876365,-0.06999194422229642
8.8,-0.252504027795487,-1.4198986775698748,-1.8956996881367036,-1.5797137187413175,1.1215223642840972,1.7817701394873944,0.2094395102392419,-0.19002823854472903,-0.3131516015889915,-0.06858528208169568,0.19452353049411344,0.14545755387351567,-7.757041778868196e-11,7.038745811500708e-11,1.1598122531007077e-10,2.5403826490680253e-11,-7.20514642170167e-11,-5.388606427007831e-11,0.49535300690627865,-0.35993637750901286,0.5624521231744716,0.2031629700024492,0.9495220136444151,-0.21992484174883278,-0.09362594301896175
8.9,-0.23156007677155907,-1.4389015014243511,-1.9270148482956082,-1.5865722469494885,1.140974717333512,1.7963158948747484,0.2094395102392419,-0.19002823854472903,-0.3131516015889915,-0.06858528208169568,0.19452353049411344,0.14545755387351567,-7.757041778868196e-11,7.038745811500708e-11,1.1598122531007077e-10,2.5403826490680253e-11,-7.20514642170167e-11,-5.388606427007831e-11,0.5015998320611265,-0.3470968395526618,0.5295290990887889,0.1948743463203599,0.9505292261531332,-0.21137102664204147,-0.1176455204044235
9.0,-0.21061612574763072,-1.457904325278828,-1.9583300084545137,-1.5934307751576595,1.1604270703829274,1.8108616502621029,0.2094395102392421,-0.19002823854472922,-0.31315160158899114,-0.06858528208169613,0.19452353049411403,0.14545755387351583,-7.73762837434475e-11,7.022105750480611e-11,1.1570389095973582e-10,2.5348359620613265e-11,-7.185733017178225e-11,-5.3747397094910844e-11,0.5057948030668147,-0.3337655384362586,0.4972026214999751,0.18692901510314938,0.9504915239826964,-0.20361425361856808,-0.1420022600981098
9.1,-0.18967217472370282,-1.476907149133304,-1.9896451686134182,-1.60028930336583,1.1798794234323418,1.825407405649457,0.2094395102392421,-0.19002823854472922,-0.31315160158899114,-0.06858528208169613,0.19452353049411403,0.14545755387351583,-7.73762837434475e-11,7.022105750480611e-11,1.1570389095973582e-10,2.5348359620613265e-11,-7.185733017178225e-11,-5.3747397094910844e-11,0.5079601287527096,-0.3200691289746497,0.4655662695274481,0.17933973628964708,0.9494105539982596,-0.19668778055671854,-0.16664565978131482
9.2,-0.1687282236997742,-1.495909972987781,-2.020960328772324,-1.607147831574001,1.1993317764817575,1.8399531610368116,0.2094395102392421,-0.19002823854472922,-0.31315160158899114,-0.06858528208169613,0.19452353049411403,0.14545755387351583,-7.73762837434475e-11,7.022105750480611e-11,1.1570389095973582e-10,2.5348359620613265e-11,-7.185733017178225e-11,-5.3747397094910844e-11,0.5081283824048476,-0.3061320907464239,0.4347102492329109,0.1721185244717728,0.9472893917026198,-0.1906222937308614,-0.19152327021572454
9.3,-0.14903153850751003,-1.5137811300964872,-2.0504105910791157,-1.613597916891918,1.2176256921725155,1.853632679501168,0.1802448006748675,-0.16353935291371433,-0.2694999999997493,-0.05902487302383227,0.16740802602351415,0.12518157521776557,-0.3344059383393404,0.30341252874842684,0.5000000002492451,0.10950811327145393,-0.31059002988335427,-0.23224782055710697,0.5065023786362175,-0.29291424058957516,0.4064812744944717,0.1656732628136725,0.9443494325261067,-0.1857286980764711,-0.21508456473469043
9.4,-0.13264784534316035,-1.528646349888695,-2.0749073049441265,-1.6189630947226592,1.2328425623476849,1.8650112963074157,0.1468042068577479,-0.13319810005412686,-0.21949999999996023,-0.048074061702192535,0.13634902305079363,0.10195679317372959,-0.33440593819946346,0.3034125286215122,0.5000000000401623,0.10950811322565747,-0.3105900297534548,-0.2322478204600003,0.5038637573367689,-0.2819101478122993,0.38363422700525507,0.16057397300251627,0.9412095765999332,-0.1822724163638712,-0.23477073570536278
9.5,-0.11960821156053676,-1.5404774443949314,-2.0944040188091373,-1.6232331914212317,1.244953532225569,1.87406743490925,0.11336361304034062,-0.10285684719427837,-0.16949999999974108,-0.037123250380458606,0.10529002007780594,0.07873201112949385,-0.33440593834605725,0.30341252875453306,0.5000000002593481,0.1095081132736605,-0.31059002988961315,-0.23224782056179766,0.5009492241582595,-0.27318517137779197,0.3658890712225591,0.15668882954683766,0.9382622731673077,-0.17992811205591214,-0.2504763300955873
9.6,-0.1099126371596374,-1.5492744136151977,-2.108900732674151,-1.6264082069876364,1.2539586018061695,1.8808010953066723,0.07992301922326883,-0.0725155943347343,-0.11950000000002355,-0.026172439058834537,0.07423101710512985,0.05550722908549109,-0.33440593815803554,0.30341252858392886,0.4999999999782119,0.1095081132120887,-0.3105900297149822,-0.2322478204312209,0.4983244450480563,-0.2667341936628696,0.35295871653112926,0.1539010814909057,0.9358144795858967,-0.1784218476303517,-0.26216666683901385
9.7,-0.10356112214046449,-1.5550372575494922,-2.1183974465391637,-1.6284881414218724,1.2598577710894847,1.885212277499681,0.04648242540598142,-0.04217434147499458,-0.06949999999998362,-0.015221627737139858,0.04317201413225348,0.032282447041338584,-0.3344059381836983,0.303412528607225,0.500000000016584,0.10950811322049493,-0.3105900297388276,-0.23224782044905073,0.4963971194675654,-0.26253089672349444,0.3446141818039105,0.1521220355192002,0.9340928846181974,-0.1775456489490076,-0.26982755929375674
9.8,-0.10055366650301731,-1.5577659761978153,-2.122894160404177,-1.6294729947239397,1.2626510400755149,1.8873009814882764,0.013041831588743443,-0.011833088615299716,-0.019500000000017597,-0.004270816415461368,0.012113011159423037,0.009057664997220416,-0.3344059381580449,0.30341252858394246,0.49999999997822575,0.10950811321209075,-0.3105900297149904,-0.23224782043122624,0.49542784343387675,-0.2605479340572304,0.3406985482451466,0.1512927684151999,0.9332451923928337,-0.177161471490694,-0.27345515559261185
9.839934277,-0.10028702015269278,-1.558007909232364,-2.123292847030051,-1.6295603135642682,1.2628986962574802,1.8874861696880731,-2.1447965931797798e-16,1.9460125655045776e-16,3.20687575839745e-16,7.023578272459791e-17,-1.9920472742726394e-16,-1.489579810627951e-16,-0.33440593837081695,0.30341252877699426,0.5000000002963613,0.10950811328176724,-0.31059002991260926,-0.23224782057899807,0.49534015904442363,-0.26037236378992973,0.340352493912347,0.1512196521728143,0.9331690274745783,-0.17712836465345613,-0.2737767802317702
