mathias31415/primitives_from_planned_trajectory_python/data/saved_trajectories/trajectory_20250617_162524_executed.csv
timestamp,shoulder_lift_joint_pos,elbow_joint_pos,wrist_1_joint_pos,wrist_2_joint_pos,wrist_3_joint_pos,shoulder_pan_joint_pos,shoulder_lift_joint_vel,elbow_joint_vel,wrist_1_joint_vel,wrist_2_joint_vel,wrist_3_joint_vel,shoulder_pan_joint_vel,shoulder_lift_joint_eff,elbow_joint_eff,wrist_1_joint_eff,wrist_2_joint_eff,wrist_3_joint_eff,shoulder_pan_joint_eff
1750170339.976222,-1.7271,-2.2029999999999994,-0.8079999999999998,1.5951,-0.030999999999999694,-1.6006999999999998,0.0,0.0,0.0,0.0,0.0,0.0,3.621137313700035,3.121199266827123,0.30055339469883446,0.0020055341419326616,0.0,1.208170004274665e-16
1750170339.9766164,-1.7271,-2.2029999999999994,-0.8079999999999998,1.5951,-0.030999999999999694,-1.6006999999999998,0.0,0.0,0.0,0.0,0.0,0.0,3.621137313700035,3.121199266827123,0.30055339469883446,0.0020055341419326616,0.0,1.208170004274665e-16
1750170339.9768813,-1.7271,-2.2029999999999994,-0.8079999999999998,1.5951,-0.030999999999999694,-1.6006999999999998,0.0,0.0,0.0,0.0,0.0,0.0,3.621137313700035,3.121199266827123,0.30055339469883446,0.0020055341419326616,0.0,1.208170004274665e-16
1750170339.9771476,-1.7271,-2.2029999999999994,-0.8079999999999998,1.5951,-0.030999999999999694,-1.6006999999999998,0.0,0.0,0.0,0.0,0.0,0.0,3.621137313700035,3.121199266827123,0.30055339469883446,0.0020055341419326616,0.0,1.208170004274665e-16
1750170339.9807253,-1.7271,-2.2029999999999994,-0.8079999999999998,1.5951,-0.030999999999999694,-1.6006999999999998,0.0,0.0,0.0,0.0,0.0,0.0,3.621137313700035,3.121199266827123,0.30055339469883446,0.0020055341419326616,0.0,1.208170004274665e-16
1750170339.9812195,-1.7271,-2.2029999999999994,-0.8079999999999998,1.5951,-0.030999999999999694,-1.6006999999999998,0.0,0.0,0.0,0.0,0.0,0.0,3.621137313700035,3.121199266827123,0.30055339469883446,0.0020055341419326616,0.0,1.208170004274665e-16
1750170339.9837759,-1.7271,-2.2029999999999994,-0.8079999999999998,1.5951,-0.030999999999999694,-1.6006999999999998,0.0,0.0,0.0,0.0,0.0,0.0,3.621137313700035,3.121199266827123,0.30055339469883446,0.0020055341419326616,0.0,1.208170004274665e-16
1750170339.9853606,-1.7271,-2.2029999999999994,-0.8079999999999998,1.5951,-0.030999999999999694,-1.6006999999999998,0.0,0.0,0.0,0.0,0.0,0.0,3.621137313700035,3.121199266827123,0.30055339469883446,0.0020055341419326616,0.0,1.208170004274665e-16
1750170339.9882658,-1.7271,-2.2029999999999994,-0.8079999999999998,1.5951,-0.030999999999999694,-1.6006999999999998,0.0,0.0,0.0,0.0,0.0,0.0,3.621137313700035,3.121199266827123,0.30055339469883446,0.0020055341419326616,0.0,1.208170004274665e-16
1750170339.9893913,-1.7270996697163232,-2.2029991153991153,-0.8080036508333741,1.5950978391880035,-0.031001851235843425,-1.6006994930463083,0.0003302816081599986,0.0008846007920795643,-0.0036508296773755,-0.002160813637309155,-0.0018512328931517183,0.0005069539764346921,3.7641258914313216,3.3156184091516843,0.2022462696357983,-0.05836740581328801,-0.05218580091951519,0.18177500134956234
1750170339.9918528,-1.727098678890119,-2.202996461597567,-0.8080146032891369,1.5950913567323235,-0.03100740490796916,-1.6006979721818162,0.0006605383895210653,0.0017692004800538546,-0.0073016149954796316,-0.004321646965343838,-0.003702430381657301,0.0010139113702971596,3.764117947173972,3.315626520618919,0.20224681904820135,-0.05836849686204111,-0.05218480382052562,0.18177690251887502
1750170339.993127,-1.7270970275958666,-2.2029920385986674,-0.8080328572342115,1.5950805525738887,-0.031016660910164084,-1.6006954373962703,0.0009907455187292285,0.002653797958839522,-0.010952311596737525,-0.006482519673457842,-0.005553557061895122,0.0015208755986488608,3.7641011887226354,3.315639644562819,0.2022481065605905,-0.05837050008866658,-0.05218280939976025,0.18178071187896147
1750170339.995206,-1.7270947159576933,-2.202985846407943,-0.8080584124468091,1.5950654266142517,-0.031029619065409797,-1.6006918886725874,0.0013208781733122954,0.003538392121393704,-0.014602875126930951,-0.008643451448273647,-0.0074045775322685685,0.002027850077816791,3.764075617455977,3.3156577801485154,0.20225013202838552,-0.05837341542468883,-0.0521798177142613,0.18178642912597825
1750170339.997144,-1.7270917441493685,-2.2029778850331327,-0.8080912686164385,1.595045978715596,-0.031046279125887644,-1.6006873259868488,0.0016509115351310709,0.0044229818577343465,-0.01825326123681383,-0.010804461972247024,-0.00925545639420157,0.0025348382230383406,3.7640412354190524,3.315680926173767,0.2022528952418771,-0.05837724276448461,-0.05217582884911526,0.18179405380202623
1750170339.9992027,-1.7270881123942896,-2.2029681544842052,-0.8081314253439142,1.595022208700745,-0.031066640772984933,-1.6006817493083085,0.00198082079182986,0.005307566053955683,-0.0219034255839254,-0.012965570922410456,-0.011106158253195074,0.0030418434480812004,3.763998045321817,3.3157090810650534,0.2022563959201657,-0.058381981970453016,-0.052170842919170374,0.1818035852854955
1750170340.0016341,-1.7270838209654746,-2.202956654773356,-0.8081788821413767,1.5949941163531753,-0.031090703617305593,-1.6006751585993948,0.0023105811382527794,0.006192143591266451,-0.02555332383414602,-0.015126797968896735,-0.012956647719800431,0.003548869164886886,3.763946050526832,3.3157422428842054,0.20226063371891007,-0.058387632866672444,-0.05216486006669485,0.18181502280167375
1750170340.0030801,-1.727078870185542,-2.202943385915029,-0.8082336384323039,1.5949617014170305,-0.031118467198679944,-1.6006675538157147,0.00264016777792126,0.007076713344977815,-0.029202911663395763,-0.0172881627736065,-0.014806889410667667,0.004055918783201183,3.763885255072404,3.3157804093185868,0.2022656082260227,-0.0583941952430412,-0.05215788046348771,0.18182836541490602
1750170340.0051012,-1.7270732604266925,-2.202928347925919,-0.8082956935515409,1.5949249635971403,-0.031149930986179797,-1.6006589349060558,0.00296955592445099,0.00796127418356527,-0.03285214475934231,-0.019449684988888143,-0.016656847949510178,0.00456299571022449,3.763815663649343,3.315823577694946,0.20227131896162615,-0.05840166885557386,-0.052149904308523155,0.18184361203878804
1750170340.007128,-1.7270669921106894,-2.2029115408249975,-0.808365046745319,1.5948839025590402,-0.031185094378130884,-1.600649301812398,0.0032987208029994462,0.008845824967662199,-0.03650097882310931,-0.021611384256036346,-0.01850648796819626,0.005070103350202793,3.7637372816124497,3.315871744964199,0.20227776537757272,-0.05841005342137226,-0.05214093183152466,0.18186076141299748
1750170340.0094273,-1.7270600657088337,-2.2028929646335165,-0.8084416971712889,1.5948385179289952,-0.031223956702133293,-1.600638654469913,0.003627637651718339,0.009730364549109468,-0.040149369570875094,-0.023773280204088074,-0.020355774107645996,0.005577245104126058,3.7636501149831068,3.3159249077182524,0.20228494686146692,-0.05841934862683142,-0.05213096328748039,0.18187981214235122
1750170340.0141716,-1.727052481741934,-2.202872619375041,-0.8085256438985473,1.594788809294026,-0.03126651721507656,-1.6006269928069745,0.0039562817231945735,0.010614891769937186,-0.04379727273557461,-0.02593539244831819,-0.022204671018969942,0.006084424369304775,3.763554170443547,3.3159830621699413,0.20229286273266062,-0.05842955411937445,-0.05211999896345701,0.18190076265246033
1750170340.0154557,-1.7270353434436068,-2.202826621763001,-0.8087154220907813,1.5946764181613498,-0.03136272948193941,-1.600600626199289,0.004612652625538245,0.01238390444320107,-0.05109143934160037,-0.030260344209809456,-0.025901155818326235,0.007098909002223823,3.763335977658781,3.316114329221596,0.20231089457563178,-0.05845269438839461,-0.052095084257851886,0.1819483559731552
1750170340.0173879,-1.7270257904010577,-2.202800969468285,-0.8088212512515316,1.5946137346417337,-0.03141637939630204,-1.6005859210773714,0.004940330046698952,0.013268387522039857,-0.05473761434782056,-0.03242322287684261,-0.02774867306830582,0.007606221143040398,3.763213746083377,3.3161874324216627,0.2023210088505679,-0.05846562828608007,-0.05208113458965143,0.18197499486685545
1750170340.0195725,-1.7270257904010577,-2.202800969468285,-0.8088212512515316,1.5946137346417337,-0.03141637939630204,-1.6005859210773714,0.004940330046698952,0.013268387522039857,-0.05473761434782056,-0.03242322287684261,-0.02774867306830582,0.007606221143040398,3.763213746083377,3.3161874324216627,0.2023210088505679,-0.05846562828608007,-0.05208113458965143,0.18197499486685545
1750170340.021393,-1.7270155823711493,-2.202773548224319,-0.8089343721052051,1.5945467250734466,-0.03147372382054403,-1.6005702012806786,0.005267635874076484,0.01415285349114871,-0.05838312490414328,-0.03458639613692311,-0.029595659816083867,0.008113584340525259,3.7630827699343046,3.31626550852894,0.2023318541181935,-0.05847947071703279,-0.052066190567868285,0.18200352570517914
1750170340.0234733,-1.7270047201217267,-2.202744358066541,-0.809054783278742,1.5944753888477727,-0.03153476165837521,-1.6005534667037224,0.005594545454025117,0.0150373011290581,-0.062027926852570636,-0.03674988351631277,-0.03144208077860573,0.008621001968236402,3.7629430591992192,3.316348551928152,0.2023434293627367,-0.05849422115218369,-0.052050252620678465,0.18203394613324508
1750170340.0275779,-1.7269932044699186,-2.202713399032848,-0.8091824833107895,1.594399725316965,-0.03159949174295651,-1.6005357172342736,0.005921034155976968,0.015921729198703737,-0.06567197606203322,-0.03891370451950021,-0.03328790068899923,0.00912847739390147,3.7627946245267827,3.316436556642953,0.20235573349897684,-0.058509879032906435,-0.05203332120394367,0.18206625364502985
1750170340.0283437,-1.7269810362820923,-2.202680671163627,-0.8093174706517621,1.594319733794291,-0.03166791283693016,-1.6005169527533738,0.006247077373873227,0.01680613644642465,-0.06931522842995361,-0.04107787862763072,-0.03513308429764071,0.009636013979016004,3.762637477222671,3.3165295163236608,0.202368765377791,-0.05852644375959763,-0.05201539680355825,0.1821004455636401
1750170340.0297284,-1.7269682164738,-2.2026461745017905,-0.8094597436638988,1.5942354135540797,-0.03174002363245787,-1.6004971731353477,0.006572650527617251,0.017690521601010645,-0.0729576398839427,-0.0432424252973345,-0.036977596373118496,0.010143615078519326,3.762471629257985,3.3166274242602634,0.202382523782894,-0.05854391470283743,-0.05199647993255573,0.18213651906855116
1750170340.0316694,-1.726954746009727,-2.2026099090928106,-0.8096093006213279,1.594146763831773,-0.03181582275125816,-1.6004763782478175,0.0068977290644998595,0.018574883372771897,-0.07659916638366311,-0.045407363959321004,-0.038821401703262814,0.010651284040409822,3.7622970932585695,3.3167302733828232,0.20239700742572395,-0.05856229119685758,-0.05197657113298432,0.18217447117523444
1750170340.0333457,-1.7269406259036364,-2.202571874984761,-0.8097661397101259,1.594053783823978,-0.03189530874464541,-1.6004545679517168,0.007222288460635692,0.019459220452523907,-0.08023976392224492,-0.047572714016913174,-0.040664465096174815,0.011159024205369699,3.762113882508719,3.3168380562478714,0.2024122149582573,-0.05858157253778173,-0.051955670975879165,0.18221429873716904
1750170340.0358062,-1.7269258572183084,-2.2025320722283483,-0.8099302590283939,1.5939564726885245,-0.03197848009357074,-1.6004317421013052,0.007546304222413189,0.020343531510682928,-0.08387938852821047,-0.04973849484488116,-0.04250675138118175,0.011666838906429403,3.7619220109571314,3.31695076506007,0.20242814495887718,-0.05860175799206172,-0.05193378005918312,0.18225599846060303
1750170340.0375292,-1.7269104410654776,-2.2024905008769657,-0.8101016565863262,1.5938548295445214,-0.0320653352086655,-1.6004079005441838,0.007869751887920802,0.021227815196246308,-0.08751799626702259,-0.051904725787958475,-0.04434822540993237,0.012174731468578406,3.7617214932052603,3.317068391647348,0.20244479594237166,-0.05862284678753425,-0.05191089901169773,0.18229956688475082
1750170340.0399568,-1.726894378605774,-2.2024471609867273,-0.810280330306286,1.5937488534724198,-0.03215587243028928,-1.6003830431213126,0.008192607028377104,0.022112070135896302,-0.09115554324279576,-0.054071426159619886,-0.046188852057314295,0.012682705208420476,3.761512344512332,3.3171909274889306,0.20246216635633413,-0.05864483812075843,-0.05188702848806544,0.18234500039913412
1750170340.04169,-1.7268776710486442,-2.2024020526165167,-0.8104662780228846,1.593638543514076,-0.032250090028573375,-1.600357169667026,0.008514845249597346,0.02299629493302449,-0.09479198560010255,-0.056238615240618565,-0.04802859622253765,0.013190763433795638,3.7612945808071645,3.317318363697595,0.20248025457778762,-0.05866773115021397,-0.05186216917345666,0.18239229522949027
1750170340.043992,-1.7268603196522943,-2.2023551758280364,-0.8106594974830639,1.5935238986728193,-0.032347986203473234,-1.6003302800090546,0.008836442193364057,0.023880488166767584,-0.09842727952550734,-0.058406312277709024,-0.04986742283012403,0.013698909443415916,3.761068218648707,3.31745069101993,0.2024990589207311,-0.05869152500155382,-0.051836321780900564,0.1824414474454168
1750170340.0465066,-1.726842325723604,-2.2023065306858554,-0.810859986346185,1.5934049179135195,-0.03244955908482172,-1.6003023739685371,0.009157373538939044,0.024764648391077154,-0.10206138124934164,-0.06057453648236709,-0.05170529683087652,0.014207146526535304,3.7608332752858002,3.3175878998509414,0.20251857763046358,-0.05871621876740642,-0.05180948705075209,0.18249245296899355
1750170340.049511,-1.7268236906180592,-2.202256117257459,-0.8110677421841102,1.5932816001626608,-0.032554806732377095,-1.6002734513600458,0.00947761500442704,0.025648774133785773,-0.10569424704745647,-0.062743307029346,-0.053542183202944765,0.014715477962528952,3.760589768595322,3.3177299802227407,0.20253880888287598,-0.058741811502918184,-0.051781665753369295,0.1825453075464766
1750170340.051233,-1.726804415739668,-2.2022039356133067,-0.811282762481305,1.5931539443084153,-0.03266372713588517,-1.6002435119916054,0.00979714234824865,0.02653286389561281,-0.10932583324277273,-0.06491264305544235,-0.05537804695280956,0.015223907020581592,3.7603377171246914,3.3178769218019157,0.2025597507910251,-0.058768302231440014,-0.05175285868684706,0.1826000067831571
1750170340.053374,-1.7267845025408812,-2.202149985826882,-0.8115050446349263,1.5930219492007205,-0.03277631821513083,-1.6002125556647098,0.010115931370555937,0.027416916149299555,-0.11295609620715895,-0.067082563658105,-0.05721285311628373,0.01573243695930589,3.7600771400726076,3.31802871391101,0.20258140139598643,-0.05879568994020112,-0.05172306667747486,0.18265654612196452
1750170340.0552375,-1.7267639525225054,-2.2020942679747524,-0.8117345859549268,1.5928856136513596,-0.03289257782000288,-1.6001805821743487,0.010433957914660827,0.02830092933860243,-0.11658499236296772,-0.06925308789419551,-0.059046566759530995,0.016241071026374017,3.7598080572896033,3.3181853455007486,0.2026037586758943,-0.05882397358458554,-0.0516922905802445,0.18271492084518018
1750170340.0573382,-1.7267427672336169,-2.202036782136627,-0.8119713836641544,1.5927449364340438,-0.033012503730552645,-1.6001475913090273,0.010751197868468041,0.029184901877408437,-0.1202124781848828,-0.07142423477859539,-0.06087915298008188,0.016749812458167864,3.7595304892827683,3.318346805175678,0.20262682053784692,-0.05885315208368155,-0.05166053127876553,0.18277512608321891
1750170340.0594735,-1.7267209482714705,-2.20197752839542,-0.8122154348984623,1.5925999162844977,-0.033136093657060606,-1.6001135828507893,0.011067627165901582,0.030068832148760768,-0.12383851020150258,-0.07359602328291098,-0.06271057690780059,0.01725866447940919,3.759244457210891,3.3185130811757197,0.20265058482492493,-0.05888322432310411,-0.05162778968388467,0.1828371568058262
1750170340.0613534,-1.7266984972814043,-2.2019165068373088,-0.8124667367068126,1.5924505519005467,-0.033263345240096776,-1.600078556575241,0.011383221788324101,0.030952718503991606,-0.12746304499716504,-0.07576847233419715,-0.06454080370594642,0.017767630302802977,3.7589499828840522,3.3186841613982914,0.2026750493099353,-0.05891418915546674,-0.05159406673635014,0.18290100782861826
1750170340.0679479,-1.7266754159567483,-2.201853717551802,-0.8127252860513963,1.5922968419422079,-0.03339425605059532,-1.6000425122515765,0.0116979577659696,0.03183655926172403,-0.13108603921355563,-0.07794160081361527,-0.06636979857215426,0.018276713128672645,3.7586470887646004,3.3188600333713065,0.2027002117007885,-0.05894604539851093,-0.05155936340452992,0.1829666738076366
1750170340.0690742,-1.7266273693163194,-2.2017228361736816,-0.8132641147648565,1.5919763797539546,-0.03366704528993214,-1.5999673685047542,0.012324758160767054,0.03360409709037636,-0.13832723277253292,-0.0822899713443656,-0.07002395347713691,0.019295242525096915,3.758016134257076,3.319226100960223,0.20275262069079433,-0.059012427221771795,-0.05148701960197644,0.18310342848595457
1750170340.0715222,-1.7266273693163194,-2.2017228361736816,-0.8132641147648565,1.5919763797539546,-0.03366704528993214,-1.5999673685047542,0.012324758160767054,0.03360409709037636,-0.13832723277253292,-0.0822899713443656,-0.07002395347713691,0.019295242525096915,3.758016134257076,3.319226100960223,0.20275262069079433,-0.059012427221771795,-0.05148701960197644,0.18310342848595457
1750170340.0735185,-1.726550616927554,-2.201513258587707,-0.8141266334352384,1.591463059000651,-0.03410360863186668,-1.5998470113875705,0.013257922640931027,0.036255017837470135,-0.14917638829903954,-0.0888180920986156,-0.07549507837386338,0.020823993394603627,3.757007153019206,3.3198108086366998,0.20283640727065402,-0.05911865405657043,-0.051371176851369015,0.18332203010313602
1750170340.075463,-1.7265237918297522,-2.2014398650125493,-0.8144285993589655,1.5912832453511256,-0.034256419905964286,-1.5998048535723859,0.013567006300764396,0.03713854775634368,-0.15278923194525748,-0.09099569091877106,-0.07731595285021901,0.02133384470350999,3.756654248266386,3.3200151496750028,0.2028657051706332,-0.059155832062472706,-0.05133061313324509,0.18339846485615835
1750170340.077374,-1.7264963495856493,-2.201364704435587,-0.814737789134794,1.5910990756968395,-0.03441287146026539,-1.5997616759160715,0.013875065015238329,0.03802201931640771,-0.15640023325501262,-0.09317409994190223,-0.07913535282491263,0.021843835040289715,3.756293099146548,3.3202241853816115,0.20289568304100075,-0.05919389226800936,-0.0512890766009244,0.18347667278438112
1750170340.0793684,-1.7264682922686747,-2.201287776975505,-0.8150541990352016,1.5909105483989097,-0.034572960311267664,-1.5997174781374799,0.014182075256681501,0.03890543054205813,-0.16000934939095054,-0.09535333763563235,-0.08095324380674987,0.022353967493263155,3.7559237333040936,3.3204379004953477,0.20292633804723115,-0.05923283322180337,-0.051246568450073283,0.18355664728767215
1750170340.0813408,-1.7264396219992495,-2.2012090827549846,-0.8153778252470643,1.590717661781575,-0.03473668340653102,-1.5996722599493056,0.014488013559067701,0.0397887794168294,-0.16361653758848888,-0.09753342241022366,-0.08276959134792017,0.022864245135144717,3.7555461790354605,3.3206562794040115,0.20295766729274267,-0.059272653443761425,-0.05120308990282386,0.1836383816171674
1750170340.0833483,-1.7264396219992495,-2.2012090827549846,-0.8153778252470643,1.590717661781575,-0.03473668340653102,-1.5996722599493056,0.014488013559067701,0.0397887794168294,-0.16361653758848888,-0.09753342241022366,-0.08276959134792017,0.022864245135144717,3.7555461790354605,3.3206562794040115,0.20295766729274267,-0.059272653443761425,-0.05120308990282386,0.1836383816171674
1750170340.0856147,-1.7263804513189607,-2.201046394543793,-0.8160467109255327,1.5903188037019558,-0.03507501977590888,-1.5995787611643566,0.015096580799165,0.04155528183855604,-0.1708249594851715,-0.10189620654816581,-0.08639751853999425,0.02388524819628398,3.75476662160166,3.3211069644780027,0.20302233656010896,-0.059354925596793034,-0.051113226650054806,0.18380710197478892
1750170340.0882385,-1.7263499553827746,-2.2009624008191917,-0.8163919623392228,1.5901128287048159,-0.035249626601245865,-1.59953047996245,0.015399163125676714,0.04243843114046132,-0.1744261080350842,-0.10407894243350482,-0.0882090295212998,0.02439597967966867,3.754364678232596,3.321339237704589,0.2030556704493201,-0.05939737439944546,-0.051066844531112016,0.1838940737161909
1750170340.0894983,-1.7263188554432318,-2.2008766408664595,-0.8167444139588493,1.5899024873188055,-0.03542785477347454,-1.5994811771407598,0.015700580293548375,0.04332150959972404,-0.17802515835187607,-0.10626259844122506,-0.09001885972471821,0.024906868479526112,3.7539546660381,3.3215761088755076,0.20308966630263184,-0.059440696215539546,-0.051019497188184125,0.1839827767217796
1750170340.0917394,-1.7263188554432318,-2.2008766408664595,-0.8167444139588493,1.5899024873188055,-0.03542785477347454,-1.5994811771407598,0.015700580293548375,0.04332150959972404,-0.17802515835187607,-0.10626259844122506,-0.09001885972471821,0.024906868479526112,3.7539546660381,3.3215761088755076,0.20308966630263184,-0.059440696215539546,-0.051019497188184125,0.1839827767217796
1750170340.0956726,-1.7262871538537983,-2.200789114829509,-0.8171040615455576,1.5896877776855651,-0.03560970089681437,-1.5994308523816612,0.016000809166045033,0.04420451498248872,-0.1816220680612797,-0.10844719267561712,-0.09182697493443065,0.02541791758513613,3.7535366165094377,3.321817560665323,0.20312432088783153,-0.059484889398581445,-0.05097118598412366,0.18407320345738123
1750170340.096018,-1.7262548530141437,-2.200699822856766,-0.8174709007758274,1.589468697910591,-0.035795161507103934,-1.5993795053615676,0.016299826676517165,0.04508744500882922,-0.185216794872358,-0.11063274317606082,-0.0936333409840328,0.02592912996802209,3.7531105617910843,3.3220635754246874,0.20315963089983913,-0.05952995227124735,-0.05092191231094969,0.18416534623611755
1750170340.0973132,-1.726221955369999,-2.2006087651012614,-0.8178449272416426,1.5892452460633666,-0.035984233071898686,-1.5993271357509684,0.016597609829791284,0.045970297351900155,-0.18880929657933213,-0.11281926791581218,-0.09543792375748988,0.026440508581594892,3.7526765346607016,3.3223141351686225,0.20319559296359166,-0.05957588312450662,-0.050871677587585616,0.18425919721570036
1750170340.0993345,-1.7261884634130125,-2.200515941720729,-0.8182261364506607,1.5890174201774963,-0.03617691199057216,-1.5992737432144644,0.01689413570356182,0.046853069636988084,-0.19239953106295493,-0.11500678480077643,-0.09724068919016152,0.02695205636080496,3.7522345685276184,3.3225692215589735,0.20323220364683306,-0.0596226802171687,-0.050820483261824194,0.18435474839973603
1750170340.1011515,-1.7261543796806045,-2.2004213528777,-0.8186145238263904,1.5887852182508404,-0.036373194594422564,-1.599219327410804,0.017189381449791857,0.04773575944077284,-0.19598745629268916,-0.11719531166829367,-0.09904160326976046,0.027463776221780086,3.751784697440684,3.3228288159445665,0.20326945943798588,-0.059670341776236216,-0.05076833080846719,0.18445199163520717
1750170340.103714,-1.7261197067558154,-2.2003249987396014,-0.819010084708367,1.5885486382456548,-0.03657307714677582,-1.5991638879929244,0.017483324296118062,0.04861836429041285,-0.19957303032820428,-0.11938486628590543,-0.10084063203738469,0.02797567106146467,3.7513269560862232,3.3230928993287443,0.2033073567650614,-0.059718865996324415,-0.0507152217313905,0.18455091861014655
1750170340.105239,-1.7260844472671515,-2.200226879478855,-0.8194128143523391,1.5883076780887309,-0.03677655584309392,-1.5991074246079862,0.01777594154722993,0.049500881662733955,-0.20315621132122283,-0.12157546635022573,-0.1026377415884756,0.028487743757292343,3.750861379777818,3.3233614523888897,0.20334589198596675,-0.05976825104251598,-0.050661157561461716,0.18465152086757913
1750170340.1071825,-1.7260486038884357,-2.200126995272983,-0.8198227079304523,1.5880623356715384,-0.036983626811085024,-1.5990499368974183,0.018067210586253084,0.05038330898335157,-0.20673695751715518,-0.12376712948566981,-0.10443289807382258,0.028999997166799102,3.7503880044576783,3.323634455462672,0.20338506139425186,-0.05981849504641433,-0.05060613985784838,0.18475378978300372
1750170340.109207,-1.7260121793386407,-2.200025346304706,-0.8202397605314351,1.587812608850372,-0.03719428611081543,-1.5989914244969512,0.01835710887616462,0.051265643625937156,-0.21031522725709112,-0.1259598732432128,-0.10622606770053868,0.02951243412729164,3.7499068667127813,3.3239118885809393,0.20342486121014033,-0.059869596106810696,-0.05055017020720287,0.18485771658543057
1750170340.112131,-1.725975176381736,-2.1999219327620505,-0.8206639671608,1.5875584954464983,-0.03740852973482234,-1.598931887036664,0.018645613961144,0.05214788291126496,-0.21389097897927276,-0.12815371509938023,-0.10801721673307493,0.030025057455489557,3.7494180037403613,3.324193731418562,0.20346528759344082,-0.05992155229633683,-0.05049325022475193,0.1849632923456049
1750170340.1131968,-1.7259375978265172,-2.1998167548384533,-0.82109532274103,1.5872999932463066,-0.037626353608231966,-1.5988713241410206,0.018932703467989767,0.05303002410651523,-0.21746417122116735,-0.13034867245494142,-0.10980631149416299,0.03053786994718,3.7489214533835913,3.324479963351693,0.2035063366286226,-0.05997436165290354,-0.050435381552274776,0.1850705079831184
1750170340.115245,-1.7258994465264443,-2.1997098127328742,-0.821533822111788,1.5870371000014614,-0.03784775358887149,-1.5988097354289161,0.019218355107468763,0.05391206442434151,-0.22103476262087077,-0.1325447626337729,-0.111593318365869,0.031050874376848916,3.748417254096026,3.3247705634064473,0.20354800434210346,-0.0600280221845742,-0.05037656586124075,0.18517935425566917
1750170340.1178718,-1.7258607253794693,-2.199601106649901,-0.8219794600301107,1.586769813429057,-0.03807272546739604,-1.5987471205137185,0.019502546675718244,0.05479400102219514,-0.22460271191930054,-0.13474200288169988,-0.1133782037904755,0.03156407349734939,3.747905444969504,3.325065510313959,0.20359028668149692,-0.060082531868797764,-0.05031680484796106,0.18528982177470815
1750170340.1190777,-1.725821437327868,-2.1994906367998635,-0.8224322311706258,1.5864981312117759,-0.03830126496740327,-1.598683479003311,0.019785256055603443,0.0556758310013862,-0.22816797796149305,-0.13694041036528473,-0.11516093427157695,0.03207747003953744,3.7473860657092084,3.3253647824564103,0.20363317953967028,-0.060137888650941496,-0.05025610023960902,0.18540190099090964
1750170340.1211886,-1.725821437327868,-2.1994906367998635,-0.8224322311706258,1.5864981312117759,-0.03830126496740327,-1.598683479003311,0.019785256055603443,0.0556758310013862,-0.22816797796149305,-0.13694041036528473,-0.11516093427157695,0.03207747003953744,3.7473860657092084,3.3253647824564103,0.20363317953967028,-0.060137888650941496,-0.05025610023960902,0.18540190099090964
1750170340.1234415,-1.7257815853580603,-2.199378403398944,-0.8228921301257515,1.5862220509980465,-0.03853336774556215,-1.59861881050014,0.020066461218112217,0.05655755140640935,-0.2317305196987992,-0.13914000217079256,-0.11694147637495057,0.03259106671193423,3.746859156654519,3.3256683579214954,0.2036766787306282,-0.06019409044922722,-0.05019445378788954,0.1855155822059973
1750170340.125266,-1.7257411725004355,-2.199264406669295,-0.8233591514059215,1.5859415704022066,-0.03876902939173643,-1.5985531146012528,0.02034614022370265,0.05743915922406415,-0.23529029619042627,-0.1413407953029263,-0.11871979672962515,0.03310486620037203,3.7463247587534783,3.325976214459376,0.20372078000682817,-0.06025113514815416,-0.050131867274616077,0.18563085556543274
1750170340.1277897,-1.725700201829171,-2.199148646839152,-0.8238332894397935,1.585656687004667,-0.039008245429109856,-1.5984863908983513,0.020624271223682364,0.0583206513827245,-0.23884726660527889,-0.14354280668381317,-0.12049586202882195,0.033618871167636365,3.745782913581158,3.3262883295160837,0.20376547905195572,-0.06030902060563666,-0.05006834250810798,0.18574771105768798
1750170340.129129,-1.725658676462051,-2.199031124142955,-0.8243145385744759,1.5853673983520782,-0.03925101131431852,-1.5984186389778365,0.02090083246156722,0.059202024751514946,-0.24240139022365706,-0.14574605315175052,-0.12226963903091194,0.034133084253127687,3.745233663326101,3.3266046802131797,0.20381077148418683,-0.060367744646035455,-0.05000388132364963,0.1858661385207174
1750170340.1311288,-1.7256165995602766,-2.1989118388214655,-0.8248028930757503,1.585073701957498,-0.03949732243758319,-1.5983498584208498,0.02117580227446074,0.06008327613959559,-0.24595262643924662,-0.14795055146022082,-0.12404109456039483,0.03464750807253335,3.744677050801516,3.326925243371481,0.20385665284866641,-0.06042730506777404,-0.04993848558410596,0.1859861276459198
1750170340.1331978,-1.7255739743282836,-2.1987907911218842,-0.8252983471283013,1.5847755953005636,-0.039747174122838125,-1.5982800488033284,0.021449159094378834,0.060964402295352466,-0.2495009347606725,-0.15015631827667714,-0.12581019550893408,0.0351621452174288,3.744113119421837,3.3272499954897268,0.20390311862929061,-0.06048769963691492,-0.049872157181497345,0.18610766795306202
1750170340.1351814,-1.7255308040135446,-2.19866798129798,-0.825800894835945,1.584473075827664,-0.04000056162787047,-1.5982092096960514,0.0217208814496461,0.06184539990564066,-0.25304627481339836,-0.1523633701814076,-0.1275769088362501,0.035676998254970595,3.743541913230353,3.327578912759624,0.203950164239503,-0.060548926089133044,-0.04980489803300762,0.18623074882167562
1750170340.1374202,-1.7254870919063796,-2.198543409610208,-0.8263105302218694,1.5841661409521157,-0.04025748014445352,-1.5981373406646853,0.021990947966213297,0.06272626559503872,-0.2565886063414507,-0.15457172366660232,-0.12934120157111,0.03619206972755912,3.7429634768672977,3.3279119710654403,0.20399778502705002,-0.06061098213552282,-0.04973671008369876,0.18635535948202675
1750170340.1391637,-1.7254428413397571,-2.1984170763258373,-0.8268272472288682,1.58385478805434,-0.04051792479849059,-1.5980644412698384,0.02225933736903107,0.06360699592510219,-0.26012788920928587,-0.15678139513513473,-0.13110304081230936,0.03670736215245777,3.7423778555937486,3.3282491459851817,0.2040459762701504,-0.06067386545450923,-0.04966759530629349,0.18648148899797629
1750170340.1414192,-1.725398055689098,-2.19828898171908,-0.8273510397195887,1.583539014482043,-0.04078189065015181,-1.5979905110671115,0.02252602848338023,0.06448758739365919,-0.263664083403684,-0.15899240089944774,-0.13286239372963396,0.03722287802146266,3.7417850952726077,3.328590412798868,0.20409473317681312,-0.060737573694657106,-0.049597555700604576,0.18660912628677276
1750170340.1432672,-1.7253527383720666,-2.1981591260712143,-0.827881901476772,1.583218817550396,-0.04104937269401976,-1.597915549607146,0.022791000236235395,0.06536803643399797,-0.26719714903518094,-0.16120475718062485,-0.134619227564831,0.03773861980058506,3.7411852423803316,3.3289357464715543,0.20414405089807863,-0.06080210447986768,-0.04952659329380503,0.18673826012047445
1750170340.1457083,-1.7253068928483755,-2.198027509670716,-0.8284198262035094,1.5828941945422217,-0.0413203658592316,-1.5978395564356758,0.023054231657571835,0.06624833941420005,-0.27072704634023737,-0.16341848010722854,-0.13637350963252579,0.03825458992967468,3.7405783439849047,3.3292851216744874,0.20419392450666998,-0.06086745540283884,-0.04945471013889062,0.18686887910844957
1750170340.1489773,-1.7252605226195703,-2.1978941328133947,-0.828964807523489,1.5825651427081784,-0.04159486500962917,-1.5977625310935846,0.023315701881743277,0.06712849263639122,-0.2742537356828538,-0.16563358571425693,-0.13812520732125586,0.038770790822080084,3.7399644477751433,3.329638512777902,0.2042443490136492,-0.0609336240282884,-0.049381908317988964,0.18700097170719016
1750170340.1539116,-1.7252136312288222,-2.197758995802518,-0.8295168389812586,1.582231659266949,-0.04187286494390463,-1.5976844731169537,0.023575390148778328,0.0680084923360681,-0.27777717755643694,-0.16785008994205278,-0.1398742880943515,0.03928722486432039,3.7393436020262736,3.3299958938615166,0.20429531936091727,-0.06100060789151226,-0.04930818993803275,0.18713452622777696
1750170340.154272,-1.7251662222607171,-2.197622098948952,-0.8300759140424825,1.5818937414054313,-0.042154360395753265,-1.5976053820371199,0.02383327580572501,0.0688883346813383,-0.28129733258558043,-0.1700680086354072,-0.14162071949095098,0.039803894415742475,3.7387158556169444,3.3303572386985887,0.20434683042336974,-0.06106840450393073,-0.049233557134552144,0.18726953082703518
1750170340.1546414,-1.7251182993410374,-2.1974834425712944,-0.8306420260942069,1.5815513862789297,-0.042439346034026215,-1.5975252573807293,0.024089338307978547,0.06976801577226316,-0.2848141615278701,-0.1722873575423581,-0.14336446912692374,0.04032080180816964,3.7380812580265235,3.33072252077871,0.20439887700912018,-0.061137011344335475,-0.0491580120690876,0.18740597350715052
1750170340.1552002,-1.725069866136547,-2.197343026996011,-0.8312151684451283,1.5812045910113506,-0.042727816462881485,-1.59744409866979,0.024343557220598628,0.07064753164015018,-0.2883276252757202,-0.17450815231322903,-0.14510550469580086,0.04083794934556659,3.73743985932665,3.331091713296055,0.20445145385800254,-0.061206425865656354,-0.04908155692938649,0.1875438421201574
1750170340.157116,-1.725020926354767,-2.1972008525575735,-0.8317953343258644,1.5808533526953976,-0.0430197662219447,-1.5973619054217325,0.024595912219634666,0.07152687824684735,-0.2918376848580841,-0.1767304084997533,-0.1468437939697862,0.041355339303713406,3.736791710184898,3.331464789152435,0.20450455564553005,-0.061276645497322514,-0.04900419393168455,0.18768312437061052
1750170340.1592264,-1.7249714837437544,-2.1970569195986016,-0.8323825168892265,1.5804976683927712,-0.04331518978646365,-1.597278677149463,0.024846383093426655,0.0724060514841255,-0.2953443014424888,-0.1789541415538306,-0.1485793048006109,0.04187297392984255,3.7361368618564548,3.3318417209723052,0.20455817697379083,-0.06134766763480017,-0.048925925316285944,0.18782380780476074
1750170340.1613321,-1.7249215420918773,-2.1969112284700003,-0.832976709210504,1.5801375351343678,-0.04361408156747171,-1.5971944133614215,0.025094949743917516,0.07328504717289008,-0.2988474363363543,-0.18117936682664088,-0.15031200512059434,0.042390855442305524,3.735475366184707,3.3322224810732077,0.20461231239154365,-0.061419489649665086,-0.04884675335338347,0.18796587981742657
1750170340.1633139,-1.7248711052275851,-2.196763779531107,-0.8335779042877416,1.5797729499204836,-0.04391643591194594,-1.5971091135616424,0.025341592187977328,0.07416386106268918,-0.30234705098961473,-0.1834060995678076,-0.1520418629434738,0.04290898603026735,3.7348072756094903,3.3326070415215594,0.2046669563580006,-0.06149210889088195,-0.04876668033654304,0.1881093276655044
1750170340.165184,-1.7248201770191764,-2.19661457314983,-0.8341860950420283,1.5794039097210177,-0.04422224710297673,-1.5970227772498102,0.02558629055867899,0.07504248883092761,-0.3058431069957947,-0.1856343549241123,-0.153768846365377,0.043427367853322726,3.7341326431451023,3.3329953740779645,0.20472210328617158,-0.06156552267213287,-0.04868570858672451,0.18825413843779215
1750170340.1752214,-1.724768761374568,-2.1964636097027936,-0.8348012743177842,1.5790304114756795,-0.044531509359925,-1.5969354039213188,0.025829025106617273,0.07592092608226549,-0.3093355660942198,-0.1878641479388222,-0.15549292356578132,0.04394600304119934,3.7334515223962383,3.3333874502322325,0.20477774751090777,-0.061639728289042954,-0.04860384045191211,0.18840029908594863
1750170340.175738,-1.7247168622410545,-2.1963108895754893,-0.8354234348830554,1.5786524520941956,-0.04484421683859896,-1.5968469930673344,0.026069776201190817,0.0767991683479128,-0.31282439017152064,-0.19009549355055597,-0.15721406280846112,0.04446489369339519,3.7327639675434794,3.3337832411841513,0.20483388330890986,-0.06171472300609817,-0.04852107830677479,0.18854779640116293
1750170340.176033,-1.7247168622410545,-2.1963108895754893,-0.8354234348830554,1.5786524520941956,-0.04484421683859896,-1.5968469930673344,0.026069776201190817,0.0767991683479128,-0.31282439017152064,-0.19009549355055597,-0.15721406280846112,0.04446489369339519,3.7327639675434794,3.3337832411841513,0.20483388330890986,-0.06171472300609817,-0.04852107830677479,0.18854779640116293
1750170340.1763196,-1.7246116294919656,-2.1960001808672445,-0.8366886705742429,1.5778831374130529,-0.04547994376758435,-1.596667056726771,0.026545250109576778,0.07855504967650942,-0.3197909815586196,-0.1945629017908179,-0.16064740090253155,0.04550344963565065,3.7313697751463173,3.334585850992636,0.204947606358005,-0.0618670686722547,-0.04835288160922253,0.1888467474722398
1750170340.176613,-1.7245583039657184,-2.195842193102937,-0.8373317308570707,1.577491775784839,-0.0458029512132585,-1.5965755302019264,0.026779934267792377,0.07943267942935935,-0.32326867339597426,-0.19679899376507998,-0.16235953671107395,0.046023118970611496,3.730663248850722,3.334992610897677,0.205005181817794,-0.06194441402586621,-0.048267451934155124,0.1889981740699211
1750170340.1877377,-1.7245583039657184,-2.195842193102937,-0.8373317308570707,1.577491775784839,-0.0458029512132585,-1.5965755302019264,0.026779934267792377,0.07943267942935935,-0.32326867339597426,-0.19679899376507998,-0.16235953671107395,0.046023118970611496,3.730663248850722,3.334992610897677,0.205005181817794,-0.06194441402586621,-0.048267451934155124,0.1889981740699211
1750170340.1881177,-1.724504511128738,-2.1956824502919305,-0.8379817427438487,1.5770959403637992,-0.04612937987173282,-1.5964829640751859,0.027012557663992517,0.08031009557512328,-0.3267425792709854,-0.19903669702609175,-0.16406860847809188,0.04654305185905719,3.729950510941836,3.3354029677259764,0.2050632252639988,-0.06202253728788513,-0.048181138005216916,0.1891508830295352
1750170340.1884305,-1.7244502551215852,-2.1955209528662696,-0.8386386986252781,1.5766956279129403,-0.04645922358360721,-1.5963893578174924,0.027243101280854904,0.08118729326875744,-0.33021266183528225,-0.20127602597532565,-0.16577458490253158,0.047063250244379407,3.7292316184782943,3.335816891332831,0.20512173063445333,-0.06210143559085022,-0.048093942324866135,0.18930486038409097
1750170340.1887143,-1.72439554012273,-2.1953577012677705,-0.8393025908175193,1.5762908351665759,-0.04679247612697157,-1.5962947108959353,0.027471546227510024,0.08206426758814747,-0.33367888389900746,-0.20351699490425848,-0.16747743477314078,0.04758371603777803,3.728506629070363,3.336234351309857,0.20518069179808468,-0.06218110605222309,-0.04800586742283563,0.18946009203991004
1750170340.189004,-1.7243403703482993,-2.1951926959481654,-0.839973411562517,1.5758815588305477,-0.047129131217581666,-1.596199022773816,0.027697873740817988,0.08294101353358588,-0.33714120843272727,-0.20575961799328488,-0.16917712696940856,0.04810445111790451,3.727775600902995,3.33665531700059,0.20524010255560593,-0.06226154575923593,-0.04791691585533524,0.18961656374577107
1750170340.1893046,-1.7242847500518153,-2.1950259373692687,-0.8406511530283156,1.575467795582448,-0.04746918250904475,-1.5961022929107083,0.027922065186649362,0.08381752602704776,-0.3405995985689254,-0.2080039093109323,-0.17087363046238394,0.04862545733056065,3.727038592728353,3.337079757460582,0.20529995665020276,-0.062342751777295535,-0.047827090201633136,0.1897742611086445
1750170340.189626,-1.7242286835239362,-2.1948574260031277,-0.8413358073093891,1.5750495420718453,-0.047812623593002535,-1.5960045207625297,0.028144102061089284,0.08469379991174847,-0.3440540176040496,-0.21024988281288334,-0.1725669143156891,0.049146736488318986,3.7262956638438807,3.337507641510751,0.20536024775301748,-0.06242472114461706,-0.04773639306954262,0.1899331695721445
1750170340.1913035,-1.7241721750922023,-2.1946871623321833,-0.8420273664269695,1.5746267949205097,-0.048159447999317706,-1.5959057057816048,0.028363965991700196,0.08556982995158327,-0.3475044290005739,-0.21249755234125767,-0.17425694768630828,0.04966829037025776,3.7255468741076987,3.337938937716547,0.20542096946212302,-0.06250745087927484,-0.04764482708909729,0.19009327445333438
1750170340.193247,-1.7241152291207618,-2.1945151468494277,-0.8427258223293821,1.574199550722642,-0.048509649196258664,-1.5958058474167345,0.028581638738776647,0.08644561083051147,-0.3509507963883735,-0.2147469316234551,-0.1759436998255699,0.05019012072154885,3.7247922839413152,3.338373614379986,0.20548211532265298,-0.06259093796698499,-0.04755239491799935,0.19025456088990847
1750170340.1962736,-1.7240000421968178,-2.194165862474174,-0.844143391919487,1.573331557427644,-0.04922015552828185,-1.59560299831315,0.029010338394521492,0.0881964034386062,-0.3578312545064563,-0.21925087378254726,-0.17930723789222472,0.05123461764190849,3.7232659467246623,3.339252981046124,0.20560565331953315,-0.06276017207346705,-0.04736494275691044,0.1905806183807557
1750170340.19731,-1.7240000421968178,-2.194165862474174,-0.844143391919487,1.573331557427644,-0.04922015552828185,-1.59560299831315,0.029010338394521492,0.0881964034386062,-0.3578312545064563,-0.21925087378254726,-0.17930723789222472,0.05123461764190849,3.7232659467246623,3.339252981046124,0.20560565331953315,-0.06276017207346705,-0.04736494275691044,0.1905806183807557
1750170340.2000923,-1.7238831583873537,-2.1938095770384702,-0.8455884502210385,1.5724455343978354,-0.0499440891106433,-1.5953959689742954,0.02943005781183731,0.08994613358924645,-0.3646951044203326,-0.2237618167890403,-0.18265728444629253,0.052280240521643935,3.7217171464874417,3.340145483020305,0.20573080871927188,-0.0629323989272572,-0.0471740583391289,0.19091122034212965
1750170340.2013242,-1.7238831583873537,-2.1938095770384702,-0.8455884502210385,1.5724455343978354,-0.0499440891106433,-1.5953959689742954,0.02943005781183731,0.08994613358924645,-0.3646951044203326,-0.2237618167890403,-0.18265728444629253,0.052280240521643935,3.7217171464874417,3.340145483020305,0.20573080871927188,-0.0629323989272572,-0.0471740583391289,0.19091122034212965
1750170340.2036884,-1.7238240914422507,-2.193628810272152,-0.8463212667444964,1.571995752931554,-0.05031107414242353,-1.595290885303159,0.029636505776986986,0.09082058608869191,-0.3681207122087152,-0.22601994668902103,-0.1843271725617955,0.05280347819040068,3.720934479583897,3.340596577883971,0.20579397609844394,-0.06301962687180152,-0.047077335942281306,0.19107818684158814
1750170340.207022,-1.7237047303617103,-2.1932620314412947,-0.8478074321275564,1.571082632264806,-0.05105504620118673,-1.5950775771030674,0.030042491133204934,0.09256863690257683,-0.3749591168217778,-0.23054158839832928,-0.18765652764954294,0.05385081366181209,3.7193529306141118,3.3415082896068666,0.20592145590548996,-0.06319629605803724,-0.046881344798987035,0.19141537223584665
1750170340.207448,-1.7237047303617103,-2.1932620314412947,-0.8478074321275564,1.571082632264806,-0.05105504620118673,-1.5950775771030674,0.030042491133204934,0.09256863690257683,-0.3749591168217778,-0.23054158839832928,-0.18765652764954294,0.05385081366181209,3.7193529306141118,3.3415082896068666,0.20592145590548996,-0.06319629605803724,-0.046881344798987035,0.19141537223584665
1750170340.2093945,-1.7236444454863467,-2.193076020531432,-0.8485607638122721,1.5706192858541324,-0.05143201925320984,-1.5949693514232948,0.030241994113901008,0.09344222335277841,-0.3783718435380094,-0.2328051258931724,-0.18931593459573065,0.05437491442639805,3.718554177513083,3.3419688394189757,0.20598575443768138,-0.06328573094336377,-0.046782081741672345,0.19158555924980555
1750170340.2110858,-1.7235837639513694,-2.1928882627483404,-0.8493209165927089,1.5701514105425547,-0.051812307570514804,-1.594860077251628,0.03043914792796417,0.09431550911530703,-0.3817802067612163,-0.2350704914025532,-0.19097178796239345,0.05489930579043395,3.717750192186443,3.3424324734914386,0.2060504159882121,-0.06337589507245081,-0.04668197751876803,0.19175678762571674
1750170340.215181,-1.7235226904719791,-2.192698758699523,-0.8500878817072559,1.5696790026614842,-0.05219590401616614,-1.5947497540054734,0.030633935729891575,0.09518848804657253,-0.38518417189834825,-0.23733769746524302,-0.1926240579924014,0.05542398914295489,3.716941040452706,3.3428991577036267,0.2061154334572134,-0.06346678523631989,-0.04658103503722055,0.19192904110800726
1750170340.215533,-1.7234612297969267,-2.1925075090048587,-0.8508616503253057,1.5692020585173792,-0.052582801393821654,-1.5946383810994957,0.0308263408200965,0.09606115391788168,-0.3885837045452773,-0.23960675649599597,-0.19427271503256288,0.05594896583545439,3.7161267886183524,3.343368857788717,0.20618079962992372,-0.0635583981557285,-0.04647925722499937,0.19210230319681057
1750170340.217266,-1.723399386708211,-2.1923145142967666,-0.8516422135476276,1.56872057439199,-0.05297299244793496,-1.5945259579456952,0.031016346646254498,0.09693350041399101,-0.391978770484653,-0.2418776807869465,-0.19591772953418923,0.05647423718195435,3.7153075035557053,3.3438415390886553,0.2062465073386795,-0.0636507305899208,-0.04637664702598213,0.192276557363159
1750170340.2191465,-1.72333716602079,-2.1921197752203874,-0.8524295624067459,1.5682345465426049,-0.053366469863969535,-1.5944124839534801,0.031203936804439218,0.09780552113298055,-0.39536933568946503,-0.24415048250744953,-0.19755907205482354,0.056999804458809464,3.714483252640381,3.344317166777691,0.20631254930169174,-0.06374377929276824,-0.04627320743276262,0.19245178698059368
1750170340.2223954,-1.7232745725822793,-2.1919232924337404,-0.8532236878673514,1.5677439712023233,-0.05376322626860741,-1.594297958529749,0.031389095039234184,0.09867720959123989,-0.39875536634364395,-0.24642517368591604,-0.19919671325770083,0.05752566890107173,3.7136541035305957,3.3447957067180067,0.206378917647975,-0.06383754050745054,-0.04616894142265577,0.1926279742240622
1750170340.223162,-1.7232116112726539,-2.1917250666079138,-0.8540245808266524,1.5672488445802673,-0.05416325422996682,-1.594182381078963,0.03157180524754402,0.09954855920999378,-0.4021368287987174,-0.24870176625345636,-0.20083062391344847,0.05805183171058125,3.7128201250011665,3.3452771223864537,0.20644560570589182,-0.06393201170103058,-0.04606385202101971,0.19280510380111468
1750170340.2254322,-1.7231482870039443,-2.191525098427232,-0.8548322321147861,1.5667491628618588,-0.05456654625781354,-1.594065751003222,0.03175205147680002,0.10041956332791795,-0.40551368961930817,-0.2509802719926609,-0.20246077490074182,0.05857829404609716,3.711981385651132,3.3457613791847893,0.2065126055174459,-0.06402718890193798,-0.04595794227153323,0.19298315720422893
1750170340.2279167,-1.7230846047199355,-2.191323388589433,-0.8556466324952101,1.5662449222090713,-0.05497309480378032,-1.593948067702347,0.03192981792766318,0.10129021519486169,-0.40888591556657095,-0.2532607025655589,-0.2040871372074688,0.059105057028371426,3.7111379549546766,3.3462484413621527,0.20657990957509173,-0.0641230689222502,-0.04585121525076869,0.19316211753613338
1750170340.2296603,-1.7230205693958531,-2.191119937805844,-0.8564677726651082,1.5657361187606826,-0.055382892261585326,-1.5938293305739561,0.03210508895479442,0.10216050797249661,-0.41225347360271586,-0.2555430695054336,-0.2057096819312604,0.059632121738447674,3.7102899028021317,3.3467382731183255,0.20664751023194208,-0.06421964834301616,-0.0457436740502197,0.19334196729594091
1750170340.2313757,-1.7229561860380613,-2.1909147468015533,-0.8572956432557852,1.565222748632532,-0.05579593096725333,-1.5937095390135463,0.03227784906803543,0.1030304347333236,-0.415616330890546,-0.2578273842177193,-0.20732838027991818,0.060159489217618135,3.7094372995854874,3.3472308383413765,0.20671539984090911,-0.06431692376923534,-0.04563532177341654,0.19352268892261926
1750170340.2332654,-1.7228914596837495,-2.190707816315598,-0.8581302348330802,1.564704807917777,-0.0562122031993324,-1.5935886924145715,0.032448082933459646,0.1038999884611434,-0.41897445479875567,-0.2601136579784011,-0.20894320357254714,0.060687160466953854,3.7085802161825634,3.347726100865088,0.20678357059394573,-0.06441489175957334,-0.04552616155581034,0.1937042646702139
1750170340.235606,-1.722826395400614,-2.190499147101133,-0.8589715378977729,1.5641822926871527,-0.05663170117912486,-1.5934667901685238,0.03261577537451803,0.10476916205031675,-0.4223278129020149,-0.2624019019336326,-0.21055412324063377,0.06121513644702762,3.707718723971397,3.3482240242586125,0.20685201466850242,-0.06451354886055562,-0.04541619656322224,0.19388667665488046
1750170340.2375872,-1.7227609982865495,-2.1902887399256175,-0.8598195428860027,1.563655198989233,-0.05705441707090575,-1.593343831665015,0.032780911373096785,0.10563794830537526,-0.42567637298276095,-0.26469212709895545,-0.21216111082838252,0.06174341807758118,3.7068528947972124,3.348724571882619,0.20692072417871768,-0.06461289159526351,-0.04530542997094614,0.19406990684249512
1750170340.2407184,-1.7227609982865495,-2.1902887399256175,-0.8598195428860027,1.563655198989233,-0.05705441707090575,-1.593343831665015,0.032780911373096785,0.10563794830537526,-0.42567637298276095,-0.26469212709895545,-0.21216111082838252,0.06174341807758118,3.7068528947972124,3.348724571882619,0.20692072417871768,-0.06461289159526351,-0.04530542997094614,0.19406990684249512
1750170340.2449589,-1.7226952734693253,-2.1900765955709893,-0.8606742401696801,1.5631235228506912,-0.05748034298215465,-1.5932198162918594,0.03294347607066361,0.10650633994071197,-0.4290201030331205,-0.2669843443591226,-0.21376413799380137,0.06227200623729889,3.7059828010100406,3.349227706914907,0.20698969117323754,-0.06471291648022531,-0.04519386498486288,0.19425393708417613
1750170340.245836,-1.7226292261062692,-2.1898627148338505,-0.8615356200569133,1.562587260276562,-0.05790947096377863,-1.5930947434351541,0.033103454769307296,0.10737432958039753,-0.43235897125741024,-0.26927856446743587,-0.21536317650923736,0.06280090176349291,3.705108515422023,3.3497333923654007,0.2070589076180604,-0.06481362001168396,-0.04508150482593425,0.1944387490897395
1750170340.247297,-1.722496184517814,-2.189429747472831,-0.863278388558018,1.5615009597350749,-0.058777301060319864,-1.5928414228074024,0.03341559618782531,0.10910907291476243,-0.43902199611303616,-0.27387305557963043,-0.21854917525676149,0.06385961805558442,3.7033476624925,3.3507522655086253,0.20719805649297096,-0.06501704887997971,-0.044854412001914826,0.1948106444380547
1750170340.249399,-1.7224292007519395,-2.189210662517093,-0.8641597574729305,1.5609509136719764,-0.05921598699627939,-1.592713173800722,0.03356773032469573,0.10997581140250136,-0.44234609022737276,-0.2761733474268978,-0.2201360796129413,0.06438944028633736,3.702461243143929,3.351265378259212,0.20726797256280174,-0.06511976711812922,-0.04473968589411719,0.19499769048779622
1750170340.251356,-1.7223619153586265,-2.1889898445154925,-0.8650477695943515,1.560396264982342,-0.05965784264516927,-1.5925838648393924,0.03371722129875932,0.11084211748005621,-0.4456651974849312,-0.278475683807905,-0.22171888356877578,0.06491957281265995,3.7015709279797706,3.3517808915202423,0.20733810538710906,-0.06522314979406241,-0.04462417772836511,0.19518544368206178
1750170340.2535002,-1.722294333638109,-2.188767294340666,-0.8659424149178214,1.559837009566995,-0.0601028597785227,-1.5924534953021903,0.03386405523124775,0.11170798331476726,-0.4489792871758351,-0.28078007480968703,-0.22329755948051716,0.0654500162603369,3.700676792150488,3.3522987673895006,0.20740844661760954,-0.06532719331689776,-0.044507890838544645,0.19537388502941339
1750170340.2553446,-1.7222264609182076,-2.18854301288101,-0.8668436833776809,1.5592731433067186,-0.060551030112709014,-1.5923220645666811,0.03400821841038864,0.11257340098162677,-0.4522883288122337,-0.28308653038452913,-0.22487207982331675,0.0659807712119741,3.6997789112755455,3.352818967744895,0.20747898787440067,-0.0654318940785438,-0.04439082857407631,0.19556299539546848
1750170340.2572258,-1.7221583025540017,-2.1883170010408612,-0.8677515648475209,1.5587046620625276,-0.061002345309164596,-1.5921895720093122,0.034149697292366034,0.11343836246329954,-0.45559229213117197,-0.28539506034928447,-0.22644241719211528,0.06651183820664945,3.6988773614052013,3.3533414543407654,0.20754972068574828,-0.06553724844956596,-0.044272994309462105,0.19575275549476895
1750170340.2594993,-1.7221583025540017,-2.1883170010408612,-0.8677515648475209,1.5587046620625276,-0.061002345309164596,-1.5921895720093122,0.034149697292366034,0.11343836246329954,-0.45559229213117197,-0.28539506034928447,-0.22644241719211528,0.06651183820664945,3.6988773614052013,3.3533414543407654,0.20754972068574828,-0.06553724844956596,-0.044272994309462105,0.19575275549476895
1750170340.2615087,-1.7221583025540017,-2.1883170010408612,-0.8677515648475209,1.5587046620625276,-0.061002345309164596,-1.5921895720093122,0.034149697292366034,0.11343836246329954,-0.45559229213117197,-0.28539506034928447,-0.22644241719211528,0.06651183820664945,3.6988773614052013,3.3533414543407654,0.20754972068574828,-0.06553724844956596,-0.044272994309462105,0.19575275549476895
1750170340.263307,-1.72195216754809,-2.187628592523862,-0.8705147851510544,1.5569714867457696,-0.06237507586762003,-1.5917857171555134,0.03455789525860094,0.1160304282312605,-0.465473412956347,-0.29233319271377034,-0.23112805921493762,0.06810691618163905,3.6961514651795544,3.3549222463405926,0.2077629829625243,-0.06585719675343844,-0.043914893546826275,0.19632573947017865
1750170340.2655458,-1.72195216754809,-2.187628592523862,-0.8705147851510544,1.5569714867457696,-0.06237507586762003,-1.5917857171555134,0.03455789525860094,0.1160304282312605,-0.465473412956347,-0.29233319271377034,-0.23112805921493762,0.06810691618163905,3.6961514651795544,3.3549222463405926,0.2077629829625243,-0.06585719675343844,-0.043914893546826275,0.19632573947017865
1750170340.2689035,-1.7218134153614297,-2.1871610189238755,-0.8723898087266182,1.555792884868738,-0.06330579856105967,-1.5915111600026899,0.034816365099040444,0.11775603998266758,-0.4720348906923498,-0.29696916008682095,-0.2342304087207307,0.06917186961365207,3.6943172705235385,3.355986829828166,0.20790595776018544,-0.06607369651865926,-0.043672362451221775,0.1967106179795688
1750170340.2695928,-1.7217436570716549,-2.1869246447080197,-0.8733371522569291,1.5551966257295518,-0.06377580477567246,-1.5913722833677717,0.03494146331309133,0.1186180907803538,-0.47530776137668823,-0.29929033491262225,-0.2357750795346511,0.06970481771580155,3.693395328818757,3.356522220984825,0.20797765884279448,-0.06618289556669173,-0.043549968146328305,0.19690386412573177
1750170340.2719426,-1.721673651357725,-2.1866865469040295,-0.8742910362496383,1.5545957221028968,-0.06424889596493077,-1.591232340522109,0.0350637872116063,0.11947962666273419,-0.47857534833755105,-0.3016136490204117,-0.2373153789516546,0.07023808039262427,3.6924702628752115,3.3570596259607726,0.20804949055003769,-0.06629272242351147,-0.04342682601177384,0.1970976212792116
1750170340.2785988,-1.721673651357725,-2.1866865469040295,-0.8742910362496383,1.5545957221028968,-0.06424889596493077,-1.591232340522109,0.0350637872116063,0.11947962666273419,-0.47857534833755105,-0.3016136490204117,-0.2373153789516546,0.07023808039262427,3.6924702628752115,3.3570596259607726,0.20804949055003769,-0.06629272242351147,-0.04342682601177384,0.1970976212792116
1750170340.2790115,-1.7215329199248508,-2.1862051847035957,-0.8762183831821302,1.5533799642206596,-0.06520429813771944,-1.5909492536808818,0.03530006358302899,0.12120111852660871,-0.4850945577184993,-0.3062667298166402,-0.24038275803416886,0.0713055501472019,3.690611076785572,3.3581403190771315,0.20819350998994265,-0.0665142445704581,-0.04317831239699919,0.1974865870243157
1750170340.27935,-1.7214622053996536,-2.1859619224373734,-0.8771918247609207,1.5527651013388515,-0.06568659142487654,-1.590806108425788,0.035413992259463914,0.12206105669469734,-0.48834612405684147,-0.3085965135242595,-0.24190978523489792,0.07183975744793034,3.689677116942338,3.3586835277310234,0.208265679644534,-0.06662593233303998,-0.04305294803319073,0.19768175449645378
1750170340.2796164,-1.7213912658370871,-2.185716940843843,-0.8781717640810971,1.5521455767176802,-0.0661719342944398,-1.5906618944410758,0.03552509902926457,0.12292044432034055,-0.491592294511813,-0.3109284705514074,-0.24343233611052806,0.07237427976869748,3.6887403534403016,3.3592285912217044,0.20833794376781534,-0.0667382328457765,-0.04292685007459347,0.19787735072776055
1750170340.2818882,-1.7213912658370871,-2.185716940843843,-0.8781717640810971,1.5521455767176802,-0.0661719342944398,-1.5906618944410758,0.03552509902926457,0.12292044432034055,-0.491592294511813,-0.3109284705514074,-0.24343233611052806,0.07237427976869748,3.6887403534403016,3.3592285912217044,0.20833794376781534,-0.0667382328457765,-0.04292685007459347,0.19787735072776055
1750170340.283254,-1.7213201068924455,-2.1854702410332143,-0.8791581903234214,1.5515213860023236,-0.06666031776782333,-1.590516611096703,0.03563337244139454,0.12377927226017993,-0.49483304165375475,-0.3132626090578529,-0.24495038474725106,0.0729091171042333,3.687800867448197,3.359775469453891,0.20841029317884038,-0.06685114231334688,-0.04280002212482197,0.19807335482851698
1750170340.2852082,-1.7212487342437441,-2.185221824134082,-0.8801510926140441,1.5508925248217804,-0.06715173281474307,-1.5903702577626833,0.03573880122531382,0.12463753127600836,-0.49806833830097164,-0.3155989370628166,-0.24646390535982962,0.07344426940206249,3.686858740513936,3.3603241222084805,0.20848271862358958,-0.06696465692578944,-0.04267246780575581,0.19826974577458523
1750170340.289226,-1.7211771535913591,-2.1849716912936135,-0.8811504600250029,1.5502589887891516,-0.06764617035347342,-1.590222833809185,0.035841374291905495,0.12549521203461425,-0.5012981575212239,-0.3179374624446987,-0.24797287229219814,0.07397973656221837,3.6859140545906794,3.3608745091319565,0.20855521079715916,-0.06707877286211152,-0.04254419075619862,0.19846650240547198
1750170340.2898872,-1.7211053706576633,-2.1847198436777324,-0.8821562815747193,1.5496207735019225,-0.06814362125110485,-1.5900743386066232,0.03594108073435183,0.126352305107696,-0.504522472633505,-0.3202781929407731,-0.2494772600181169,0.07451551843699288,3.6849668920142733,3.3614265897481648,0.20862776033548372,-0.06719348628911773,-0.04241519463338412,0.19866360343951553
1750170340.291244,-1.7210333911866575,-2.1844662824713197,-0.8831685462285073,1.5489778745422456,-0.06864407632380853,-1.589924771525757,0.03603790982901727,0.1272088009717264,-0.5077412572097793,-0.32262113614678994,-0.2509770431417576,0.07505161483062037,3.684017335505219,3.3619803234473746,0.20870035781615087,-0.06730879335888817,-0.04228548311103889,0.19886102744857578
1750170340.2957072,-1.7210333911866575,-2.1844662824713197,-0.8831685462285073,1.5489778745422456,-0.06864407632380853,-1.589924771525757,0.03603790982901727,0.1272088009717264,-0.5077412572097793,-0.32262113614678994,-0.2509770431417576,0.07505161483062037,3.684017335505219,3.3619803234473746,0.20870035781615087,-0.06730879335888817,-0.04228548311103889,0.19886102744857578
1750170340.296241,-1.7208888657146773,-2.183954024122314,-0.8852123604470599,1.547678007859191,-0.06965396200606477,-1.5896224192144386,0.03622289400151004,0.12891996250226126,-0.5141621303182375,-0.3273136903633397,-0.25396269465447496,0.07612475014966907,3.68211137344422,3.363092587115607,0.2088456586096577,-0.0675411729980951,-0.04202392864554154,0.19925675809330698
1750170340.297103,-1.7208163313065477,-2.1836953294459516,-0.8862438876814922,1.5470210312260029,-0.07016337399570549,-1.5894696327280897,0.03631102855568965,0.12977460864512477,-0.5173641672753012,-0.32966331585597064,-0.25544851290924675,0.07666178844097007,3.6811551352018443,3.363651035283001,0.2089183427892287,-0.0676582378194401,-0.04189209313258048,0.1994550212376168
1750170340.2991598,-1.7207436235460545,-2.183434926111902,-0.8872818133603673,1.5463593531013151,-0.07067575292111972,-1.5893157718518403,0.036396244716468004,0.13062861853162133,-0.5205605705498242,-0.3320151830222946,-0.25692962629429567,0.07719913998235031,3.6801968376356986,3.3642109729716894,0.20899103663106053,-0.06777588079242002,-0.041759557080506916,0.19965352038747394
1750170340.3012452,-1.7206707482798107,-2.1831728154026617,-0.8883261261911404,1.5456929689948717,-0.07119108934781071,-1.5891608359596194,0.03647853268887369,0.1314819821612985,-0.5237513150051172,-0.33436929874720867,-0.258406010074549,0.07773680433384948,3.679236565303457,3.364772359001166,0.20906373042756163,-0.06789409801998175,-0.04162632424257907,0.19985223349063305
1750170340.3033063,-1.7205977113738324,-2.1829089986208237,-0.8893768148312544,1.5450218744027897,-0.07170937379194431,-1.58900482442629,0.036557882866155585,0.1323346894382204,-0.5269363757680573,-0.33672566977268636,-0.2598776396488223,0.07827478100582097,3.6782744031234507,3.365335152101577,0.209136414406837,-0.06801288559124996,-0.04149239839046915,0.20005113834240934
1750170340.3052807,-1.7205245187131588,-2.18264347708927,-0.8904338678886736,1.544346064807845,-0.07223059672062071,-1.5888477366277414,0.036634285830583,0.13318673017090396,-0.530115728230657,-0.33908430269762124,-0.2613444905502843,0.0788130694587224,3.6773104363590163,3.3658993108935817,0.20920907874455266,-0.06813223958655518,-0.04135778330894248,0.20025021263035625
1750170340.3071837,-1.7204511762014745,-2.182376252151359,-0.8914972739224112,1.5436655356797595,-0.07275474855214004,-1.5886895719409928,0.03670773235423352,0.13403809407236267,-0.5332893480518882,-0.34144520397772654,-0.2628065384470302,0.07935166910283105,3.676344750618181,3.366464793909314,0.20928171355726116,-0.06825215607913461,-0.041222482798921614,0.20044943390833936
1750170340.3092003,-1.7203776897607312,-2.1821073251711205,-0.8925670214430665,1.5429802824754864,-0.07328181965627234,-1.5885303297442945,0.0367782133997719,0.13488877076007794,-0.5364572111593634,-0.3438083799252264,-0.26426375914256917,0.07989057929797203,3.675377431845981,3.367031559578111,0.209354308906002,-0.06837263112904467,-0.041086500675052165,0.20064877960033442
1750170340.3112326,-1.7203040653307617,-2.181836697533445,-0.8936430989133664,1.5422903006394983,-0.07381180035453294,-1.5883700094172273,0.036845720121234535,0.13573874975603936,-0.5396192937510376,-0.3461738367088527,-0.2657161285763264,0.08042979935329127,3.674408566328201,3.367599566244883,0.2094268547965877,-0.06849366079168087,-0.04094984076613379,0.2008482270164977
1750170340.313175,-1.720230308868902,-2.1815643706442724,-0.8947254947487018,1.5415955856040742,-0.07434468092045066,-1.5882086103408017,0.036910243864760196,0.13658802048673765,-0.542775572296791,-0.34854158035359306,-0.2671636228241656,0.08096932852696319,3.6734382406676205,3.368168772157022,0.20949934118229344,-0.06861524111073117,-0.040812506915673286,0.20104775333039296
1750170340.3152409,-1.7201564263495994,-2.181290345930785,-0.8958141973176801,1.5408961327895863,-0.07488045157984491,-1.5880461318975678,0.03697177616937268,0.13743657228324668,-0.545926023540348,-0.3509116167406335,-0.268606218098871,0.08150916602593772,3.672466541806705,3.368739135486575,0.2095717579551936,-0.06873736812354729,-0.040674502980765075,0.20124733559208197
1750170340.317133,-1.7200824237640324,-2.1810146248416027,-0.8969091949426691,1.540191937604789,-0.07541910251109485,-1.5878825734717097,0.037030308767673534,0.13828439438125753,-0.5490706245008565,-0.35328395160715503,-0.2700438907505918,0.08204931100570412,3.6714935569872957,3.3693106143190255,0.20964409495529557,-0.06886003785682022,-0.040535832831022946,0.20144695073618255
1750170340.3207822,-1.720008307119719,-2.1807372088469634,-0.8980104759003531,1.5394829954471063,-0.0759606238454209,-1.587717934449154,0.03708583358660616,0.13913147592114122,-0.5522093524744766,-0.3556585905464,-0.2714766172673574,0.08258976257002472,3.6705193737833097,3.3698831666650118,0.2097163419712302,-0.06898324633426295,-0.04039650035056518,0.20164657556820823
1750170340.3215694,-1.719934082440128,-2.1804580994389244,-0.8991180284222873,1.5387693017029196,-0.07650500566715657,-1.5875522142176717,0.03713834274813887,0.13997780594800452,-0.5553421850362096,-0.35803553900738005,-0.2729043742754753,0.0831305197706741,3.669544080062226,3.370456750452269,0.20978848873231554,-0.06910698956626737,-0.04025650943473392,0.20184618676892432
1750170340.323308,-1.7198597557642898,-2.180177298131545,-0.9002318406954553,1.5380508517478564,-0.07705223801402461,-1.58738541216698,0.03718782856997678,0.1408233734118105,-0.5584691000414699,-0.36041480229498757,-0.274327138540002,0.08367158160720788,3.668567764001406,3.3710313235474128,0.20986052491742566,-0.06923126356123858,-0.040115863992123364,0.20204576090420745
1750170340.3251817,-1.7198597557642898,-2.180177298131545,-0.9002318406954553,1.5380508517478564,-0.07705223801402461,-1.58738541216698,0.03718782856997678,0.1408233734118105,-0.5584691000414699,-0.36041480229498757,-0.274327138540002,0.08367158160720788,3.668567764001406,3.3710313235474128,0.20986052491742566,-0.06923126356123858,-0.040115863992123364,0.20204576090420745
1750170340.3272636,-1.7197108206554388,-2.1796106259861725,-0.9024781970239619,1.5365996646555722,-0.07815521420268556,-1.5870485601772204,0.03727770044818313,0.1425121759748357,-0.5647050902164829,-0.3651802938480663,-0.2771575965948781,0.08475461492342681,3.666612419044922,3.3721832687600113,0.21000422400131866,-0.06948138782532996,-0.03983262522228393,0.2024447035982504
1750170340.329213,-1.7197108206554388,-2.1796106259861725,-0.9024781970239619,1.5365996646555722,-0.07815521420268556,-1.5870485601772204,0.03727770044818313,0.1425121759748357,-0.5647050902164829,-0.3651802938480663,-0.2771575965948781,0.08475461492342681,3.666612419044922,3.3721832687600113,0.21000422400131866,-0.06948138782532996,-0.03983262522228393,0.2024447035982504
1750170340.3316276,-1.719561550401676,-2.1790372049706495,-0.9047494495118151,1.5351293969711601,-0.07926947179160937,-1.5867073736405928,0.03735539170341069,0.14419779331048174,-0.570917151514767,-0.36995510475854027,-0.2799678083434319,0.08583885346097495,3.6646540501655562,3.3733386638774583,0.21014735557917977,-0.06973358704361565,-0.0395468155442981,0.20284321372489544
1750170340.3338468,-1.719561550401676,-2.1790372049706495,-0.9047494495118151,1.5351293969711601,-0.07926947179160937,-1.5867073736405928,0.03735539170341069,0.14419779331048174,-0.570917151514767,-0.36995510475854027,-0.2799678083434319,0.08583885346097495,3.6646540501655562,3.3733386638774583,0.21014735557917977,-0.06973358704361565,-0.0395468155442981,0.20284321372489544
1750170340.3371692,-1.7194119938352408,-2.1784570480090117,-0.9070455021081836,1.5336400113419344,-0.08039492943313586,-1.5863618477557457,0.03742084799237574,0.14588013360366814,-0.5771051170442498,-0.3747392722696777,-0.2827575929434351,0.0869242873105875,3.662693373109357,3.374497169541233,0.2102898351661343,-0.0699878290335785,-0.039258466641797024,0.20324109942907095
1750170340.3377767,-1.7194119938352408,-2.1784570480090117,-0.9070455021081836,1.5336400113419344,-0.08039492943313586,-1.5863618477557457,0.03742084799237574,0.14588013360366814,-0.5771051170442498,-0.3747392722696777,-0.2827575929434351,0.0869242873105875,3.662693373109357,3.374497169541233,0.2102898351661343,-0.0699878290335785,-0.039258466641797024,0.20324109942907095
1750170340.3392084,-1.7193371235028891,-2.1781644476882454,-0.9082027982506649,1.5328881375855776,-0.08096183265567092,-1.5861874560685294,0.03744897191528172,0.14672004575390707,-0.5801900130106061,-0.37713487575751165,-0.2841447691667075,0.08746744914601795,3.6617123938765044,3.3750774825471317,0.21036080383452424,-0.07011570598743533,-0.03911334992818621,0.20343974764905778
1750170340.3412306,-1.7192621999993651,-2.177870168395579,-0.9093662581039412,1.5321314702708548,-0.08153150506074702,-1.5860119777626789,0.037474018166616246,0.1475591035286266,-0.5832688245577722,-0.3795328313152818,-0.2855267718109337,0.08801090570368884,3.6607311079519986,3.375658445557248,0.21043157744822208,-0.07024408152669788,-0.03896761036493897,0.20363816695833056
1750170340.343336,-1.7191872294859358,-2.1775742118516472,-0.9105358694795793,1.5313700046895964,-0.08210393627921331,-1.58583541225022,0.03749598085520767,0.14839729502695648,-0.5863415321391591,-0.3819331429490005,-0.2869035789078152,0.08855465550201184,3.659749605993377,3.3762400159385333,0.21050214521268976,-0.07037295160576335,-0.03882125195667392,0.2038363328501449
1750170340.3453438,-1.7191122181354492,-2.177276579800983,-0.9117116201503483,1.5306037361257643,-0.08267911589812638,-1.5856577589462004,0.03751485429193814,0.14923460825428964,-0.5894081165047853,-0.3843358145204815,-0.2882751686316083,0.08909869700471397,3.6587679788974006,3.3768221510089615,0.2105724962886473,-0.0705023121738889,-0.03867427871920516,0.2040342206872863
1750170340.347342,-1.7190371721319302,-2.1769772740122004,-0.9128934978508143,1.5298326598557412,-0.08325703346103275,-1.585479017268792,0.03753063299032479,0.1500710311225406,-0.5924685587030528,-0.38674084974745604,-0.2896415192993478,0.08964302862064975,3.6577863178098635,3.377404808062882,0.21064261978170917,-0.07063215917723062,-0.03852669467464358,0.20423180573390629
1750170340.3498046,-1.7189620976701727,-2.1766762962781847,-0.9140814902779422,1.5290567711486187,-0.08383767846825751,-1.5852991866394053,0.037543311667072,0.15090655145034218,-0.5955228400823303,-0.38914825220362154,-0.2910026093712075,0.09018764870352862,3.65680471411305,3.377987944356806,0.2107125047473463,-0.07076248855703245,-0.038378503855257186,0.2044290631242666
1750170340.3538668,-1.718887000955334,-2.1763736484162735,-0.9152755850916918,1.5282760652664846,-0.08442104037718678,-1.5851182664827999,0.03755288524259477,0.15174115696328463,-0.598570942292387,-0.39155802531878453,-0.2923584174507657,0.09073255555171242,3.655823259413658,3.3785715171221278,0.21078214019579075,-0.07089329625203508,-0.03822971030079361,0.20462596788927012
1750170340.3544178,-1.7188118882025245,-2.176069332268451,-0.9164757699156283,1.5274905374647108,-0.08500710860256078,-1.5849362562271923,0.037559348841558045,0.1525748352941261,-0.601612847286065,-0.3939701723789277,-0.2937089222852459,0.09127774740797166,3.6548420455469373,3.3791554835572195,0.2108515150847347,-0.07102457819629819,-0.038080318057780393,0.2048224949399037
1750170340.3550928,-1.718736765636403,-2.1757633497015227,-0.9176820323375239,1.526700182992241,-0.08559587251675627,-1.5847531553043703,0.037562697793364054,0.15340757398309493,-0.6046485373207778,-0.3963846965263759,-0.2950541027658117,0.09182322245925767,3.6538611645589363,3.3797398008493467,0.2109206183252008,-0.07115633032189345,-0.0379303311810493,0.20501861907556176
1750170340.3577807,-1.7186616394907634,-2.1754557026073122,-0.9188943599099746,1.5259049970918783,-0.08618732145007524,-1.5845689631498034,0.037562927632700485,0.15423936047808767,-0.6076779949600867,-0.39880160075995835,-0.29639393792776747,0.09236897883648734,3.6528807087259625,3.380324426155104,0.21098943877877008,-0.07128854855863408,-0.03777975373109562,0.20521431498447532
1750170340.3738909,-1.7184363020430764,-2.1745227934582276,-0.9225676085418222,1.5234904031653629,-0.08797767104277554,-1.584009833707925,0.03754486091147119,0.15672887990001982,-0.6167288037658664,-0.4060666218161677,-0.3003811640223613,0.09400791638763407,3.649942817829281,3.3820797216233993,0.21119409131749864,-0.0716879591879754,-0.03732451865019458,0.20579857854758282
1750170340.3742552,-1.7184363020430764,-2.1745227934582276,-0.9225676085418222,1.5234904031653629,-0.08797767104277554,-1.584009833707925,0.03754486091147119,0.15672887990001982,-0.6167288037658664,-0.4060666218161677,-0.3003811640223613,0.09400791638763407,3.649942817829281,3.3820797216233993,0.21119409131749864,-0.0716879591879754,-0.03732451865019458,0.20579857854758282
1750170340.3745937,-1.7183612240856174,-2.174208507679764,-0.923804071560399,1.5226758438686654,-0.08857975252426531,-1.5838212710586577,0.03753257376941547,0.1575567302623979,-0.6197331636358905,-0.4084930735177693,-0.3016994111540347,0.09455477824912117,3.6489649892881304,3.3826651503911256,0.21126166828731743,-0.07182200111367965,-0.03717161964254553,0.2059923061972674
1750170340.3749473,-1.7183612240856174,-2.174208507679764,-0.923804071560399,1.5226758438686654,-0.08857975252426531,-1.5838212710586577,0.03753257376941547,0.1575567302623979,-0.6197331636358905,-0.4084930735177693,-0.3016994111540347,0.09455477824912117,3.6489649892881304,3.3826651503911256,0.21126166828731743,-0.07182200111367965,-0.03717161964254553,0.2059923061972674
1750170340.3752034,-1.7183612240856174,-2.174208507679764,-0.923804071560399,1.5226758438686654,-0.08857975252426531,-1.5838212710586577,0.03753257376941547,0.1575567302623979,-0.6197331636358905,-0.4084930735177693,-0.3016994111540347,0.09455477824912117,3.6489649892881304,3.3826651503911256,0.21126166828731743,-0.07182200111367965,-0.03717161964254553,0.2059923061972674
1750170340.3759408,-1.718061252206759,-2.1729348382892404,-0.9288098211006988,1.5193690058214584,-0.09101427958617592,-1.5830560751312692,0.037452010564863046,0.16085783697759337,-0.6316872997065922,-0.4182228303622253,-0.30691771973318727,0.09674491462807264,3.6450635046804014,3.385007373523489,0.21152846985403878,-0.07236258524543572,-0.03655436277929818,0.20676139198424578
1750170340.3763964,-1.717986375669442,-2.172612299799133,-0.930076169396572,1.5185301221246144,-0.09162940675629283,-1.5828620371506243,0.03742400154877246,0.1616804738000862,-0.6346599324160799,-0.4206612667253831,-0.30820852750552014,0.09729310947336858,3.6440910592463145,3.385592842000348,0.21159423622697188,-0.07249881497320627,-0.036398653851320066,0.20695207656032977
1750170340.377255,-1.717911558302153,-2.172288117115855,-0.9313484565706318,1.5176863591530727,-0.0922471099982003,-1.582666902520372,0.037392840156055436,0.16250202789777568,-0.6376261755377277,-0.4231021053105129,-0.30949378828449936,0.09784156382296015,3.6431199719968617,3.386178189867167,0.2116596058594515,-0.07263547001172194,-0.03624239524869575,0.207142073744861
1750170340.3794947,-1.7178368064118592,-2.171962292418387,-0.9326266698296788,1.5168377121009324,-0.09286737819852053,-1.5824706707239953,0.03735852420823552,0.1633224857239889,-0.6405860151022447,-0.42554534755112744,-0.31077348270311694,0.09839027517688215,3.642150337128317,3.3867633743100267,0.2117245671068671,-0.0727725462802663,-0.036085591080180314,0.20733135703671976
1750170340.3813636,-1.7177621263096734,-2.1716348279128947,-0.9339107963528992,1.5159841761595667,-0.09349020020528886,-1.5822733412500334,0.037321051737035676,0.1641418336438018,-0.6435394374643529,-0.4279909947399059,-0.3120475915403203,0.09893924097654941,3.641182248995199,3.3873483525382935,0.21178910828154504,-0.07291003969363863,-0.035928245457381595,0.20751989982642297
1750170340.3832617,-1.7176875243104357,-2.1713057258328963,-0.9352008232925151,1.515125746517903,-0.09411556482824146,-1.5820749135922023,0.03728042098466462,0.16496005793444304,-0.6464864293041418,-0.43043904802916994,-0.3133160957210499,0.09948845860454826,3.6402158020711055,3.3879330817846074,0.21185321765450169,-0.07304794617191042,-0.03577036249296738,0.20770767539975443
1750170340.385948,-1.7176875243104357,-2.1713057258328963,-0.9352008232925151,1.515125746517903,-0.09411556482824146,-1.5820749135922023,0.03728042098466462,0.16496005793444304,-0.6464864293041418,-0.43043904802916994,-0.3133160957210499,0.09948845860454826,3.6402158020711055,3.3879330817846074,0.21185321765450169,-0.07304794617191042,-0.03577036249296738,0.20770767539975443
1750170340.3871047,-1.7176130067322912,-2.170974988439447,-0.9364967377744327,1.5142624183627054,-0.09474346083911289,-1.5818753872495126,0.0372366304041488,0.1657771447857262,-0.6494269776286384,-0.43288950843111024,-0.3145789763162731,0.10003792538444187,3.639251090967344,3.388517519313583,0.21191688344966786,-0.07318626163314271,-0.035611946300558035,0.2078946569418078
1750170340.3891156,-1.7175385798962663,-2.1706426180213096,-0.9377985268989031,1.5133941868788525,-0.09537387697192479,-1.5816747617263855,0.037189678659610766,0.1665930803004814,-0.6523610697730765,-0.4353423768181944,-0.3158362145429968,0.10058763858057676,3.6382882104110936,3.389101622423507,0.2119800938527103,-0.07332498199846377,-0.0354530009941351,0.20808081753833818
1750170340.3912659,-1.7174642501258486,-2.1703086168951238,-0.9391061777411753,1.5125210472496178,-0.09600680192327893,-1.581473036532775,0.03713956462654415,0.16740785049500878,-0.655288693402389,-0.43779765392350484,-0.31708779176429147,0.1011375953978683,3.6373272552432785,3.389685348449686,0.21204283700452467,-0.07346410319000182,-0.03529353068834646,0.20826613016798537
1750170340.3952606,-1.7173159070855526,-2.169635731925622,-0.9417390127590917,1.510760024281739,-0.09728013288267245,-1.5810662852022794,0.03702984625525536,0.16903383855851217,-0.6611244874318936,-0.4427154365263729,-0.31957388937292774,0.10223822841732497,3.6354115009780776,3.3908514987749556,0.2121668739162908,-0.07374353174783498,-0.034973031531533125,0.20863410295700852
1750170340.3957305,-1.7173159070855526,-2.169635731925622,-0.9417390127590917,1.510760024281739,-0.09728013288267245,-1.5810662852022794,0.03702984625525536,0.16903383855851217,-0.6611244874318936,-0.4427154365263729,-0.31957388937292774,0.10223822841732497,3.6354115009780776,3.3908514987749556,0.2121668739162908,-0.07374353174783498,-0.034973031531533125,0.20863410295700852
1750170340.3975265,-1.7172419064711422,-2.169296852856543,-0.9430641709661955,1.5098721313041161,-0.0979205160994443,-1.5808612581140267,0.036970240727199725,0.16984502803150728,-0.6640326348226704,-0.4451779427965538,-0.3208083732164323,0.10278889873045755,3.6344568920808644,3.391433837953588,0.21222814375442334,-0.07388383096846723,-0.03481201090554145,0.20881670857746665
1750170340.3990345,-1.717168028232427,-2.1689563526282347,-0.9443951389553549,1.5089793109037073,-0.09856336255280596,-1.5806551294527944,0.036907470531393954,0.1706549953932691,-0.6669342676822321,-0.44764285933098785,-0.32203712296669484,0.10333980088630537,3.633504588957203,3.392015629816318,0.2122888984971293,-0.07402451472348583,-0.03465048172827324,0.20899835716055812
1750170340.401363,-1.7170942786988421,-2.1686142336993157,-0.9457319036867862,1.508081558259919,-0.09920866075664136,-1.5804478987579822,0.03684153560386424,0.17146372623442124,-0.6698293753444389,-0.45011018617163207,-0.3232601207164765,0.10389093178977347,3.6325546869272656,3.3925968319256397,0.21234912608335066,-0.07416557894636602,-0.03448844810724728,0.20917902119376539
1750170340.403525,-1.7170206641997376,-2.1682704985573045,-0.9470744520997094,1.5071788685522107,-0.09985639918916167,-1.5802395655752397,0.03677243609336616,0.17227120606195276,-0.6727179474810013,-0.4525799232235004,-0.32447734870425105,0.10444228828519428,3.631607281384094,3.3931774019074856,0.21240881441170037,-0.0743070195743199,-0.03432591414723636,0.20935867306661046
1750170340.4072099,-1.7169471910639533,-2.1679251497187924,-0.9484227711130275,1.5062712369603692,-0.10050656629320365,-1.5800301294565902,0.036700172361568806,0.17307742029971684,-0.6755999741028014,-0.4550520702550802,-0.32568878931409007,0.10499386715613862,3.6306624677930532,3.3937572974434875,0.2124679513417547,-0.0744488325469416,-0.034162883949770025,0.20953728507059807
1750170340.4076777,-1.7168738656193927,-2.1675781897296034,-0.9497768476260049,1.5053586586647798,-0.10115915047651658,-1.5798195899605485,0.036624744983202215,0.17388235428900783,-0.6784754455612348,-0.4575266268987825,-0.3268944250755397,0.10554566512524242,3.629720341678612,3.3943364762885118,0.21252652469405656,-0.07459101380701204,-0.03399936161291283,0.20971482940673705
1750170340.4108715,-1.7168006941925977,-2.16722962116496,-0.9511366685189522,1.5044411288466988,-0.10181414011205359,-1.5796079466522475,0.036546154746216565,0.17468599328905532,-0.681344352549496,-0.46000359265146457,-0.3280942386634657,0.10609767885401132,3.62878099862562,3.394914896254072,0.21258452225118205,-0.07473355930251199,-0.03383535123036464,0.20989127817508932
1750170340.4113479,-1.7167276831083171,-2.166879446629652,-0.9525022206539067,1.503518642688524,-0.10247152353826472,-1.5793951991035584,0.03646440265191271,0.17548832247760318,-0.684206686103895,-0.4624829668748762,-0.3292882128978779,0.10664990494266044,3.6278445342692227,3.3954925152282067,0.21264193175754778,-0.07487646498422712,-0.03367085689087306,0.21006660338953148
1750170340.4141462,-1.716654838689089,-2.1665276687581922,-0.9538734908753259,1.5025911953740647,-0.10313128905938385,-1.5791813468932103,0.03637948991502859,0.17628932695148913,-0.6870624376051081,-0.464964748796191,-0.3304763307437411,0.10720233992992853,3.626911044276262,3.3960692911747103,0.21269874092118327,-0.0750197268081308,-0.03350588267786722,0.21024077696905694
1750170340.4151385,-1.7165821672548045,-2.166174290214977,-0.9552504660107699,1.5016587820888094,-0.1037934249457182,-1.5789663896069204,0.03629141796388943,0.1770889917272112,-0.6899115987795181,-0.4674489375084874,-0.3316585753108212,0.10775498029288047,3.6259806243715422,3.396645182134554,0.21275493741147214,-0.07516334073387382,-0.03334043267043725,0.21041377073092127
1750170340.4188738,-1.7165096751222855,-2.165819313694456,-0.9566331328716009,1.5007213980201946,-0.10445791943394145,-1.5787503268375112,0.03620018844044802,0.17788730174148645,-0.6927541617004254,-0.4699355319712839,-0.3328349298533715,0.10830782244677546,3.625053370287632,3.3972201462216134,0.21281050886227443,-0.07530730272601015,-0.033174510938835756,0.2105855564172314
1750170340.4203215,-1.7164373686048577,-2.165462741921279,-0.9580214782536762,1.4997790383578704,-0.10512476072737886,-1.578533158185036,0.03610580320038035,0.17868424185191709,-0.6955901187893551,-0.4724245310111195,-0.33400537776997097,0.10886086274486347,3.6241293777956205,3.39779414165023,0.21286544287063486,-0.07545160875540737,-0.03300812154876394,0.2107561056682287
1750170340.4214306,-1.7163652540119196,-2.165104577650463,-0.9594154889380446,1.498831698293967,-0.1057939369962968,-1.5783148832569065,0.036008264313137035,0.17947979683753806,-0.6984194628172478,-0.4749159333220181,-0.3351699026032549,0.10941409747821226,3.6232087426787625,3.398367126708517,0.21291972699884054,-0.07559625479569443,-0.032841268558329216,0.21092539003261612
1750170340.4231496,-1.7162933376485192,-2.1647448236675437,-0.9608151516916461,1.4978793730233577,-0.1064654363781905,-1.5780955016680123,0.035907574061973986,0.1802739513994881,-0.7012421869057589,-0.4774097374661427,-0.33632848803959503,0.10996752287557818,3.622291560727231,3.398939059787065,0.2129733487724231,-0.07574123682846863,-0.03267395601663171,0.21109338098515945
1750170340.4250782,-1.7162216258149208,-2.1643834827887307,-0.9622204532680172,1.4969220577439237,-0.10713924697807453,-1.577875013040849,0.03580373494398941,0.18106669016161514,-0.7040582845284572,-0.4799059418743059,-0.3374811179088485,0.1105211351031919,3.6213779277400415,3.399509899365219,0.2130262956825877,-0.07588655083929673,-0.03250618796570018,0.21126004989430539
1750170340.4271865,-1.716150124806184,-2.164020557861064,-0.9636313804079935,1.4959597476568152,-0.10781535686876076,-1.5776534170056422,0.03569674967012097,0.181857997671111,-0.7068677495119928,-0.48240454484657563,-0.33862777618401485,0.1110749302646242,3.6204679395063977,3.4000796040190076,0.21307855518730937,-0.07603219282009564,-0.03233796843789938,0.21142536805230547
1750170340.4291198,-1.7160788409117318,-2.1636560517625654,-0.9650479198404192,1.4949924379667123,-0.10849375409115503,-1.5774307132004735,0.035586621165159094,0.18264785839920675,-0.7096705760374301,-0.48490554455288953,-0.33976844698091835,0.11162890440061436,3.6195616918152305,3.40064813243532,0.21313011470720447,-0.07617815876937972,-0.03216930145664485,0.21158930666150264
1750170340.4311442,-1.7160077804149232,-2.163289967402389,-0.9664700582828551,1.494020123882085,-0.10917442665453514,-1.5772069012714045,0.03547335256771127,0.1834362567418182,-0.7124667586413396,-0.4874089390336707,-0.34090311455784184,0.1121830534889165,3.618659280431745,3.401215443402062,0.21318096163200884,-0.07632444469211638,-0.03200019103503899,0.21175183684113774
1750170340.4331048,-1.715936949592626,-2.1629223077209723,-0.9678977824422921,1.4930428006154512,-0.10985736253683775,-1.5769819808726053,0.03535694723016369,0.18422317702021093,-0.7152562922169974,-0.4899147262004013,-0.3420317633151783,0.11273737344412271,3.6177608010965416,3.4017814958124903,0.21323108331759227,-0.07647104659846445,-0.03183064117636863,0.21191292961882494
1750170340.4350617,-1.7158663547147892,-2.1625530756901847,-0.9693310790158645,1.4920604633836347,-0.1105425496849417,-1.576755951666481,0.03523740871864081,0.18500860348170117,-0.7180391720155866,-0.4924229038363227,-0.34315437779500946,0.11329186011752665,3.6168663495248023,3.402346248675984,0.21328046708643078,-0.07661796050718221,-0.0316606558720468,0.21207255594514207
1750170340.4371042,-1.7157960020440175,-2.162182274313473,-0.9707699346915692,1.4910731074080203,-0.11122997601495221,-1.5765288133237965,0.03511474081292766,0.1857925203003759,-0.7208153936473767,-0.4949334695970454,-0.3442709426806956,0.11384650929696684,3.61597602139115,3.402909661121623,0.21332910022825297,-0.07676518244295989,-0.031490239101936664,0.21223068668742853
1750170340.439251,-1.7157258978351422,-2.1618099066260097,-0.9722143361489834,1.4900807279148085,-0.11191962941248246,-1.5763005655238054,0.03498894750640403,0.18657491157776065,-0.7235849530828595,-0.49744642101122416,-0.3453814427964573,0.11440131670666533,3.615089912331923,3.4034716923889734,0.21337697000097716,-0.07691270843819618,-0.03131939483411694,0.2123872926261827
1750170340.4413643,-1.7156560483347922,-2.1614359756948343,-0.9736642700599845,1.4890833201352691,-0.11261149773293244,-1.5760712079543753,0.03486003300593729,0.18735576134358745,-0.7263478466538914,-0.4999617554812114,-0.3464858631069338,0.11495627800708258,3.614208117931229,3.4040323018506995,0.21342406363142327,-0.07706053453220203,-0.03114812702421907,0.21254234446349313
1750170340.443304,-1.7156560483347922,-2.1614359756948343,-0.9736642700599845,1.4890833201352691,-0.11261149773293244,-1.5760712079543753,0.03486003300593729,0.18735576134358745,-0.7263478466538914,-0.4999617554812114,-0.3464858631069338,0.11495627800708258,3.614208117931229,3.4040323018506995,0.21342406363142327,-0.07706053453220203,-0.03114812702421907,0.21254234446349313
1750170340.4459472,-1.7156560483347922,-2.1614359756948343,-0.9736642700599845,1.4890833201352691,-0.11261149773293244,-1.5760712079543753,0.03486003300593729,0.18735576134358745,-0.7263478466538914,-0.4999617554812114,-0.3464858631069338,0.11495627800708258,3.614208117931229,3.4040323018506995,0.21342406363142327,-0.07706053453220203,-0.03114812702421907,0.21254234446349313
1750170340.4477918,-1.7156560483347922,-2.1614359756948343,-0.9736642700599845,1.4890833201352691,-0.11261149773293244,-1.5760712079543753,0.03486003300593729,0.18735576134358745,-0.7263478466538914,-0.4999617554812114,-0.3464858631069338,0.11495627800708258,3.614208117931229,3.4040323018506995,0.21342406363142327,-0.07706053453220203,-0.03114812702421907,0.21254234446349313
1750170340.4494314,-1.71551713840263,-2.160683436529718,-0.976580681896122,1.4870734006691422,-0.11400183041482581,-1.5756091623025146,0.034592858317354126,0.18891277210474888,-0.7318536233436954,-0.5049995625707508,-0.3486764048696515,0.1160666446022097,3.6124578551324045,3.4051490934488227,0.21351587121405322,-0.07735707121509706,-0.03080433652997291,0.21284766823545367
1750170340.4534295,-1.715448090419236,-2.1603048345904794,-0.9780471331330531,1.4860608794726997,-0.1147002703385338,-1.5753764736400484,0.03445460760931095,0.18968890080712128,-0.7345965009432598,-0.5075220293697861,-0.34976249694881567,0.11662204089770056,3.611589577590786,3.4057051949705484,0.21356055946353958,-0.07750577392217192,-0.030631821687777044,0.2129978811732982
1750170340.4540417,-1.715379322040353,-2.159924681997218,-0.9795190634486204,1.4850433109707166,-0.11540087631024942,-1.5751426740483279,0.03431325466715787,0.1904634234134779,-0.7373327016421233,-0.5100468675850315,-0.3508424504754431,0.11717757308518884,3.6107259963978073,3.406259713447765,0.21360442016748865,-0.0776547609656769,-0.03045889898438986,0.2131464220182192
1750170340.4552383,-1.7153108394652126,-2.1595429819784338,-0.9809964594871179,1.4840206904235589,-0.11610363603850438,-1.574907763260219,0.034168804763191,0.1912363236056899,-0.7400622235958947,-0.512574073997891,-0.35191625110866753,0.11773323650413421,3.6098672067836595,3.4068126089199477,0.21364744039854552,-0.07780402842587172,-0.030285572303053197,0.21329326107558894
1750170340.4572787,-1.7152426488822892,-2.1591597377953278,-0.9824793078895162,1.4829930130981515,-0.11680853720328432,-1.5746717410179727,0.034021263382288905,0.19200758499837484,-0.7427850653282251,-0.5151036452677595,-0.352983884644887,0.11828902642937884,3.6090133038889953,3.407363841564504,0.21368960720149616,-0.07795357239165848,-0.030111845510545635,0.2134383685777203
1750170340.4593272,-1.7151747564688744,-2.1587749527419398,-0.983967595294204,1.4819602742682223,-0.11751556745630509,-1.5744346070733561,0.03387063622170247,0.19277719113967628,-0.7455012257318702,-0.5176355779327412,-0.3540453370171493,0.11884493807099304,3.608164382754419,3.4079133717009054,0.21373090759243707,-0.07810338895988642,-0.02993772245633282,0.2135817146748255
1750170340.461258,-1.7151071683906531,-2.1583886301452804,-0.9854613083377259,1.4809224692145433,-0.11822471442128712,-1.5741963611877807,0.03371692919083136,0.19354512551211187,-0.7482107040698288,-0.5201698684104799,-0.3551005942945218,0.11940096657417092,3.6073205383156304,3.4084611598076493,0.21377132855726394,-0.07825347423831736,-0.029763206972128944,0.21372326945400827
1750170340.4631593,-1.7150398908012807,-2.1580007733654574,-0.986960433655522,1.4798795932251712,-0.11893596569422105,-1.5739570031324304,0.03356014841099065,0.19431137153337852,-0.7509134999763359,-0.5227065129988748,-0.35614964268149407,0.11995710701906893,3.606481865399079,3.4090071665139647,0.21381085705557834,-0.07840382434236169,-0.029588302872820736,0.21386300291787957
1750170340.4650626,-1.7149729298419576,-2.1576113857958106,-0.9884649578826741,1.478831641595686,-0.119649308843643,-1.5737165326883984,0.03340030021516267,0.1950759125571685,-0.7536096134579566,-0.525245507876904,-0.35719246851727776,0.120513354420684,3.6056484587134947,3.4095513526027235,0.21384948001776607,-0.07855443539792922,-0.02941301395356925,0.21400088499878347
1750170340.4671915,-1.7149062916410056,-2.1572204708630327,-0.9899748676546496,1.4777786096294279,-0.12036473141090287,-1.5734749496468092,0.033237391147721854,0.19583873187404446,-0.7562990448946176,-0.5277868491053719,-0.35822905827513446,0.1210697037287407,3.60482041284082,3.410093679025113,0.21388718434742357,-0.07870530353913596,-0.029237343990605062,0.21413688556370156
1750170340.4689991,-1.714839982313448,-2.156828032027299,-0.991490149608051,1.476720492637733,-0.1210822209104272,-1.5732322538089552,0.033071427964149434,0.19659981271225838,-0.7589817950406157,-0.530330532627799,-0.3592593985616561,0.12162614982754384,3.6039978222294233,3.410634106888237,0.21392395692143917,-0.07885642491231502,-0.029061296739885625,0.2142709744001524
1750170340.4709582,-1.7147740079605862,-2.15643407278239,-0.9930107903813647,1.4756572859401673,-0.12180176482999183,-1.572988444986425,0.03290241763074017,0.19735913823863976,-0.7616578650256911,-0.5328765542711611,-0.3602834761160602,0.12218268753586387,3.603180781192239,3.411172597472374,0.21395978458883402,-0.07900779567151492,-0.028884875937513894,0.2144031212293585
1750170340.4733224,-1.714708374669578,-2.1560385966558133,-0.9945367766157105,1.4745889848647582,-0.12252335063098219,-1.5727435230012352,0.03273036732430057,0.1981166915594577,-0.7643272563560146,-0.535424909746752,-0.36130127780941923,0.12273931160681566,3.602369383901917,3.411709112226968,0.21399465417313399,-0.07915941198192172,-0.028708085297887483,0.21453329570303076
1750170340.4751804,-1.714643088513017,-2.155641607208924,-0.9960680949556009,1.4735155847482257,-0.12324696574865524,-1.572497487685963,0.032555284431787256,0.19887245572132548,-0.7669899709152035,-0.537975594651031,-0.36231279064389255,0.12329601672773105,3.601563724366228,3.4122436127779534,0.2140285524715519,-0.0793112700193176,-0.028530928513764712,0.2146614674030521
1750170340.479445,-1.714643088513017,-2.155641607208924,-0.9960680949556009,1.4735155847482257,-0.12324696574865524,-1.572497487685963,0.032555284431787256,0.19887245572132548,-0.7669899709152035,-0.537975594651031,-0.36231279064389255,0.12329601672773105,3.601563724366228,3.4122436127779534,0.2140285524715519,-0.0793112700193176,-0.028530928513764712,0.2146614674030521
1750170340.479787,-1.714578155548514,-2.155243108037041,-0.997604732049691,1.4724370809362113,-0.1239725975924042,-1.572250338883876,0.032377176549984656,0.1996264137120801,-0.7696460109653271,-0.5405286044664636,-0.3633180017519196,0.1238527975200545,3.600763896442826,3.412776060926844,0.21406146625548125,-0.0794633659697227,-0.028353409255176244,0.2147876058479151
1750170340.4810789,-1.7145135818182764,-2.1548431027695685,-0.9991466745515432,1.4713534687835044,-0.12470023354601789,-1.5720020764490634,0.032196051485143366,0.20037854846167766,-0.7722953791478679,-0.543083934562382,-0.36431689839540565,0.12440964853921525,3.5999699938232896,3.4133064186536113,0.2140933822717761,-0.0796156960298592,-0.028175531169216953,0.21491168048508918
1750170340.4830234,-1.7144493733486899,-2.1544415950701055,-1.0006939091203781,1.4702647436542682,-0.12542986096793474,-1.5717527002465737,0.03201191725259911,0.201128842843156,-0.7749380784847479,-0.5456415801958574,-0.3653094679649017,0.12496656427450756,3.599182110026913,3.4138346481322586,0.21412428724143567,-0.07976825640738222,-0.027997297879875847,0.21503366069511237
1750170340.486078,-1.7143855361498996,-2.1540385886365616,-1.0022464224218464,1.4691709009222635,-0.12616146719150478,-1.5715022101525387,0.03182478207637336,0.20187727967352606,-0.7775741123793011,-0.5482015365125832,-0.36629569797868433,0.12552353914900682,3.598400338387622,3.4143607117162045,0.2141541678604769,-0.07992104332096006,-0.027818712985223804,0.2151535158036474
1750170340.48729,-1.714322076215396,-2.1536340872012696,-1.0038042011287835,1.4680719359710703,-0.12689503952524017,-1.5712506060543125,0.0316346543887783,0.2026238417147133,-0.7802034846171748,-0.5507637985477638,-0.3672755760819173,0.12608056751942134,3.5976247720604415,3.4148845719514136,0.21418301080266952,-0.0800740530004759,-0.027639780059714326,0.21527121505820537
1750170340.4891338,-1.7142589995215953,-2.153228094531089,-1.0053672319219817,1.466967844194308,-0.12763056525307004,-1.5709978878506021,0.031441542829984896,0.20336851167454617,-0.7828261993674066,-0.5533283612270166,-0.36824909004571593,0.126637643676012,3.596855504003973,3.415406191586111,0.21421080271463358,-0.08022728168711003,-0.02746050265144236,0.21538672765425307
1750170340.4912105,-1.714196312027429,-2.1528206144275215,-1.0069355014909558,1.465858620995853,-0.12836803163459187,-1.5707440554516001,0.03124545624758655,0.20411127220766392,-0.7854422611832718,-0.555895219367296,-0.36921622776619134,0.12719476184248105,3.5960926269761537,3.4159255335554612,0.21423753022190842,-0.08038072563392562,-0.02728088428157912,0.21550002272239255
1750170340.493423,-1.7141340196739225,-2.1524116507268074,-1.0085089965347098,1.4647442617900568,-0.12910742590531754,-1.5704891087791193,0.031046403696159103,0.20485210591654673,-0.7880516750032875,-0.5584643676777983,-0.3701769772635345,0.12775191617585815,3.5953362335376338,3.4164425610097275,0.21426317992561658,-0.08053438110520293,-0.027100928445494287,0.21561106932892143
1750170340.4952528,-1.714072128383787,-2.152001207300036,-1.0100877037625136,1.4636247620019585,-0.12984873527692464,-1.570233047766724,0.03084439443675687,0.20559099535244402,-0.7906544461521338,-0.5610358007608992,-0.3711313266809732,0.12830910076641516,3.5945864160173695,3.416957237289684,0.21428773840349546,-0.08068824437717377,-0.026920638609175505,0.21571983648614101
1750170340.4971652,-1.7140106440610063,-2.151589288053245,-1.0116716098946714,1.4625001170674987,-0.13059194693749632,-1.5699758723598656,0.03063943793645636,0.20632792301641434,-0.7932505803415906,-0.5636095131131007,-0.37207926428380755,0.12886630963754966,3.593843266539889,3.4174695259566144,0.21431119221103476,-0.08084231173824773,-0.026740018211437278,0.2158262931408725
1750170340.4992006,-1.7139495725904244,-2.1511758969275157,-1.0132607016632997,1.4613703224337304,-0.1313370480517717,-1.5697175825160148,0.030431543867855362,0.2070628713603138,-0.7958400836714594,-0.5661854991259668,-0.3730207784583568,0.12942353674569818,3.5931068770016013,3.417979390779978,0.2143335278811942,-0.08099657948850084,-0.026559070661429426,0.21593040818535614
1750170340.501435,-1.7138889198373324,-2.1507610378990796,-1.014854965813103,1.4602353735590274,-0.13208402576138045,-1.5694581782047976,0.030220722108545196,0.20779582278779457,-0.7984229626305038,-0.5687637530871061,-0.3739558577108934,0.1299807759802354,3.5923773390592317,3.418486795739253,0.21435473192377533,-0.08115104394090104,-0.0263777993382728,0.21603215045255833
1750170340.5034282,-1.7138889198373324,-2.1507610378990796,-1.014854965813103,1.4602353735590274,-0.13208402576138045,-1.5694581782047976,0.030220722108545196,0.20779582278779457,-0.7984229626305038,-0.5687637530871061,-0.3739558577108934,0.1299807759802354,3.5923773390592317,3.418486795739253,0.21435473192377533,-0.08115104394090104,-0.0263777993382728,0.21603215045255833
1750170340.5053892,-1.7138286916470662,-2.150344714979404,-1.0164543891021527,1.4590952659132916,-0.13283286718508247,-1.5691976594081272,0.030006982740574673,0.20852675965537257,-0.800999224097297,-0.5713442691811296,-0.37488449066656254,0.13053802116338867,3.5916547441296425,3.4189917050426004,0.21437479082903674,-0.08130570142047075,-0.02619620759064958,0.2161314887228333
1750170340.507622,-1.7137688938445894,-2.1499269322152905,-1.0180589583026691,1.4579499949781576,-0.13358355941900868,-1.5689360261203404,0.029790336049929478,0.20925566427343423,-0.8035688753412519,-0.5739270414906112,-0.3758066660682824,0.13109526605013005,3.5909391833921287,3.4194940831128853,0.2143936910616916,-0.0814605482642803,-0.026014298736264003,0.21622839171367367
1750170340.5106902,-1.713709532234093,-2.1495076936889657,-1.019668660201802,1.456799556247196,-0.13433608953689102,-1.5686732783483315,0.02957079252593567,0.20998251890729086,-0.8061319240233925,-0.5765120639971228,-0.37672237277559323,0.13165250432810924,3.5902307477577318,3.4199938945993993,0.21441141906880687,-0.08161558082332934,-0.025832076060398702,0.21632282809728762
1750170340.5113053,-1.7136506125985838,-2.1490870035181686,-1.021283481602416,1.455643945226115,-0.13509044459029607,-1.5684094161116855,0.02934836286071153,0.21070730577824784,-0.8086883781973312,-0.5790993305821676,-0.3776315997635038,0.13220972961754746,3.5895295278904547,3.420491104382965,0.2144279612741375,-0.08177079545965962,-0.02564954281583812,0.21641476648479302
1750170340.5132961,-1.7135921406994852,-2.148664865856241,-1.0229034093238765,1.4544831574329582,-0.13584661160885592,-1.5681444394428166,0.02912305794855355,0.21143000706466178,-0.8112382463101324,-0.5816888350282506,-0.3785343361213004,0.13276693547116106,3.5888356141770617,3.4209856775725362,0.21444330408104187,-0.08192618855004312,-0.025466702221817815,0.21650417543817388
