mathias31415/primitives_from_planned_trajectory_python/data/saved_trajectories/trajectory_20250624_120659_planned.csv
time_from_start,shoulder_pan_joint_pos,shoulder_lift_joint_pos,elbow_joint_pos,wrist_1_joint_pos,wrist_2_joint_pos,wrist_3_joint_pos,shoulder_pan_joint_vel,shoulder_lift_joint_vel,elbow_joint_vel,wrist_1_joint_vel,wrist_2_joint_vel,wrist_3_joint_vel,shoulder_pan_joint_acc,shoulder_lift_joint_acc,elbow_joint_acc,wrist_1_joint_acc,wrist_2_joint_acc,wrist_3_joint_acc,fk_x,fk_y,fk_z,fk_qx,fk_qy,fk_qz,fk_qw
0.0,-2.4735389999999997,-2.022895,-1.7532490000000003,-0.9713180000000001,1.566735,-0.9034110000000002,0.000397821462668077,0.00025766360424132363,-0.0005,0.0002440381536759721,1.3850995737739456e-05,0.00039746676795391624,0.397821462668077,0.2576636042413236,-0.5,0.2440381536759721,0.013850995737739456,0.3974667679539162,-0.7704544233305528,-0.3855167340326098,0.27233928885129943,-0.0003697203222327986,0.9998441101485496,0.012452276176351983,0.012512374921108236
0.1,-2.4715498926866593,-2.0216066819787937,-1.7557490000000004,-0.9700978092316203,1.5668042549786887,-0.9014236661602306,0.03978214626680775,0.02576636042413239,-0.05000000000000006,0.024403815367597236,0.0013850995737739473,0.03974667679539167,0.39782146266816,0.2576636042413772,-0.500000000000104,0.24403815367602158,0.013850995737742395,0.39746676795399777,-0.7688031011594109,-0.3863591913439805,0.27212713810747385,-0.0003699912656047402,0.9998442543272839,0.012447345420263307,0.012505750164217155
0.2,-2.465582570746638,-2.0177417279151735,-1.763249,-0.9664372369264806,1.5670120199147548,-0.8954616646409218,0.07956429253361597,0.05153272084826509,-0.1000000000000007,0.04880763073519476,0.0027701991475479106,0.07949335359078381,0.3978214626689094,0.2576636042418629,-0.5000000000010408,0.24403815367648302,0.013850995737768415,0.3974667679547541,-0.7638421625153567,-0.38885213075322694,0.27148818786276707,-0.0003708058620911672,0.9998446795629443,0.012432692046204364,0.012486289327499442
0.30000000000000004,-2.4556370341799365,-2.0113001378091404,-1.7757490000000002,-0.9603362830845814,1.5673582948081983,-0.885524995442074,0.11934643880042,0.07729908127239507,-0.1499999999999961,0.07321144610278972,0.004155298721321729,0.11924003038617177,0.3978214626654816,0.2576636042396494,-0.4999999999967526,0.24403815367438053,0.013850995737649587,0.3974667679513263,-0.7555518355755898,-0.392892144808572,0.2704149590328081,-0.0003721694106560655,0.9998453639538357,0.012408747972987607,0.01245522555775201
0.4,-2.4417132829865533,-2.002281911660694,-1.793249,-0.9517949477059223,1.567843079659019,-0.8716136585636869,0.1591285850672261,0.10306544169652639,-0.19999999999999407,0.09761526147038593,0.005540398295095618,0.1589867071815618,0.39782146266281704,0.2576636042379008,-0.4999999999933664,0.24403815367272907,0.013850995737555912,0.39746676794866176,-0.7439029847630874,-0.3983065740492588,0.2688950369886526,-0.0003740907424179306,0.9998462709969065,0.012376283528650982,0.012414589631376073
0.5,-2.42381131716649,-1.9906870494698343,-1.8157490000000003,-0.9408132307905035,1.5684663744672172,-0.8537276540057607,0.19891073133404544,0.1288318021206663,-0.2500000000000087,0.12201907683799029,0.006925497868869969,0.19873338397696505,0.39782146267336416,0.25766360424475643,-0.5000000000066613,0.24403815367922388,0.013850995737923673,0.3974667679592089,-0.7288628416606333,-0.404853220388171,0.26691114963229545,-0.00037658221990925496,0.9998473495874153,0.012336481982694377,0.01236717110511296
0.6000000000000001,-2.4030067434971834,-1.9772122072620113,-1.8418971287733659,-0.9280509486546362,1.5691907297075969,-0.8329416295425759,0.20943951023930543,0.13565115043534687,-0.26323304533980313,0.128477812742458,0.007292079578067581,0.20925277549975652,-1.4086454101816754e-11,-9.122920077751401e-12,1.7691255348344665e-11,-8.651522991666983e-12,-4.9046093883048e-13,-1.4058724861458847e-11,-0.711312131919709,-0.4118744687515782,0.26456385240439767,-0.00037950761625857006,0.9998484792340592,0.012293188379409528,0.012318768882350247
0.7000000000000001,-2.382062792473252,-1.9636470922184763,-1.8682204333073469,-0.91520316738039,1.5699199376654038,-0.8120163519925996,0.20943951023930543,0.13565115043534687,-0.26323304533980313,0.128477812742458,0.007292079578067581,0.20925277549975652,-1.4086454101816754e-11,-9.122920077751401e-12,1.7691255348344665e-11,-8.651522991666983e-12,-4.9046093883048e-13,-1.4058724861458847e-11,-0.6935867753225132,-0.41830537692390407,0.2621558019499041,-0.0003824851316948292,0.9998494819955777,0.01225308848090081,0.012277169094639865
0.8,-2.3611188414493207,-1.9500819771749411,-1.8945437378413281,-0.9023553861061437,1.5706491456232106,-0.7910910744426232,0.20943951023930543,0.13565115043534687,-0.26323304533980313,0.128477812742458,0.007292079578067581,0.20925277549975652,-1.4086454101816754e-11,-9.122920077751401e-12,1.7691255348344665e-11,-8.651522991666983e-12,-4.9046093883048e-13,-1.4058724861458847e-11,-0.6758263487294196,-0.4240973565815079,0.25970289757203124,-0.00038549527361974505,0.9998503498539343,0.012216761652805205,0.01224254977844586
0.9,-2.340174890425389,-1.936516862131406,-1.9208670423753094,-0.8895076048318975,1.571378353581017,-0.7701657968926467,0.20943951023930543,0.13565115043534687,-0.26323304533980313,0.128477812742458,0.007292079578067581,0.20925277549975652,-1.4086454101816754e-11,-9.122920077751401e-12,1.7691255348344665e-11,-8.651522991666983e-12,-4.9046093883048e-13,-1.4058724861458847e-11,-0.6580530230275261,-0.429251749195279,0.2572054737354804,-0.00038853803913669775,0.9998510828078914,0.012184480558761191,0.012214732072067086
1.0,-2.319230939401458,-1.9229517470878708,-1.9471903469092906,-0.8766598235576514,1.572107561538824,-0.7492405193426704,0.20943951023930543,0.13565115043534687,-0.26323304533980313,0.128477812742458,0.007292079578067581,0.20925277549975652,-1.4086454101816754e-11,-9.122920077751401e-12,1.7691255348344665e-11,-8.651522991666983e-12,-4.9046093883048e-13,-1.4058724861458847e-11,-0.6402888756243765,-0.43377065684009875,0.2546638743860522,-0.000391613425339726,0.9998516808562304,0.012156511971763807,0.012193528799173676
1.1,-2.2982869883775248,-1.9093866320443342,-1.9735136514432747,-0.8638120422834037,1.572836769496631,-0.7283152417926918,0.20943951023935192,0.13565115043537695,-0.2632330453398615,0.1284778127424865,0.007292079578069199,0.20925277549980292,3.2360023497681053e-11,2.0935576470222105e-11,-4.065106636469617e-11,1.98264068559057e-11,1.1265003895400967e-12,3.2304565016965235e-11,-0.622555864473068,-0.43765693788696053,0.2520784529064834,-0.0003947214293144118,0.999852143997752,0.012133116546418934,0.012178744638213107
1.2,-2.277343037353591,-1.8958215170007975,-1.9998369559772589,-0.850964261009156,1.5735659774544377,-0.707389964242713,0.20943951023935192,0.13565115043537695,-0.2632330453398615,0.1284778127424865,0.007292079578069199,0.20925277549980292,3.2360023497681053e-11,2.0935576470222105e-11,-4.065106636469617e-11,1.98264068559057e-11,1.1265003895400967e-12,3.2304565016965235e-11,-0.6048758022741342,-0.4409142018100494,0.24944957207034077,-0.00039786204813768234,0.9998524722312765,0.012114548595732286,0.012170176297690877
1.3,-2.2563990863296572,-1.8822564019572607,-2.0261602605112428,-0.8381164797349084,1.5742951854122444,-0.6864646866927344,0.20943951023935192,0.13565115043537695,-0.2632330453398615,0.1284778127424865,0.007292079578069199,0.20925277549980292,3.2360023497681053e-11,2.0935576470222105e-11,-4.065106636469617e-11,1.98264068559057e-11,1.1265003895400967e-12,3.2304565016965235e-11,-0.5872703308843041,-0.4435468031156757,0.24677760399396736,-0.0004010352788770561,0.999852665555643,0.012101055872579296,0.01216761269720708
1.4,-2.235455135305724,-1.8686912869137244,-2.052483565045227,-0.8252686984606608,1.5750243933700514,-0.6655394091427557,0.20943951023935192,0.13565115043537695,-0.2632330453398615,0.1284778127424865,0.007292079578069199,0.20925277549980292,3.2360023497681053e-11,2.0935576470222105e-11,-4.065106636469617e-11,1.98264068559057e-11,1.1265003895400967e-12,3.2304565016965235e-11,-0.5697608959620064,-0.4455598344009703,0.24406293008649638,-0.0004042411185912504,0.9998527239697105,0.012092879355999932,0.012170835154130697
1.5,-2.2145111842817906,-1.8551261718701877,-2.0788068695792115,-0.8124209171864131,1.5757536013278584,-0.6446141315927771,0.20943951023935198,0.13565115043537662,-0.26323304533986164,0.1284778127424866,0.007292079578069201,0.209252775499803,3.241548197839687e-11,2.1018764191295833e-11,-4.0761983326127806e-11,1.9909594576979432e-11,1.1291000058236507e-12,3.238775273803896e-11,-0.5523687218791721,-0.4469591185512709,0.24130594099793534,-0.0004074795643307877,0.999852647472357,0.012090253042456233,0.012179617575787121
1.6,-2.193567233257857,-1.8415610568266514,-2.1051301741131954,-0.7995731359121654,1.5764828092856653,-0.6236888540427985,0.20943951023935198,0.13565115043537662,-0.26323304533986164,0.1284778127424866,0.007292079578069201,0.209252775499803,3.241548197839687e-11,2.1018764191295833e-11,-4.0761983326127806e-11,1.9909594576979432e-11,1.1291000058236507e-12,3.238775273803896e-11,-0.5351147869285674,-0.4477512000861256,0.23850703656532224,-0.0004107506131370761,0.99985243606248,0.012093403742192038,0.012193726657035322
1.7000000000000002,-2.172623282233923,-1.8279959417831146,-2.1314534786471793,-0.7867253546379177,1.5772120172434723,-0.6027635764928198,0.20943951023935198,0.13565115043537662,-0.26323304533986164,0.1284778127424866,0.007292079578069201,0.209252775499803,3.241548197839687e-11,2.1018764191295833e-11,-4.0761983326127806e-11,1.9909594576979432e-11,1.1291000058236507e-12,3.238775273803896e-11,-0.5180197988555213,-0.4479433356648371,0.23566662575697,-0.00041405426204225233,0.9998520897389959,0.012102550880825468,0.012212922083101131
1.8,-2.1516793312099893,-1.814430826739578,-2.1577767831811636,-0.77387757336367,1.577941225201279,-0.581838298942841,0.20943951023935198,0.13565115043537662,-0.26323304533986164,0.1284778127424866,0.007292079578069201,0.209252775499803,3.241548197839687e-11,2.1018764191295833e-11,-4.0761983326127806e-11,1.9909594576979432e-11,1.1291000058236507e-12,3.238775273803896e-11,-0.5011041707425127,-0.4475434837634482,0.23278512661479836,-0.0004173905080702189,0.9998516085008409,0.012117906306307885,0.012236956737536553
1.9,-2.130735380186056,-1.8008657116960414,-2.1841000877151475,-0.7610297920894225,1.578670433159086,-0.5609130213928624,0.20943951023935198,0.13565115043537662,-0.26323304533986164,0.1284778127424866,0.007292079578069201,0.209252775499803,3.241548197839687e-11,2.1018764191295833e-11,-4.0761983326127806e-11,1.9909594576979432e-11,1.1291000058236507e-12,3.238775273803896e-11,-0.4843879972746571,-0.44656029353602916,0.22986296619476623,-0.0004207593482353767,0.9998509923469704,0.01213967410137247,0.012265576915166844
2.0,-2.1097914291621223,-1.7873005966525046,-2.210423392249132,-0.7481820108151747,1.5793996411168925,-0.5399877438428837,0.2094395102392591,0.13565115043531684,-0.2632330453397449,0.12847781274242961,0.007292079578065967,0.2092527754997101,-6.036655625915683e-11,-3.909822890464453e-11,7.586720161922513e-11,-3.701853587780173e-11,-2.1013564958724066e-12,-6.031109777844103e-11,-0.46789103141366245,-0.4450030928740765,0.2269005805054103,-0.00042416077954421795,0.9998502412763588,0.012168050401601628,0.012298522539887294
2.1,-2.0888474781381934,-1.773735481608971,-2.23674669678311,-0.73533422954093,1.5801288490746996,-0.5190624662929098,0.2094395102392591,0.13565115043531684,-0.2632330453397449,0.12847781274242961,0.007292079578065967,0.2092527754997101,-6.036655625915683e-11,-3.909822890464453e-11,7.586720161922513e-11,-3.701853587780173e-11,-2.1013564958724066e-12,-6.031109777844103e-11,-0.4516326615073371,-0.44288187567877013,0.22389841444449812,-0.0004275947989935306,0.9998493552880003,0.012203223219227411,0.012335527387168324
2.2,-2.0679035271142645,-1.7601703665654373,-2.2630700013170886,-0.7224864482666851,1.5808580570325064,-0.49813718874293567,0.2094395102392591,0.13565115043531684,-0.2632330453397449,0.12847781274242961,0.007292079578065967,0.2092527754997101,-6.036655625915683e-11,-3.909822890464453e-11,7.586720161922513e-11,-3.701853587780173e-11,-2.1013564958724066e-12,-6.031109777844103e-11,-0.435631888861178,-0.44020728836173945,0.22085692173380436,-0.00043106140357175555,0.9998483343809081,0.012245372272788142,0.012376319311119887
2.3,-2.047013109292028,-1.7466399242557529,-2.2893260229029155,-0.7096715062053217,1.5815854011186565,-0.4772653966648418,0.20288894596072057,0.13140843816307587,-0.2550000000000016,0.12445945837474658,0.007064007826247168,0.2027080516564985,-0.39782146266863433,-0.2576636042416764,0.5000000000007216,-0.24403815367630888,-0.013850995737758677,-0.39746676795447905,-0.4199471305997199,-0.4369995185218325,0.21778448745611617,-0.0004345516047285307,0.9998471816804226,0.012294533568550555,0.012420503007142094
2.4,-2.0287109009754842,-1.734785830389654,-2.3123290657676665,-0.6984442659860355,1.5822226312160061,-0.45897950646372565,0.16310679969394548,0.10564207773896464,-0.20500000000004262,0.10005564300716938,0.005678908252474357,0.16296137486113946,-0.39782146263493906,-0.2576636042198605,0.4999999999583389,-0.24403815365563097,-0.013850995736586004,-0.39746676792081154,-0.40644566330640214,-0.43375523957432144,0.2150613025052458,-0.0004376360268604967,0.999846061477171,0.012343575493912448,0.01246186050810181
2.5,-2.014386907285622,-1.7255083725659688,-2.330332108632417,-0.6896574073035093,1.5827213513559781,-0.4446682839421494,0.12332465342706071,0.07987571731478235,-0.15499999999994574,0.07565182763952488,0.004293808678697729,0.12321469806567086,-0.3978214627107433,-0.25766360426895674,0.5000000000536238,-0.2440381537021381,-0.01385099573922444,-0.39746676799653263,-0.3960433609101754,-0.4309390712434543,0.2129097899912594,-0.00044006736473689736,0.9998451128914017,0.01238591841086238,0.012495823022684534
2.6,-2.004041128222441,-1.7188075507846972,-2.3433351514971665,-0.6833109301577432,1.5830815615385725,-0.43433172910011275,0.08354250716028797,0.05410935689067264,-0.10499999999998967,0.051248012271949105,0.002908709104925,0.08346802127031416,-0.39782146267604507,-0.25766360424648505,0.5000000000100198,-0.24403815368086773,-0.01385099573801715,-0.3974667679618898,-0.3886233774360256,-0.4287562841409014,0.21134485836475503,-0.000441832921882987,0.9998443885049447,0.012418694077473926,0.012521165930231103
2.7,-1.9976735637859413,-1.7146833650458388,-2.3513381943619165,-0.679404834548737,1.5833032617637899,-0.42796984193761556,0.043760360893472516,0.02834299646653526,-0.05499999999997994,0.026844196904347143,0.0015236095311507846,0.043721344474914825,-0.39782146268384816,-0.2576636042515366,0.5000000000198244,-0.24403815368564782,-0.013850995738288557,-0.3974667679696722,-0.3840964878492522,-0.4273515996802182,0.21037714181292744,-0.00044292352886649244,0.999843926296289,0.01243978953443745,0.01253708512803359
2.8,-1.995284213976122,-1.7131358153493936,-2.354341237226666,-0.6779391204764903,1.5833864520316296,-0.4255826224546572,0.003978214626681099,0.0025766360424134493,-0.005000000000000413,0.002440381536759923,0.00013850995737740602,0.003974667679539489,-0.39782146267026547,-0.25766360424274104,0.5000000000027512,-0.24403815367731482,-0.013850995737815654,-0.39746676795610275,-0.38240580022858156,-0.42681256781913474,0.2100131289687094,-0.0004433335424863082,0.9998437496403346,0.012447887795228495,0.012543119626446922
2.810060857,-1.9952640800629196,-1.7131227748849391,-2.3543665424390436,-0.6779267696018763,1.5833871530364072,-0.425562506492705,-5.56712405206985e-17,-3.6057512807239147e-17,6.997013201264594e-17,-3.4150763657660296e-17,-1.938312000552452e-18,-5.562160444875044e-17,-0.39782146259980594,-0.2576636041971053,0.49999999991419375,-0.24403815363409218,-0.013850995735362455,-0.39746676788570584,-0.3823915722220435,-0.4268079980722433,0.210010059547995,-0.0004433369992769788,0.9998437481442781,0.01244795645950549,0.012543170615465032
