mathias31415/primitives_from_planned_trajectory_python/data/saved_trajectories/trajectory_20250624_124357_executed.csv
timestamp,shoulder_lift_joint_pos,elbow_joint_pos,wrist_1_joint_pos,wrist_2_joint_pos,wrist_3_joint_pos,shoulder_pan_joint_pos,shoulder_lift_joint_vel,elbow_joint_vel,wrist_1_joint_vel,wrist_2_joint_vel,wrist_3_joint_vel,shoulder_pan_joint_vel,shoulder_lift_joint_eff,elbow_joint_eff,wrist_1_joint_eff,wrist_2_joint_eff,wrist_3_joint_eff,shoulder_pan_joint_eff
1750761850.03735,-1.9172089999999997,-2.4362570000000003,-0.3923040000000002,1.5817659999999998,-0.47065100000000015,-2.0404230000000005,0.0,0.0,0.0,0.0,0.0,0.0,3.7179531877433325,1.7195281890546572,0.29985140905138924,0.000905080970782907,0.0,5.924561628272686e-17
1750761850.0394444,-1.9172089999999997,-2.4362570000000003,-0.3923040000000002,1.5817659999999998,-0.47065100000000015,-2.0404230000000005,0.0,0.0,0.0,0.0,0.0,0.0,3.7179531877433325,1.7195281890546572,0.29985140905138924,0.000905080970782907,0.0,5.924561628272686e-17
1750761850.0401602,-1.9172089999999997,-2.4362570000000003,-0.3923040000000002,1.5817659999999998,-0.47065100000000015,-2.0404230000000005,0.0,0.0,0.0,0.0,0.0,0.0,3.7179531877433325,1.7195281890546572,0.29985140905138924,0.000905080970782907,0.0,5.924561628272686e-17
1750761850.0406938,-1.9172089999999997,-2.4362570000000003,-0.3923040000000002,1.5817659999999998,-0.47065100000000015,-2.0404230000000005,0.0,0.0,0.0,0.0,0.0,0.0,3.7179531877433325,1.7195281890546572,0.29985140905138924,0.000905080970782907,0.0,5.924561628272686e-17
1750761850.0411851,-1.9172089999999997,-2.4362570000000003,-0.3923040000000002,1.5817659999999998,-0.47065100000000015,-2.0404230000000005,0.0,0.0,0.0,0.0,0.0,0.0,3.7179531877433325,1.7195281890546572,0.29985140905138924,0.000905080970782907,0.0,5.924561628272686e-17
1750761850.0431974,-1.9172089999999997,-2.4362570000000003,-0.3923040000000002,1.5817659999999998,-0.47065100000000015,-2.0404230000000005,0.0,0.0,0.0,0.0,0.0,0.0,3.7179531877433325,1.7195281890546572,0.29985140905138924,0.000905080970782907,0.0,5.924561628272686e-17
1750761850.0450869,-1.9172089999999997,-2.4362570000000003,-0.3923040000000002,1.5817659999999998,-0.47065100000000015,-2.0404230000000005,0.0,0.0,0.0,0.0,0.0,0.0,3.7179531877433325,1.7195281890546572,0.29985140905138924,0.000905080970782907,0.0,5.924561628272686e-17
1750761850.047101,-1.9172089999999997,-2.4362570000000003,-0.3923040000000002,1.5817659999999998,-0.47065100000000015,-2.0404230000000005,0.0,0.0,0.0,0.0,0.0,0.0,3.7179531877433325,1.7195281890546572,0.29985140905138924,0.000905080970782907,0.0,5.924561628272686e-17
1750761850.048978,-1.9172089999999997,-2.4362570000000003,-0.3923040000000002,1.5817659999999998,-0.47065100000000015,-2.0404230000000005,0.0,0.0,0.0,0.0,0.0,0.0,3.7179531877433325,1.7195281890546572,0.29985140905138924,0.000905080970782907,0.0,5.924561628272686e-17
1750761850.0562131,-1.9172089999999997,-2.4362570000000003,-0.3923040000000002,1.5817659999999998,-0.47065100000000015,-2.0404230000000005,0.0,0.0,0.0,0.0,0.0,0.0,3.7179531877433325,1.7195281890546572,0.29985140905138924,0.000905080970782907,0.0,5.924561628272686e-17
1750761850.0571973,-1.9172089999999997,-2.4362570000000003,-0.3923040000000002,1.5817659999999998,-0.47065100000000015,-2.0404230000000005,0.0,0.0,0.0,0.0,0.0,0.0,3.7179531877433325,1.7195281890546572,0.29985140905138924,0.000905080970782907,0.0,5.924561628272686e-17
1750761850.0575762,-1.9172089999999997,-2.4362570000000003,-0.3923040000000002,1.5817659999999998,-0.47065100000000015,-2.0404230000000005,0.0,0.0,0.0,0.0,0.0,0.0,3.7179531877433325,1.7195281890546572,0.29985140905138924,0.000905080970782907,0.0,5.924561628272686e-17
1750761850.057923,-1.9172089999999997,-2.4362570000000003,-0.3923040000000002,1.5817659999999998,-0.47065100000000015,-2.0404230000000005,0.0,0.0,0.0,0.0,0.0,0.0,3.7179531877433325,1.7195281890546572,0.29985140905138924,0.000905080970782907,0.0,5.924561628272686e-17
1750761850.0592833,-1.9172089999999997,-2.4362570000000003,-0.3923040000000002,1.5817659999999998,-0.47065100000000015,-2.0404230000000005,0.0,0.0,0.0,0.0,0.0,0.0,3.7179531877433325,1.7195281890546572,0.29985140905138924,0.000905080970782907,0.0,5.924561628272686e-17
1750761850.0612283,-1.9172089999999997,-2.4362570000000003,-0.3923040000000002,1.5817659999999998,-0.47065100000000015,-2.0404230000000005,0.0,0.0,0.0,0.0,0.0,0.0,3.7179531877433325,1.7195281890546572,0.29985140905138924,0.000905080970782907,0.0,5.924561628272686e-17
1750761850.0632472,-1.9172089999999997,-2.4362570000000003,-0.3923040000000002,1.5817659999999998,-0.47065100000000015,-2.0404230000000005,0.0,0.0,0.0,0.0,0.0,0.0,3.7179531877433325,1.7195281890546572,0.29985140905138924,0.000905080970782907,0.0,5.924561628272686e-17
1750761850.0654964,-1.9172089999999997,-2.4362570000000003,-0.3923040000000002,1.5817659999999998,-0.47065100000000015,-2.0404230000000005,0.0,0.0,0.0,0.0,0.0,0.0,3.7179531877433325,1.7195281890546572,0.29985140905138924,0.000905080970782907,0.0,5.924561628272686e-17
1750761850.0674567,-1.9172089999999997,-2.4362570000000003,-0.3923040000000002,1.5817659999999998,-0.47065100000000015,-2.0404230000000005,0.0,0.0,0.0,0.0,0.0,0.0,3.7179531877433325,1.7195281890546572,0.29985140905138924,0.000905080970782907,0.0,5.924561628272686e-17
1750761850.0690763,-1.9172089999999997,-2.4362570000000003,-0.3923040000000002,1.5817659999999998,-0.47065100000000015,-2.0404230000000005,0.0,0.0,0.0,0.0,0.0,0.0,3.7179531877433325,1.7195281890546572,0.29985140905138924,0.000905080970782907,0.0,5.924561628272686e-17
1750761850.0712361,-1.9172089999999997,-2.4362570000000003,-0.3923040000000002,1.5817659999999998,-0.47065100000000015,-2.0404230000000005,0.0,0.0,0.0,0.0,0.0,0.0,3.7179531877433325,1.7195281890546572,0.29985140905138924,0.000905080970782907,0.0,5.924561628272686e-17
1750761850.0729835,-1.9172089999999997,-2.4362570000000003,-0.3923040000000002,1.5817659999999998,-0.47065100000000015,-2.0404230000000005,0.0,0.0,0.0,0.0,0.0,0.0,3.7179531877433325,1.7195281890546572,0.29985140905138924,0.000905080970782907,0.0,5.924561628272686e-17
1750761850.0751367,-1.9172089999999997,-2.4362570000000003,-0.3923040000000002,1.5817659999999998,-0.47065100000000015,-2.0404230000000005,0.0,0.0,0.0,0.0,0.0,0.0,3.7179531877433325,1.7195281890546572,0.29985140905138924,0.000905080970782907,0.0,5.924561628272686e-17
1750761850.0773056,-1.9172089999999997,-2.4362570000000003,-0.3923040000000002,1.5817659999999998,-0.47065100000000015,-2.0404230000000005,0.0,0.0,0.0,0.0,0.0,0.0,3.7179531877433325,1.7195281890546572,0.29985140905138924,0.000905080970782907,0.0,5.924561628272686e-17
1750761850.0795105,-1.9172089999999997,-2.4362570000000003,-0.3923040000000002,1.5817659999999998,-0.47065100000000015,-2.0404230000000005,0.0,0.0,0.0,0.0,0.0,0.0,3.7179531877433325,1.7195281890546572,0.29985140905138924,0.000905080970782907,0.0,5.924561628272686e-17
1750761850.0815616,-1.9172089999999997,-2.4362570000000003,-0.3923040000000002,1.5817659999999998,-0.47065100000000015,-2.0404230000000005,0.0,0.0,0.0,0.0,0.0,0.0,3.7179531877433325,1.7195281890546572,0.29985140905138924,0.000905080970782907,0.0,5.924561628272686e-17
1750761850.083259,-1.9172089999999997,-2.4362570000000003,-0.3923040000000002,1.5817659999999998,-0.47065100000000015,-2.0404230000000005,0.0,0.0,0.0,0.0,0.0,0.0,3.7179531877433325,1.7195281890546572,0.29985140905138924,0.000905080970782907,0.0,5.924561628272686e-17
1750761850.085353,-1.9172089999999997,-2.4362570000000003,-0.3923040000000002,1.5817659999999998,-0.47065100000000015,-2.0404230000000005,0.0,0.0,0.0,0.0,0.0,0.0,3.7179531877433325,1.7195281890546572,0.29985140905138924,0.000905080970782907,0.0,5.924561628272686e-17
1750761850.0872576,-1.9172089999999997,-2.4362570000000003,-0.3923040000000002,1.5817659999999998,-0.47065100000000015,-2.0404230000000005,0.0,0.0,0.0,0.0,0.0,0.0,3.7179531877433325,1.7195281890546572,0.29985140905138924,0.000905080970782907,0.0,5.924561628272686e-17
1750761850.0908015,-1.9172089999999997,-2.4362570000000003,-0.3923040000000002,1.5817659999999998,-0.47065100000000015,-2.0404230000000005,0.0,0.0,0.0,0.0,0.0,0.0,3.7179531877433325,1.7195281890546572,0.29985140905138924,0.000905080970782907,0.0,5.924561628272686e-17
1750761850.0913744,-1.9172089999999997,-2.4362570000000003,-0.3923040000000002,1.5817659999999998,-0.47065100000000015,-2.0404230000000005,0.0,0.0,0.0,0.0,0.0,0.0,3.7179531877433325,1.7195281890546572,0.29985140905138924,0.000905080970782907,0.0,5.924561628272686e-17
1750761850.093448,-1.9172089999999997,-2.4362570000000003,-0.3923040000000002,1.5817659999999998,-0.47065100000000015,-2.0404230000000005,0.0,0.0,0.0,0.0,0.0,0.0,3.7179531877433325,1.7195281890546572,0.29985140905138924,0.000905080970782907,0.0,5.924561628272686e-17
1750761850.0955114,-1.9172089999999997,-2.4362570000000003,-0.3923040000000002,1.5817659999999998,-0.47065100000000015,-2.0404230000000005,0.0,0.0,0.0,0.0,0.0,0.0,3.7179531877433325,1.7195281890546572,0.29985140905138924,0.000905080970782907,0.0,5.924561628272686e-17
1750761850.0972283,-1.9172089999999997,-2.4362570000000003,-0.3923040000000002,1.5817659999999998,-0.47065100000000015,-2.0404230000000005,0.0,0.0,0.0,0.0,0.0,0.0,3.7179531877433325,1.7195281890546572,0.29985140905138924,0.000905080970782907,0.0,5.924561628272686e-17
1750761850.0995271,-1.9172089999999997,-2.4362570000000003,-0.3923040000000002,1.5817659999999998,-0.47065100000000015,-2.0404230000000005,0.0,0.0,0.0,0.0,0.0,0.0,3.7179531877433325,1.7195281890546572,0.29985140905138924,0.000905080970782907,0.0,5.924561628272686e-17
1750761850.101245,-1.9172089999999997,-2.4362570000000003,-0.3923040000000002,1.5817659999999998,-0.47065100000000015,-2.0404230000000005,0.0,0.0,0.0,0.0,0.0,0.0,3.7179531877433325,1.7195281890546572,0.29985140905138924,0.000905080970782907,0.0,5.924561628272686e-17
1750761850.1033561,-1.9172089999999997,-2.4362570000000003,-0.3923040000000002,1.5817659999999998,-0.47065100000000015,-2.0404230000000005,0.0,0.0,0.0,0.0,0.0,0.0,3.7179531877433325,1.7195281890546572,0.29985140905138924,0.000905080970782907,0.0,5.924561628272686e-17
1750761850.1048512,-1.9172089999999997,-2.4362570000000003,-0.3923040000000002,1.5817659999999998,-0.47065100000000015,-2.0404230000000005,0.0,0.0,0.0,0.0,0.0,0.0,3.7179531877433325,1.7195281890546572,0.29985140905138924,0.000905080970782907,0.0,5.924561628272686e-17
1750761850.1069856,-1.9172087974223242,-2.43625555345263,-0.3923056636600979,1.581765950369962,-0.4706524658528828,-2.0404244671566705,0.00020257549700745934,0.0014465482072581512,-0.0016636586996956518,-4.962998821668731e-05,-0.0014658511119374521,-0.0014671548994859079,3.859997365389023,1.998194008649866,0.2610634078913074,-0.003701923576098464,-0.04129349135865718,-0.47689936033439
1750761850.1091409,-1.9172081897154403,-2.4362512138004755,-0.39231065462361503,1.5817658014804434,-0.4706568633902837,-2.0404288686054333,0.0004051248503306549,0.0028931064579407607,-0.003327300623601944,-9.925938151838745e-05,-0.0029316809774361254,-0.002934288550659523,3.86000034782203,1.998213590694935,0.26106393468336997,-0.003701933772696523,-0.041292892839632125,-0.476893977671471
1750761850.111,-1.9172071769577803,-2.436243981013407,-0.39231897284022477,1.581765553333229,-0.4706641925484645,-2.0404362042825426,0.0006076219173617944,0.004339684795190577,-0.004990908996713923,-0.00014888758496862874,-0.004397468350701739,-0.004401379705753117,3.8600018444292172,1.9982469169942951,0.2610649424552467,-0.003701929744414253,-0.041291695819709505,-0.4768823036897311
1750761850.1132174,-1.9172057592800558,-2.4362338550412086,-0.39233061822605286,1.5817652059312934,-0.4706744532211946,-2.0404464740817616,0.000810040557708369,0.005786293261665304,-0.006654467045920728,-0.00019851400366030776,-0.005863191986865018,-0.005868407118096697,3.860001856415302,1.9982939870595644,0.2610664311516435,-0.00370191149146559,-0.041289900324944256,-0.4768643387876695
1750761850.1149614,-1.917203936865259,-2.4362208358135797,-0.3923455906636786,1.581764759278801,-0.47068764525975837,-2.040459677854357,0.0010123546342010036,0.007232941899187615,-0.008317958000473817,-0.0002481380427134199,-0.007328830642826843,-0.007335349542625202,3.8600003855088527,1.9983548001724523,0.26106840070348686,-0.003701879013813191,-0.041287506405204843,-0.47684008354730034
1750761850.1168334,-1.9172017099486505,-2.4362049232401373,-0.3923638900021471,1.5817642133811056,-0.47070376847295226,-2.0404758154091116,0.001214538014070474,0.008679640748582754,-0.009981365093330932,-0.0002977591072119345,-0.008794363077621206,-0.00880218573648947,3.859997434030779,1.9984293554228887,0.26107085100414196,-0.00370183230965563,-0.0412845141205803,-0.4768095387696636
1750761850.1187959,-1.9171990788177524,-2.436186117210418,-0.3923855160569687,1.5817635682447517,-0.47072282262709564,-2.040494886512322,0.001416564569976113,0.010126399849332446,-0.01164467156158262,-0.00034737660224548383,-0.010259768053012295,-0.01026889445953984,3.859993004833904,1.9985176516735754,0.2610737819346777,-0.003701771378143026,-0.041280923547981574,-0.4767727054315847
1750761850.121021,-1.9171960438123339,-2.4361644175938806,-0.3924104686101382,1.5817628238774728,-0.4707448074460343,-2.040516890887811,0.0016184081811252081,0.011573229239365962,-0.013307860647612066,-0.00039698993297144635,-0.011725024334012927,-0.011735454474898155,3.859987101339609,1.9986196875855569,0.261077193343382,-0.003701696220152488,-0.041276734778923144,-0.4767295847154349
1750761850.1228595,-1.9171926053243995,-2.4361398242399104,-0.39243874741013673,1.5817619802881926,-0.4707697226111476,-2.040541828216928,0.0018200427343453708,0.013020138954768294,-0.014970915599772152,-0.00044659850453254127,-0.013190110689493788,-0.013201844549489992,3.859979727519406,1.9987354616030493,0.26108108505939837,-0.0037016068340753453,-0.041271947922083184,-0.4766801779956951
1750761850.1249132,-1.9171887637981708,-2.436112336977822,-0.3924703521719515,1.5817610374870241,-0.47079756776135717,-2.0405696981385626,0.002021442125192648,0.014467139029546442,-0.016633819673403993,-0.0004962017220819866,-0.014655005892677384,-0.014668043454606228,3.8599708879089305,1.9988649719641722,0.261085456883098,-0.003701503218952794,-0.04126656310005357,-0.4766244868489099
1750761850.1266575,-1.9171845197300703,-2.436081955616865,-0.39250528257708694,1.5817599954852701,-0.4708283424931361,-2.040600500249151,0.002222580259018477,0.01591423949534606,-0.018296556131579104,-0.0005457989908132216,-0.016119688721656537,-0.016134029966431724,3.8599605875914387,1.9990082166915626,0.26109030859376137,-0.0037013853745346756,-0.04126058045003218,-0.47656251304243363
1750761850.1285965,-1.9171798736686956,-2.4360486799462273,-0.392543538273582,1.5817588542954233,-0.47086204636051665,-2.0406342341026873,0.002423431052079522,0.017361450381208936,-0.019959108246061494,-0.0005953897159301464,-0.01758413796003144,-0.017599782866598458,3.859948832214893,1.9991651936006432,0.2610956399435641,-0.003701253299634104,-0.041254000127164264,-0.4764942585428236
1750761850.1344054,-1.9171748262148043,-2.4360125097350425,-0.39258511887602854,1.5817576139311653,-0.47089867887510817,-2.0406708992107347,0.002623968432591135,0.018808781713296134,-0.021621459298062196,-0.0006449733026650993,-0.019048332397313163,-0.019065280942722022,3.8599356279697394,1.9993359002921067,0.261101450663154,-0.003701106993455138,-0.041246822297959874,-0.4764197255096258
1750761850.135043,-1.9171693780212795,-2.4359734447323946,-0.39263002396559266,1.5817562744073679,-0.47093823950610236,-2.040710495042438,0.0028241663418509394,0.02025624351463666,-0.023283592579175758,-0.0006945491562816262,-0.020512250829648325,-0.020530502988951375,3.859920981616358,1.999520334158356,0.2611077404569001,-0.0037009464551864654,-0.04123904714934598,-0.4763389163009096
1750761850.1370664,-1.9171635297931138,-2.4359314846673246,-0.39267825309003346,1.581754835740092,-0.470980727680292,-2.040753021024538,0.0030239987352849843,0.021703845804870534,-0.024945491392211125,-0.0007441166820780668,-0.021975872060260835,-0.021995427806512778,3.8599049004548247,1.9997184923805695,0.2611145090054241,-0.003700771684013644,-0.04123067488069199,-0.4762518334696373
1750761850.1389756,-1.917157282287369,-2.4358866292488384,-0.39272980576372607,1.5817532979465878,-0.4710261427820832,-2.0407984765413847,0.0032234395835812656,0.02315159859998298,-0.026607139052076265,-0.0007936752853927079,-0.02343917489991253,-0.02346003420424402,3.859887392358649,1.9999303719297201,0.2611217559646283,-0.0037005826791410104,-0.04122170570434245,-0.4761584797623993
1750761850.1409733,-1.9171506363131519,-2.4358388781659133,-0.39278468146769097,1.581751661045295,-0.47107448415351083,-2.040846860934953,0.003422462873725479,0.024599511912064907,-0.0282685188866667,-0.00084322437156926,-0.02490213816763595,-0.024924300999162305,3.8598684657373834,2.000155969568108,0.2611294809649565,-0.0037003794387346954,-0.04121213985328699,-0.4760588581281861
1750761850.142968,-1.917143592731577,-2.4357882310875065,-0.39284287964961706,1.5817499250558427,-0.4711257510942568,-2.0408981735048624,0.003621042610114381,0.026047595749029637,-0.029929614237672802,-0.0008927633460345061,-0.026364740691143043,-0.02638820701698129,3.8598481295656195,2.000395281844442,0.26113768361419554,-0.003700161963012667,-0.041201977572026774,-0.47595297170367706
1750761850.1447926,-1.9171361524557327,-2.4357346876625647,-0.39290439972389013,1.5817480899990486,-0.47117994286166986,-2.0409524135083927,0.003819152815607313,0.027495860114361628,-0.03159040846136598,-0.000942291614193496,-0.027826961307418997,-0.027851731092670615,3.859826393360366,2.0006483050979242,0.2611463634978254,-0.0036999302491292447,-0.04119121912179221,-0.475840823825385
1750761850.1467507,-1.9171283164506407,-2.435678247520031,-0.3929692410716248,1.5817461558969197,-0.4712370586707797,-2.0410095801605017,0.004016767532641421,0.02894431500687168,-0.033250884929627765,-0.0009918085815800088,-0.029288778863261162,-0.02931485207098346,3.8598032672040357,2.000915035460927,0.261155520172262,-0.0036996842983937775,-0.04117986477899516,-0.47572241802050835
1750761850.1487143,-1.9171200857332193,-2.435618910268856,-0.39303740304069645,1.5817441227726523,-0.47129709769432093,-2.0410696726338475,0.004213860824290976,0.03039297042044641,-0.03491102703078848,-0.0010413136536819854,-0.030750172215828733,-0.030777548807034788,3.85977876172448,2.001195468855979,0.26116515317008643,-0.003699424107101466,-0.04116791483553194,-0.4755977580224615
1750761850.1508546,-1.9171114613722384,-2.435556675498009,-0.39310888494577334,1.5817419906506314,-0.4713600590627527,-2.041132690058811,0.004410406775343077,0.03184183634375453,-0.036570818170270906,-0.0010908062361289466,-0.032211120233163734,-0.03223980016680129,3.8597528880999215,2.0014896009905265,0.2611752620058188,-0.0036991496766974044,-0.041155369597975514,-0.475466847745816
1750761850.1527667,-1.9171024444882736,-2.435491542776486,-0.39318368606835197,1.5817397595564304,-0.47142594186428255,-2.0411986315235158,0.004606379493382582,0.033290922760046,-0.038230241771727555,-0.001140285734523375,-0.03367160179471754,-0.03370158502769396,3.8597256580632178,2.0017974273721593,0.2611858461617066,-0.0036988610037709123,-0.04114222938773014,-0.47532969130895075
1750761850.1549346,-1.9170930362536662,-2.435423511653322,-0.39326180565679625,1.581737429516812,-0.47149474514488876,-2.041267496073849,0.004801753109850758,0.03474023964684879,-0.03988928127769921,-0.0011897515545600786,-0.035131595792017634,-0.03516288227908499,3.8596970838908873,2.0021189432899447,0.2611969051012586,-0.003698558088178106,-0.041128494544985614,-0.47518629302027887
1750761850.1580648,-1.9170832378924647,-2.435352581657604,-0.3933432429263739,1.5817350005597273,-0.47156646790834333,-2.0413392827134933,0.004996501781155741,0.036189796975748735,-0.041547920150579114,-0.0012392031020129664,-0.036591081129017856,-0.036623670822871476,3.85966717842459,2.0024541438315877,0.26120843826102935,-0.003698240929336204,-0.04111416541979416,-0.4750366573900238
1750761850.1589582,-1.9170730506803837,-2.4352787522984807,-0.3934279970592982,1.5817324727143154,-0.47164110911624224,-2.041413990403946,0.005190599689686267,0.03763960471212227,-0.04320614187339714,-0.0012886397826380705,-0.03805003672283091,-0.03808392957400502,3.859635955031845,2.002803023871877,0.26122044505494924,-0.0036979095237599075,-0.041099242382846714,-0.4748807891171449
1750761850.1613622,-1.9170624759447428,-2.4352020230651776,-0.3935160672047697,1.5817298460109042,-0.47171866768802584,-2.041491618064546,0.005384021044952641,0.03908967281488805,-0.044863929950760884,-0.0013380610023592673,-0.03950844150414763,-0.03954363746101648,3.859603427655797,2.003165578080475,0.26123292487076516,-0.003697563873120399,-0.04108372581664354,-0.47471869309055537
1750761850.1627643,-1.917051515064415,-2.4351223934270085,-0.3936074524790216,1.5817271204810093,-0.4717991425010135,-2.041572164572509,0.005576740084588437,0.040540011236250464,-0.04652126790957419,-0.0013874661670911599,-0.0409662744178292,-0.04100277342660731,3.859569610762612,2.003541800915233,0.2612458770755324,-0.003697203974033705,-0.04106761612036711,-0.4745503744082941
1750761850.164997,-1.9170401694697699,-2.43503986283339,-0.3937021519653623,1.581724296157335,-0.471882532390425,-2.0416556287629435,0.005768731075457325,0.041990629921472115,-0.04817813930008064,-0.0014368546828441755,-0.042423514423417345,-0.04246131642812622,3.8595345193791983,2.003931686633087,0.26125930100695594,-0.003696829825866816,-0.041050913707573806,-0.4743758383403903
1750761850.1669512,-1.9170284406426141,-2.4349544307138546,-0.3938001647142251,1.5817213730737731,-0.47196883614941765,-2.0417420094288934,0.005959968314702415,0.04344153880858044,-0.049834527696454065,-0.0014862259557013697,-0.043880140495763,-0.04391924543818944,3.8594981690747217,2.0043352292730776,0.26127319598601656,-0.003696441427389282,-0.041033619009528836,-0.4741950903778845
1750761850.1689296,-1.9170163301161276,-2.4348660964780673,-0.39390148974321804,1.5817183512654034,-0.47205805252911315,-2.0418313053213613,0.006150426130833513,0.044892747828179855,-0.051490416697980705,-0.0015355793918066995,-0.04533613162541678,-0.04537653944515197,3.859460575971163,2.004752422680855,0.2612875613003065,-0.003696038776775547,-0.04101573246849679,-0.4740081361803445
1750761850.1707878,-1.9170038394748001,-2.4347748595158385,-0.3940061260371701,1.581715230768493,-0.47215018023862854,-2.0419235151493416,0.0063400788847506025,0.046344266903145484,-0.053145789929589696,-0.0015849143974011669,-0.04679146681932896,-0.04683317745368907,3.8594217567215288,2.005183260482235,0.2613023962222468,-0.003695621873213295,-0.040997254546461685,-0.47381498161467056
1750761850.1729245,-1.9169909703543677,-2.434680719197141,-0.39411407254818975,1.5817120116204966,-0.4722452179451153,-2.042018637579858,0.006528900970819662,0.04779610594840535,-0.05480063104285691,-0.0016342303788021402,-0.04824612510133001,-0.0482891384853355,3.859381728528789,2.0056277361023653,0.2613176999959019,-0.0036951907151890635,-0.040978185718944314,-0.4736156327398303
1750761850.1748302,-1.9169777244417432,-2.4345836748721266,-0.39422532819571465,1.5817086938600562,-0.472343164273787,-2.0421166712379906,0.006716866817943204,0.04924827487070199,-0.05645492371686706,-0.0016835267424046593,-0.04970008551266853,-0.049744401579007745,3.8593405091437463,2.0060858427627304,0.2613334718410903,-0.0036947453010785884,-0.04095852647661959,-0.47341009580119325
1750761850.1767616,-1.916964103474946,-2.434483725871141,-0.3943398918665686,1.581705277527001,-0.4724440178079581,-2.042217614706919,0.006903950890609672,0.05070078356833841,-0.05810865165905498,-0.0017328028947156233,-0.05115332711250057,-0.05119894579157531,3.859298116857277,2.0065575734758303,0.2613497109536899,-0.003694285630194519,-0.040938277323944366,-0.47319837724732233
1750761850.1786733,-1.9169501092430306,-2.434380871504743,-0.39445776241502006,1.581701762662347,-0.4725477770890807,-2.0423214665279525,0.0070901276899194765,0.05215364193092944,-0.05976179860592441,-0.0017820582422780101,-0.0526058289785563,-0.05265275019837537,3.8592545704907804,2.0070429210483494,0.26136641650925047,-0.0036938116995225844,-0.0409174387841593,-0.47298048370944024
1750761850.1807847,-1.916935743586011,-2.43427511106372,-0.39457893866284,1.581698149308297,-0.47265444061678075,-2.042428225200571,0.007275371754685021,0.05360685983917407,-0.06141434832410191,-0.0018312921918030882,-0.05405757020755381,-0.054105793893766664,3.8592098894244815,2.007541878084785,0.2613835876535865,-0.003693323509746574,-0.040896011392159155,-0.47275642201661333
1750761850.182905,-1.9169210083947839,-2.434166443819108,-0.39470341939936215,1.5816944375082407,-0.4727640068488963,-2.042537889182462,0.007459657662428805,0.05506044716459888,-0.06306628461098117,-0.0018805041500354778,-0.05550852991585794,-0.0555580559916731,3.859164093558733,2.008054436981211,0.2614012235141424,-0.003692821057599175,-0.040873995701400274,-0.47252619918978517
1750761850.184758,-1.9169059056110545,-2.4340548690222086,-0.394831203381548,1.5816906273067532,-0.472876474201521,-2.0426504568895627,0.007642960030451308,0.056514413769331695,-0.06471759129569248,-0.001929693523891699,-0.056958687239939354,-0.05700951562611278,3.859117203339857,2.0085805899324205,0.2614193231909662,-0.0036923043436389875,-0.04085139227826962,-0.4722898224382383
1750761850.186841,-1.9168904372272513,-2.4339403859046094,-0.39496228933405053,1.5816867187495967,-0.4729918410490379,-2.0427659266960942,0.007825253516892495,0.05796876950585133,-0.06636825223986248,-0.001978859720318826,-0.05840802133690395,-0.05846015195175386,3.8590692397588717,2.009120328927534,0.26143788576281257,-0.0036917733643174622,-0.040828201704067826,-0.47204729916843896
1750761850.1924005,-1.9168746052864432,-2.433822993678202,-0.39509667594927667,1.5816827118837187,-0.4731101057241691,-2.0428842969346137,0.008006512821748182,0.059423524216764716,-0.0680182513385221,-0.0020280021464486094,-0.059856511385132115,-0.059909944144452124,3.8590202243327667,2.0096736457540176,0.2614569102825197,-0.003691228120377479,-0.04080442457810539,-0.4717986369767633
1750761850.1927984,-1.9168746052864432,-2.433822993678202,-0.39509667594927667,1.5816827118837187,-0.4731101057241691,-2.0428842969346137,0.008006512821748182,0.059423524216764716,-0.0680182513385221,-0.0020280021464486094,-0.059856511385132115,-0.059909944144452124,3.8590202243327667,2.0096736457540176,0.2614569102825197,-0.003691228120377479,-0.04080442457810539,-0.4717986369767633
1750761850.1930308,-1.9168584118822576,-2.433702691535204,-0.395234361887459,1.5816786067572528,-0.4732312665180123,-2.043005565896048,0.00818671268789999,0.0608786877345623,-0.0696675725209099,-0.002077120209446292,-0.06130413658470817,-0.061358871401778925,3.8589701791097033,2.010240531994598,0.2614763957801356,-0.00369066860811475,-0.040780061511788014,-0.47154384364617075
1750761850.1949046,-1.9168418591587937,-2.4335794786481775,-0.39537534577672506,1.581674403419518,-0.4733553216800894,-2.043129731829744,0.008365827902182345,0.062334269881381445,-0.07131619975129783,-0.0021262133166729583,-0.06275087615806645,-0.06280691294356931,3.858919126684127,2.0108209790298597,0.2614963412625956,-0.0036900948283741944,-0.040755113134723575,-0.47128292715431863
1750761850.1968608,-1.9168249493105298,-2.433453354170051,-0.3955196262131624,1.5816701019210184,-0.47348226941838956,-2.043256792943507,0.008543833296395395,0.06379028046878621,-0.07296411702983534,-0.0021752808755148498,-0.06419670935040683,-0.0642540480124786,3.8588670901756497,2.011414978039828,0.261516745712856,-0.0036895067770611432,-0.04072958008822432,-0.4710158956741783
1750761850.1987903,-1.9168076845822366,-2.433324317234141,-0.3956672017609,1.581665702313443,-0.47361210789941577,-2.0433867474036553,0.00872070374832744,0.06524672929750919,-0.07461130839335572,-0.0022243222936074065,-0.06564161543036767,-0.06570025587448682,3.8588140932307566,2.0120225199977257,0.26153760809086884,-0.003688904456298518,-0.040703463032559915,-0.4707427575578275
1750761850.2010717,-1.9167900672688827,-2.4331923669541733,-0.395818070952175,1.5816612046496659,-0.4737448352482314,-2.043519593335059,0.00889641418280936,0.06670362615725087,-0.07625775791627548,-0.002273336978614484,-0.06708557369048664,-0.06714551581946104,3.8587601600376518,2.012643595681923,0.26155892733143854,-0.003688287861852106,-0.04067676264098201,-0.4704635213548114
1750761850.202972,-1.9167720997155362,-2.4330575024243055,-0.39597223228741285,1.5816566089837454,-0.47388044954850894,-2.043655328821197,0.009070939572717842,0.06816098082644195,-0.07790344971138856,-0.002322324338403817,-0.06852856344773874,-0.06858980716169873,3.858705315305007,2.0132781956673957,0.2615807023467205,-0.003687656994404983,-0.04064947960189796,-0.4701781958059662
1750761850.205131,-1.9167537843172742,-2.43291972271915,-0.39612968423530237,1.5816519153709239,-0.47401894884258056,-2.043793951904197,0.009244254939980679,0.06961880307200226,-0.07954836793061527,-0.0023712837808847727,-0.06997056404410389,-0.07003310924045442,3.8586495842625577,2.0139263103260854,0.26160293202761115,-0.003687011849879022,-0.04062161461970414,-0.4698867898370174
1750761850.2070253,-1.9167351235190777,-2.4327790268937965,-0.39629042523287783,1.581647123867628,-0.4741603311314888,-2.0439354605848923,0.009416335356641823,0.07107710264912363,-0.08119249676596219,-0.002420214714224195,-0.07141155484712096,-0.07147540142048167,3.8585929926841778,2.014587929832508,0.2616256152380278,-0.0036863524302636857,-0.04059316841440504,-0.46958931256532094
1750761850.208828,-1.9167161198157334,-2.432635413983837,-0.39645445368559784,1.5816422345314676,-0.47430459437503547,-2.0440798528228727,0.009587155945843057,0.0725358893010601,-0.08283582045029726,-0.002469116546690733,-0.07285151525035556,-0.07291666309257008,3.858535566856056,2.0152630441643296,0.26164875081989386,-0.00368567873299937,-0.040564141719181525,-0.46928577329525456
1750761850.2107835,-1.9166967757517304,-2.432488883005388,-0.396621767967428,1.5816372474212361,-0.4744517364918366,-2.0442271265365353,0.009756691882827278,0.07399517275888338,-0.08447832325809967,-0.0025179886866325447,-0.0742904246740216,-0.07435687367409977,3.8584773335846783,2.015951643095286,0.2616723375938101,-0.003684990754824519,-0.04053453528472502,-0.46897618152562
1750761850.2145448,-1.9166770939211526,-2.432339432955118,-0.3967923664209234,1.5816321625969103,-0.47460175535937665,-2.044377279603138,0.009924918395978945,0.07545496274126196,-0.0861199895063547,-0.0025668305426844625,-0.07572826256547982,-0.07579601260953821,3.858418320209844,2.0166537162024816,0.26169637435520376,-0.003684288498201306,-0.04050434987577153,-0.4686605469304935
1750761850.2149725,-1.9166570769675753,-2.432187062810269,-0.39696624735731945,1.581626980119649,-0.47475464881406015,-2.0445303098588568,0.010091810767802493,0.07691526895426727,-0.08776080355541557,-0.0026156415235451267,-0.07716500839977916,-0.07723405937103058,3.858358554582891,2.0173692528682006,0.26172085987496807,-0.003683571959243966,-0.040473586272305365,-0.4683388793884726
1750761850.2169442,-1.9166367275839518,-2.4320317715286843,-0.39714340905661416,1.5816217000517938,-0.4749104146512728,-2.0446862150988387,0.010257344335936232,0.0783761010911304,-0.08940074980969986,-0.0026644210380915765,-0.07860064168019719,-0.07867099345890118,3.858298065078505,2.0180982422741467,0.26174579290446215,-0.0036828411371589115,-0.040442245269536665,-0.46801118895439936
1750761850.2190332,-1.9166160485125063,-2.4318735580488346,-0.3973238497676599,1.5816163224568682,-0.47506905062543225,-2.0448449930772625,0.0104214944941443,0.07983746883202113,-0.09103981271855109,-0.0027131684954239373,-0.08003514193875647,-0.0801067944021928,3.8582368805860803,2.0188406734035187,0.26177117217048296,-0.003682096032334028,-0.040410327677220984,-0.46767748587128904
1750761850.2207649,-1.9165950425446159,-2.431712421289842,-0.3975075677082538,1.5816108473995776,-0.4752305544500528,-2.04500664150739,0.010584236693325682,0.0812993818438771,-0.09267797677717633,-0.0027618833047482172,-0.08146848873679972,-0.08154144175921504,3.8581750305174682,2.019596535052315,0.261796996373494,-0.003681336641736047,-0.04037783432131723,-0.46733778057225217
1750761850.22281,-1.9165737125207007,-2.4315483601515093,-0.3976945610652294,1.5816052749458083,-0.4753949237977997,-2.045171158061633,0.010745546442476597,0.08276184978013129,-0.09431522652723599,-0.0028105648755060394,-0.08290066166547445,-0.08297491511808089,3.858112544787561,2.020365815808234,0.2618232641970117,-0.0036805629659373393,-0.040344766041434416,-0.4669920836779026
1750761850.2250023,-1.9165737125207007,-2.4315483601515093,-0.3976945610652294,1.5816052749458083,-0.4753949237977997,-2.045171158061633,0.010745546442476597,0.08276184978013129,-0.09431522652723599,-0.0028105648755060394,-0.08290066166547445,-0.08297491511808089,3.858112544787561,2.020365815808234,0.2618232641970117,-0.0036805629659373393,-0.040344766041434416,-0.4669920836779026
1750761850.226968,-1.9165520613301021,-2.4313813735143452,-0.39788482799454883,1.5815996051626282,-0.47556215630054943,-2.045338540371608,0.010905399309711671,0.08422488228054133,-0.09595154655781522,-0.002859212617262883,-0.08433164034641104,-0.08440719409723772,3.8580494538375847,2.021148504073001,0.2618499742973357,-0.003679775002208396,-0.04031112369628721,-0.466640405993034
1750761850.2288425,-1.9165300919109658,-2.4312114602395933,-0.3980783666214043,1.5815938381182855,-0.4757322495494538,-2.0455087860282006,0.01106377092321823,0.08568848897096334,-0.09758692150615407,-0.0029078259398665775,-0.08576140443200697,-0.08583825834598237,3.857985788608124,2.021944588050206,0.26187712530990087,-0.003678972752201436,-0.04027690815259313,-0.46628275850119216
1750761850.2308023,-1.9165078072501203,-2.43103861916926,-0.3982751750403084,1.5815879738822083,-0.475905201095002,-2.0456818925816247,0.011220636972258611,0.08715267946316649,-0.09922133605854397,-0.002956404253268918,-0.08718993360616817,-0.0872680875450349,3.857921580559291,2.0227540557534565,0.26190471584491437,-0.003678156212460907,-0.040242120297955285,-0.46591915238435044
1750761850.2328248,-1.9164852103829535,-2.430862849126141,-0.39847525131519745,1.581582012525005,-0.476081008447081,-2.045857857541489,0.011375973208129594,0.08861746335459522,-0.10085477495099827,-0.00300494696766451,-0.08861720758478168,-0.08869666140704982,3.8578568616522557,2.023576894997005,0.26193274449350606,-0.0036773253833452422,-0.04020676103329277,-0.46554959900194304
1750761850.2348082,-1.9164623043932885,-2.4306841489138526,-0.39867859347952983,1.5815759541184633,-0.47625966907504313,-2.0460366783768578,0.011529755445147106,0.09008285022818452,-0.10248722297016835,-0.003053453493461541,-0.09004320611629534,-0.09012395967714175,3.8577916643591967,2.02441309340641,0.2619612098209098,-0.0036764802642608964,-0.040170831275853636,-0.4651741098949119
1750761850.236792,-1.9164390924132544,-2.4305025173168606,-0.39888519953638735,1.5815697987355497,-0.47644118040776906,-2.0462183525163216,0.011681959561601682,0.09154884965216217,-0.10411866495406313,-0.0031019232412639514,-0.0914679089820878,-0.09154996213345404,3.8577260216534697,2.0252626384153567,0.26199011037205444,-0.0036756208540830357,-0.040134331953308816,-0.4647926967999218
1750761850.238756,-1.9164155776231615,-2.430317953100508,-0.3990950674585809,1.5815635464504096,-0.4766255398337371,-2.046402877348056,0.011832561500725607,0.09301547117983003,-0.1057490857928516,-0.0031503556218834368,-0.09289129599727895,-0.09297464858764698,3.8576599670111134,2.0261255172631563,0.2620194446690635,-0.0036747471518322585,-0.04009726401616137,-0.4644053716223664
1750761850.2409801,-1.9163917632513652,-2.4301304550110463,-0.39930819518875627,1.5815571973383662,-0.47681274470108903,-2.0465902502199,0.011981537271680208,0.09448272434940633,-0.107378470429844,-0.0031987500463936344,-0.09431334701095995,-0.09439799888547083,3.8575935344209906,2.027001717005732,0.26204921120642444,-0.0036738591580663567,-0.04005962842139078,-0.46401214646472294
1750761850.2429743,-1.916367652574137,-2.429940021775667,-0.39952458063949603,1.5815507514759206,-0.4770027923177018,-2.0467804684394135,0.012128862950442833,0.09595061868375976,-0.10900680386184829,-0.0032471059260471215,-0.09573404190697445,-0.09581999290726242,3.8575267583444233,2.0278912244952627,0.2620794084683277,-0.003672956870796874,-0.04002142614798833,-0.46361303359967515
1750761850.24802,-1.9163432489155303,-2.4297466521025295,-0.3997442216934335,1.581544208940751,-0.4771956799512509,-2.046973529273955,0.012274514680843463,0.09741916369030587,-0.1106340711405102,-0.0032954226723853645,-0.09715336060424389,-0.09724061056850761,3.8574596737735627,2.028794026412422,0.26211003490131873,-0.00367204029114392,-0.03998265818410438,-0.4632080454932751
1750761850.248349,-1.9163185556472389,-2.429550344680796,-0.3999671162033591,1.5815375698117122,-0.4773914048292882,-2.0471694299507472,0.012418468675449766,0.09888836886073403,-0.11226025737265834,-0.0033436996971685146,-0.09857128305751348,-0.09865983182035087,3.8573923161719934,2.029710109232877,0.26214108894193633,-0.0036711094180780506,-0.03994332553890811,-0.46279719478613596
1750761850.248661,-1.9162935761884654,-2.4293510981806596,-0.4001932619923343,1.5815308341688354,-0.47758996413931154,-2.0473681676569537,0.012560701216520706,0.10035824367085708,-0.11388534772125909,-0.0033919364123931313,-0.09998778925770403,-0.10007763665014614,3.857324721501906,2.0306394592514723,0.2621725689997352,-0.0036701642510225687,-0.03990342923147674,-0.4623804943067762
1750761850.2507396,-1.9162683140057748,-2.429148911253379,-0.4004226568538014,1.5815240020933277,-0.47779135502883463,-2.047569739539748,0.012701188656977008,0.10182879758043734,-0.11550932740627301,-0.0034401322303093044,-0.10140285923258963,-0.1014940050819701,3.8572569262297915,2.0315820625797483,0.2622044734602726,-0.003669204789754708,-0.03986297029997971,-0.4619579570594018
1750761850.2526805,-1.9162427726129563,-2.428943782531309,-0.4006552985517011,1.5815170736675708,-0.47799557460546716,-2.0477741427063894,0.01283990742128525,0.10330004003296189,-0.11713218170527159,-0.0034882865634690047,-0.1028164730471358,-0.10290891717715288,3.857188967292497,2.03253790513323,0.2622368006912624,-0.003668231035338424,-0.03982194979211111,-0.4615295962289514
1750761850.2547455,-1.916216955570878,-2.4287357106279335,-0.40089118482058783,1.5815100489751217,-0.4782026199369849,-2.047981374224298,0.012976834006431178,0.10477198045549728,-0.1187538959543737,-0.0035363988246165843,-0.10422861080422226,-0.1043223530348252,3.857120882132908,2.0335069726497834,0.26226954903424554,-0.0036672429856532394,-0.039780368775926035,-0.46109542518663443
1750761850.2566867,-1.9161908664873382,-2.4285246941378995,-0.4011303133657478,1.5815029281007116,-0.478412488051406,-2.0481914311211282,0.013111944982814266,0.10624462825847829,-0.12037445554886708,-0.0035844684268553353,-0.10563925264508732,-0.10573429279241739,3.857052708667694,2.034489250676264,0.26230271681302386,-0.0036662406431732216,-0.03973822833199943,-0.4606554574733506
1750761850.2587662,-1.916164509016924,-2.42831073163705,-0.40137268186331543,1.5814957111302448,-0.4786251759370739,-2.048404310384851,0.013245216995169578,0.10771799283555043,-0.12199384594408695,-0.003632494783533017,-0.10704837874989116,-0.10714471662621902,3.856984485298986,2.035484724578079,0.26233630232648036,-0.003665224007077784,-0.03969552955677266,-0.4602097068194561
1750761850.260626,-1.916137886860855,-2.4280938216824564,-0.40161828796040044,1.5814883981507988,-0.478840680542727,-2.0486200089638267,0.01337662676350273,0.10919208356338903,-0.12361205265617274,-0.003680477308248202,-0.10845596933808786,-0.10855360475189461,3.8569162509186414,2.0364933795370517,0.2623703038522501,-0.0036641930766052578,-0.039652273557165586,-0.4597581871304103
1750761850.2629895,-1.9161110037668365,-2.4278739628124555,-0.4018671292752023,1.5814809892506239,-0.47905899877758706,-2.0488385237668894,0.013506151083980436,0.11066690980150871,-0.12522906126275143,-0.0037284154149502817,-0.10986200466927326,-0.10996093742499666,3.8568480448905302,2.0375152005486905,0.2624047196485206,-0.0036631478537237847,-0.03960846146398788,-0.4593009124851338
1750761850.264791,-1.916083863528904,-2.4276511535466816,-0.4021192033971399,1.5814734845191416,-0.4792801275114318,-2.049059851663422,0.013633766829837942,0.11214248089212125,-0.12684485740382587,-0.003776308517877778,-0.11126646504336175,-0.11136669494150425,3.8567799070575237,2.03855017243163,0.26243954794833346,-0.0036620883385723698,-0.039564094413023776,-0.4588378971437855
1750761850.267261,-1.916083863528904,-2.4276511535466816,-0.4021192033971399,1.5814734845191416,-0.4792801275114318,-2.049059851663422,0.013633766829837942,0.11214248089212125,-0.12684485740382587,-0.003776308517877778,-0.11126646504336175,-0.11136669494150425,3.8567799070575237,2.03855017243163,0.26243954794833346,-0.0036620883385723698,-0.039564094413023776,-0.4588378971437855
1750761850.2691526,-1.916056469987268,-2.4274253923861018,-0.40237450788697426,1.581465884046945,-0.4795040635746819,-2.049283989483442,0.013759450952282596,0.11361880615994446,-0.12845942678243774,-0.0038241560315420567,-0.11266933080134028,-0.11277085763836187,3.8567118777399445,2.039598279818761,0.2624747869660154,-0.0036610145307588967,-0.0395191735613011,-0.4583691555486261
1750761850.2708204,-1.9160288270281587,-2.427196677813052,-0.402633040276938,1.5814581879257983,-0.4797308037584811,-2.0495109340176807,0.013883180481389817,0.11509589491203355,-0.13007275516547573,-0.0038719573708168764,-0.11407058232574488,-0.11417340589398098,3.8566439977311098,2.0406595071621862,0.26251043489293957,-0.0036599264323022716,-0.039473700079271465,-0.45789470231071316
1750761850.2728112,-1.9160009385836663,-2.426965008291271,-0.40289479807085904,1.5814503962486346,-0.47996034481477867,-2.049740682017669,0.01400493252697315,0.11657375643762469,-0.1316848283843306,-0.003919711950886799,-0.11547020004110128,-0.11557432012877529,3.85657630828901,2.0417338387358037,0.26254648990203316,-0.0036588240436780345,-0.03942767514979776,-0.4574145522201166
1750761850.274802,-1.9159728086315813,-2.4267303822659376,-0.4031597787442962,1.5814425091095572,-0.4801926834564165,-2.049973230195823,0.014124684279505095,0.11805240000798256,-0.13329563233586775,-0.003967419187258342,-0.11686816441458368,-0.1169735808056919,3.85650885115399,2.042821258635862,0.26258295013863264,-0.0036577073656029434,-0.03938109997430132,-0.4569287202457421
1750761850.2768178,-1.915944441195231,-2.4264927981637063,-0.4034279797446647,1.5814345266038374,-0.48042781635721443,-2.0502085752255237,0.014242413010968631,0.11953183487621712,-0.1349051529829346,-0.004015078495805631,-0.11826445595638471,-0.11837116843069986,3.8564416685225136,2.043921750777032,0.26261981373381466,-0.003656576399927508,-0.039333975764624905,-0.4564372215194359
1750761850.2788138,-1.9159158403433167,-2.4262522543927436,-0.40369939849137637,1.581426448827915,-0.4806657401520562,-2.05044671374121,0.014358096075723189,0.12101207027714114,-0.13651337635521835,-0.004062689292685206,-0.11965905522043349,-0.1197670635533857,3.8563748030535963,2.045035298896587,0.2626570787941513,-0.0036554311461386964,-0.03928630375284053,-0.4559400713721087
1750761850.2808764,-1.9158870101897492,-2.4260087493427647,-0.40397403237596663,1.5814182758793969,-0.48090645143697586,-2.050687642338464,0.014471710911394847,0.12249311542711742,-0.13812028854999558,-0.004110250994484607,-0.12105194280469535,-0.12116124676739015,3.85630829787533,2.0461618865586884,0.26269474340525245,-0.0036542716076852617,-0.03923808517946119,-0.45543728527997257
1750761850.2827606,-1.915857954893478,-2.42576228138507,-0.404251878762234,1.5814100078570559,-0.48114994676924905,-2.0509313575740986,0.014583235039743184,0.1239749795238942,-0.13972587573284972,-0.004157763018131271,-0.12244309935187737,-0.12255369871098074,3.8562421965781333,2.0473014971478203,0.2627328056323643,-0.0036530977854366273,-0.03918932130487786,-0.4549288789105345
1750761850.2849574,-1.9158286786583254,-2.4255128488725846,-0.40453293498637777,1.5814016448608315,-0.48139622266748283,-2.051177855966249,0.014692646067475326,0.12545767174645836,-0.1413301241383583,-0.004205224780867078,-0.12383250554987583,-0.1239444000675737,3.8561765431931216,2.0484541138729178,0.2627712635210459,-0.0036519096794478513,-0.0391400134020839,-0.45441486810354614
1750761850.286775,-1.9157991857328147,-2.425260450139893,-0.40481719835713736,1.5813931869918278,-0.48164527561170445,-2.051427133994462,0.014799921687157535,0.1269412012549108,-0.1429330200709917,-0.004252635700412382,-0.12522014213220148,-0.1253333315662144,3.856111382228986,2.0496197197757566,0.2628101150917937,-0.0036507072942788097,-0.039090162756052996,-0.4538952688586353
1750761850.288726,-1.915769480409998,-2.42500508350328,-0.40510466615592833,1.5813846343523132,-0.4818971020434537,-2.051679188099791,0.014905039678005376,0.12842557719027567,-0.14453454990556597,-0.004299995194795999,-0.1266059898787403,-0.12672047398214176,3.8560467586264324,2.050798297713444,0.2628493583519854,-0.003649490629645807,-0.03903977067319296,-0.45337009736213163
1750761850.2909896,-1.9157395670272797,-2.424746747260766,-0.4053953356369897,1.5813759870457198,-0.4821516983658789,-2.051934014684883,0.015007977906766518,0.1299108086744022,-0.14613470008824775,-0.00434730268250353,-0.12799002961602687,-0.1281058081372646,3.8559827177916826,2.05198983038091,0.26288899128072807,-0.0036482596893172028,-0.038988838467607576,-0.4528393699573817
1750761850.2964003,-1.9156791336524757,-2.424221159059037,-0.40598626852784214,1.581358408850836,-0.48266918610393983,-2.052451970713502,0.015207226987525585,0.1328838746795232,-0.14933080764289494,-0.004441759313691327,-0.13075260860587118,-0.1308709751893706,3.8558565682456223,2.0544116898063107,0.26296941797501844,-0.003645754987367499,-0.03888535903035627,-0.4517613136946451
1750761850.2967706,-1.9156486225553815,-2.4239539036048976,-0.40628652631150874,1.5813494781752195,-0.48293207013475303,-2.0527150927711615,0.015303494018057053,0.1343717273470078,-0.15092673826977424,-0.004488907296154629,-0.1321311097499404,-0.1322507699682973,3.855794552565816,2.0556419810929296,0.2630102076031738,-0.003644481231270836,-0.038832814504757895,-0.45121401838392133
1750761850.2987225,-1.9156179211880078,-2.4236836715550876,-0.4065899745254917,1.5813404532578703,-0.48319770928678807,-2.0529809725370436,0.015397493645174922,0.13586047185595068,-0.1525212357559269,-0.004536000949887057,-0.13350772666881985,-0.13362868025136035,3.855733305696032,2.0568851561609223,0.2630513786285303,-0.003643193208523174,-0.03877973527155209,-0.45066123427085825
1750761850.3007853,-1.91558703410686,-2.4234104611168967,-0.4068966102903122,1.5813313342080253,-0.48346609977265587,-2.0532496062232113,0.015489204185583368,0.1373501172301996,-0.15411428691444282,-0.004583039695508162,-0.1348824404304992,-0.13500468710166247,3.855672875253604,2.058141196856257,0.2630929289297399,-0.0036418909235243382,-0.03872612271749019,-0.4501029785447226
1750761850.3027701,-1.915555965911719,-2.423134270479587,-0.4072064307001888,1.5813221211360797,-0.4837372377671496,-2.0535209900039026,0.015578604048409266,0.1388406724736145,-0.155705878633896,-0.0046300229540002435,-0.13625523215285934,-0.13637877163211223,3.855613309283877,2.059410084853216,0.26313485636884143,-0.0036405743769238534,-0.038671978248022355,-0.44953926857719734
1750761850.3046632,-1.9155247212454523,-2.422855097814433,-0.4075194328231966,1.5813128141535864,-0.4840111194073522,-2.053795120015634,0.01566567173600329,0.14033214656991524,-0.15729599787898857,-0.0046769501468744085,-0.1376260830041926,-0.13775091500590042,3.855554656264372,2.0606918016549702,0.2631771587895924,-0.00363924357394602,-0.038617303283258214,-0.4489701218952755
1750761850.3068159,-1.915493304793829,-2.4225729412747627,-0.4078356137014154,1.5813034133732546,-0.4842877407927313,-2.054071992357297,0.015750385844738878,0.1418245484826259,-0.1588846316914773,-0.004723820696060931,-0.13899497420353968,-0.13912109843702303,3.8554969651055364,2.061986328612075,0.2632198340096234,-0.003637898516623967,-0.0385620992527926,-0.44839555619467864
1750761850.308861,-1.9154617212853333,-2.422287798995996,-0.4081549703510854,1.5812939189089497,-0.4845670979852441,-2.0543516030902627,0.015832725065772987,0.1433178871548823,-0.16047176719056852,-0.004770634024027421,-0.1403618870213533,-0.14048930319078515,3.8554402851345797,2.0632936468956795,0.26326287983519686,-0.003636539210264336,-0.038506367604920044,-0.4478155893354689
1750761850.3107743,-1.9154299754909694,-2.4219996690956878,-0.4084774997627658,1.5812843308756908,-0.4848491870094431,-2.054633948238486,0.01591266818587823,0.144812171509377,-0.16205739157390803,-0.004817389553692113,-0.1417268027800207,-0.1418555105843259,3.855384666123951,2.0646137375260833,0.26330629404485767,-0.003635165657646159,-0.03845010980265319,-0.4472302393476262
1750761850.3144467,-1.9153980722240709,-2.421708549673568,-0.4088031989014871,1.5812746493896515,-0.48513400385257377,-2.054919023788605,0.015990194088153997,0.1463074104482123,-0.16364149211801746,-0.004864086708492804,-0.14308970285422717,-0.14321970198709924,3.855330158243074,2.0659465813539053,0.26335007440453256,-0.0036337778633706657,-0.03839332731924398,-0.4466395244150437
1750761850.3148608,-1.9153660163401103,-2.421414438811584,-0.4091320647069141,1.5812648745681575,-0.4854215444646872,-2.0552068256900533,0.016065281752820768,0.14780361285280535,-0.16522405617912703,-0.004910724912334007,-0.1444505686716947,-0.14458185882142566,3.8552768120914975,2.0672921590700555,0.2633942186565875,-0.00363237583054392,-0.03833602164875474,-0.446043462900612
1750761850.316872,-1.9153338127365007,-2.421117334573939,-0.40946409409350437,1.5812550065296864,-0.48571180475874254,-2.0554973498551607,0.016137910257985156,0.14930078758377835,-0.1668050711938007,-0.004957303589694318,-0.1458093817133846,-0.14594196256293787,3.8552246786857185,2.0686504512065156,0.2634387245258656,-0.00363095956511777,-0.03827819429095254,-0.4454420733092453
1750761850.3187366,-1.9153014663524024,-2.4208172350071377,-0.4097992839506679,1.5812450453938665,-0.4860047806107124,-2.055790592159262,0.016208058780387467,0.15079894348085487,-0.1683845246796306,-0.005003822165567805,-0.14716612351427352,-0.1472999947411317,3.85517380945387,2.07002143813407,0.2634835897174294,-0.0036295290713880975,-0.038219846767469416,-0.4448353743233728
1750761850.3208787,-1.9152689821685192,-2.4205141381400255,-0.4101376311429341,1.581234991281475,-0.4863004678596976,-2.0560865484408044,0.016275706596141644,0.152298089362756,-0.16996240423586875,-0.0050502800654926554,-0.14852077566375937,-0.14865593693985396,3.8551242562315013,2.07140510006477,0.2635288119184731,-0.003628084354348984,-0.03816098061136805,-0.4442233847809935
1750761850.3229005,-1.9152363652069067,-2.420208041983831,-0.4104791325101118,1.5812248443144379,-0.4865988623080284,-2.05638521450146,0.016340833081473275,0.15379823402710974,-0.1715386975441461,-0.005096676715538919,-0.14987331980607915,-0.1500097707978165,3.8550760712608474,2.072801417053898,0.263574388795762,-0.003626625418585771,-0.0381015973674832,-0.44360612368422897
1750761850.3250344,-1.9152363652069067,-2.420208041983831,-0.4104791325101118,1.5812248443144379,-0.4865988623080284,-2.05638521450146,0.016340833081473275,0.15379823402710974,-0.1715386975441461,-0.005096676715538919,-0.14987331980607915,-0.1500097707978165,3.8550760712608474,2.072801417053898,0.263574388795762,-0.003626625418585771,-0.0381015973674832,-0.44360612368422897
1750761850.3268087,-1.9152036205307645,-2.4198989445322105,-0.4108237848674543,1.5812146046158284,-0.48689995972138256,-2.056686586106231,0.01640341771346246,0.1552993862503487,-0.17311339236908033,-0.005143011542341875,-0.1512237376409216,-0.15136147800907296,3.855029307192145,2.074210368999989,0.26362031799901187,-0.0036251522694974235,-0.03804169859790871,-0.44298361018669613
1750761850.3287945,-1.9151707532442384,-2.419586843761287,-0.41117158500582907,1.5812042723098658,-0.4872037558288902,-2.0569906589835636,0.016463440070756445,0.15680155478762028,-0.17468647655896552,-0.005189283973134138,-0.15257201092391204,-0.15271104032354416,3.8549840170721024,2.075631935645036,0.2636665971582347,-0.003623664913372352,-0.03798128587839732,-0.44235586360930235
1750761850.3310273,-1.9151377684922126,-2.4192717376296944,-0.4115225296918865,1.5811938475219147,-0.48751024632325013,-2.0572974288254633,0.016520879834310977,0.15830474837271183,-0.17625793804649542,-0.005235493435695901,-0.15391812146712203,-0.15405843954751772,3.85494025435474,2.0770660965798706,0.2637132238831282,-0.0036221633549959947,-0.03792036079905645,-0.44172290343139525
1750761850.3328106,-1.9151046714601092,-2.418953624078622,-0.4118766156682234,1.581183330378483,-0.48781942686084356,-2.0576068912876018,0.016575716788060666,0.15980897571793606,-0.17782776484921345,-0.005281639358423516,-0.15526205113948038,-0.15540365754411287,3.8548980728727935,2.0785128312363885,0.2637601957705008,-0.0036206476009560326,-0.037858924961574024,-0.4410847492779669
1750761850.3349354,-1.9150714673736768,-2.418632501031855,-0.41223383965356053,1.5811727210072215,-0.4881312930618442,-2.057919041989434,0.01662793081966997,0.16131424551406928,-0.17939594507037734,-0.00532772117036133,-0.15660378186732554,-0.1567466762338063,3.8548575268694916,2.07997211889776,0.26380751039277167,-0.003619117658731686,-0.03779697998319702,-0.44044142094145783
1750761850.3368173,-1.915038161498786,-2.4183083663958183,-0.41259419834290867,1.5811620195369223,-0.48844584051033824,-2.0582338765143167,0.016677501921203992,0.16282056643027892,-0.18096246689950182,-0.005373738301091475,-0.15794329563495005,-0.1580874775949435,3.85481867096799,2.0814439386967565,0.26385516530701403,-0.00361757353260886,-0.03773452749651193,-0.43979293837457706
1750761850.338876,-1.9150047591412163,-2.417981218059621,-0.4129576884077464,1.5811512260975176,-0.48876306475443787,-2.058551390409619,0.016724410189821244,0.16432794711401835,-0.182527318612976,-0.0054196901808824674,-0.15928057448504676,-0.15942604366418645,3.854781560176895,2.0829282696108113,0.26390315805269,-0.003616015230932208,-0.03767156914667481,-0.4391393216700319
1750761850.3422353,-1.9149712656464493,-2.4176510538950993,-0.41332430649619134,1.5811403408200786,-0.4890829613063996,-2.0588715791868415,0.016768635828454174,0.1658363961909809,-0.18409048857471444,-0.005465576240600609,-0.16061560051917678,-0.16076235653704987,3.854746249888577,2.0844250904727732,0.26395148615095154,-0.003614442759531675,-0.0376081065920224,-0.43848059108888626
1750761850.3438177,-1.914937686399452,-2.4173178717568584,-0.4136940492331771,1.581129363836814,-0.4894055256427432,-2.0591944383217378,0.01681015914650322,0.16734592226502507,-0.18565196523685953,-0.0055113959117997465,-0.16194835589829976,-0.16209639836837136,3.8547127958815763,2.085934379966847,0.26400014710305036,-0.0036128561266723282,-0.037544141505831026,-0.4378167670390163
1750761850.3447716,-1.914904026824468,-2.416981669482319,-0.4140669132206316,1.5811182952810687,-0.4897307532043689,-2.059519963254429,0.016848960560471693,0.16885653391807476,-0.1872117371402373,-0.005557148626712063,-0.16327882284326745,-0.16342815137279354,3.8546812542979763,2.0874561166230468,0.2640491383971348,-0.003611255340258502,-0.03747967557528146,-0.437147870078018
1750761850.34679,-1.9148702923847987,-2.41664244489176,-0.4144428950376513,1.5811071352873227,-0.49005863939667993,-2.059848149389526,0.016885020594664856,0.1703682397101166,-0.18876979291517704,-0.005602833818185493,-0.16460698363527,-0.16475759782528376,3.8546516816698637,2.088990278837979,0.26409845749852484,-0.0036096404063962043,-0.03741471050012443,-0.4364739209254675
1750761850.348741,-1.9148364885825897,-2.4163001957883603,-0.414821991240685,1.5810958839911893,-0.49038917958970174,-2.060178992096251,0.01691831988181382,0.17188104817907257,-0.19032612128195717,-0.0056484509198440605,-0.16593282061640863,-0.16608472006158534,3.8546241348864236,2.090536844849487,0.26414810185950516,-0.003608011335610321,-0.03734924799624674,-0.435794940440465
1750761850.3507402,-1.9148026209586106,-2.4159549199582475,-0.41520419836371225,1.5810845415294137,-0.4907223691182061,-2.060512486708559,0.016948839163739536,0.17339496784078925,-0.19188071105152565,-0.0056939993659249205,-0.16725631619007197,-0.16740950047874026,3.8545986712127482,2.0920957927607797,0.264198068912236,-0.0036063681337755627,-0.03728328979013211,-0.43511094964409053
1750761850.3526628,-1.9147686950920395,-2.415606615170539,-0.4155895129184257,1.5810731080398726,-0.4910582032818329,-2.0608486285252585,0.016976559291971473,0.1749100071889665,-0.1934335511260387,-0.005739478591423396,-0.16857745282152536,-0.168731921535544,3.854575348269448,2.0936671005290073,0.2642483560734804,-0.003604710810763443,-0.037216837624868875,-0.43442196969664665
1750761850.3548453,-1.9147347166002398,-2.415255279177386,-0.41597793139441386,1.5810615836615713,-0.4913966773452145,-2.06118741281014,0.01700146122840633,0.17642617469510544,-0.19498463049952006,-0.005784888032033342,-0.16989621303831057,-0.1700519657530534,3.8545542240491946,2.095250745969269,0.26429896074142234,-0.0036030393747198803,-0.03714989325480357,-0.4337280219160458
1750761850.3569198,-1.914700691138541,-2.4149009097140195,-0.4163694502593458,1.5810499685346433,-0.49173778653810185,-2.0615288347920995,0.01702352604590457,0.1779434788084606,-0.19653393825840917,-0.005830227124242065,-0.17121257943074591,-0.17136961571504353,3.8545353568913736,2.0968467067560916,0.2643498802986196,-0.003601353836368755,-0.037082458448372206,-0.433029127758867
1750761850.358633,-1.9146666244000148,-2.4145435044987953,-0.41676406595915516,1.5810382628003483,-0.4920815260554887,-2.06187288966526,0.01704273492891685,0.17946192795599336,-0.19808146358214965,-0.005875495305250814,-0.17252653465248569,-0.17268485406850123,3.8545188054942803,2.098454960424152,0.26440111211103834,-0.0035996542041165894,-0.037014534989769865,-0.43232530883321224
1750761850.3605945,-1.9146325221152525,-2.414183061233236,-0.41716177491823103,1.5810264666010712,-0.49242789105774154,-2.0622195725891066,0.01705906917409101,0.18098153054233965,-0.19962719574382476,-0.005920692013005659,-0.17383806142091718,-0.17399766352412455,3.854504628907249,2.1000754843707283,0.2644526535266008,-0.0035979404872218427,-0.03694612467437567,-0.4316165869002258
1750761850.3625968,-1.9145983900521397,-2.413819577602078,-0.41756257353959914,1.5810145800803193,-0.4927768766707237,-2.062568878688607,0.01707251019087283,0.18250229494975692,-0.20117112411069926,-0.005965816686300242,-0.17514714251758795,-0.17530802685674307,3.854492886526181,2.1017082558544185,0.26450450187790475,-0.0035962126976742635,-0.036877229309604374,-0.4309029838469735
1750761850.3659945,-1.9145642340156286,-2.4134530512733154,-0.41796645820511635,1.5810026033827225,-0.49312847798592685,-2.062920803054343,0.017083039502095568,0.18402422953810565,-0.20271323814480402,-0.006010868764597621,-0.17645376078888028,-0.17661592690587494,3.854483638092437,2.103353251998944,0.2645566544810197,-0.003594470842483442,-0.03680785072187236,-0.4301845217321849
1750761850.366838,-1.9145300598475128,-2.413083479898246,-0.4183734252756599,1.5809905366540304,-0.49348269006060175,-2.063275340742644,0.01709063874455437,0.18554734264479628,-0.20425352740348013,-0.006055847688291822,-0.17775789914624573,-0.17792134657612657,3.8544769436823056,2.105010449790081,0.2646091086364726,-0.003592714935886746,-0.0367379907442011,-0.42946122273296
1750761850.368911,-1.9144958734261976,-2.412710861111514,-0.41878347109131386,1.5809783800411115,-0.4938395079178859,-2.063632486775708,0.017095289669609274,0.1870716425847897,-0.20579198154005343,-0.006100752898508334,-0.17905954056682888,-0.17922426883770087,3.854472863721157,2.1066798260853394,0.26466186162590166,-0.0035909449864307144,-0.03666765122718438,-0.4287331091808603
1750761850.3707485,-1.91446168066647,-2.412335192531156,-0.4191965919715699,1.5809661336919507,-0.49419892654693864,-2.063992236141745,0.017096974143721088,0.18859713765054112,-0.2073285903042604,-0.006145583837277983,-0.18035866809393128,-0.18052467672686986,3.854471458955572,2.1083613576023508,0.264714910718637,-0.0035891610075575787,-0.036596834034486575,-0.42800020354991675
1750761850.3728123,-1.914427487519271,-2.4119564717586472,-0.41961278421551196,1.5809537977556483,-0.4945609409030718,-2.064354583795101,0.017095674149016853,0.19012383611199019,-0.20886334354282157,-0.006190339947384089,-0.18165526483741526,-0.18182255334643563,3.854472790464951,2.1100550209301128,0.2647682531678844,-0.0035873630082542025,-0.03652554104114526,-0.4272625284515328
1750761850.3747241,-1.914393299971457,-2.4115746963789455,-0.420032044102018,1.580941372382418,-0.49492554590788274,-2.064719524656396,0.017091371783872406,0.1916517462165618,-0.21039623120015033,-0.0062350206725282475,-0.18294931397421274,-0.18311788186620462,3.8544769196676425,2.1117607925311623,0.2648218862068704,-0.0035855510021837326,-0.036453774136532786,-0.42652010663992307
1750761850.376693,-1.9143591240455748,-2.4111898639605354,-0.4204543678899517,1.5809288577235852,-0.4952927364493922,-2.0650870536126558,0.017084049263403456,0.19318087618911414,-0.21192724331867335,-0.006279625457304458,-0.1842407987487945,-0.18441064552342945,3.8544839082845277,2.113478648731011,0.26487580705948166,-0.0035837250021458844,-0.036381535223241265,-0.42577296099930334
1750761850.3788047,-1.9143249657996213,-2.410801972055475,-0.4208797518183589,1.5809162539315853,-0.49566250738217654,-2.0654571655174507,0.017073688920048485,0.19471123423196254,-0.213456370039565,-0.00632415374712847,-0.1855297024735625,-0.18570082762331647,3.8544938183761723,2.1152085657340556,0.26493001292906987,-0.0035818850189488056,-0.03630882621491214,-0.42502111456714275
1750761850.3807297,-1.914290831326812,-2.4104110181994405,-0.4213081921066699,1.5809035611599624,-0.4960348535275063,-2.0658298551910264,0.017060273204058,0.19624282852483788,-0.21498360160311122,-0.006368604988314891,-0.1868160085294771,-0.18698841153945484,3.8545067123039987,2.1169505196111778,0.26498450100846666,-0.0035800310654577998,-0.036235649042859745,-0.42426459050634446
1750761850.382881,-1.9142567267553439,-2.4100169999117704,-0.42173968495489156,1.5808907795633664,-0.4964097696734804,-2.0662051174204468,0.017043784684044824,0.19777566722492032,-0.21650892834944266,-0.006412978628186384,-0.18809970036633697,-0.1882733807142851,3.854522652754873,2.1187044863154934,0.2650392684699087,-0.0035781631576040614,-0.036162005646280734,-0.42350341211883097
1750761850.3848863,-1.9142567267553439,-2.4100169999117704,-0.42173968495489156,1.5808907795633664,-0.4964097696734804,-2.0662051174204468,0.017043784684044824,0.19777566722492032,-0.21650892834944266,-0.006412978628186384,-0.18809970036633697,-0.1882733807142851,3.854522652754873,2.1187044863154934,0.2650392684699087,-0.0035781631576040614,-0.036162005646280734,-0.42350341211883097
1750761850.3868117,-1.914222658248156,-2.4096199146955124,-0.422174226543814,1.5808779092975518,-0.4967872505751698,-2.0665829469597288,0.0170242060474703,0.19930975846679702,-0.2180323407188831,-0.006457274114894337,-0.1893807615033615,-0.18955571865956364,3.8545417027154745,2.120470441666775,0.265094312475581,-0.0035762813061422224,-0.036087897980779916,-0.42273760284355555
1750761850.3888748,-1.9141886320026957,-2.409219760037467,-0.4226118130352079,1.5808649505193761,-0.497167290954752,-2.066963338529984,0.017001520101137594,0.20084511036248479,-0.2195538292524867,-0.00650149089757744,-0.1906591755295772,-0.19083540895681866,3.854563925475257,2.1222483613656604,0.26514963017251636,-0.0035743855262839346,-0.03601332801284558,-0.4219671862529826
1750761850.3907926,-1.9141546542506758,-2.408816533408233,-0.42305244057202707,1.5808519033867976,-0.4975498855016527,-2.067346286819557,0.01697570977172507,0.20238173100144383,-0.2210733845926939,-0.006545628426311444,-0.191934926104312,-0.19211243525779415,3.8545893846407604,2.1240382209931408,0.26520521868929997,-0.00357247583171318,-0.03593829772289218,-0.4211921860496152
1750761850.3957174,-1.9141207312578352,-2.408410232262254,-0.4234961052786108,1.580838768058873,-0.49793502887268737,-2.067731786484165,0.0169467581062314,0.20391962845056755,-0.22259099748372096,-0.00658968615217878,-0.1932079969575638,-0.1933867812849115,3.854618144101485,2.1258399960042103,0.26526107514323327,-0.003570552238053976,-0.03586280910171372,-0.4204126260707765
1750761850.396723,-1.9140868693236985,-2.408000854037861,-0.42394280326089095,1.5808255446957562,-0.49832271569220143,-2.068119832147042,0.01691464827246139,0.20545881075420913,-0.22410665877207198,-0.006633663527208536,-0.19447837189061354,-0.19465843083173173,3.8546502680461443,2.127653661737344,0.2653171966372835,-0.003568614759173965,-0.03578686415737924,-0.4196285302886243
1750761850.398783,-1.914053074781334,-2.407588396157319,-0.4243925306065943,1.580812233458696,-0.4987129405522168,-2.0685104183990806,0.016879363559496405,0.2069992859341844,-0.22562035940704867,-0.006677560004429172,-0.19574603477637534,-0.19592736776339453,3.854685820954916,2.1294791934098587,0.2653735802598867,-0.0035666634103568478,-0.03571046490781746,-0.4188399228024928
1750761850.4007418,-1.9140193539971087,-2.407172856026873,-0.4248452833854497,1.5807988345100343,-0.49910569801257054,-2.068903539798976,0.01684088737815641,0.20854106198980407,-0.22713209044130747,-0.006721375037921793,-0.19701096955981015,-0.19719357601705434,3.8547248675962327,2.1313165661245668,0.2654302230837129,-0.0035646982083167088,-0.03563361338261072,-0.418046827837046
1750761850.4026992,-1.9139857133704474,-2.406754231036791,-0.42530105764939474,1.5807853480132035,-0.4995009826010648,-2.0692991908733678,0.01679920326143269,0.21008414689787666,-0.2286418430312014,-0.006765108082792835,-0.19827316025837574,-0.19845703960233585,3.854767473015792,2.1331657548640175,0.2654871221717228,-0.003562719168945562,-0.0355563116240172,-0.4172492697486726
1750761850.404809,-1.9139521593335855,-2.4063325185614097,-0.4257598494327839,1.5807717741327247,-0.4998987888136064,-2.0696973661169924,0.016754294864955024,0.21162854861276942,-0.23014960843746782,-0.00680875859517898,-0.19953259096261303,-0.1997177426017948,3.8548137025493943,2.135026734502463,0.2655442745674701,-0.003560726308250843,-0.03547856169081431,-0.41644727302706874
1750761850.4068143,-1.913918698351324,-2.40590771595918,-0.426221654752597,1.5807581130342063,-0.5002991111143595,-2.070098059992821,0.016706145967384966,0.21317427506639638,-0.2316553780254743,-0.0068523260322668434,-0.2007892458363621,-0.20097566917132134,3.8548636217926857,2.136899479792639,0.26560167730736384,-0.0035587196426532233,-0.03540036564786194,-0.41564086227497044
1750761850.4086602,-1.9138853369207842,-2.4054798205727113,-0.42668646960865164,1.5807443648843404,-0.5007019439358888,-2.07050126693221,0.01665474047088045,0.21472133416828457,-0.23315914326590237,-0.006895809852320925,-0.2020431091174489,-0.20223080354061732,3.8549172966302554,2.1387839653809957,0.2656593274086045,-0.003556699189394218,-0.03532172557936786,-0.41483006223402086
1750761850.4106798,-1.9138520815711582,-2.405048829728816,-0.427154289983811,1.580730529850902,-0.5011072816793076,-2.0709069813350514,0.016600062401480757,0.2162697338055854,-0.23466089573503665,-0.006939209514766013,-0.20329416511790574,-0.20348313001361054,3.854974793203152,2.1406801657981127,0.265717221880108,-0.0035546649679544036,-0.035242643575746496,-0.4140148977620905
1750761850.4127715,-1.9138189388634625,-2.404614740738555,-0.4276251118441978,1.5807166081027462,-0.5015151187144298,-2.071315197569918,0.01654209590951899,0.2178194818431407,-0.2361606271153612,-0.006982524480031163,-0.20454239822446563,-0.20473263296889319,3.855036177919545,2.1425880554694468,0.2657753577138894,-0.0035526169933057052,-0.03516312174134244,-0.4131953938408082
1750761850.4150884,-1.9138189388634625,-2.404614740738555,-0.4276251118441978,1.5807166081027462,-0.5015151187144298,-2.071315197569918,0.01654209590951899,0.2178194818431407,-0.2361606271153612,-0.006982524480031163,-0.20454239822446563,-0.20473263296889319,3.855036177919545,2.1425880554694468,0.2657753577138894,-0.0035526169933057052,-0.03516312174134244,-0.4131953938408082
1750761850.4169192,-1.9137530177755497,-2.4037372574846847,-0.42857574380271046,1.580688505143089,-0.5023382679834283,-2.072139112854334,0.016416234883108446,0.22092305446699456,-0.2391539938728918,-0.007068898166670087,-0.20703033367926074,-0.20722310621663595,3.855170878721248,2.1464387997178718,0.26589234138033946,-0.003548479864025319,-0.03500276706593553,-0.4115434681968515
1750761850.4188578,-1.9137202526742394,-2.403293857764838,-0.4290555457512939,1.5806743242746781,-0.5027535688017775,-2.072554800485795,0.016348309274312158,0.2224768946717491,-0.24064761314972963,-0.007111955814670026,-0.20827000517856514,-0.20846404564350185,3.8552443289056018,2.14838160260192,0.2659511831377503,-0.0035463907463312632,-0.034921938494907,-0.4107110970447634
1750761850.4208272,-1.9136876267721687,-2.402847348986239,-0.42953833288644816,1.580660057377726,-0.5031713460810803,-2.072972967113408,0.016277033095030948,0.22403211451378946,-0.24213917913802666,-0.007154926618832575,-0.2095067920869858,-0.20970209982232274,3.8553219354362382,2.1503359913567888,0.2660102541044645,-0.00354428795264061,-0.034840678636422345,-0.40987448758716755
1750761850.4228067,-1.9136551467857235,-2.402397728381855,-0.43002410109379774,1.5806457046264544,-0.5035915940369087,-2.0733936069514236,0.01620239112282611,0.22558872174705685,-0.24362868405763297,-0.007197810045425576,-0.21074067917135714,-0.2109372535114763,3.8554037659795903,2.1523019398718537,0.266069551212936,-0.003542171503074488,-0.03475898965473376,-0.4090336654083297
1750761850.4249463,-1.9136228194616063,-2.401944993169168,-0.4305128462435164,1.580631266196151,-0.5040143068544447,-2.0738167141836836,0.01612436826179816,0.22714672410349207,-0.24511612023720833,-0.0072406055618929,-0.21197165127582918,-0.2121694915465629,3.85548988844984,2.1542794219382344,0.2661290713812178,-0.003540041417141177,-0.03467687372784798,-0.408188656205767
1750761850.4268246,-1.913590651576584,-2.4014891405502183,-0.4310045641905429,1.5806167422631678,-0.5044394786886377,-2.0742422829637803,0.016042949542919554,0.22870612929308123,-0.2466014801145533,-0.007283312636939757,-0.21319969332223815,-0.21339879884083843,3.855580370994951,2.156268411241604,0.2661888115179045,-0.0035378977167585626,-0.03459433304420972,-0.4073394857978515
1750761850.4288235,-1.9135586499372366,-2.4010301677116477,-0.43149925077480233,1.5806021330049178,-0.5048671036643597,-2.0746703074152126,0.015958120124358068,0.23026694500394365,-0.24808475623709858,-0.007325930740485147,-0.2144247903105935,-0.21462516038562052,3.855675281992161,2.1582688813713933,0.2662487685176532,-0.0035357404224065875,-0.03451136980598464,-0.4064861801132461
1750761850.4308536,-1.9135586499372366,-2.4010301677116477,-0.43149925077480233,1.5806021330049178,-0.5048671036643597,-2.0746703074152126,0.015958120124358068,0.23026694500394365,-0.24808475623709858,-0.007325930740485147,-0.2144247903105935,-0.21462516038562052,3.855675281992161,2.1582688813713933,0.2662487685176532,-0.0035357404224065875,-0.03451136980598464,-0.4064861801132461
1750761850.43281,-1.9135268213796985,-2.4005680718247437,-0.4319969018214245,1.5805874385998728,-0.5052971758765592,-2.0751007816315354,0.015869865291834317,0.2318291789024078,-0.24956594126236784,-0.007368459343702549,-0.21564692731933158,-0.2158485612506907,3.8557746900610708,2.160280805820512,0.2663089392622204,-0.0035335695556429486,-0.034427986222482505,-0.40562876519070445
1750761850.434865,-1.913495172769406,-2.400102850045483,-0.4324975131409632,1.5805726592275615,-0.5057296893904208,-2.0755336996765266,0.01577817045888128,0.2333928386330636,-0.25104502795817696,-0.007410897918981101,-0.21686608950594383,-0.21706898658476523,3.8558786640265703,2.162304157977249,0.2663693206274066,-0.0035313851369952786,-0.03434418452071195,-0.4047672672010456
1750761850.4368503,-1.9134637110008388,-2.3996344995145744,-0.43300108052962116,1.5805577950685663,-0.5061646382415246,-2.0759690555843378,0.01568302116719799,0.23495793181885147,-0.2525220092032387,-0.007453245940149262,-0.21808226210727114,-0.21828642161580267,3.8559872729509395,2.1643389111390055,0.2664299094720361,-0.0035291871930919487,-0.03425996693597324,-0.4039017123923858
1750761850.4389162,-1.9134324429972658,-2.3991630173575027,-0.4335075997694666,1.5805428463045204,-0.5066020164360028,-2.076406843359658,0.015584403086904456,0.2365244660611612,-0.2539968779874232,-0.007495502882172107,-0.2192954304398268,-0.21950085165151387,3.8561005861010615,2.1663850385087344,0.26649070264749514,-0.0035269757420974095,-0.03417533571266174,-0.4030321271569801
1750761850.4444256,-1.913401375710487,-2.3986884006845717,-0.43401706662866246,1.580527813118106,-0.507041817950701,-2.0768470569778703,0.015482302016858292,0.2380924489399021,-0.2554696274122232,-0.007537668221426512,-0.22050557990041658,-0.22071226207969974,3.856218672966661,2.1684425131945853,0.26655169699200254,-0.003524750809828882,-0.034090293112644506,-0.4021585379745796
1750761850.4448686,-1.9133398712356193,-2.397729752156695,-0.4350448262095439,1.5804974942141277,-0.5079286667026732,-2.0777347374989503,0.015267594748151498,0.24123279081946677,-0.25840874114958245,-0.007621722003704788,-0.22291676419587006,-0.2231259660676949,3.856469446810076,2.172591396486093,0.2666742764965433,-0.003520260593921123,-0.033918982866264415,-0.4003994542595299
1750761850.4451473,-1.9133398712356193,-2.397729752156695,-0.4350448262095439,1.5804974942141277,-0.5079286667026732,-2.0777347374989503,0.015267594748151498,0.24123279081946677,-0.25840874114958245,-0.007621722003704788,-0.22291676419587006,-0.2231259660676949,3.856469446810076,2.172591396486093,0.2666742764965433,-0.003520260593921123,-0.033918982866264415,-0.4003994542595299
1750761850.446703,-1.9133094480914643,-2.3972457144468353,-0.4355631104000244,1.5804822088671469,-0.5083757017486565,-2.078182192207512,0.015154960793244607,0.24280516487357146,-0.25987509222639066,-0.007663609406205036,-0.22411777022862425,-0.22432823080727676,3.8566022737897674,2.1746827508565287,0.26673585528030186,-0.0035179953596942907,-0.033832719792209906,-0.3995140132355321
1750761850.4487085,-1.9132792537514502,-2.3967585305113714,-0.43608432514789364,1.5804668398389587,-0.5088251357326028,-2.0786320483706797,0.015038788336584386,0.24437901767084236,-0.26133929747290124,-0.007705403124874751,-0.2253156997860577,-0.2255274182996691,3.8567401544662356,2.1767853440662326,0.26679762248732963,-0.0035157167403516336,-0.033746054487047594,-0.39862467527829254
1750761850.4508696,-1.9132492953061568,-2.3962681973853397,-0.43660846615513726,1.580451387317448,-0.5092769624873519,-2.0790842998197405,0.014919063824568028,0.24595435668524565,-0.26280135055403364,-0.007747102642933611,-0.22651053867168736,-0.22672351433921492,3.8568831593231487,2.178899148779196,0.26685957490346457,-0.0035134247621319754,-0.033658989262363756,-0.397731467405524
1750761850.4526865,-1.9132195798731404,-2.3957747120888495,-0.4371355291111829,1.580435851491531,-0.5097311758174312,-2.0795389403576507,0.014795773833828007,0.2475311893698526,-0.26426124524836847,-0.0077887074449837215,-0.22770227277164212,-0.2279165048027358,3.8570313590365384,2.1810241375680794,0.26692170930909387,-0.0035111194497440953,-0.03357152644536485,-0.3968344167327237
1750761850.4546988,-1.9131901145966719,-2.3952780716271245,-0.4376655096931321,1.5804202325511545,-0.5101877694992254,-2.079995963759206,0.014668905071462696,0.2491095231569904,-0.26571897544871026,-0.00783021701712241,-0.22889088805490335,-0.22910637564992134,3.857184824471043,2.183160282928455,0.2669840224686142,-0.00350880083107701,-0.03348366837003002,-0.39593355047738227
1750761850.4567285,-1.9131609066474802,-2.394778272990545,-0.43819840356598494,1.580404530687291,-0.5106467372811396,-2.0804553637712004,0.014538444375204055,0.2506893654583231,-0.26717453516217815,-0.007871630846860232,-0.23007637057377178,-0.23029311292370597,3.8573436266551986,2.185307557265737,0.26704651114368605,-0.003506468931615625,-0.03339541738349428,-0.39502889595402446
1750761850.4586265,-1.9131319632224848,-2.3942753131546874,-0.4387342063828692,1.5803887460919361,-0.5111080728837667,-2.0809171341126014,0.014404378713664904,0.25227072366498504,-0.2686279185106787,-0.007912948423222517,-0.2312587064643188,-0.23147670275067112,3.857507836812511,2.187465932906884,0.2671091720827678,-0.0035041237797461397,-0.033306775845603674,-0.3941204805844706
1750761850.4605896,-1.9131032915445383,-2.393769189080367,-0.4392729137852731,1.5803728789581066,-0.5115717700000566,-2.0813812684747104,0.014266695186471045,0.2538536051477023,-0.2700791197311326,-0.007954169236667672,-0.23243788194654036,-0.23265713134139898,3.8576775263150562,2.189635382097389,0.26717200202757835,-0.0035017654014216516,-0.03321774612054059,-0.3932083318781304
1750761850.462642,-1.9130748988621642,-2.3932598977136785,-0.4398145214032745,1.5803569294798367,-0.5120378222954818,-2.0818477605213372,0.014125381024493882,0.25543801725692505,-0.27152813317590035,-0.007995292779210475,-0.2336138833249511,-0.2338343849908613,3.857852766723265,2.191815877005775,0.267234997708016,-0.0034993938261006587,-0.033128330589222175,-0.3922924774468647
1750761850.4657302,-1.9130467924492915,-2.3927474359860343,-0.44035902485576983,1.5803408978521747,-0.5125062234082112,-2.0823166038889642,0.013980423589999246,0.2570239673229587,-0.27297495331301175,-0.008036318544392695,-0.23478669698891136,-0.2350084500787708,3.8580336297523585,2.1940073897234265,0.2672981558474537,-0.0034970090823109264,-0.03303853164178282,-0.39137294498981007
1750761850.4668403,-1.9130189796049928,-2.392231800814208,-0.440906419750708,1.5803247842711807,-0.5129769669492763,-2.0827877921869202,0.013831810376791584,0.25861146265608226,-0.2744195747264406,-0.008077246027277165,-0.2359563094128181,-0.23617931306998435,3.8582201872704553,2.196209892260583,0.2673614731612169,-0.003494611198444256,-0.032948351673726686,-0.3904497623117473
1750761850.4687574,-1.9129914676532227,-2.3917129891003714,-0.4414567016853237,1.5803085889339228,-0.513450046502741,-2.083261318997545,0.013679529010390818,0.26020051054671434,-0.2758619921165306,-0.0081180747245188,-0.23712270715678943,-0.237346960514827,3.8584125113100862,2.198423356559853,0.26742494635276703,-0.0034922002047801794,-0.032857793099851915,-0.38952295729555175
1750761850.4707117,-1.912964263942551,-2.3911909977321355,-0.4420098662463676,1.5802923120384744,-0.5139254556258788,-2.0837371778763707,0.013523567248147855,0.2617911182655236,-0.27730220030007974,-0.008158804134294359,-0.23828587686667518,-0.2385113790495181,3.858610674046019,2.200647754482297,0.2674885721230454,-0.0034897761296929946,-0.032766858335243315,-0.388592557937306
1750761850.4728355,-1.9129373758459032,-2.3906658235825895,-0.44256590901034,1.5802759537839108,-0.5144031878493385,-2.0842153623522837,0.013363912979388886,0.26338329306360736,-0.2787401942108645,-0.00819943375645477,-0.23944580527470244,-0.23967255539644136,3.858814747802003,2.202883057825087,0.26755234715808696,-0.0034873390056583825,-0.03267554981317977,-0.38765859229172567
1750761850.4747808,-1.9129108107602928,-2.39013746351034,-0.4431248255437277,1.5802595143703062,-0.5148832366773206,-2.084695865927702,0.013200554225539939,0.2649770421726079,-0.28017596889970214,-0.008239963092438057,-0.240602479199668,-0.240830476364578,3.8590248050474303,2.2051292383069945,0.2676162681422674,-0.0034848888627968706,-0.0325838699723572,-0.38672108852948084
1750761850.4767118,-1.912884576106558,-2.38960591435955,-0.4436866114032343,1.58024299399873,-0.5153655955877507,-2.0851786820787517,0.013033479140217413,0.26657237280488505,-0.28160951953480595,-0.008280391645309058,-0.24175588554741315,-0.24198512884983742,3.8592409183805927,2.2073862675807456,0.2676803317497083,-0.0034824257322688267,-0.032491821264846364,-0.38578007489993216
1750761850.478678,-1.9128586793290987,-2.3890711729599756,-0.44425126213601906,1.580226392871244,-0.5158502580324527,-2.085663804255433,0.012862676009348817,0.26816929215367924,-0.2830408414021133,-0.008320718919758364,-0.24290601131094963,-0.24313649983538893,3.859463160540423,2.2096541172331086,0.2677445346453169,-0.0034799496451193854,-0.03239940614626766,-0.3848355797323802
1750761850.4807072,-1.9128331278956079,-2.3885332361270075,-0.44481877327993136,1.5802097111908988,-0.5163372174373233,-2.086151225881805,0.012688133251248221,0.2697678073932432,-0.2844699299053903,-0.008360944422214666,-0.24405284357114818,-0.24428457639204113,3.859691604389478,2.2119327587772943,0.26780887349091226,-0.003477460635633614,-0.032306627091637834,-0.38388763145269633
1750761850.482712,-1.9128079292968136,-2.387992100661705,-0.4453891403637442,1.580192949161731,-0.5168264672025122,-2.086640940356153,0.012509839416701052,0.27136792567904106,-0.28589678056661577,-0.008401067660743609,-0.24519636949672996,-0.2454293456785575,3.859926322916095,2.214222163668749,0.26787334493748793,-0.0034749587351027966,-0.032213486575730886,-0.3829362585595839
1750761850.4847052,-1.9127830910462063,-2.3874477633508353,-0.4459623589073942,1.5801761069887588,-0.5173180007025904,-2.087132941051169,0.012327783189052767,0.27296965414788654,-0.28732138902616405,-0.008441088145135734,-0.24633657634488765,-0.24657079494201378,3.8601673892359374,2.2165223032928454,0.2679379456308436,-0.003472443977326263,-0.0321199870908188,-0.38198148964100737
1750761850.4867232,-1.912758620679778,-2.3869002209669117,-0.4465384244222177,1.580159184877979,-0.5178118112867356,-2.0876272213141274,0.01214195338424141,0.2745729999181354,-0.2887437510430681,-0.008481005386894943,-0.2474734514614617,-0.24770891151814184,3.8604148765698376,2.218833148975367,0.2680026722091619,-0.0034699163957493777,-0.03202613113413827,-0.38102335336710547
1750761850.4889283,-1.9127345257557575,-2.386349470268228,-0.4471173324111879,1.580142183036364,-0.5183078922789033,-2.088123774467064,0.011952338950854425,0.27617797008984946,-0.2901638624951932,-0.00852081889930657,-0.24860698228129272,-0.24884368283164604,3.860668858252349,2.221154671979376,0.2680675213057592,-0.003467376025680472,-0.03193192121285021,-0.3800618784818926
1750761850.493543,-1.9127108138543427,-2.385795507998896,-0.44769907836915124,1.580125101671858,-0.5188062369780102,-2.088622593806953,0.011758928970195625,0.2777845717449849,-0.2915817193795524,-0.008560528197342415,-0.24973715632862992,-0.2499750963965557,3.860929407735969,2.223486843509594,0.2681324895450836,-0.0034648228997266766,-0.03183735984562732,-0.3790970938155731
1750761850.494659,-1.9126874925774349,-2.3852383308888827,-0.4482836577830689,1.5801079409933732,-0.5193068386581103,-2.0891236726058855,0.01156171265627896,0.2793928119475496,-0.2929973178123959,-0.008600132797841942,-0.2508639612174009,-0.251103139816529,3.8611965985607495,2.2258296347066118,0.26819757354876195,-0.003462257055576663,-0.031742449558736986,-0.37812902826713296
1750761850.496739,-1.9126645695483777,-2.384677935654043,-0.4488710661322548,1.580090701210786,-0.5198096905685752,-2.08962700411125,0.011360679355870934,0.28100269774383424,-0.2944106540295882,-0.00863963221937163,-0.25198738465151876,-0.25222780078520746,3.861470504374987,2.2281830166622982,0.2682627699278978,-0.0034596785269351425,-0.03164719288709976,-0.37715771082130645
1750761850.498661,-1.9126420524116856,-2.3841143189961587,-0.44946129888861197,1.5800733825349347,-0.5203147859342749,-2.0901325815459133,0.01115581854850396,0.28261423616254927,-0.2958217243866189,-0.008679025982391904,-0.2531074144252064,-0.2533490670865092,3.861751198921353,2.230546960403123,0.2683280752932457,-0.003457087352171976,-0.03155159237477142,-0.37618317052896794
1750761850.5007107,-1.9126199488327824,-2.38354747760297,-0.4500543515168758,1.5800559851776141,-0.520822117955758,-2.090640398108399,0.010947119846460806,0.28422743421507074,-0.29723052535898054,-0.008718313609106727,-0.25422403842344116,-0.25446692659497583,3.8620387560268092,2.2329214369095842,0.2683934862447226,-0.0034544835653942526,-0.03145565057833585,-0.3752054365227681
1750761850.5027401,-1.912598266497735,-2.382977408148213,-0.45065021947485295,1.5800385093515732,-0.5213316798094336,-2.0911504469730726,0.010734572994777548,0.28584229889558876,-0.2986370535422077,-0.008757494623662963,-0.2553372446220851,-0.2555813672760616,3.8623332496077714,2.2353064171003036,0.2684589993811208,-0.0034518672063086533,-0.03135937005804463,-0.3742245380001974
1750761850.5046575,-1.9125770131129878,-2.382404107291651,-0.45124889821366043,1.5800209552705105,-0.5218434646477554,-2.091662721290321,0.010518167871228976,0.2874588371813587,-0.3000413056522164,-0.008796568551986362,-0.25644702108824635,-0.25669237718646787,3.8626347536647527,2.2377018718514696,0.2685246112917075,-0.003449238309957673,-0.031262753384325166,-0.373240504236241
1750761850.5067005,-1.9125561964050943,-2.38182757167911,-0.4518503831779679,1.5800033231490709,-0.5223574655994021,-2.0921772141867354,0.010297894486289106,0.28907705603285216,-0.30144327852529423,-0.008835534921978328,-0.2575533559807103,-0.25779994447442495,3.862943342270011,2.2401077719784386,0.26859031856584303,-0.003446596916910061,-0.03116580313976085,-0.3722533645675537
1750761850.508595,-1.9125358241204573,-2.3812477979425126,-0.4524546698062393,1.5799856132028416,-0.5228736757694614,-2.0926939187652955,0.010073742983085334,0.2906969623940074,-0.30284296911842506,-0.008874393263415508,-0.2586562375501024,-0.25890405738002503,3.8632590895664802,2.2425240882543247,0.26865611778361703,-0.003443943064901155,-0.031068521911515806,-0.3712631484076673
1750761850.5106013,-1.9125159040250592,-2.3806647826999088,-0.4530617535309709,1.5799678256483485,-0.5233920882396141,-2.0932128281055533,0.009845703637371318,0.29231856319242955,-0.30424037450940594,-0.008913143108002602,-0.2597556541392131,-0.2600047042355069,3.8635820697738197,2.2449507914034847,0.2687220055219557,-0.0034412767931050236,-0.03097091229590127,-0.37026988523207316
1750761850.5126626,-1.9124964439041996,-2.38007852255551,-0.45367162977893827,1.5799499607030518,-0.5239126960683196,-2.0937339352638187,0.009613766857449538,0.29394186533959876,-0.30563549189696876,-0.008951783989362732,-0.2608515941833601,-0.2611018734655619,3.863912357168295,2.2473878521012556,0.26878797835414425,-0.003438598140410057,-0.030872976899448578,-0.36927360458443653
1750761850.515377,-1.9124964439041996,-2.38007852255551,-0.45367162977893827,1.5799499607030518,-0.5239126960683196,-2.0937339352638187,0.009613766857449538,0.29394186533959876,-0.30563549189696876,-0.008951783989362732,-0.2608515941833601,-0.2611018734655619,3.863912357168295,2.2473878521012556,0.26878797835414425,-0.003438598140410057,-0.030872976899448578,-0.36927360458443653
1750761850.5168273,-1.9124774515622276,-2.3794890140997205,-0.4542842939714342,1.5799320185853427,-0.5244354922910013,-2.0942572332733427,0.00937792318411691,0.29556687573109774,-0.3070283186009772,-0.008990315443152033,-0.2619440462106547,-0.2621955535876134,3.8642500260912174,2.249835240980223,0.26885403284795834,-0.003435907148913471,-0.03077471833617622,-0.3682743360679631
1750761850.5188005,-1.9124589348222791,-2.378896253909169,-0.4548997415245122,1.5799139995145393,-0.5249604699202299,-2.094782715144502,0.009138163290563172,0.2971936012468277,-0.30841885206252384,-0.009028737006945857,-0.26303299884215836,-0.26328573321212795,3.8645951509304597,2.252292928626412,0.26892016556820164,-0.0034332038574826874,-0.03067613922452414,-0.3672721093553914
1750761850.5206518,-1.9124409015260113,-2.37830023854674,-0.4555179678492287,1.579895903710882,-0.5254876219459135,-2.0953103738649936,0.00889447798230631,0.2988220487512489,-0.3098070898441383,-0.009067048220362443,-0.2641184407924591,-0.2643724010428978,3.864947806134428,2.254760885586976,0.2689863730739296,-0.0034304883084772075,-0.03057724219916569,-0.36626695417990823
1750761850.5227833,-1.9124233595333369,-2.3777009645616047,-0.4561389683518886,1.5798777313955303,-0.5260169413354827,-2.0958402024000087,0.008646858197079327,0.3004522250935951,-0.31119302962983797,-0.009105248625017786,-0.265200360869718,-0.26545554587729914,3.86530806619169,2.2572390823650905,0.26905265192263395,-0.00342776054288383,-0.030478029896082906,-0.36525890032611696
1750761850.5248244,-1.9124063167221639,-2.3770984284892505,-0.4567627384342856,1.5798594827905585,-0.526548421034077,-2.0963721936924307,0.008395295004719347,0.302084137108119,-0.31257666922529737,-0.009143337764574901,-0.266278747975944,-0.26653515660661686,3.865676005633145,2.259727489425013,0.2691189986669197,-0.0034250206031732305,-0.03037850495900083,-0.364247977653066
1750761850.5266905,-1.912389780988125,-2.376492626851511,-0.45738927349394576,1.5798411581189515,-0.527082053964735,-2.09690634066302,0.008139779607069072,0.3037177916143319,-0.3139580065579818,-0.009181315184753649,-0.2673535911074574,-0.26761122221628464,3.8660516990348226,2.2622260771946676,0.26918540985574635,-0.003422268531987844,-0.030278670044702357,-0.363234216065192
1750761850.5286834,-1.9123737602443187,-2.375883556156595,-0.4580185689243734,1.5798227576046007,-0.5276178330285823,-2.0974426362106007,0.007880303337809674,0.30535319541723116,-0.31533703967719934,-0.009219180433357026,-0.26842487935492904,-0.2686837317861655,3.866435220990747,2.264734816060455,0.26925188203622,-0.003419504372715703,-0.03017852781107061,-0.36221764552545704
1750761850.530673,-1.912358262421047,-2.3752712128991167,-0.4586506201152911,1.5798042814722992,-0.5281557511050208,-2.097981073212253,0.0076168576623545465,0.30699035530755553,-0.3167137667542266,-0.009256933060292526,-0.26949260190390917,-0.26975267449083074,3.866826646137585,2.2672536763762055,0.2693184117521536,-0.003416728169353659,-0.030078080930890656,-0.3611982960558019
1750761850.5326538,-1.9123432954655453,-2.3746555935601217,-0.45928542245288817,1.5797857299477391,-0.5286958010519172,-2.0985216445234984,0.007349434177696218,0.30862927806204543,-0.31808818608246353,-0.00929457261754753,-0.2705567480347776,-0.27081803959981354,3.867226049134612,2.269782628463666,0.2693849955428767,-0.0034139399651467836,-0.02997733207554013,-0.360176197727319
1750761850.5347056,-1.912328867341726,-2.3740366946071165,-0.4599229713200632,1.579767103257506,-0.5292379757057963,-2.0990643429784956,0.007078024612233367,0.31026997044368243,-0.31946029607750787,-0.009332098659258102,-0.271617307123293,-0.27187981647789106,3.867633504655734,2.2723216426075714,0.2694516299453568,-0.00341113980533093,-0.029876283931875885,-0.35915138067065766
1750761850.5366666,-1.9123149860299131,-2.3734145124940955,-0.46056326209666576,1.579748401629075,-0.5297822678820276,-2.0996091613902284,0.006802620825604757,0.31191243920193096,-0.32083009527707174,-0.0093695107417172,-0.2726742686406489,-0.2729379945853043,3.8680490873918116,2.2748706890603687,0.2695183114991322,-0.0034083277352671263,-0.029774939188323832,-0.35812387505430787
1750761850.538736,-1.9123016595265794,-2.372789043661567,-0.4612062901597458,1.5797296252908064,-0.5303286703750212,-2.1001560925506926,0.00652321480851749,0.31355669107303347,-0.32219758234132195,-0.009406808423388516,-0.27372762215392005,-0.2739925634780422,3.8684728720479193,2.277429738049334,0.2695850367338657,-0.003405503800761608,-0.029673300545892907,-0.35709371110639854
1750761850.5417764,-1.9122888958440871,-2.3721602845365792,-0.46185205088379355,1.5797107744719416,-0.5308771759584143,-2.1007051292310965,0.006239798682562562,0.3152027327802563,-0.32356275605283435,-0.009443991264942364,-0.27477735732608516,-0.2750435128080892,3.8689049333382677,2.2799987597700606,0.26965180218058504,-0.0034026680486208666,-0.02957137070622815,-0.35606091910289933
1750761850.5449574,-1.9122767030104235,-2.3715282315327477,-0.46250053964098914,1.5796918494025982,-0.5314277773852689,-2.1012562641820463,0.005952364699998141,0.3168505710341446,-0.32492561531655845,-0.009481058829194698,-0.27582346391645296,-0.27609083232366133,3.8693453459726115,2.282577724388193,0.26971860437121736,-0.0033998205238670964,-0.029469152382976357,-0.35502552936248355
1750761850.5453572,-1.9122767030104235,-2.3715282315327477,-0.46250053964098914,1.5796918494025982,-0.5314277773852689,-2.1012562641820463,0.005952364699998141,0.3168505710341446,-0.32492561531655845,-0.009481058829194698,-0.27582346391645296,-0.27609083232366133,3.8693453459726115,2.282577724388193,0.26971860437121736,-0.0033998205238670964,-0.029469152382976357,-0.35502552936248355
1750761850.5471177,-1.9122650890689394,-2.370892881050279,-0.4631517518014441,1.5796728503137663,-0.5319804673882613,-2.1018094901337427,0.005660905243559298,0.3185002125328216,-0.3262861591600661,-0.009518010681242936,-0.276865931780824,-0.277134511869452,3.869794184666152,2.285166602048521,0.26978543983060527,-0.0033969612753915615,-0.029366648294344523,-0.35398757225068406
1750761850.5487938,-1.912254062078092,-2.3702542294759956,-0.46380568273344736,1.5796537774373032,-0.5325352386798752,-2.1023647997961703,0.005365412826219221,0.3201516639622386,-0.3276443867334494,-0.009554846388405657,-0.27790475087168814,-0.2781745413868617,3.870251524120039,2.287765362866117,0.269852305086363,-0.003394090350326515,-0.029263861164098365,-0.3529470781737983
1750761850.5507135,-1.912243630111182,-2.36961227318336,-0.46446232780371055,1.5796346310059295,-0.5330920839525968,-2.1029221858592955,0.005065880090980122,0.3218049319964646,-0.32900029730941754,-0.00959156552028396,-0.27893991123858514,-0.27921091091425165,3.8707174390334016,2.2903739769349727,0.26991919666345554,-0.003391207797583782,-0.029160793726169754,-0.35190407758774395
1750761850.552696,-1.912233801256094,-2.368967008532498,-0.46512168237761475,1.5796154112532244,-0.5336509958791087,-2.1034816409932553,0.004762299810634193,0.32346002329797496,-0.3303538902833963,-0.009628167648745396,-0.279971403028213,-0.2802436105871563,3.8711920040897665,2.292992414328281,0.26998611108390985,-0.0033883136655597276,-0.029057448717535166,-0.35085860098320354
1750761850.5546796,-1.9122245836150373,-2.368318431870222,-0.46578374181945215,1.5795961184136207,-0.5342119671124852,-2.1040431578485608,0.0044546648874958655,0.32511694451791917,-0.33170516517343435,-0.009664652347932234,-0.2809992164847047,-0.2812726306385323,3.8716752939465366,2.2956206450940635,0.27005304487227094,-0.003385408002924151,-0.028953828882970038,-0.34981067889843553
1750761850.5567927,-1.9122159853042877,-2.367666539530054,-0.46644850149267736,1.5795767527224012,-0.534774990286385,-2.1046067290562807,0.004142968353168374,0.32677570229643516,-0.3330541216203897,-0.00970101919434435,-0.2820233419499346,-0.28229796139893076,3.8721673832462864,2.298258639267509,0.27011999454788915,-0.0033824908605819292,-0.028849936975880765,-0.34876034189261207
1750761850.5586658,-1.9122080144539275,-2.367011327832244,-0.4671159567601455,1.5795573144156927,-0.5353400580152492,-2.1051723472282458,0.003827203368253378,0.3284363032629236,-0.33440075938778985,-0.00973726776680217,-0.2830437698634604,-0.28331959329678297,3.8726683465967993,2.3009063668600853,0.2701869566339305,-0.0033795622885240844,-0.028745775748037404,-0.3477076205854114
1750761850.560734,-1.9122006792075918,-2.3663527930837973,-0.4677861029843635,1.5795378037304626,-0.5359071628944942,-2.1057400049572426,0.0035073632220840242,0.33009875403634015,-0.3357450783619077,-0.009773397646450072,-0.2840604907630853,-0.28433751685856934,3.8731782585765555,2.3035637978665684,0.2702539276513158,-0.003376622336719869,-0.02864134796704927,-0.3466525456164153
1750761850.5640225,-1.9121939877222047,-2.3656909315784884,-0.46845893552773443,1.579518220904513,-0.5364762975007142,-2.106309694817204,0.003183441332452348,0.3317630612255184,-0.3370870785518204,-0.00980940841686274,-0.28507349528482206,-0.285351722709027,3.8736971937340705,2.3062309022717233,0.2703209041194635,-0.003373671058156537,-0.028536656399510182,-0.3455951476584867
1750761850.565036,-1.9121879481677286,-2.3650257395968852,-0.4691344497528007,1.5794985661764773,-0.5370474543918702,-2.1068814093634174,0.0028554312452746117,0.3334292314294622,-0.33842676008933475,-0.00984529966393877,-0.28608277416322647,-0.28636220157140285,3.874225226563141,2.308907650041324,0.2703878825595304,-0.0033707085028832615,-0.028431703821410283,-0.344535457433034
1750761850.5668144,-1.9121825687269087,-2.3643572134063673,-0.4698126410224912,1.579478839785814,-0.5376206261074916,-2.1074551411327107,0.002523326634324331,0.3350972712376436,-0.33976412322902044,-0.009881070976054888,-0.2870883182315082,-0.28736894426758186,3.874762431526617,2.3115940111295985,0.2704548594919221,-0.003367734725167935,-0.028326493011860774,-0.3434735056680844
1750761850.568777,-1.912177857595009,-2.3636853492611447,-0.4704935047003671,1.5794590419728025,-0.5381958051688756,-2.1080308826436562,0.0021871213008991604,0.33676718723033267,-0.3410991683481822,-0.009916721943993016,-0.288090118421781,-0.28837194171834757,3.8753088830335063,2.3142899554812515,0.27052183143776043,-0.0033647497773338464,-0.028221026757020592,-0.3424093231428917
1750761850.570767,-1.91217382297957,-2.3630101434022754,-0.47117703615086803,1.5794391729785386,-0.5387729840792792,-2.108608626396766,0.0018468091734767434,0.33843898597889976,-0.3424318959468282,-0.009952252160912181,-0.28908816576528806,-0.2893711849435606,3.8758646554313296,2.3169954530278485,0.270588794918784,-0.0033617537108578846,-0.028115307849399886,-0.3413429406596216
1750761850.5728514,-1.9121704731001437,-2.362331592057683,-0.4718632307395536,1.579419233044929,-0.5393521553241234,-2.109188364874691,0.0015023843074253869,0.34011267404615186,-0.3437623066477434,-0.009987661222514809,-0.2900824513924878,-0.290366665062327,3.8764298230281797,2.3197104736979113,0.2706557464549643,-0.003358746581905948,-0.028009339083921978,-0.3402743890410689
1750761850.5747507,-1.912167816188047,-2.361649691442175,-0.4725520838333548,1.5793992224146867,-0.5399333113711897,-2.109770090542421,0.0011538408845989687,0.34178825798661644,-0.3450904011962529,-0.01002294872696648,-0.2910729665333623,-0.2913583732931993,3.8770044600463534,2.3224349874027252,0.27072268257246845,-0.003355728444383714,-0.027903123264203303,-0.33920369914055987
1750761850.5767553,-1.9121658604861071,-2.3609644377574566,-0.4732435908008137,1.5793791413313256,-0.5405164446708177,-2.110353795847482,0.0008011732130361202,0.343465744346922,-0.3464161804604183,-0.01005811427493139,-0.29205970251744867,-0.29234630095435443,3.87758864066402,2.325168964060233,0.27078959979231526,-0.003352699353193634,-0.02779666319473841,-0.33813090183471334
1750761850.5787854,-1.9121646142484074,-2.360275827192148,-0.4739377470123314,1.579358990039156,-0.5411015476561056,-2.110939473220135,0.0004443757265570853,0.3451451396660741,-0.3477396454307908,-0.010093157469560899,-0.29304265077416974,-0.29333043946377196,3.8781824389727615,2.3279123735716247,0.27085649464206574,-0.0033496593629094877,-0.02768996168934119,-0.33705602802367757
