mathias31415/primitives_from_planned_trajectory_python/data/saved_trajectories/trajectory_20250624_145556_planned.csv
time_from_start,shoulder_pan_joint_pos,shoulder_lift_joint_pos,elbow_joint_pos,wrist_1_joint_pos,wrist_2_joint_pos,wrist_3_joint_pos,shoulder_pan_joint_vel,shoulder_lift_joint_vel,elbow_joint_vel,wrist_1_joint_vel,wrist_2_joint_vel,wrist_3_joint_vel,shoulder_pan_joint_acc,shoulder_lift_joint_acc,elbow_joint_acc,wrist_1_joint_acc,wrist_2_joint_acc,wrist_3_joint_acc,fk_x,fk_y,fk_z,fk_qx,fk_qy,fk_qz,fk_qw
0.0,-2.3144850000000003,-2.0186829999999993,-1.63605,-1.0927480000000003,1.5724200000000002,-0.7447479999999995,0.0001707951024457483,0.00017201295072148283,-0.0005,0.00032901900856425456,5.897728737687803e-06,0.00017078529856759975,0.17079510244574828,0.17201295072148282,-0.5,0.32901900856425453,0.005897728737687803,0.17078529856759975,-0.7230949451357703,-0.5291227984852264,0.33170012377010827,-0.0005153380143903103,0.9998456105228629,0.012356636548825458,0.012482110322162022
0.1,-2.3136310244877714,-2.0178229352463917,-1.6385500000000002,-1.091102904957179,1.5724494886436886,-0.7438940735071615,0.017079510244574776,0.01720129507214823,-0.04999999999999985,0.03290190085642536,0.0005897728737687785,0.017078529856759922,0.1707951024456851,0.17201295072142073,-0.4999999999998196,0.3290190085641351,0.0058977287376855755,0.1707852985675383,-0.7220076978978549,-0.5290535609577941,0.33111251975789857,-0.0005151059794277003,0.9998456438305586,0.012355414999569868,0.01248066100308987
0.2,-2.3110690979510853,-2.0152427409855695,-1.6460499999999998,-1.0861676198287151,1.5725379545747538,-0.7413322940286474,0.03415902048914952,0.034402590144296426,-0.09999999999999959,0.06580380171285065,0.0011795457475375559,0.03415705971351981,0.17079510244570592,0.172012950721445,-0.4999999999998751,0.3290190085641767,0.005897728737686443,0.1707852985675591,-0.7187436363579497,-0.5288302393482327,0.3293518050741198,-0.0005144103302526801,0.9998457424093712,0.01235178966817215,0.012476380078323671
0.30000000000000004,-2.3067992203899417,-2.0109424172175325,-1.6585499999999997,-1.0779421446146087,1.572685397793196,-0.7370626615644575,0.05123853073372416,0.051603885216444524,-0.14999999999999905,0.09870570256927574,0.0017693186213063297,0.0512355895702796,0.17079510244531734,0.1720129507210495,-0.49999999999872324,0.3290190085634273,0.005897728737672782,0.1707852985671636,-0.7132961427913683,-0.528405982689567,0.32642439305073667,-0.0005132524340078068,0.9998459022264748,0.012345879593823881,0.012469467908466564
0.4,-2.3008213918043405,-2.004921963942281,-1.67605,-1.0664264793148601,1.5728918182990153,-0.7310851761145916,0.06831804097830077,0.0688051802885946,-0.20000000000000426,0.13160760342570463,0.0023590914950751716,0.06831411942704135,0.17079510244706594,0.1720129507228189,-0.500000000003858,0.3290190085667996,0.00589772873773328,0.1707852985689122,-0.7056553281645738,-0.5277026375634234,0.32234137533917073,-0.0005116345692720604,0.9998461165604873,0.012337886795156384,0.012460255952829546
0.5,-2.293135612194282,-1.9971813811598143,-1.69855,-1.0516206239294685,1.5731572160922112,-0.7233998376790496,0.08539755122287081,0.08600647536073805,-0.24999999999999023,0.16450950428212086,0.0029488643688437865,0.08539264928379654,0.1707951024427777,0.17201295071848904,-0.49999999999128475,0.32901900855852845,0.005897728737585395,0.17078529856463784,-0.6958097470750023,-0.5266106844532573,0.3171191207911696,-0.0005095599260741342,0.9998463760014594,0.012328101652091951,0.01244920298997489
0.6000000000000001,-2.2837418815597657,-1.9877206688701325,-1.7260499999999999,-1.0335245784584346,1.573481591172784,-0.7140066462578316,0.10247706146744796,0.10320777043288867,-0.29999999999999705,0.1974114051385508,0.003538637242612647,0.10247117914055884,0.17079510244560878,0.172012950721334,-0.4999999999995559,0.3290190085639963,0.00589772873768254,0.17078529856745503,-0.6837488053258901,-0.524989226956337,0.3107801030490905,-0.0005070326059102767,0.9998466684508633,0.01231691034281411,0.01243688969368597
0.7000000000000001,-2.273079010971794,-1.976981767070645,-1.7572653874299715,-1.012983666810118,1.5738497909477915,-0.7033443877335697,0.10731372782253758,0.10807892446178452,-0.3141592653589846,0.20672874003937533,0.003705652255037143,0.10730756786422395,1.8026778895312766e-12,1.8165446425276711e-12,-5.2693661386298855e-12,3.466688249098609e-12,6.196705245263763e-14,1.8026778895312766e-12,-0.6700308725504621,-0.5227663014834312,0.30364608147050864,-0.0005041749689398538,0.9998469675605743,0.012305259275068287,0.012424486375617726
0.8,-2.2623476381895404,-1.9661738746244668,-1.7886813139658697,-0.9923107928061805,1.5742203561732953,-0.6926136309471473,0.10731372782253758,0.10807892446178452,-0.3141592653589846,0.20672874003937533,0.003705652255037143,0.10730756786422395,1.8026778895312766e-12,1.8165446425276711e-12,-5.2693661386298855e-12,3.466688249098609e-12,6.196705245263763e-14,1.8026778895312766e-12,-0.6562061422636383,-0.5201188032911074,0.2965358610453641,-0.0005013109293856315,0.9998472333246787,0.012294696121587399,0.012413667774489224
0.9,-2.251616265407287,-1.9553659821782885,-1.8200972405017677,-0.9716379188022433,1.574590921398799,-0.681882874160725,0.10731372782253758,0.10807892446178452,-0.3141592653589846,0.20672874003937533,0.003705652255037143,0.10730756786422395,1.8026778895312766e-12,1.8165446425276711e-12,-5.2693661386298855e-12,3.466688249098609e-12,6.196705245263763e-14,1.8026778895312766e-12,-0.6423740486253869,-0.5170602656792425,0.2894993062527821,-0.000498458884120253,0.9998474637086054,0.01228533372269494,0.012404492312527098
1.0,-2.240884892625033,-1.9445580897321098,-1.8515131670376674,-0.950965044798305,1.5749614866243027,-0.6711521173743022,0.10731372782252335,0.10807892446177018,-0.31415926535894295,0.2067287400393481,0.003705652255036978,0.10730756786420972,-1.2424610684769414e-11,-1.2507811202747781e-11,3.633089285055342e-11,-2.3934015671776794e-11,-4.2900267082595284e-13,-1.2424610684769414e-11,-0.6285459771888604,-0.5135915891573902,0.28254018363526157,-0.0004956188332262008,0.9998476587122976,0.012277205979219712,0.012396932800202196
1.1,-2.2301535198427787,-1.9337501972859308,-1.882929093573567,-0.9302921707943668,1.5753320518498066,-0.6604213605878796,0.10731372782254717,0.10807892446179417,-0.3141592653590127,0.20672874003939398,0.0037056522550378006,0.10730756786423354,1.1370737457044698e-11,1.1453937975023075e-11,-3.333567420333592e-11,2.1909469734305638e-11,3.9303578024159837e-13,1.1370737457044698e-11,-0.6147333000715897,-0.5097140078185818,0.2756622064343196,-0.0004927907767839641,0.9998478183356991,0.012270346344838937,0.012390961511147004
1.2,-2.2194221470605244,-1.922942304839752,-1.9143450201094665,-0.9096192967904283,1.5757026170753101,-0.6496906038014567,0.10731372782254717,0.10807892446179417,-0.3141592653590127,0.20672874003939398,0.0037056522550378006,0.10730756786423354,1.1370737457044698e-11,1.1453937975023075e-11,-3.333567420333592e-11,2.1909469734305638e-11,3.9303578024159837e-13,1.1370737457044698e-11,-0.6009473660944339,-0.5054290889143166,0.26886903292542036,-0.0004899747148737873,0.9998479425787556,0.012264787818477238,0.012386550188641704
1.3,-2.2086907742782707,-1.912134412393573,-1.9457609466453658,-0.88894642278649,1.576073182300814,-0.6389598470150339,0.10731372782254717,0.10807892446179417,-0.3141592653590127,0.20672874003939398,0.0037056522550378006,0.10730756786423354,1.1370737457044698e-11,1.1453937975023075e-11,-3.333567420333592e-11,2.1909469734305638e-11,3.9303578024159837e-13,1.1370737457044698e-11,-0.5871994909310897,-0.5007387321324007,0.26216426477864335,-0.00048717064757469855,0.9998480314414142,0.012260562936791203,0.012383670052202334
1.4,-2.1979594014960164,-1.9013265199473943,-1.9771768731812658,-0.8682735487825517,1.5764437475263178,-0.6282290902286112,0.10731372782254717,0.10807892446179417,-0.3141592653590127,0.20672874003939398,0.0037056522550378006,0.10730756786423354,1.1370737457044698e-11,1.1453937975023075e-11,-3.333567420333592e-11,2.1909469734305638e-11,3.9303578024159837e-13,1.1370737457044698e-11,-0.573500947277197,-0.49564516857797014,0.2555514454457973,-0.00048437857496578705,0.9998480849236232,0.012257703766746248,0.012382291804267314
1.5,-2.187228028713762,-1.8905186275012154,-2.008592799717165,-0.8476006747786136,1.5768143127518215,-0.6174983334421884,0.10731372782254717,0.10807892446179417,-0.3141592653590127,0.20672874003939398,0.0037056522550378006,0.10730756786423354,1.1370737457044698e-11,1.1453937975023075e-11,-3.333567420333592e-11,2.1909469734305638e-11,3.9303578024159837e-13,1.1370737457044698e-11,-0.5598629550480909,-0.490150959458311,0.24903405857467545,-0.0004815984971241899,0.9998481030253322,0.012256241898279886,0.012382385636983777
1.6,-2.176496655931509,-1.8797107350550375,-2.0400087262530624,-0.826927800774677,1.5771848779773252,-0.6067675766557665,0.10731372782252792,0.10807892446177479,-0.31415926535895633,0.2067287400393569,0.0037056522550371358,0.10730756786421429,-7.862448948954773e-12,-7.904049207943951e-12,2.2963342962026637e-11,-1.5142494272061045e-11,-2.7126835549193605e-13,-7.862448948954773e-12,-0.5462966716142033,-0.4842589944723724,0.242615526451129,-0.00047883041412675846,0.9998480857464926,0.012256208437061723,0.012383921239092628
1.7000000000000002,-2.1657652831492555,-1.8689028426088596,-2.071424652788959,-0.8062549267707404,1.577555443202829,-0.5960368198693448,0.10731372782252852,0.10807892446177474,-0.3141592653589555,0.2067287400393568,0.003705652255037134,0.10730756786421422,-8.13978400888263e-12,-8.195251020868203e-12,2.379534814181021e-11,-1.5669430885923974e-11,-2.8080174817695616e-13,-8.13978400888263e-12,-0.5328131820831056,-0.47797248990613617,0.2362992084696381,-0.0004760743260493918,0.9998480330870569,0.012257633997341415,0.01238686780290739
1.8,-2.155033910367002,-1.8580949501626816,-2.1028405793248557,-0.785582052766804,1.5779260084283329,-0.5853060630829229,0.10731372782252852,0.10807892446177474,-0.3141592653589555,0.2067287400393568,0.003705652255037134,0.10730756786421422,-8.13978400888263e-12,-8.195251020868203e-12,2.379534814181021e-11,-1.5669430885923974e-11,-2.8080174817695616e-13,-8.13978400888263e-12,-0.5194234896371521,-0.4712949864352931,0.23008839963303218,-0.00047333023296713364,0.9998479450469792,0.0122605486948957,0.012391194031391826
1.9,-2.1443025375847493,-1.8472870577165037,-2.1342565058607526,-0.7649091787628676,1.5782965736538364,-0.574575306296501,0.10731372782252852,0.10807892446177474,-0.3141592653589555,0.2067287400393568,0.003705652255037134,0.10730756786421422,-8.13978400888263e-12,-8.195251020868203e-12,2.379534814181021e-11,-1.5669430885923974e-11,-2.8080174817695616e-13,-8.13978400888263e-12,-0.5061385059356165,-0.4642303466369429,0.22398632908200916,-0.00047059813495382646,0.9998478216262144,0.012264982140067169,0.012396868145328267
2.0,-2.133571164802496,-1.836479165270326,-2.165672432396649,-0.7442363047589312,1.5786671388793403,-0.5638445495100792,0.10731372782257614,0.1080789244618227,-0.3141592653590949,0.20672874003944852,0.003705652255038778,0.10730756786426184,3.945091227474655e-11,3.972824733467446e-11,-1.1548231895398567e-10,7.598980642024993e-11,1.361975145864767e-12,3.943704552175015e-11,-0.4929690415901758,-0.45678275221231046,0.21799615865508506,-0.00046787803208349783,0.9998476628247199,0.012270963430901085,0.012403857890581477
2.1,-2.1228397920202404,-1.8256712728241458,-2.197088358932553,-0.7235634307549901,1.579037704104844,-0.5531137927236549,0.10731372782257614,0.1080789244618227,-0.3141592653590949,0.20672874003944852,0.003705652255038778,0.10730756786426184,3.945091227474655e-11,3.972824733467446e-11,-1.1548231895398567e-10,7.598980642024993e-11,1.361975145864767e-12,3.943704552175015e-11,-0.47992579672253294,-0.44895670092273776,0.21212098147959044,-0.00046516992442816903,0.9998474686424534,0.012278521146381088,0.012412130545452088
2.2,-2.1121084192379844,-1.8148633803779655,-2.228504285468457,-0.702890556751049,1.5794082693303477,-0.5423830359372307,0.10731372782257614,0.1080789244618227,-0.3141592653590949,0.20672874003944852,0.003705652255038778,0.10730756786426184,3.945091227474655e-11,3.972824733467446e-11,-1.1548231895398567e-10,7.598980642024993e-11,1.361975145864767e-12,3.943704552175015e-11,-0.46701935161290037,-0.4407570032415017,0.20636382059433012,-0.0004624738120597281,0.9998472390793747,0.012287683339762021,0.012421652928121925
2.3,-2.101377046455729,-1.8040554879317852,-2.2599202120043604,-0.682217682747108,1.5797788345558517,-0.5316522791508066,0.10731372782257614,0.1080789244618227,-0.3141592653590949,0.20672874003944852,0.003705652255038778,0.10730756786426184,3.945091227474655e-11,3.972824733467446e-11,-1.1548231895398567e-10,7.598980642024993e-11,1.361975145864767e-12,3.943704552175015e-11,-0.45426015744795956,-0.4321887787242305,0.20072762760448204,-0.0004597896950488754,0.9998469741354444,0.012298477532004488,0.01243239140418736
2.4,-2.0906456736734733,-1.7932475954856049,-2.291336138540264,-0.6615448087431669,1.5801493997813554,-0.5209215223643824,0.10731372782257557,0.10807892446182278,-0.3141592653590958,0.20672874003944852,0.003705652255038455,0.10730756786426185,3.976984759366365e-11,4.0047182653591574e-11,-1.1636979114575501e-10,7.659994355209136e-11,1.3728085466432014e-12,3.976984759366365e-11,-0.4416585271768726,-0.4232574521010091,0.19521528136932842,-0.00045711757346537273,0.9998466738106253,0.012310930705310136,0.012444311894280592
2.5,-2.0799143008912178,-1.7824397030394243,-2.3227520650761675,-0.6408719347392259,1.5805199650068589,-0.5101907655779582,0.10731372782257557,0.10807892446182278,-0.3141592653590958,0.20672874003944852,0.003705652255038455,0.10730756786426185,3.976984759366365e-11,4.0047182653591574e-11,-1.1636979114575501e-10,7.659994355209136e-11,1.3728085466432014e-12,3.976984759366365e-11,-0.42922462648378784,-0.41396874909348896,0.18982958672337713,-0.0004544574473785163,0.9998463381048808,0.012325069296759663,0.012457379881777964
2.6,-2.0691829281089626,-1.7716318105932443,-2.354167991612072,-0.620199060735285,1.580890530232363,-0.49946000879153396,0.10731372782257557,0.10807892446182278,-0.3141592653590958,0.20672874003944852,0.003705652255038455,0.10730756786426185,3.976984759366365e-11,4.0047182653591574e-11,-1.1636979114575501e-10,7.659994355209136e-11,1.3728085466432014e-12,3.976984759366365e-11,-0.41696846488519096,-0.40432869196058574,0.18457327323142192,-0.0004518093168563587,0.9998459670181762,0.012340919192054383,0.012471560420593384
2.7,-2.0584515553267067,-1.760823918147064,-2.385583918147975,-0.599526186731344,1.5812610954578667,-0.48872925200510986,0.10731372782251886,0.10807892446176566,-0.31415926535892974,0.20672874003933925,0.0037056522550364965,0.10730756786420513,-1.6903571902606693e-11,-1.7028372679574257e-11,4.953204170312642e-11,-3.258686954153054e-11,-5.841369699731803e-13,-1.6903571902606693e-11,-0.4048998869603432,-0.3943435947766181,0.17944899397808273,-0.00044917318196694507,0.9998455605504779,0.012358505719360343,0.012486818143052398
2.8,-2.048253104680192,-1.7505527478185612,-2.415439723438862,-0.579879931817954,1.5816132583395683,-0.47853138676394946,0.09376651124268659,0.09443510994606465,-0.2744999999999145,0.18063143570171947,0.003237853076989595,0.09376112891358297,-0.17079510247429278,-0.17201295075022577,0.5000000000835443,-0.32901900861923133,-0.005897728738673271,-0.17078529859612515,-0.39361329508211734,-0.38454060903919235,0.17470389738101186,-0.0004466790749933987,0.9998451414789384,0.01237685088425241,0.012502283829546774
2.9,-2.0397249330396776,-1.7419637663598557,-2.440405812976539,-0.5634512957631279,1.5819077447870364,-0.47000370465243413,0.07668700099814646,0.07723381487395131,-0.22450000000001605,0.14772953484536086,0.0026480802032220127,0.0766825990568577,-0.17079510244017376,-0.1720129507158575,0.4999999999836797,-0.32901900855351346,-0.005897728737495411,-0.17078529856202002,-0.3843178890039629,-0.37611274019281593,0.17083083725188408,-0.0004446017648621061,0.9998447665092673,0.012393427945887306,0.012515916149024496
3.0,-2.03290471242362,-1.7350949144083652,-2.4603719025142174,-0.5503128497939442,1.5821432539471276,-0.4631838755265946,0.05960749075357614,0.060032519801807564,-0.17450000000002924,0.11482763398894408,0.002058307329453388,0.05960406920010224,-0.17079510243607238,-0.17201295071173586,0.49999999997166156,-0.32901900854561045,-0.005897728737354048,-0.17078529855792557,-0.3769809888500015,-0.3692242797406644,0.16779651964424053,-0.000442945932993648,0.9998444505551787,0.012407504085895806,0.012527263678544008
3.1,-2.02779244283202,-1.7299461919640893,-2.4753379920518954,-0.5404645939104027,1.5823197858198421,-0.458071899386431,0.042527980508976014,0.042831224729633806,-0.12449999999995519,0.0819257331324699,0.0014685344556837343,0.042525539343316994,-0.1707951024610048,-0.17201295073684758,0.5000000000446726,-0.3290190085936407,-0.005897728738214653,-0.170785298582858,-0.3715394466905978,-0.3639755741006338,0.16555922908206683,-0.00044170793929183014,0.9998442043529908,0.012418536412918223,0.012536022861827879
3.2,-2.0243881242648776,-1.7265175990270283,-2.4853040815895735,-0.5339065281125037,1.5824373404051797,-0.45466777623194343,0.02544847026441361,0.025629929657498034,-0.07449999999999156,0.04902383227606837,0.0008787615819153831,0.025447009486569454,-0.170795102448663,-0.17201295072442016,0.5000000000085348,-0.3290190085698688,-0.0058977287377883795,-0.1707852985705162,-0.3679439817917451,-0.3604403129071995,0.1640871928076715,-0.0004408850552175144,0.9998440359503897,0.012426113050316037,0.012541973898260983
3.3,-2.0226917567221925,-1.7248091355971822,-2.4902701711272517,-0.5306386524002473,1.5824959177031401,-0.45297150606313186,0.00836896001984386,0.008428634585354868,-0.024500000000006423,0.016121931419652697,0.0002889887081467781,0.008368479629814574,-0.1707951024432015,-0.17201295071891726,0.4999999999925407,-0.32901900855934707,-0.005897728737599843,-0.17078529856505126,-0.36616086573382556,-0.3586668229118524,0.16335901892554938,-0.0004404754637981876,0.9998439507064243,0.012429957416394655,0.012544974123600394
3.34932179,-2.0224840153048995,-1.724599912887257,-2.490878330888036,-0.5302384601571635,1.5825030912257367,-0.4527637765704871,-3.0853796197925744e-17,-3.107379807129002e-17,9.032400741035947e-17,-5.94366307354137e-17,-1.0654129884144062e-18,-3.085202514680064e-17,-0.17079510246142268,-0.172012950737269,0.5000000000458866,-0.32901900859444966,-0.0058977287382290565,-0.17078529858327307,-0.3659428919732956,-0.35844909621545135,0.16327008969161297,-0.00044042532480909795,0.9998439402064708,0.012430431365034212,0.012545343120517966
