mathias31415/primitives_from_planned_trajectory_python/data/saved_trajectories/trajectory_20250618_092634_executed.csv
timestamp,shoulder_lift_joint_pos,elbow_joint_pos,wrist_1_joint_pos,wrist_2_joint_pos,wrist_3_joint_pos,shoulder_pan_joint_pos,shoulder_lift_joint_vel,elbow_joint_vel,wrist_1_joint_vel,wrist_2_joint_vel,wrist_3_joint_vel,shoulder_pan_joint_vel,shoulder_lift_joint_eff,elbow_joint_eff,wrist_1_joint_eff,wrist_2_joint_eff,wrist_3_joint_eff,shoulder_pan_joint_eff
1750231732.7699594,-1.7271,-2.2029999999999994,-0.8079999999999998,1.5951,-0.030999999999999694,-1.6006999999999998,0.0,0.0,0.0,0.0,0.0,0.0,3.621137313700035,3.121199266827123,0.30055339469883446,0.0020055341419326616,0.0,1.208170004274665e-16
1750231732.7709572,-1.7271,-2.2029999999999994,-0.8079999999999998,1.5951,-0.030999999999999694,-1.6006999999999998,0.0,0.0,0.0,0.0,0.0,0.0,3.621137313700035,3.121199266827123,0.30055339469883446,0.0020055341419326616,0.0,1.208170004274665e-16
1750231732.772921,-1.7271,-2.2029999999999994,-0.8079999999999998,1.5951,-0.030999999999999694,-1.6006999999999998,0.0,0.0,0.0,0.0,0.0,0.0,3.621137313700035,3.121199266827123,0.30055339469883446,0.0020055341419326616,0.0,1.208170004274665e-16
1750231732.77347,-1.7271,-2.2029999999999994,-0.8079999999999998,1.5951,-0.030999999999999694,-1.6006999999999998,0.0,0.0,0.0,0.0,0.0,0.0,3.621137313700035,3.121199266827123,0.30055339469883446,0.0020055341419326616,0.0,1.208170004274665e-16
1750231732.7740176,-1.7271,-2.2029999999999994,-0.8079999999999998,1.5951,-0.030999999999999694,-1.6006999999999998,0.0,0.0,0.0,0.0,0.0,0.0,3.621137313700035,3.121199266827123,0.30055339469883446,0.0020055341419326616,0.0,1.208170004274665e-16
1750231732.7755034,-1.7271,-2.2029999999999994,-0.8079999999999998,1.5951,-0.030999999999999694,-1.6006999999999998,0.0,0.0,0.0,0.0,0.0,0.0,3.621137313700035,3.121199266827123,0.30055339469883446,0.0020055341419326616,0.0,1.208170004274665e-16
1750231732.777829,-1.7271,-2.2029999999999994,-0.8079999999999998,1.5951,-0.030999999999999694,-1.6006999999999998,0.0,0.0,0.0,0.0,0.0,0.0,3.621137313700035,3.121199266827123,0.30055339469883446,0.0020055341419326616,0.0,1.208170004274665e-16
1750231732.7797801,-1.7271,-2.2029999999999994,-0.8079999999999998,1.5951,-0.030999999999999694,-1.6006999999999998,0.0,0.0,0.0,0.0,0.0,0.0,3.621137313700035,3.121199266827123,0.30055339469883446,0.0020055341419326616,0.0,1.208170004274665e-16
1750231732.7818506,-1.7271,-2.2029999999999994,-0.8079999999999998,1.5951,-0.030999999999999694,-1.6006999999999998,0.0,0.0,0.0,0.0,0.0,0.0,3.621137313700035,3.121199266827123,0.30055339469883446,0.0020055341419326616,0.0,1.208170004274665e-16
1750231732.7836416,-1.7271,-2.2029999999999994,-0.8079999999999998,1.5951,-0.030999999999999694,-1.6006999999999998,0.0,0.0,0.0,0.0,0.0,0.0,3.621137313700035,3.121199266827123,0.30055339469883446,0.0020055341419326616,0.0,1.208170004274665e-16
1750231732.7855592,-1.7271,-2.2029999999999994,-0.8079999999999998,1.5951,-0.030999999999999694,-1.6006999999999998,0.0,0.0,0.0,0.0,0.0,0.0,3.621137313700035,3.121199266827123,0.30055339469883446,0.0020055341419326616,0.0,1.208170004274665e-16
1750231732.7876587,-1.7271,-2.2029999999999994,-0.8079999999999998,1.5951,-0.030999999999999694,-1.6006999999999998,0.0,0.0,0.0,0.0,0.0,0.0,3.621137313700035,3.121199266827123,0.30055339469883446,0.0020055341419326616,0.0,1.208170004274665e-16
1750231732.7901337,-1.7271,-2.2029999999999994,-0.8079999999999998,1.5951,-0.030999999999999694,-1.6006999999999998,0.0,0.0,0.0,0.0,0.0,0.0,3.621137313700035,3.121199266827123,0.30055339469883446,0.0020055341419326616,0.0,1.208170004274665e-16
1750231732.7921817,-1.7271,-2.2029999999999994,-0.8079999999999998,1.5951,-0.030999999999999694,-1.6006999999999998,0.0,0.0,0.0,0.0,0.0,0.0,3.621137313700035,3.121199266827123,0.30055339469883446,0.0020055341419326616,0.0,1.208170004274665e-16
1750231732.7937682,-1.7271,-2.2029999999999994,-0.8079999999999998,1.5951,-0.030999999999999694,-1.6006999999999998,0.0,0.0,0.0,0.0,0.0,0.0,3.621137313700035,3.121199266827123,0.30055339469883446,0.0020055341419326616,0.0,1.208170004274665e-16
1750231732.795787,-1.7271,-2.2029999999999994,-0.8079999999999998,1.5951,-0.030999999999999694,-1.6006999999999998,0.0,0.0,0.0,0.0,0.0,0.0,3.621137313700035,3.121199266827123,0.30055339469883446,0.0020055341419326616,0.0,1.208170004274665e-16
1750231732.7977407,-1.7271,-2.2029999999999994,-0.8079999999999998,1.5951,-0.030999999999999694,-1.6006999999999998,0.0,0.0,0.0,0.0,0.0,0.0,3.621137313700035,3.121199266827123,0.30055339469883446,0.0020055341419326616,0.0,1.208170004274665e-16
1750231732.7996707,-1.7271,-2.2029999999999994,-0.8079999999999998,1.5951,-0.030999999999999694,-1.6006999999999998,0.0,0.0,0.0,0.0,0.0,0.0,3.621137313700035,3.121199266827123,0.30055339469883446,0.0020055341419326616,0.0,1.208170004274665e-16
1750231732.8015776,-1.7271,-2.2029999999999994,-0.8079999999999998,1.5951,-0.030999999999999694,-1.6006999999999998,0.0,0.0,0.0,0.0,0.0,0.0,3.621137313700035,3.121199266827123,0.30055339469883446,0.0020055341419326616,0.0,1.208170004274665e-16
1750231732.8076744,-1.7271,-2.2029999999999994,-0.8079999999999998,1.5951,-0.030999999999999694,-1.6006999999999998,0.0,0.0,0.0,0.0,0.0,0.0,3.621137313700035,3.121199266827123,0.30055339469883446,0.0020055341419326616,0.0,1.208170004274665e-16
1750231732.8082402,-1.7271,-2.2029999999999994,-0.8079999999999998,1.5951,-0.030999999999999694,-1.6006999999999998,0.0,0.0,0.0,0.0,0.0,0.0,3.621137313700035,3.121199266827123,0.30055339469883446,0.0020055341419326616,0.0,1.208170004274665e-16
1750231732.8085237,-1.7271,-2.2029999999999994,-0.8079999999999998,1.5951,-0.030999999999999694,-1.6006999999999998,0.0,0.0,0.0,0.0,0.0,0.0,3.621137313700035,3.121199266827123,0.30055339469883446,0.0020055341419326616,0.0,1.208170004274665e-16
1750231732.8095458,-1.7271,-2.2029999999999994,-0.8079999999999998,1.5951,-0.030999999999999694,-1.6006999999999998,0.0,0.0,0.0,0.0,0.0,0.0,3.621137313700035,3.121199266827123,0.30055339469883446,0.0020055341419326616,0.0,1.208170004274665e-16
1750231732.8114617,-1.7271,-2.2029999999999994,-0.8079999999999998,1.5951,-0.030999999999999694,-1.6006999999999998,0.0,0.0,0.0,0.0,0.0,0.0,3.621137313700035,3.121199266827123,0.30055339469883446,0.0020055341419326616,0.0,1.208170004274665e-16
1750231732.8136,-1.7271,-2.2029999999999994,-0.8079999999999998,1.5951,-0.030999999999999694,-1.6006999999999998,0.0,0.0,0.0,0.0,0.0,0.0,3.621137313700035,3.121199266827123,0.30055339469883446,0.0020055341419326616,0.0,1.208170004274665e-16
1750231732.8154483,-1.7271,-2.2029999999999994,-0.8079999999999998,1.5951,-0.030999999999999694,-1.6006999999999998,0.0,0.0,0.0,0.0,0.0,0.0,3.621137313700035,3.121199266827123,0.30055339469883446,0.0020055341419326616,0.0,1.208170004274665e-16
1750231732.8180735,-1.7271,-2.2029999999999994,-0.8079999999999998,1.5951,-0.030999999999999694,-1.6006999999999998,0.0,0.0,0.0,0.0,0.0,0.0,3.621137313700035,3.121199266827123,0.30055339469883446,0.0020055341419326616,0.0,1.208170004274665e-16
1750231732.819474,-1.7271,-2.2029999999999994,-0.8079999999999998,1.5951,-0.030999999999999694,-1.6006999999999998,0.0,0.0,0.0,0.0,0.0,0.0,3.621137313700035,3.121199266827123,0.30055339469883446,0.0020055341419326616,0.0,1.208170004274665e-16
1750231732.8214622,-1.7271,-2.2029999999999994,-0.8079999999999998,1.5951,-0.030999999999999694,-1.6006999999999998,0.0,0.0,0.0,0.0,0.0,0.0,3.621137313700035,3.121199266827123,0.30055339469883446,0.0020055341419326616,0.0,1.208170004274665e-16
1750231732.8235443,-1.7271,-2.2029999999999994,-0.8079999999999998,1.5951,-0.030999999999999694,-1.6006999999999998,0.0,0.0,0.0,0.0,0.0,0.0,3.621137313700035,3.121199266827123,0.30055339469883446,0.0020055341419326616,0.0,1.208170004274665e-16
1750231732.8255146,-1.7271,-2.2029999999999994,-0.8079999999999998,1.5951,-0.030999999999999694,-1.6006999999999998,0.0,0.0,0.0,0.0,0.0,0.0,3.621137313700035,3.121199266827123,0.30055339469883446,0.0020055341419326616,0.0,1.208170004274665e-16
1750231732.8291504,-1.7271,-2.2029999999999994,-0.8079999999999998,1.5951,-0.030999999999999694,-1.6006999999999998,0.0,0.0,0.0,0.0,0.0,0.0,3.621137313700035,3.121199266827123,0.30055339469883446,0.0020055341419326616,0.0,1.208170004274665e-16
1750231732.829836,-1.7271,-2.2029999999999994,-0.8079999999999998,1.5951,-0.030999999999999694,-1.6006999999999998,0.0,0.0,0.0,0.0,0.0,0.0,3.621137313700035,3.121199266827123,0.30055339469883446,0.0020055341419326616,0.0,1.208170004274665e-16
1750231732.832018,-1.7271,-2.2029999999999994,-0.8079999999999998,1.5951,-0.030999999999999694,-1.6006999999999998,0.0,0.0,0.0,0.0,0.0,0.0,3.621137313700035,3.121199266827123,0.30055339469883446,0.0020055341419326616,0.0,1.208170004274665e-16
1750231732.833969,-1.7271,-2.2029999999999994,-0.8079999999999998,1.5951,-0.030999999999999694,-1.6006999999999998,0.0,0.0,0.0,0.0,0.0,0.0,3.621137313700035,3.121199266827123,0.30055339469883446,0.0020055341419326616,0.0,1.208170004274665e-16
1750231732.8356068,-1.7271,-2.2029999999999994,-0.8079999999999998,1.5951,-0.030999999999999694,-1.6006999999999998,0.0,0.0,0.0,0.0,0.0,0.0,3.621137313700035,3.121199266827123,0.30055339469883446,0.0020055341419326616,0.0,1.208170004274665e-16
1750231732.837809,-1.7271001608738565,-2.2029990751597808,-0.8080031550449291,1.5951022776774106,-0.031003054128159846,-1.6007007388487509,-0.00016087527877076146,0.0009248414105038818,-0.003155049091998708,0.0022776729288321532,-0.0030541300158667367,-0.0007388478205637681,3.593690845363742,3.2745444558086003,0.21240245321047535,0.06514656515196926,-0.08607115940373619,-0.2433546345663914
1750231732.8395529,-1.7271006435124896,-2.2029963006248217,-0.8080126202296682,1.5951091106558595,-0.03101221653490871,-1.6007029553838361,-0.0003217676195043879,0.0018496971253099876,-0.0063101481346833355,0.0045552920740012815,-0.00610828230014801,-0.0014776844722353682,3.5936923099343017,3.274551807317169,0.21240036044502103,0.0651456158008571,-0.08607178644558618,-0.2433510068890378
1750231732.841577,-1.727101447967085,-2.202991676352207,-0.8080283957040679,1.5951204987739942,-0.031027487287051514,-1.6007066495717481,-0.0004826940843325836,0.002774581448644314,-0.009465347077555319,0.0068328036502311425,-0.009162479121486869,-0.002216498785755334,3.5936922823000237,3.27456471288897,0.21239636913748688,0.06514353084575729,-0.0860730407922858,-0.24334341834334533
1750231732.843902,-1.7271025743229513,-2.202985202270419,-0.8080504817178769,1.5951364417628888,-0.03104886649593208,-1.60071182135664,-0.0006436717357404599,0.0036995086844863675,-0.012620695867509218,0.00911015386890952,-0.012216742749040482,-0.0029552795911232705,3.5936907627034542,3.274583172253672,0.21239047928926633,0.06514031016949542,-0.08607492245831913,-0.2433318686707788
1750231732.845563,-1.7271025743229513,-2.202985202270419,-0.8080504817178769,1.5951364417628888,-0.03104886649593208,-1.60071182135664,-0.0006436717357404599,0.0036995086844863675,-0.012620695867509218,0.00911015386890952,-0.012216742749040482,-0.0029552795911232705,3.5936907627034542,3.274583172253672,0.21239047928926633,0.06514031016949542,-0.08607492245831913,-0.2433318686707788
1750231732.8475225,-1.7271040226995273,-2.202976878279326,-0.8080788786207318,1.5951569392460359,-0.031076354317431942,-1.6007184706603264,-0.0008047176367478288,0.0046244931365529915,-0.01577624444771589,0.011387288936434484,-0.015271095452687152,-0.003694015717223871,3.5936877514678893,3.274607185048969,0.2123826909054934,0.06513595359902263,-0.08607743146400124,-0.24331635747824557
1750231732.8497899,-1.7271057932503737,-2.2029667042501924,-0.8081135868621532,1.5951819907393339,-0.031109950951973886,-1.600726597382275,-0.0009658488510501849,0.005549549108098475,-0.01893204275621851,0.013664155052669895,-0.018325559503284232,-0.004432695991461676,3.593683249008237,3.2746367507835497,0.21237300400222056,0.06513046090850588,-0.08608056783691301,-0.2432968842451756
1750231732.8514407,-1.727107886163183,-2.2029546800256785,-0.80815460699153,1.5952115956510735,-0.031149656644524626,-1.6007362013996076,-0.0011270824432443687,0.006474690901889932,-0.022088140724797423,0.01594069840914305,-0.021380157172926323,-0.005171309239393836,3.593677255800806,3.2746718688694956,0.21236141859929789,0.06512383181196864,-0.08608433161190902,-0.2432734483180397
1750231732.855219,-1.727110301659776,-2.2029408054198356,-0.808201939658109,1.5952457532819186,-0.03119547168459391,-1.600747282567097,-0.0012884354789498567,0.0073999328200873415,-0.02524458827766974,0.018216865187522063,-0.02443491073514744,-0.005909844284363617,3.59366977242514,3.2747125386083833,0.2123479347253269,0.06511606597127582,-0.0860887228295383,-0.2432460489145307
1750231732.8556788,-1.727113039996106,-2.2029250802181135,-0.8082555856109739,1.5952844628248852,-0.03124739640624341,-1.6007598407171573,-0.0014499250250261239,0.008325289164111089,-0.028401435330212867,0.020492601557870298,-0.02748984246519072,-0.00664828994710509,3.593660799520738,3.2747587591829106,0.21233255241597127,0.06510716298983037,-0.08609374153794848,-0.24321468511107458
1750231732.857749,-1.7271161014622614,-2.202907504177361,-0.808315545699033,1.5953277233653163,-0.03130543118808493,-1.6007738756598426,-0.0016115681497280965,0.009250774234540907,-0.03155873178759498,0.02276785367702922,-0.030544974640251476,-0.007386635045409349,3.593650337817927,3.2748105296675734,0.21231527171758013,0.0650971224160842,-0.08609938779213375,-0.24317935586594114
1750231732.8595467,-1.7271194863824704,-2.2028880770258255,-0.8083818208709905,1.5953755338808542,-0.03136957645328753,-1.6007893871828394,-0.0017733819228917679,0.010176402331080187,-0.03471652754377806,0.025042567687033907,-0.0336003295397055,-0.008124868393745207,3.593638388123758,3.274867849038751,0.21229609267632513,0.06508594374457898,-0.08610566165351961,-0.2431400600009081
1750231732.8613503,-1.7271231951150998,-2.2028667984631536,-0.8084544121753288,1.595427893241409,-0.03143983266958106,-1.6008063750514587,-0.0019353834160860213,0.011102187752334932,-0.03787487247984894,0.027316689713309406,-0.03665592944531231,-0.008862978802870151,3.5936249513324743,3.2749307161415597,0.21227501535696003,0.06507362640970688,-0.08611256318925707,-0.2430967962019557
1750231732.8635366,-1.7271272280526642,-2.2028436681604013,-0.8085333207602758,1.5954848002091238,-0.03151620034926239,-1.600824839008629,-0.0020975897028266844,0.012028144795809836,-0.0410338164631539,0.029590165863213377,-0.03971179664150505,-0.009600955079502524,3.5936100284047106,3.274999129725985,0.21225203982007695,0.0650601697954331,-0.08612009247466394,-0.24304956303553124
1750231732.8654823,-1.727131585621824,-2.2028186857600254,-0.8086185478737811,1.5955462534383364,-0.03159868004919897,-1.6008447787748903,-0.002260017858711229,0.01295428775777671,-0.04419340934578084,0.03186294222422014,-0.0427679534155696,-0.01033878602592197,3.593593620398586,3.2750730884309154,0.21222716614130585,0.0650455732252385,-0.08612824959010347,-0.2429983589274524
1750231732.8679223,-1.7271362682833962,-2.2027918508758937,-0.808710094863482,1.595612251475539,-0.031687272370836794,-1.6008661940483782,-0.0024226849616359224,0.013880630933132175,-0.047353700963296025,0.0341349648623632,-0.045824422057889155,-0.011076460439604259,3.5935757284324548,3.275152590773068,0.21220039440272395,0.0650298359693947,-0.08613703462282943,-0.2429431821726722
1750231732.8694985,-1.7271412765323557,-2.2027631630932873,-0.8088079631766698,1.5956827927593331,-0.03178197796020488,-1.6008890845048214,-0.0025856080919305483,0.014807188615339535,-0.050514741133568214,0.03640617982055914,-0.04888122486216692,-0.011813967112887463,3.59355635372493,3.275237635169713,0.21217172469174195,0.06501295724149657,-0.08614644766636768,-0.24288403094781588
1750231732.8713293,-1.7271466108978375,-2.2027326219689005,-0.8089121543602511,1.595757875620381,-0.031882797507925,-1.6009134497975275,-0.0027488043325668184,0.01573397509630961,-0.053676579655342616,0.03867653311704763,-0.05193838412563634,-0.012551294832585666,3.5935354975603913,3.2753282199240012,0.21214115710743356,0.0649949362018968,-0.08615648882016726,-0.2428209032906235
1750231732.8733418,-1.7271522719431491,-2.202700227030843,-0.8090226700607115,1.5958374982813552,-0.03198973174921438,-1.6009392895573704,-0.0029122907693263536,0.01666100466629403,-0.056839266307148625,0.040945970743552294,-0.05499592214927955,-0.013288432379606257,3.5935131613045517,3.275424343226394,0.21210869175087763,0.06497577194971613,-0.08616715818983159,-0.24275379710301737
1750231732.8752842,-1.7271582602657718,-2.2026659777786506,-0.8091395120240721,1.595921658856885,-0.03210278146389811,-1.6009666033927807,-0.003076084490965567,0.01758829161375136,-0.06000285084576484,0.04321443866386253,-0.0580538612380512,-0.014025368528636279,3.5934893464099207,3.2755260031519686,0.21207432873824195,0.06495546353467786,-0.08617845588726816,-0.24268271017529422
1750231732.8773131,-1.7271645764973647,-2.2026298736832786,-0.8092626820958424,1.5960103553534966,-0.03222194747641538,-1.6009953908897314,-0.003240202589400556,0.018515850225302635,-0.06316738300515444,0.04548188281201945,-0.06111222370103635,-0.014762092047734775,3.5934640544050738,3.275633197676605,0.21203806818731288,0.06493400994603321,-0.0861903820288326,-0.24260764015114356
1750231732.8792837,-1.7271712213037773,-2.202591914187117,-0.8093921822209804,1.596103585669554,-0.03234723065582745,-1.6010256516117263,-0.0034046621599062555,0.019443694785558092,-0.06633291249501695,0.04774824909083014,-0.06417103185173656,-0.015498591698011564,3.5934372868876205,3.2757459246486724,0.21199991022758474,0.06491141012169618,-0.08620293673894136,-0.24252858455964812
1750231732.8813372,-1.7271781953850516,-2.2025520987039826,-0.809528014443833,1.5962013475951942,-0.03247863191582656,-1.6010573850997805,-0.0035694803012547675,0.020371839577079925,-0.06949948899956192,0.05001348337005028,-0.06723030800813903,-0.016234856233222246,3.593409045553047,3.2758641818233976,0.21195985499548933,0.06488766293898761,-0.08621612014395613,-0.24244554078520128
1750231732.883213,-1.7271854994754312,-2.202510426619134,-0.8096701809080935,1.596303638812259,-0.032616152214745675,-1.6010905908724133,-0.003734674115921833,0.021300298880184237,-0.07266716217614173,0.052277531484912945,-0.07029007449307373,-0.016970874399466714,3.5933793321613314,3.275987966820866,0.21191790263631657,0.06486276722422678,-0.08622993238030131,-0.24235850610480755
1750231732.8853269,-1.7271931343433682,-2.202466897289269,-0.8098186838567392,1.5964104568942246,-0.032759792555569156,-1.6011252684256245,-0.003900260710256896,0.02222908697295243,-0.07583598165408216,0.05454033923441973,-0.07335035363422183,-0.01770663493478283,3.5933481485584067,3.27611727717657,0.2118740533007222,0.06483672174621204,-0.0862443735846378,-0.2422674776481375
1750231732.8873572,-1.7272011007915324,-2.202421510042532,-0.8099735256319782,1.596521799306128,-0.03290955398594164,-1.601161417232885,-0.004066257194663266,0.023158218130993283,-0.07900599703309998,0.05680185237968131,-0.07641116776444128,-0.018442126568823655,3.5933154966651304,3.276252110285909,0.21182830715451073,0.06480952521739416,-0.08625944390279788,-0.242172452431328
1750231732.8929446,-1.7272180318103496,-2.202325158968283,-0.8103022355268461,1.5967580464372304,-0.03322744452927573,-1.6012381263906628,-0.004399548296632016,0.025017566732798074,-0.08534981373866508,0.061320777702930665,-0.08253449034998019,-0.019912258007552065,3.5932457960953386,3.2765383338614233,0.21173112510767866,0.06475167358583563,-0.08629147247820695,-0.24197039911608106
1750231732.8932714,-1.7272180318103496,-2.202325158968283,-0.8103022355268461,1.5967580464372304,-0.03322744452927573,-1.6012381263906628,-0.004399548296632016,0.025017566732798074,-0.08534981373866508,0.061320777702930665,-0.08253449034998019,-0.019912258007552065,3.5932457960953386,3.2765383338614233,0.21173112510767866,0.06475167358583563,-0.08629147247820695,-0.24197039911608106
1750231732.8935237,-1.7272269981575015,-2.202274193654337,-0.8104761088264816,1.5968829455435924,-0.033395575960924795,-1.6012786855752994,-0.004566877156884055,0.02594781271479913,-0.0885237141056498,0.06357808119923995,-0.08559704349806675,-0.020646875226379657,3.593208751657264,3.2766897185751698,0.21167968957611538,0.06472101563300146,-0.0863084310474994,-0.241863364407787
1750231732.8952503,-1.7272362996378936,-2.2022213674506625,-0.8106563313125896,1.5970123577540478,-0.03356983311951822,-1.6013207136821856,-0.004734684392937906,0.026878458838376824,-0.09169900845212325,0.06583387272465126,-0.08866022102106103,-0.02138117837150285,3.59317024740507,3.2768466145591018,0.21162635796146284,0.06468920092856839,-0.08632601935356289,-0.24175231971539576
1750231732.8974152,-1.7272459372254119,-2.2021666795427137,-0.8108429058225664,1.5971462799902099,-0.03375021727616634,-1.601364210071858,-0.004902987138168734,0.0278095193654714,-0.09487574621071494,0.06808809782657746,-0.0917240452798264,-0.022115156125305246,3.593130285648866,3.2770090186505225,0.21157113047234766,0.06465622790966755,-0.08634423756237966,-0.24163726141678327
1750231732.8994343,-1.7272559119282116,-2.2021101290874254,-0.8110358352926381,1.5972847090647395,-0.033936729746705474,-1.6014091740822076,-0.005071802531069541,0.028741008554977326,-0.09805397677671546,0.0703407020048261,-0.09478853864128992,-0.02284879715968085,3.5930888687886804,3.27717692758463,0.21151400732016234,0.06462209495768428,-0.08636308584476583,-0.24151818577001566
1750231732.9012363,-1.727266224788731,-2.2020517152132157,-0.8112351227577834,1.5974276416812483,-0.03412937189171483,-1.601455605028458,-0.005241147715466953,0.029672940662607884,-0.10123374950657718,0.0725916307099883,-0.09785372347856282,-0.023582090135682323,3.593045999287239,3.2773503379770497,0.2114549887293918,0.06458680039898959,-0.08638256437493448,-0.24139508890546993
1750231732.9031923,-1.7272768768837006,-2.201991437019995,-0.811440771351652,1.5975750744341983,-0.0343281451165236,-1.601503502203145,-0.005411039840684254,0.030605329940776978,-0.10441511371661343,0.07484082934177536,-0.1009196221710586,-0.024315023703180595,3.59300167969234,3.277529246328416,0.211394074932185,0.0645503425034008,-0.08640267333042317,-0.2412679668313028
1750231732.9052985,-1.7272878693241571,-2.2019292935791723,-0.8116527843064869,1.5977270038087992,-0.034533050871226045,-1.6015528648760906,-0.005581496061730406,0.03153819063848089,-0.10759811868157339,0.07708824324741186,-0.10398625710463155,-0.025047586500509485,3.592955912626102,3.2777136490243626,0.21133126617184883,0.06451271948580904,-0.0864234128926737,-0.24113681542692436
1750231732.9072907,-1.727299203255452,-2.201865283933664,-0.8118711649530379,1.5978834261809007,-0.0347440906506975,-1.6016036922943844,-0.005752533539474855,0.032471537001220865,-0.11078281363338338,0.07933381772013964,-0.10705365067165273,-0.02577976715416635,3.5929087007933704,3.2779035423426657,0.2112665626982585,0.06447392950918421,-0.08644478324526643,-0.24100163046269132
1750231732.909276,-1.727299203255452,-2.201865283933664,-0.8118711649530379,1.5978834261809007,-0.0347440906506975,-1.6016036922943844,-0.005752533539474855,0.032471537001220865,-0.11078281363338338,0.07933381772013964,-0.10705365067165273,-0.02577976715416635,3.5929087007933704,3.2779035423426657,0.2112665626982585,0.06447392950918421,-0.08644478324526643,-0.24100163046269132
1750231732.911313,-1.7273108798572636,-2.201799407097896,-0.8120959167204713,1.598044337816884,-0.03496126599460059,-1.6016559836823552,-0.00592416944084396,0.03340538327085873,-0.11396924775967379,0.08157749799744125,-0.11012182527110881,-0.026511554278424086,3.5928600469680916,3.278098922440584,0.21119996477349118,0.06443397067676514,-0.08646678457456733,-0.2408624075687275
1750231732.9133613,-1.727322900343613,-2.201731662057817,-0.8123270431362881,1.5982097348735482,-0.035184578487406526,-1.6017097382415466,-0.006096420939002246,0.03433974368547211,-0.11715747020230491,0.08381922925954714,-0.11319080330873695,-0.027242936475033733,3.5928099540024534,3.278299785353639,0.21113147267186538,0.0643928410399093,-0.08648941707074251,-0.24071914226734986
1750231732.9152312,-1.7273352659628705,-2.2016620477709017,-0.8125645478262227,1.5983796133979942,-0.03541402975840313,-1.6017649551506956,-0.006269305213526973,0.03527463247933902,-0.12034753005632128,0.08605895662779932,-0.11626060719703471,-0.02797390233288774,3.5927584248315565,3.2785061270218594,0.21106108666831178,0.06435053859407246,-0.08651268092423578,-0.24057182995725737
1750231732.9175692,-1.7273479779977752,-2.2015905631661603,-0.8128084345141531,1.5985539693275053,-0.03564962148170814,-1.6018216335657032,-0.006442839450614635,0.03621006388268951,-0.12353947636807734,0.0882966251630358,-0.11933125935539873,-0.028704440427664853,3.592705462454026,3.2787179432434668,0.21098880706077947,0.06430706127942104,-0.0865365763293989,-0.2404204659092286
1750231732.919408,-1.7273610377654434,-2.201517207144147,-0.813058707021999,1.5987327984894248,-0.035891355376288736,-1.601879772619606,-0.006617040843244959,0.03714605212167997,-0.1267333581341456,0.09053217986403554,-0.12240278221012484,-0.02943453932152824,3.5926510699567045,3.278935229718931,0.2109146341490738,0.06426240698240361,-0.08656110348058581,-0.2402650452829874
1750231732.9213471,-1.727374446617385,-2.201441978576968,-0.813315369269624,1.59891609660103,-0.03613923320596779,-1.6019393714225547,-0.006791926591390447,0.03808261141824901,-0.12992922429982048,0.0927655656659043,-0.12547519819452224,-0.03016418756280073,3.5925952504915264,3.279157982025684,0.21083856824545247,0.0642165735340915,-0.08658626257536892,-0.2401055631193536
1750231732.923223,-1.7273882059395174,-2.2013648763082907,-0.813578425274728,1.5991038592694036,-0.03639325677944605,-1.6020004290617784,-0.006967513902183415,0.039019755989984334,-0.13312712375764596,0.09499672743845337,-0.1285485297488749,-0.03089337368560792,3.5925380072932667,3.2793861956234807,0.21076060967435667,0.06416955871003718,-0.08661205381023052,-0.2399420143295196
1750231732.926382,-1.727402317152178,-2.2012858991533495,-0.8138478791527435,1.5992960819913011,-0.03665342795030835,-1.602062944601565,-0.00714381999011434,0.039957500050037585,-0.13632710534608725,0.09722560998466814,-0.13162279932055732,-0.031622086209607984,3.5924793436696634,3.2796198658600115,0.21068075876812728,0.06412136023258538,-0.08663847738491626,-0.23977439372441395
1750231732.9276416,-1.7274167817101436,-2.201205045898959,-0.8141237351167225,1.599492760153016,-0.03691974861704228,-1.602126917083222,-0.007320862077230169,0.040895857806932424,-0.13952921784785757,0.0994521580390811,-0.13469802936397451,-0.032350313639615456,3.5924192629956995,3.2798589879521405,0.2105990158763845,0.0640719757683905,-0.08666553349748084,-0.23960269597797718
1750231732.9294848,-1.7274316011026398,-2.2011223153035218,-0.8144059974772286,1.5996938890302408,-0.037192220723052394,-1.6021923455250544,-0.007498657393296133,0.041834843464538155,-0.142733509988821,0.10167631626621196,-0.13777424234062657,-0.03307804446534001,3.5923577687363064,3.2801035570173607,0.21051538135042835,0.06402140293001296,-0.08669322234779639,-0.23942691566704088
1750231732.9315631,-1.7274467768533608,-2.2010377060970345,-0.8146946706422167,1.5998994637879262,-0.03747084625667263,-1.60225922892233,-0.0076772231760211165,0.04277447122186743,-0.14594003043616363,0.10389802925901004,-0.1408514607190755,-0.033805267161035664,3.592294864413227,3.2803535680391844,0.2104298555630531,0.06396963927617956,-0.08672154413480265,-0.23924704723941437
1750231732.9338984,-1.727462310520485,-2.200951216981105,-0.8149897591169175,1.6001094794801356,-0.037755627251180535,-1.6023275662472507,-0.007856576671227394,0.04371475527296559,-0.14914882779709776,0.10611724153723151,-0.14392970697494745,-0.03453197018520404,3.592230553630908,3.2806090158843997,0.21034243889371032,0.06391668230975832,-0.08675049905750114,-0.23906308503381102
1750231732.9354596,-1.7274782036966903,-2.2008628466289544,-0.8152912675037136,1.6003239310498973,-0.03804656578481236,-1.6023973564489182,-0.008036735133041631,0.044655709806840506,-0.15235995061744237,0.1083338975459346,-0.1470090035908791,-0.03525814198028448,3.5921648400698096,3.280869895312656,0.2102531317324238,0.06386252948113273,-0.0867800873133841,-0.23887502327320448
1750231732.9378674,-1.7274944580091702,-2.200772593685432,-0.8155992005020165,1.600542813329054,-0.038343663980777265,-1.6024685984533038,-0.008217715824096134,0.04559734900724967,-0.15557344737994747,0.11054794165383376,-0.1500893730564924,-0.03598377097234029,3.5920977274766974,3.281136200945596,0.21016193448593104,0.06380717818414747,-0.0868103090992312,-0.23868285606558462
1750231732.9395812,-1.7275110751196534,-2.200680456767028,-0.8159135629081415,1.600766121038108,-0.03864692400726888,-1.602541291163213,-0.00839953601572428,0.04653968705264188,-0.15878936650298414,0.11275931815181309,-0.15317083786836388,-0.036708845570767645,3.5920292196724914,3.2814079272981895,0.21006884756814073,0.06375062576057156,-0.08684116461095902,-0.238486577409299
1750231732.941586,-1.7275280567244202,-2.2005864344618757,-0.816234359615172,1.600993848786064,-0.03895634807748305,-1.6026154334582534,-0.00858221298814448,0.04748273811600175,-0.1620077563388454,0.11496797125135738,-0.15625342052990956,-0.03743335416799819,3.5919593205552456,3.281685068761265,0.20997387141096271,0.06369286949773074,-0.08687265404123955,-0.23828618119252654
1750231732.9435065,-1.727545404554319,-2.200490525329773,-0.8165615956128303,1.6012259910702697,-0.03927193844962851,-1.602691024194801,-0.00876576403065565,0.048426516364689955,-0.16522866517232446,0.11717384508294355,-0.15933714355136092,-0.038157285139186745,3.591888034092168,3.2819676195968523,0.20987700645569116,0.06363390662737543,-0.08690477758207112,-0.2380816611877034
1750231732.9455233,-1.7275631203747883,-2.2003927279021855,-0.8168952759873385,1.601462542276251,-0.0395936974269393,-1.602768062205965,-0.008950206441854038,0.04937103596038326,-0.1684521412192228,0.11937688369457504,-0.16242202944962272,-0.038880626841928737,3.5918153643166812,3.2822555739599193,0.20977825315586057,0.06357373432966079,-0.08693753542144557,-0.23787301105931102
1750231732.947452,-1.7275812059858708,-2.200293040682263,-0.8172354059212816,1.6017034966775459,-0.039921627357693446,-1.6028465463015502,-0.009135557529791635,0.05031631105885207,-0.17167823262462442,0.12157703105014997,-0.16550810074820146,-0.03960336761595428,3.5917413153467033,3.2825489258672373,0.2096776119831235,0.06351234972842269,-0.08697092774533847,-0.23766022435997697
1750231732.94974,-1.7275996632222368,-2.200191462144849,-0.8175819906934603,1.601948848435535,-0.040255730635219145,-1.6029264752680241,-0.00932183461221254,0.05126235580990911,-0.17490698746156047,0.12377423102801258,-0.16859537997708024,-0.04032549578287128,3.5916658913576116,3.282847669226648,0.20957508341636116,0.06344974989624896,-0.0870049547362016,-0.23744329454259155
1750231732.9514523,-1.7276184939532016,-2.2000879907364927,-0.81793503567875,1.602198591599269,-0.04059600969791255,-1.6030078478684793,-0.009509055016725266,0.05220918435720166,-0.17813845372922643,0.12596842741935824,-0.17168388967257173,-0.041046999645849416,3.5915890966039385,3.2831517978108007,0.2094706679541717,0.06338593185041769,-0.08703961657234482,-0.23722221494329632
1750231732.9534235,-1.7276377000827434,-2.1999826248754637,-0.818294546347949,1.6024527201052918,-0.04094246702924842,-1.603090662842595,-0.009697236081008318,0.0531568108381193,-0.18137267935152218,0.12815956392670072,-0.17477365237718404,-0.041767867489345564,3.591510935409205,3.283461305277148,0.20936436610585382,0.06332089255453177,-0.08707491342829937,-0.236996978793345
1750231732.955463,-1.7276572835495303,-2.1998753629517633,-0.8186605282676256,1.6027112277774633,-0.041295105157792555,-1.6031749189066007,-0.009886395153025558,0.05410524938364323,-0.18460971217543976,0.130347584162377,-0.17786469063944804,-0.04248808757883742,3.591431412160146,3.2837761851551663,0.20925617839524782,0.06325462891953049,-0.08711084547373206,-0.23676757922240288
1750231732.95741,-1.727677246326933,-2.199766203327137,-0.8190329870999662,1.6029741083267761,-0.041653926657214235,-1.603260614753239,-0.010076549591191817,0.05505451411820658,-0.18784959996941525,0.13253243164699688,-0.18095702701373717,-0.04320764816053354,3.5913505313282594,3.2840964308525926,0.20914610536229994,0.06318713780214477,-0.08714741287323337,-0.23653400925109797
1750231732.9594028,-1.7276975904230518,-2.199655144335086,-0.8194119286026105,1.603241355351171,-0.042018934146295095,-1.6033477490517232,-0.010267716764616063,0.05600461915954354,-0.1910923904217226,0.13471404980798757,-0.18405068406007924,-0.043926537461113746,3.5912682974360983,3.2844220356468092,0.20903414756088465,0.06311841600747986,-0.08718461578609331,-0.23629626179955776
1750231732.9656749,-1.7277183178807345,-2.1995421842808867,-0.8197973586284979,1.6035129623353495,-0.042390130288946004,-1.6034363204477007,-0.010459914053269272,0.05695557861854534,-0.19433813113884268,0.13689238197799108,-0.18714568434395615,-0.04464474368745529,3.5911847150898764,3.2847529926913404,0.20892030556020394,0.0630484602848242,-0.08722245436595943,-0.23605432968435985
1750231732.966122,-1.7277183178807345,-2.1995421842808867,-0.8197973586284979,1.6035129623353495,-0.042390130288946004,-1.6034363204477007,-0.010459914053269272,0.05695557861854534,-0.19433813113884268,0.13689238197799108,-0.18714568434395615,-0.04464474368745529,3.5911847150898764,3.2847529926913404,0.20892030556020394,0.0630484602848242,-0.08722245436595943,-0.23605432968435985
1750231732.9663677,-1.727760931226066,-2.199310554066077,-0.820587708137225,1.6040692295545145,-0.043151099416278704,-1.60361776899666,-0.010847468551783689,0.05886011719806179,-0.2008386533744377,0.14123896119294732,-0.1933398049120583,-0.04607905964432106,3.5910135237694747,3.285430935515383,0.20868697131808067,0.0629048337942903,-0.08730003910719196,-0.2355578822150822
1750231732.9673474,-1.7277828213733573,-2.1991918803749995,-0.8209926398009113,1.6043538761909715,-0.043540877954500345,-1.6037106433227422,-0.011042860577815405,0.05981372450485642,-0.20409352968191616,0.14340709441604363,-0.19643897035234276,-0.046795145687213574,3.5909259243366995,3.285777906968186,0.2085674802937428,0.06283115626302534,-0.08733978554183486,-0.23530335198684124
1750231732.9695225,-1.7277828213733573,-2.1991918803749995,-0.8209926398009113,1.6043538761909715,-0.043540877954500345,-1.6037106433227422,-0.011042860577815405,0.05981372450485642,-0.20409352968191616,0.14340709441604363,-0.19643897035234276,-0.046795145687213574,3.5909259243366995,3.285777906968186,0.2085674802937428,0.06283115626302534,-0.08733978554183486,-0.23530335198684124
1750231732.9713385,-1.7278051034015425,-2.199071298560865,-0.8214040843491812,1.6046428555897556,-0.043936856253387724,-1.6038049490924422,-0.011239352351825884,0.06076824260157786,-0.20735154582884033,0.14557171400139726,-0.19953956934174868,-0.04751050128010619,3.5908369955334227,3.2861302020151633,0.2084461075058333,0.06275623127651682,-0.0873801681886799,-0.2350446073550544
1750231732.9733706,-1.727827779527555,-2.1989488067880165,-0.8218220481089036,1.6049361606664452,-0.044339037202625775,-1.6039006848329658,-0.011436961311252785,0.06172368556269124,-0.21061274898755764,0.14773276278551908,-0.20264162446924927,-0.048225114526945584,3.5907467422896207,3.2864878131674784,0.2083228536063335,0.06268005532159082,-0.08742118716431091,-0.2347816406269876
1750231732.9752614,-1.7278508520032112,-2.19882440319266,-0.8222465375011954,1.6052337842221878,-0.044747423737084624,-1.6039978490477083,-0.011635704905619337,0.06268006745493107,-0.2138771862385562,0.14989018350121425,-0.20574515832767976,-0.04893897351036204,3.590655169621875,3.286850732812442,0.2081977192606667,0.06260262483127044,-0.0874628425775279,-0.2345144440317456
1750231732.9772406,-1.7278743231152411,-2.19869808588287,-0.8226775590412458,1.6055357189434918,-0.04516201883682136,-1.6040964402162068,-0.011835600596793146,0.06363740233714574,-0.21714490456863375,0.15204391877613677,-0.20885019351337647,-0.049652066291391066,3.5905622825909758,3.2872189532060223,0.20807070515405302,0.0625239361869655,-0.08750513452696267,-0.23424300968845338
1750231732.9792347,-1.7278981951853112,-2.1985698529386166,-0.8231151193381194,1.6058419574020149,-0.04558282552708981,-1.6041964567940985,-0.012036665859155854,0.06459570426008888,-0.22041595086911878,0.1541939111313285,-0.21195675262584407,-0.05036438090925989,3.5904680863392624,3.2875924664637246,0.20794181199001238,0.062443985717819575,-0.08754806310187298,-0.23396732963308978
1750231732.9811146,-1.72792247057005,-2.1984397024117737,-0.8235592250945682,1.6061524920543484,-0.046009846878344085,-1.6042978972130797,-0.012238918179830681,0.06555498726632998,-0.22369037193418012,0.15634010297971873,-0.2150648582674009,-0.05107590538113692,3.590372586069527,3.287971264584196,0.20781104048831714,0.06236276969963981,-0.08759162838152693,-0.2336873958011647
1750231732.9831696,-1.7279471516610698,-2.1983076323261397,-0.8240098831068323,1.6064673152418005,-0.04644308600624836,-1.604400759880857,-0.0124423750588832,0.06651526539003778,-0.226968214458997,0.1584824366247148,-0.2181745330427653,-0.051786627701894496,3.59027578705162,3.288355339422488,0.2076783913880418,0.06228028435740967,-0.08763583043353765,-0.23340320003494458
1750231732.9851253,-1.7279722408849993,-2.1981736406774512,-0.8244671002644424,1.6067864191901757,-0.04688254607167508,-1.6045050431811028,-0.012647054009564106,0.06747655265682764,-0.23024952503792337,0.16062085425873027,-0.22128579955870267,-0.05249653584389878,3.590177694608127,3.2887446827014757,0.20754386544788703,0.062196525863393505,-0.08768066931557876,-0.23311473409079003
1750231732.9871268,-1.7279977407035059,-2.198037725433405,-0.8249308835500164,1.6071097960095506,-0.047328230280715644,-1.6046107454734138,-0.012852972558480514,0.06843886308358187,-0.23353435016267018,0.16275529796175264,-0.2243986804235796,-0.053205617756786706,3.5900783141433354,3.289139286009783,0.2074074634458881,0.06211149033825928,-0.08772614507276039,-0.2328219896366457
1750231732.989264,-1.7280236536133255,-2.197899884533671,-0.8254012400390511,1.6074374376940486,-0.047780141884675054,-1.6047178650932619,-0.013060148245845378,0.06940221067831871,-0.2368227362205301,0.16488570969991748,-0.22751319824689403,-0.053913861367230795,3.5899776511109462,3.289539140807796,0.2072691861778442,0.062025173851234974,-0.08777225773695914,-0.23252495824424527
1750231732.9911475,-1.7280499821462847,-2.1977601158899134,-0.8258781768997103,1.60776933612161,-0.04823828418008169,-1.60482640035195,-0.013268598625659269,0.07036660943997869,-0.24011472949249066,0.1670120313240247,-0.2306293756388651,-0.054621254578730176,3.589875711040739,3.289944238413068,0.20712903446030664,0.06193757241835167,-0.08781900732849783,-0.23222363140175614
1750231732.9932263,-1.7280767288693344,-2.197618417385806,-0.8263617013926146,1.6081054830537607,-0.04870266050868288,-1.6049363495365645,-0.013478341265968434,0.0713320733582577,-0.24341037615126393,0.1691342045682133,-0.23374723520993113,-0.055327785271409156,3.589772499508581,3.2903545700070262,0.20698700913280157,0.06184868200689234,-0.08786639385355698,-0.2319180005127539
1750231732.995158,-1.7281038963845763,-2.1974747868770557,-0.8268518208706181,1.6084458701353763,-0.04917327425744755,-1.6050477109099281,-0.013689393749051034,0.07229861641343659,-0.24670972225954055,0.17125217104850027,-0.23686679957025047,-0.05603344130180379,3.589668022165091,3.2907701266359446,0.20684311105151953,0.06175849853150345,-0.08791441730425596,-0.23160805689418837
1750231732.9976456,-1.7281314873292901,-2.1973292221914145,-0.8273485427785889,1.6087904888944458,-0.04965012885856268,-1.605160482710553,-0.013901773671639753,0.0732662525761932,-0.250012813767935,0.17336587226130995,-0.2399880913291652,-0.056738210502654984,3.5895622847214446,3.2911908992077326,0.20669734109804583,0.06166701785385135,-0.08796307765760591,-0.23129379177748635
1750231732.9997919,-1.728159504375963,-2.1971817211287057,-0.8278518746531844,1.6091393307418298,-0.050133227789435075,-1.605274663152592,-0.01411549864514814,0.07423499580742259,-0.253319696513203,0.17547524958219335,-0.2431111330946914,-0.057442080682724606,3.5894552929465298,3.291616878489797,0.20654970017103477,0.0615742357879374,-0.08801237487625976,-0.23097519631606395
1750231733.0013468,-1.7281879502323214,-2.1970322814608387,-0.8283618241226165,1.609492386971018,-0.050622574572683376,-1.6053902504257938,-0.014330586295893587,0.07520486005804508,-0.25663041621613714,0.17758024426433064,-0.24623594747293548,-0.05814503962659265,3.5893470526696007,3.2920480551101057,0.20640018919575745,0.06148014809390766,-0.08806230890642909,-0.23065226157873742
1750231733.0033731,-1.7282168276413588,-2.1968809009318324,-0.8288783989064257,1.6098496487578835,-0.05111817277613806,-1.6055072426954489,-0.014547054265307701,0.07617585926881865,-0.25994501847970947,0.17968079743723706,-0.2493625570674956,-0.05884707509446323,3.5892375697841006,3.292484419555744,0.20624880911663898,0.061384750483784487,-0.0881128796774618,-0.23032497855257927
1750231733.005348,-1.7282461393813664,-2.1967275772578354,-0.8294016068152343,1.610211107160433,-0.051620026012831666,-1.605625638102345,-0.014764920210164666,0.07714800737014155,-0.2632635487869774,0.18177685010530598,-0.25249098447889645,-0.059548174821999394,3.589126850241887,3.2929259621712954,0.2060955609040363,0.06128803861669366,-0.08816408710278406,-0.22999333815289197
1750231733.0072925,-1.728275888265964,-2.196572308127145,-0.8299314557505131,1.6105767531185562,-0.052128137940995245,-1.6057454347627171,-0.014984201802805413,0.07812131828187867,-0.26658605249920714,0.18386834314645195,-0.2556212523039017,-0.06024832652011952,3.5890149000532143,3.2933726731626525,0.2059404455478246,0.061190008101762915,-0.08821593107645435,-0.22965733120858087
1750231733.00943,-1.7283060771441345,-2.196415091200228,-0.8304679537043285,1.6109465774537706,-0.05264251226405037,-1.6058666307681975,-0.01520491673136463,0.0790958059131364,-0.26991257485372677,0.18595521731082879,-0.25875338313491664,-0.0609475178748451,3.5889017252864144,3.2938245425865973,0.20578346406487702,0.061090654500079944,-0.08826841147570265,-0.2293169484808941
1750231733.011366,-1.7283367089002493,-2.196255924109746,-0.8310111087590997,1.611320570868965,-0.053163152730597574,-1.6059892241857625,-0.01542708269997759,0.08007148416205935,-0.2732431609619018,0.18803741321936898,-0.2618873995592748,-0.06164573654710768,3.5887873320753267,3.2942815603562425,0.2056246174956507,0.06098997331964507,-0.08832152815766435,-0.22897218064897953
1750231733.0133128,-1.7283677864541076,-2.196094804460576,-0.8315609290873374,1.6116987239481406,-0.05369006313440483,-1.6061132130576876,-0.015650717429040627,0.08104836691564739,-0.2765778558070541,0.19011487136249006,-0.26502332415857066,-0.06234297017261282,3.58867172659901,3.2947437162415993,0.20546390690547484,0.06088796001993237,-0.08837528096067397,-0.2286230183278643
1750231733.0152864,-1.7283993127609634,-2.19593172982983,-0.8321174229513915,1.6120810271561468,-0.05422324731439865,-1.6062385954014955,-0.015875838655396612,0.08202646804953508,-0.279916704242415,0.19218753209875566,-0.26816117950790164,-0.06303920636165068,3.588554915110364,3.295210999865878,0.20530133338368808,0.0607846100106854,-0.08842966970171741,-0.2282694520517295
1750231733.0176606,-1.7284312908115629,-2.1957666977668815,-0.8326805987031847,1.6124674708384175,-0.05476270915464809,-1.6063653692099003,-0.016102464132597732,0.08300580142777345,-0.2832597509889522,0.19425533565352818,-0.2713009881751446,-0.06373443269894445,3.588436903904597,3.2956834007016185,0.2051368980466653,0.06067991865151519,-0.08848469417739584,-0.22791147228490155
1750231733.0193787,-1.7284637236321743,-2.195599705793387,-0.8332504647839487,1.6128580452207033,-0.055308452584350576,-1.606493532450763,-0.016330611631111616,0.08398638090260863,-0.28660704063321457,0.19631822211768132,-0.27444277272020007,-0.06442863674352824,3.5883176993441763,3.296160908072273,0.2049706020375589,0.060573881253488664,-0.08854035416302279,-0.22754906943377476
1750231733.0212462,-1.7284966142846265,-2.195430751403312,-0.8338270297239525,1.6132527404088008,-0.05586048157781498,-1.6066230830670358,-0.01656029893856577,0.08496822031428396,-0.289958617625215,0.19837613144623303,-0.2775865556941783,-0.06512180602855969,3.588197307840959,3.296643511155917,0.2048024465249902,0.06046649307695869,-0.08859664941097965,-0.22718223382145408
1750231733.0234392,-1.728529965866338,-2.195259832062953,-0.834410302142226,1.6136515463882795,-0.05641880015444123,-1.6067540189767096,-0.01679154385996221,0.08595133349081625,-0.29331452627624366,0.20042900345710318,-0.28073235963855203,-0.06581392806120798,3.588075735870374,3.2971311989799834,0.20463243270494422,0.06035774933488166,-0.08865357964978555,-0.22681095571570478
1750231733.0254233,-1.7285637815103563,-2.195086945210962,-0.8350002907462803,1.6140544530242067,-0.05698341237870341,-1.6068863380727665,-0.017024364217932745,0.08693573424774707,-0.29667481075662555,0.20247677782978254,-0.2838802070843865,-0.0665049903225178,3.587952989952055,3.29762396041378,0.20446056180172809,0.06024764519028042,-0.08871114458626374,-0.22643522531930238
1750231733.031336,-1.7285980643853938,-2.1949120882583735,-0.8355970043318264,1.6144614500608694,-0.05755432236012581,-1.6070200382231228,-0.017258777852946976,0.08792143638791233,-0.30003951509345306,0.20451939410402847,-0.28703012055140054,-0.06719498026724749,3.587829076670504,3.298121784176105,0.20428683506921919,0.06013617575702297,-0.08876934390079372,-0.2260550327612369
1750231733.0318253,-1.7286328176958587,-2.1947352585886275,-0.8362004517824833,1.614872527121493,-0.05813153425326156,-1.6071551172705778,-0.017494802623547894,0.0889084537012409,-0.30340868316845476,0.20655679167864746,-0.290182122547087,-0.06788388532378165,3.587704002665452,3.298624658836865,0.20411125378658707,0.06002333610204936,-0.08882817724897221,-0.22567036812198432
1750231733.0333953,-1.7286680446818954,-2.1945564535576008,-0.8368106420694854,1.6152876737079584,-0.05871505225766338,-1.6072915730327608,-0.017732456406608137,0.08989679996445646,-0.30678235871550497,0.20858890981016798,-0.2933362355658245,-0.06857169289399033,3.587577774619057,3.2991325727982304,0.20393381926790544,0.059909121242312555,-0.08888764426137992,-0.22528122141477763
1750231733.0353703,-1.7287037486194228,-2.1943756704936277,-0.8374275842513867,1.6157068792005167,-0.059304880617860434,-1.6074294033020804,-0.017971757097547277,0.09088648894091458,-0.31016058531855073,0.2106156876116364,-0.2964924820878976,-0.06925839035312262,3.5874503992771363,3.299645514322536,0.20375453285106546,0.05979352614815354,-0.08894774454098708,-0.22488758259652183
1750231733.0373447,-1.728739932820167,-2.1941929066975288,-0.8380512874737551,1.6161301328575002,-0.059901023623327276,-1.6075686058456657,-0.018212722610552,0.09187753438027993,-0.3135434064090851,0.21263706405130708,-0.2996508845785088,-0.06994396504967522,3.587321883442473,3.300163471500431,0.20357339590972878,0.05967654574027468,-0.08900847766294183,-0.2244894415609509
1750231733.0395508,-1.7287766006317016,-2.1940081594426406,-0.8386817609688695,1.616557423815032,-0.060503485608452756,-1.6077091784053188,-0.018455370878851,0.09286995001830173,-0.31693086526385866,0.21465297795146082,-0.3028114654868279,-0.07062840430532458,3.587192233955723,3.3006864322658807,0.20339040984644605,0.059558174893181416,-0.08906984317560375,-0.22408678815785307
1750231733.0412316,-1.7288137554374865,-2.193821425974842,-0.8393190140554037,1.616988741086733,-0.06111227095250804,-1.6078511186974573,-0.01869971985492367,0.09386374957658843,-0.3203230050025712,0.2166633679871456,-0.3059742472449061,-0.07131169541479092,3.587061457722086,3.3012143844013404,0.20320557609372933,0.05943840843308265,-0.08913184059674657,-0.22367961217008975
1750231733.043422,-1.7288514006569073,-2.1936327035125824,-0.8399630561381128,1.6174240735634253,-0.06172738407960843,-1.60799442441306,-0.0189457875107415,0.09485894676228122,-0.32371986858527413,0.21866817268497513,-0.3091392522666488,-0.0719938256457662,3.5869295616958934,3.301747315513911,0.2030188961213005,0.05931724113930535,-0.08919446941521159,-0.22326790333683663
1750231733.0452566,-1.7288895397453103,-2.193441989246912,-0.8406138967075103,1.6178634100128355,-0.06234882945868048,-1.6081390932176154,-0.019193591838008763,0.09585555526785171,-0.3271214988100927,0.22066733042190312,-0.3123065029467328,-0.07267478223882352,3.586796552883845,3.3022852130605376,0.20283037142753668,0.05919466774359723,-0.08925772908932814,-0.2228516513446162
1750231733.0474842,-1.7289281761940476,-2.1932492803415125,-0.8412715453395414,1.6183067390792931,-0.06297661160341761,-1.6082851227510657,-0.01944315084841206,0.0968535887707887,-0.3305279383106917,0.22266077942404766,-0.31547602165947974,-0.07335455240732579,3.5866624383373558,3.3028280643243746,0.2026400035458904,0.05907068293148137,-0.08932161904569833,-0.22243084582798223
1750231733.0494645,-1.7289673135305135,-2.1930545739327227,-0.8419360116952515,1.618754049283428,-0.06361073507224191,-1.608432510627753,-0.019694482573839885,0.09785306093334976,-0.3339392295537942,0.22464845776548859,-0.31864783075771425,-0.07403312333735189,3.5865272251686564,3.303375856430259,0.2024477940440263,0.058945281341390675,-0.0893861386787531,-0.22200547637531665
1750231733.05123,-1.7290069553181873,-2.1928578671295744,-0.8426073055204535,1.6192053290218653,-0.06425120446825883,-1.6085812544363627,-0.019947605066643437,0.09885398540225199,-0.3373554148366259,0.22663030336708326,-0.3218219525715923,-0.07471048218762143,3.586390920530099,3.3039285763286323,0.2022537445249439,0.05881845756512105,-0.0894512873499219,-0.22157553252764092
1750231733.0531325,-1.7290471051566731,-2.1926591570138214,-0.8432854366453792,1.6196605665669175,-0.06489802443921011,-1.6087313517398716,-0.02020253639985778,0.09985637580840982,-0.3407765362843961,0.22860625399531898,-0.3249984094074206,-0.07538661608944193,3.5862535316338646,3.304486210807611,0.2020578566265333,0.058690206148762546,-0.08951706438737318,-0.2211410037866475
1750231733.0552547,-1.7290877666817428,-2.1924584406399727,-0.843970414984339,1.620119750066275,-0.06555119967742407,-1.6088828000754916,-0.020459294667459122,0.1008602457666324,-0.34420263584771277,0.23057624726117323,-0.3281772235463873,-0.07606151214663245,3.586115065733774,3.305048746482257,0.2018601320226837,0.05856052159291207,-0.08958346908352122,-0.22070187960529203
1750231733.0572197,-1.7291289435653754,-2.192255715035321,-0.8446622505353671,1.6205828675426934,-0.06621073491976759,-1.6090355969546133,-0.020717897984603058,0.10186560887534177,-0.3476337552999465,0.2325402206189416,-0.33135841724333187,-0.07673515743547416,3.5859755301355483,3.3056161698002517,0.20166057242505317,0.05842939835161867,-0.08965050069612629,-0.22025814939738345
1750231733.0595336,-1.7291706395158046,-2.1920509771999823,-0.8453609533798643,1.6210499068936797,-0.06687663494758755,-1.6091897398627548,-0.020978364487860952,0.1028724787162301,-0.35106993623462185,0.23449811136511833,-0.334542012725454,-0.0774075390046703,3.5858349321943073,3.3061884670269523,0.2014591795814425,0.058296830833789164,-0.08971815844657706,-0.21980980254160246
1750231733.0624967,-1.729212858277556,-2.1918442241069247,-0.8460665336822384,1.6215208558911747,-0.06754890458665841,-1.6093452262595003,-0.021240712335463978,0.10388086885400717,-0.3545112200627264,0.23644985663727242,-0.33772803219095593,-0.07807864387527878,3.5856932793153518,3.306765624266989,0.2012559552790244,0.05816281340307672,-0.0897864415180219,-0.21935682836923165
1750231733.0633368,-1.7292556036314952,-2.1916354527020028,-0.8467790016895327,1.6219957021812346,-0.06822754870712,-1.6095020535784528,-0.02150495970755545,0.10489079283604516,-0.35795764801000673,0.23839539341293886,-0.3409164978077343,-0.07874845904070893,3.5855505789470845,3.3073476274383986,0.20105090134338954,0.058027340378064445,-0.08985534905674998,-0.21889921618858635
1750231733.0652926,-1.7292988793948707,-2.191424659903997,-0.8474983677310544,1.6224744332837098,-0.0689125722234154,-1.6096602192271714,-0.021771124806422865,0.10590226419205856,-0.3614092611142245,0.24033465850855368,-0.34410743171196345,-0.0794169714666538,3.5854068385897375,3.3079344622834,0.2008440196401878,0.05789040603362189,-0.0899248801691481,-0.2184369552609743
1750231733.067503,-1.7293426894213555,-2.191211842604643,-0.8482246422179971,1.6229570365919217,-0.06960398009422786,-1.6098197205871188,-0.022039225856744307,0.10691529643381542,-0.3648661002224263,0.24226758857833017,-0.3473008560066913,-0.08008416809109273,3.585262065792332,3.3085261143727718,0.20063531207467966,0.0577520045989798,-0.08999503392204758,-0.2179700348249584
1750231733.0693345,-1.7293870376010965,-2.190996997668675,-0.8489578356430538,1.6234434993723368,-0.07030177732241505,-1.6099805550136086,-0.022309281105842876,0.10792990305475561,-0.36832820598810856,0.24419412011320665,-0.35049679276039536,-0.08075003582426298,3.5851162681441378,3.309122569085267,0.2004247805937579,0.05761213025977039,-0.09006580934160026,-0.2174984440858395
1750231733.071263,-1.729431927860757,-2.190780121933855,-0.8496979585800304,1.6239338087642392,-0.07100596895493094,-1.6101427198357445,-0.022581308823915198,0.10894609752969525,-0.3717956188684123,0.24611418943978722,-0.3536952640054793,-0.08141456154862776,3.5849694532896415,3.30972381162852,0.2002124271859795,0.05747077715777996,-0.0901372054116083,-0.21702217221316922
1750231733.0733306,-1.7294773641635661,-2.1905612122110156,-0.8504450216834476,1.6244279517794014,-0.07171656008276184,-1.6103062123563676,-0.022855327304294508,0.10996389331444639,-0.3752683791212557,0.24802773271931006,-0.3568962917367927,-0.08207773211890275,3.5848216289111097,3.310329827016362,0.19999825388206943,0.05732793939150318,-0.09020922107417456,-0.2165412083618938
1750231733.0755317,-1.7295233505093606,-2.1903402652840986,-0.8511990356881389,1.624925915301752,-0.07243355584084021,-1.6104710298520022,-0.023131354863662648,0.11098330384547936,-0.37874652680242904,0.24993468594656382,-0.3600998979100427,-0.08273953436202713,3.584672802751309,3.3109406000830455,0.19978226275682123,0.057183611014742224,-0.0902818552266548,-0.21605554165262086
1750231733.0772383,-1.7295698909346333,-2.1901172779101916,-0.8519600114088481,1.6254276860870414,-0.07315696140797368,-1.6106371695727981,-0.023409409842334274,0.11200434253957677,-0.3822301017626776,0.25183498494894907,-0.36330610444024375,-0.08339995507717664,3.5845229825826808,3.3115561154757462,0.19956445592853247,0.057037786040561075,-0.09035510672273867,-0.21556516118406302
1750231733.079271,-1.7296169895125848,-2.189892246819567,-0.8527279597398092,1.6259332507625073,-0.07388678200675525,-1.610804628742474,-0.023689510604483766,0.11302702279344298,-0.3857191436447132,0.2537285653854141,-0.3665149332000913,-0.08405898103577489,3.584372176230207,3.3121763576481933,0.1993448355610424,0.05689045843763311,-0.0904289743703006,-0.2150700560346803
1750231733.081281,-1.7296646503531647,-2.1896651687157265,-0.8535028916543341,1.6264425958265356,-0.07462302290347989,-1.6109734045582664,-0.023971675538374183,0.11405135798334555,-0.3892136918802771,0.25561536274547325,-0.36972640601831563,-0.08471659898151802,3.5842203915717503,3.3128013108666945,0.19912340386230992,0.05674162213249299,-0.09050345693083861,-0.21457021526624942
1750231733.0832384,-1.7297128776031272,-2.1894360402754387,-0.8542848182043832,1.6269557076483212,-0.07536568940805655,-1.6111434941908698,-0.024255923056633755,0.1150773614647347,-0.3927137856870244,0.25749531234823164,-0.3729405446779885,-0.08537279563037378,3.5840676365166204,3.3134309592042883,0.1989001630890106,0.05659127100970929,-0.09057855311815463,-0.21406562791296255
1750231733.0852265,-1.7297616754460723,-2.1892048581487833,-0.8550737505201358,1.6274725724675259,-0.07611478687391049,-1.6113148947843827,-0.024542271596462134,0.11610504657184255,-0.39621946406551073,0.25936834934142583,-0.3761573709148129,-0.08602755767063806,3.583913919035583,3.314065286537599,0.19867511554363612,0.05643939891211925,-0.09065426159786934,-0.21355628300428395
1750231733.0910747,-1.7297616754460723,-2.1892048581487833,-0.8550737505201358,1.6274725724675259,-0.07611478687391049,-1.6113148947843827,-0.024542271596462134,0.11610504657184255,-0.39621946406551073,0.25936834934142583,-0.3761573709148129,-0.08602755767063806,3.583913919035583,3.314065286537599,0.19867511554363612,0.05643939891211925,-0.09065426159786934,-0.21355628300428395
1750231733.0915694,-1.7299115349226124,-2.1884989557519594,-0.8574826945274596,1.6290455453560462,-0.07840071922414271,-1.6118369333712765,-0.02541410809150599,0.11919832466336877,-0.40677039331477927,0.26494533355066213,-0.3858241916975709,-0.08798310260837408,3.583447072300003,3.3159961783367717,0.1979891560304161,0.055974594579366176,-0.09088504669956293,-0.21199959298517812
1750231733.093319,-1.7299626577122442,-2.1882595248483447,-0.8582997627567561,1.6295772819588161,-0.079175594936304,-1.6120135487155718,-0.02570904559010423,0.12023286917752947,-0.4102987955340499,0.2667900681226519,-0.389051984590448,-0.08863199254491923,3.583289585615631,3.3166490564725883,0.19775690540105353,0.05581657618597366,-0.090963190000717,-0.21147110783891143
1750231733.0953338,-1.7300143725673625,-2.1880180231099384,-0.8591238935604064,1.6301127008022245,-0.07995692902616014,-1.6121914603404033,-0.02600617667372331,0.12126916165634377,-0.41383297396119995,0.2686275632204826,-0.3922825729657551,-0.08927938090056067,3.58313117698985,3.317306530012859,0.19752286025207574,0.055657005416494314,-0.09104193816032533,-0.21093781008876625
1750231733.0972059,-1.730066683893722,-2.1877744470276106,-0.8599550985284985,1.6306517873414526,-0.08074472710609903,-1.612370665229136,-0.026305519932217653,0.122307215298188,-0.4173729662275961,0.2704577529442054,-0.3955159782368551,-0.08992525419845425,3.582971854654985,3.3179685816193305,0.1972870231893925,0.055495875868634276,-0.09112128953199974,-0.21039968869798945
1750231733.099292,-1.7301195961342852,-2.1875287930658542,-0.860793389326143,1.6311945268997041,-0.08153899483127436,-1.6125511603381568,-0.026607093981750297,0.1233470432773188,-0.42091880972502466,0.2722805712161911,-0.39875222175669955,-0.09056959893446813,3.582811626879923,3.318635193757877,0.19704939686964631,0.0553331811025649,-0.09120124241394922,-0.20985673263626245
1750231733.1014018,-1.7301195961342852,-2.1875287930658542,-0.860793389326143,1.6311945268997041,-0.08153899483127436,-1.6125511603381568,-0.026607093981750297,0.1233470432773188,-0.42091880972502466,0.2722805712161911,-0.39875222175669955,-0.09056959893446813,3.582811626879923,3.318635193757877,0.19704939686964631,0.0553331811025649,-0.09120124241394922,-0.20985673263626245
1750231733.1032016,-1.730173113769271,-2.187281057662842,-0.861638777692991,1.6317409046678493,-0.08233973789948568,-1.6127329425968124,-0.026910917464994626,0.12438865874336873,-0.4244705416022424,0.2740959517802639,-0.40199132481580835,-0.09121240157724016,3.5826505019921457,3.319306348675849,0.19680998400600236,0.055168914638773194,-0.09128179504746835,-0.20930893086627855
1750231733.105327,-1.7302272413162125,-2.1870312372304728,-0.8624912754427463,1.6322909057040667,-0.08314696205104877,-1.6129160089073649,-0.02721700905139326,0.12543207482090432,-0.4280281987616268,0.275903828200814,-0.4052333086402362,-0.09185364856828575,3.5824884883563386,3.319982028410394,0.19656878736507766,0.05500306995725335,-0.09136294561657113,-0.20875627235901725
1750231733.1071813,-1.7302819833300092,-2.186779328154418,-0.8633508944626671,1.6328445149334836,-0.08396067306866417,-1.613100356144928,-0.027525387437396246,0.1264773046089778,-0.4315918178557105,0.2777041338620948,-0.4084781943894433,-0.09249332632207001,3.5823255943825543,3.3206622147899476,0.1963258097703983,0.054835640502799904,-0.09144469224528382,-0.20819874608041591
1750231733.1092336,-1.7303373444029777,-2.1865253267941807,-0.8642176467130644,1.633401717147815,-0.08478087677728485,-1.6132859811574205,-0.027836071346677205,0.12752436118058427,-0.43516143528367496,0.2794968019673153,-0.4117260031542228,-0.09313142122612982,3.5821618285322865,3.3213468894126574,0.19608105410261836,0.054666619678933784,-0.0915270329992502,-0.20763634101174822
1750231733.1112077,-1.7303933291649116,-2.186269229483141,-0.8650915442267921,1.6339624970050006,-0.0856075790439732,-1.6134728807655074,-0.028149079530406983,0.12857325758224475,-0.4387370871878672,0.28128176553796036,-0.4149767559544901,-0.09376791964116438,3.581997199298374,3.3220360336719628,0.19583452329946913,0.05449600085443018,-0.09160996588183996,-0.2070690461332965
1750231733.1131916,-1.7304499422831343,-2.1860110325286177,-0.8659725991087273,1.6345268390288406,-0.08644078577775893,-1.6136610517625494,-0.028464430767449984,0.12962400683342823,-0.4423188094501602,0.2830589574129273,-0.41823047373710004,-0.09440280790115463,3.5818317152320533,3.32272962872482,0.19558622035927362,0.05432377735790788,-0.09169348883493292,-0.20649685043964627
1750231733.115165,-1.7305071884625542,-2.185750732211913,-0.8668608235352497,1.6350947276086296,-0.08728050292949163,-1.6138504909145475,-0.028782143864612163,0.13067662192611312,-0.4459066376884034,0.28482831024788047,-0.42148717737358826,-0.09503607231348932,3.5816653849266435,3.323427655519227,0.19533614833903593,0.05414994248396748,-0.091777599736776,-0.20591974293726525
1750231733.1171536,-1.7305650724457218,-2.185488324788375,-0.8677562297537049,1.6356661469987903,-0.08812673649168623,-1.6140411949600928,-0.029102237656874915,0.13173111582421385,-0.44950060725275776,0.2865897565144554,-0.42474688765788915,-0.09566769915908455,3.581498217017046,3.324130094764846,0.19508431035645196,0.05397448948882047,-0.09186229640133796,-0.2053377126445959
1750231733.1209023,-1.7306235990128869,-2.185223806487455,-0.8686588300818698,1.6362410813185038,-0.08897949249836579,-1.6142331606103095,-0.029424731007620462,0.13278750146307183,-0.4531007532219698,0.2883432284995633,-0.42800962530400377,-0.09629767469251241,3.581330220187023,3.3248369269485365,0.19483070959232734,0.053797411593060764,-0.09194757657688923,-0.204750748593687
1750231733.121327,-1.7306827729820524,-2.1849571735127578,-0.8695686369074043,1.6368195145513393,-0.08983877702489984,-1.6144263845488078,-0.029749642808851305,0.13384579174891545,-0.456707110399642,0.29008865830473535,-0.4312754109436412,-0.096925985142164,3.581161403170772,3.325548132326426,0.1945753492901737,0.05361870198263136,-0.09203343794525594,-0.20415883984279581
1750231733.1234071,-1.7307425992090355,-2.1846884220421092,-0.8704856626872974,1.6374014305448836,-0.09070459618783566,-1.6146208634316253,-0.030076991981429487,0.13490599955827062,-0.46031971331044896,0.2918259778453743,-0.4345442651237965,-0.09755261671036133,3.5809917747402045,3.3262636909124854,0.1943182327570291,0.053438353806214194,-0.09211987812003758,-0.20356197545770732
1750231733.1252599,-1.7308030825875251,-2.1844175482276107,-0.8714099199473031,1.6379868130103676,-0.0915769561447295,-1.6148165938871797,-0.030406797475292183,0.13596813773746388,-0.463938596196355,0.2935551188501797,-0.43781620830430007,-0.09817755557355123,3.580821343721905,3.326983582499253,0.194059363364309,0.05325636017992128,-0.09220689464579303,-0.20296014453971
1750231733.127394,-1.7308642280491364,-2.184144548195702,-0.8723414212813765,1.6385756455222922,-0.09245586309396803,-1.615013572516217,-0.03073907826966789,0.13703221910198657,-0.46756379301267426,0.2952760128604594,-0.44109126085533684,-0.09880078788243954,3.58065011898874,3.3277077866282463,0.19379874455099344,0.0530727141840915,-0.09229448499720354,-0.20235333620588083
1750231733.1292462,-1.7309260405634763,-2.1838694180472222,-0.8732801793510907,1.6391679115180529,-0.09334132327458455,-1.6152117958917573,-0.031073853373313826,0.13809825643593276,-0.47119533742418684,0.2969885912295344,-0.4443694430548849,-0.09942229976216246,3.5804781094545683,3.328436282603869,0.19353637982227184,0.052887408865797375,-0.09238264657679018,-0.2017415395999786
1750231733.131356,-1.7309885251381942,-2.183592153857476,-0.8742262068850568,1.6397635942975635,-0.09423334296607688,-1.6154112605590463,-0.03141114182469877,0.1391662624913898,-0.47483326280116517,0.2986927851221227,-0.4476507750861598,-0.10004207731247018,3.580305324096069,3.329169049486131,0.19327227275204864,0.052700437238124224,-0.09247137671508182,-0.20112474389874704
1750231733.133246,-1.7310516868190513,-2.1833127516762953,-0.8751795166783269,1.6403626770228783,-0.09513192848820928,-1.6156119630355041,-0.031750962692261894,0.14023624998784073,-0.47847760221536556,0.30038852551377665,-0.45093527703498293,-0.10066010660790552,3.580131771919911,3.3299060660887623,0.19300642698325912,0.05251179228162574,-0.09256067266847397,-0.20050293830701224
1750231733.1352956,-1.7311155306899728,-2.1830312075281064,-0.8761401215917966,1.6409651427178127,-0.09603708620082063,-1.615813899810675,-0.03209333507457415,0.1413082316115364,-0.4821283884360084,0.30207574319031066,-0.45422296888710134,-0.10127637369798585,3.5799574620032715,3.330647310977858,0.1927388462285465,0.05232146694396772,-0.09265053161786045,-0.1998761120616776
1750231733.1372297,-1.7311800618731112,-2.182747517411995,-0.8771080345515907,1.641570974267564,-0.09694882250361747,-1.616017067346176,-0.032438278100589926,0.14238222001485798,-0.4857856539256253,0.303754368747284,-0.4575138705254893,-0.10189086460740658,3.5797824034551495,3.3313927624646817,0.19246953427319546,0.05212945414134553,-0.09274095066811923,-0.19924425443631685
1750231733.139401,-1.7312452855289102,-2.182461677301781,-0.878083268548453,1.6421801544183294,-0.09786714383596706,-1.616221462075651,-0.03278581092982243,0.1434582278156413,-0.48944943083591075,0.30542433258944185,-0.4608080017276185,-0.10250356533624604,3.579606605447087,3.332142398601013,0.19219849497504324,0.05193574675721643,-0.09283192684722905,-0.19860735474413624
1750231733.1414719,-1.7313112068561596,-2.182173683146079,-0.879065836637114,1.642792665776925,-0.09879205667668511,-1.6164270804047183,-0.03313595275255383,0.144536267596589,-0.4931197510035886,0.3070855649302605,-0.46410538216259234,-0.10311446186016297,3.5794300772016574,3.3328961971969098,0.1919257322644738,0.05174033764521624,-0.09292345710244325,-0.19796540233194254
1750231733.1432679,-1.731377831092063,-2.181883530868376,-0.8800557519356582,1.6434084908104016,-0.09972356754381284,-1.6166339187109235,-0.03348872279004687,0.1456163519045066,-0.49679664594607975,0.3087379957914381,-0.4674060313883668,-0.1037235401306223,3.5792528279845577,3.333654135781041,0.19165125014834833,0.051543219627420006,-0.09301553830272168,-0.19731838659283052
1750231733.145291,-1.731445163512297,-2.181591216367101,-0.8810530276248851,1.6440276118456616,-0.1006616829943967,-1.616841973343691,-0.03384414029471564,0.14669849324967246,-0.5004801468572744,0.3103815550024514,-0.47070996884883076,-0.10433078607511843,3.57907486712784,3.334416191632637,0.1913750527083885,0.051344385496179014,-0.09310816723478232,-0.1966662969635753
1750231733.1498709,-1.7315132094310748,-2.1812967355157022,-0.8820576769476514,1.6446500110690734,-0.10160640962425127,-1.617051240624276,-0.03420222455033338,0.14778270410512265,-0.5041702846031677,0.31201617220013095,-0.47401721387087614,-0.10493618559740847,3.5788962040101566,3.335182341760444,0.1910971441039051,0.05114382801452277,-0.09320134060280168,-0.1960091229278403
1750231733.1504261,-1.7315132094310748,-2.1812967355157022,-0.8820576769476514,1.6446500110690734,-0.10160640962425127,-1.617051240624276,-0.03420222455033338,0.14778270410512265,-0.5041702846031677,0.31201617220013095,-0.47401721387087614,-0.10493618559740847,3.5788962040101566,3.335182341760444,0.1910971441039051,0.05114382801452277,-0.09320134060280168,-0.1960091229278403
1750231733.1512766,-1.7315819742012089,-2.181000084162717,-0.8830697132082177,1.6452756705260865,-0.10255775406772827,-1.6172617168457197,-0.03456299487221629,0.14886899690593802,-0.5078670897174569,0.31364177682822036,-0.47732778566140543,-0.1055397245777418,3.578716848066901,3.335952562904739,0.19081752857299458,0.050941539915627713,-0.09329505502666309,-0.19534685401502022
1750231733.1534724,-1.7316514632141722,-2.1807012581318492,-0.8840891497715724,1.6459045721208443,-0.10351572299746792,-1.6174733982727982,-0.03492647060739458,0.14995738404849554,-0.5115705923971082,0.3152582981370187,-0.4806417033043036,-0.10614138887310691,3.5785368087940967,3.3367268315294285,0.19053621043295882,0.0507375139050645,-0.09338930704094517,-0.19467947980666755
1750231733.1554182,-1.731721681900165,-2.1804002532220554,-0.8851160000627614,1.646536697615797,-0.10448032312415467,-1.617686281141979,-0.03529267113482306,0.15104787788974097,-0.5152808224978647,0.31686566518299514,-0.4839589857573966,-0.10674116431749218,3.5783560957324294,3.3375051238244398,0.1902531940817875,0.050531742659879114,-0.09348409309454674,-0.19400698993952342
1750231733.1571991,-1.7317926357281799,-2.1800970652076126,-0.8861502775661929,1.6471720286313134,-0.10545156119625876,-1.6179003616613752,-0.035661615865510005,0.15214049074643407,-0.5189978095296773,0.31846380682841535,-0.48727965184927735,-0.10733903672213557,3.578174718501193,3.3382874157051328,0.18996848400066918,0.05032421882889208,-0.0935794095469564,-0.19332937410363785
1750231733.1593037,-1.731864330206058,-2.1797916898382077,-0.8871919958249483,1.647810546645293,-0.10642944399977683,-1.6181156360107005,-0.03603332424271162,0.1532352348943596,-0.5227215826521702,0.32005265174108055,-0.49060372027616594,-0.10793499187579389,3.5779926867675034,3.3390736827990706,0.18968208475185816,0.0501149350357472,-0.09367525266921044,-0.19264662204739438
1750231733.1612573,-1.731936770880564,-2.1794841228390176,-0.8882411684400733,1.6484522329927755,-0.10741397835796285,-1.618332100341223,-0.036407815742111,0.15433212256754028,-0.5264521706699209,0.3216321283939794,-0.49393120959869374,-0.10852901554501318,3.577810010253986,3.3398639004490107,0.18939400098417555,0.049903883876355574,-0.09377161864175497,-0.19195872357777163
1750231733.163217,-1.732009963337446,-2.1791743599107924,-0.8892978090698636,1.649097068865552,-0.10840517113105275,-1.6185497507757214,-0.03678510987194626,0.15543116595744852,-0.5301896020278071,0.3232021650650319,-0.4972621382386185,-0.10912109347441735,3.5776266987602647,3.340658043714314,0.1891042374312479,0.049691057921388226,-0.09386850355249844,-0.19126566856776064
1750231733.1651905,-1.7320839132014996,-2.1788623967299436,-0.8903619314291404,1.6497450353117737,-0.10940302921598466,-1.6187685834084427,-0.037165226173177995,0.15653237721216276,-0.533933904806252,0.3247626898368279,-0.5005965244755262,-0.10971121138698893,3.5774427621427702,3.341456087356453,0.18881279891341973,0.04947644971605062,-0.09396590339644184,-0.19056744695263012
1750231733.1672006,-1.732158626136635,-2.17854822894863,-0.8914335492885179,1.650396113235562,-0.11040755954611114,-1.6189885943050601,-0.03754818421964548,0.15763576843554045,-0.5376851067163745,0.32631363059641905,-0.5039343864434598,-0.11029935498436678,3.577258210321067,3.3422580058439175,0.18851969034072213,0.04926005178148281,-0.09406381407361565,-0.18986404873537363
1750231733.1692066,-1.7322341078459456,-2.1782318521948483,-0.8925126764736602,1.6510502833966163,-0.1114187690909052,-1.6192097795026248,-0.037934003618203566,0.1587413516863672,-0.5414432350951944,0.3278549150350846,-0.5072757421275047,-0.11088550994713472,3.577073053283631,3.343063773346982,0.18822491671088842,0.04904185661394288,-0.09416223138786027,-0.18915546398383407
1750231733.1711879,-1.7323103640717683,-2.177913262072523,-0.8935993268645248,1.6517075264098229,-0.11243666485565651,-1.6194321350095322,-0.03832270400884254,0.1598491389774839,-0.5452083169006824,0.3293864706481866,-0.5106206093603357,-0.1114696619351688,3.5768873010963578,3.3438733637338234,0.18792848311375224,0.048821856687133985,-0.09426115104574496,-0.18844168285207985
1750231733.17319,-1.7323874005957567,-2.1775924541615996,-0.8946935143946053,1.6523678227448624,-0.11346125388116679,-1.6196556568054756,-0.038714305064858096,0.16095914227490174,-0.5489803787067812,0.3309082247349914,-0.5139690058186898,-0.11205179658790075,3.576700963877078,3.344686750566175,0.1876303947313949,0.048600044451362394,-0.09436056865447656,-0.18772269554799462
1750231733.175252,-1.7324652232389415,-2.1772694240181387,-0.8957952530501512,1.6530311527258181,-0.11449254324342917,-1.6198803408414069,-0.039108826492919184,0.16207137349688677,-0.5527594466984262,0.33242010439855607,-0.5173209490198123,-0.11263189952468018,3.576514051840724,3.345503907096228,0.18733065683844985,0.04837641233505759,-0.09446047972115248,-0.18699849237204727
1750231733.1771936,-1.7325438378618028,-2.1769441671744154,-0.8969045568693916,1.6536974965307831,-0.11553054005331287,-1.620106183039498,-0.039506288033246295,0.1631858445130505,-0.5565455466664213,0.3339220365456464,-0.5206764563178484,-0.11320995634509667,3.5763265752505684,3.3463248062631115,0.18702927480542966,0.048150952745673485,-0.09456087965121007,-0.1862690636985434
1750231733.1804342,-1.7326232503643313,-2.17661667913901,-0.8980214399417381,1.6543668341914675,-0.1165752514562266,-1.6203331792930973,-0.03990670945966234,0.1643025671434111,-0.5603387040023597,0.3354139478866152,-0.5240355449001521,-0.11378595262930129,3.5761385444712315,3.347149420693202,0.18672625409791987,0.047923658068501615,-0.09466176374611508,-0.18553439997913354
1750231733.1814554,-1.732703466686103,-2.176286955396918,-0.8991459164069804,1.6550391455928057,-0.1176266846317846,-1.6205613254666984,-0.040310110579755906,0.1654215531574052,-0.5641389436933504,0.33689576493540235,-0.5273982317836327,-0.11435987393838856,3.5759499699194843,3.347977722682063,0.18642160028075747,0.0476945206698628,-0.09476312720440998,-0.1847944917614186
1750231733.1833904,-1.7327844928063403,-2.175954991409645,-0.9002780004544757,1.6557144104725636,-0.11868484679346025,-1.6207906173958957,-0.04071651123491721,0.16654281427296405,-0.5679462903168839,0.3383674140094847,-0.5307645338109046,-0.11493170581469953,3.5757608621190164,3.348809684217076,0.18611531901540726,0.04746353289584133,-0.09486496511618647,-0.18404932966231427
1750231733.1852589,-1.7328663347439823,-2.1756207826153133,-0.901417706322321,1.6563926084209455,-0.119749745188237,-1.621021050887352,-0.04112593130046412,0.16766636215545414,-0.5717607680354135,0.3398288212298977,-0.5341344676465295,-0.11550143378222168,3.5755712316582473,3.3496452769411014,0.18580741606612497,0.047230687073946905,-0.09496727246565743,-0.1832989044021474
1750231733.1871467,-1.7329489985577542,-2.1752843244287696,-0.9025650482965188,1.6570737188802014,-0.12082138709624424,-1.6212526217187566,-0.04153839068571529,0.16879220841672277,-0.5755824005911055,0.34127991252125844,-0.5375080497731167,-0.11606904334692864,3.5753810892149933,3.3504844721790676,0.1854978972962118,0.046995975513262914,-0.09507004412720008,-0.18254320678186506
1750231733.18915,-1.7330324903462326,-2.1749456122416877,-0.9037200407101311,1.6577577211442343,-0.12189977983039135,-1.6214853256387975,-0.04195390933404317,0.16992036461402382,-0.5794112113003482,0.3427206136118472,-0.5408852964874162,-0.11663451999718365,3.5751904455618924,3.351327240912458,0.18518676867398834,0.04675939050584612,-0.09517327486512134,-0.1817822277080447
1750231733.191236,-1.7331168162479162,-2.174604641422687,-0.9048826979424227,1.6584445943582073,-0.12298493073599381,-1.6217191583671173,-0.042372507222962034,0.1710508422489611,-0.5832472230482824,0.3441508500336986,-0.5442662238963327,-0.1171978492040863,3.574999311549322,3.352173553781696,0.184874036271867,0.04652092432706065,-0.09527695933144711,-0.18101595817017957
1750231733.1932914,-1.733201982441292,-2.1742614073174362,-0.906053034417992,1.6591343175181514,-0.12407684719038503,-1.6219541155942876,-0.042794204364148734,0.17218365276644676,-0.5870904582833167,0.34557054712268154,-0.5476508479129009,-0.11775901642189325,3.574807698136964,3.353023381092085,0.18455970626726403,0.04628056923499373,-0.09538109206482384,-0.18024438926881345
1750231733.1952055,-1.733287995144905,-2.173915905248773,-0.9072310646058943,1.6598268694705736,-0.1251755366025309,-1.6221901929817708,-0.043219020803522704,0.17331880755356846,-0.5909409390114869,0.3469796300187098,-0.5510391842521876,-0.11831800708838625,3.5746156163619576,3.353876692791435,0.18424378494573146,0.04603831747421935,-0.09548566748846424,-0.17946751219502513
1750231733.197254,-1.7333748606174249,-2.1735681305168217,-0.9084168030187492,1.6605222289120647,-0.1262810064126212,-1.6224273861618883,-0.043646976621255835,0.1744563179384922,-0.5947986867908284,0.34837802366588755,-0.554431248427177,-0.11887480662529126,3.5744230773718164,3.35473345848104,0.18392627870123343,0.045794161273734646,-0.09559067990965937,-0.17868531825009257
1750231733.1993296,-1.7334625851577172,-2.173218078399108,-0.9096102642118389,1.661220374388908,-0.12739326409167173,-1.62266569073779,-0.0440780919318076,0.1755961951893321,-0.5986637227256595,0.3497656528127138,-0.5578270557445653,-0.11942940043868416,3.5742300924110695,3.355593647407378,0.18360719403812473,0.04554809284858815,-0.09569612351724197,-0.1778977988395181
1750231733.2012777,-1.7335511751049122,-2.1728657441506813,-0.9108114627821955,1.6619212842966884,-0.12851231714109623,-1.622905102283422,-0.04451238688393057,0.17673845051296594,-0.6025360674608123,0.35114244201233774,-0.5612266213005203,-0.11998177391940482,3.574036672831095,3.3564572284514207,0.18328653757220395,0.0453001044012178,-0.09580199238058579,-0.17710494547711786
1750231733.2032213,-1.7336406368384694,-2.1725111230042433,-0.9120204133676788,1.6626249368799022,-0.12963817309229064,-1.6231456163434972,-0.04494988166067231,0.1778830950538595,-0.6064157411757918,0.3525083156228435,-0.5646299599763906,-0.12053191244349303,3.5738428300923015,3.357324170130817,0.1829643160327772,0.04505018812216405,-0.09590828044819819,-0.17630674979216862
1750231733.2054038,-1.733730976778249,-2.172154210170266,-0.913237130646035,1.6633313102315668,-0.1307708395061935,-1.623387228433467,-0.04539059647938632,0.1790301398929025,-0.6103027635789324,0.35386319780751807,-0.5680370864343248,-0.12107980137260328,3.5736485757592567,3.358194440602142,0.18264053626258775,0.04479833618954327,-0.09601498154516475,-0.17550320352058976
1750231733.2109985,-1.733730976778249,-2.172154210170266,-0.913237130646035,1.6633313102315668,-0.1307708395061935,-1.623387228433467,-0.04539059647938632,0.1790301398929025,-0.6103027635789324,0.35386319780751807,-0.5680370864343248,-0.12107980137260328,3.5736485757592567,3.358194440602142,0.18264053626258775,0.04479833618954327,-0.09601498154516475,-0.17550320352058976
1750231733.211433,-1.7339143171583347,-2.1714334901712373,-0.9156939241860966,1.6647521308525903,-0.13305663411093693,-1.6238737286184097,-0.04628176728346241,0.18133147446344602,-0.6180989308910799,0.356539683580697,-0.5748627602226252,-0.12216877182326988,3.573258879167803,3.359944838631829,0.18198832998852285,0.04428879402628611,-0.09622959750830996,-0.17388002676629644
1750231733.2132528,-1.7340073306409813,-2.1710696733171737,-0.9169340299941444,1.6654665335470913,-0.13420977756734676,-1.6241186075977225,-0.046732263874755195,0.18248578602749863,-0.622008112806829,0.3578611345250744,-0.578281335741432,-0.12270982400024305,3.5730634606322416,3.360824900609289,0.1816599177578698,0.04403108810285425,-0.09633749939801602,-0.1730603803556545
1750231733.215295,-1.7341012484146692,-2.170703545397819,-0.9181819615857947,1.6661835678595527,-0.1353697620166736,-1.6243645663755553,-0.04718606171978116,0.1836425415522055,-0.6259247174119787,0.35917128875619164,-0.5817037554101091,-0.12324856789397323,3.5728676779637976,3.3617081601965935,0.18132997584685423,0.04377141514220585,-0.09644578836219275,-0.17223535150737457
1750231733.2173216,-1.734196077102288,-2.1703351015144943,-0.9194377338237709,1.666903211119775,-0.13653659516075756,-1.624611600320641,-0.047643181206839594,0.1848017517815438,-0.629848761968349,0.3604700694691292,-0.5851300327276476,-0.12378498880096171,3.5726715433342857,3.3625945836342193,0.18099851169392986,0.04350976727817874,-0.09655445758936426,-0.17140493257265818
1750231733.219246,-1.7342918233675384,-2.169964336747106,-0.9207013616048165,1.6676254405037565,-0.1377102847281897,-1.624859704772291,-0.048103642758216034,0.18596342738813892,-0.6337802632298656,0.3617573996666752,-0.5885601809465779,-0.12431907200605627,3.572475069058299,3.3634841367587707,0.18066553286336343,0.043246136637595564,-0.09666350013667746,-0.17056911602369598
1750231733.2215316,-1.7343884939150005,-2.1695912461542886,-0.9219728598586654,1.6683502330333095,-0.13889083847381745,-1.6251088750403797,-0.048567466830103476,0.18712757897195564,-0.6377192374363915,0.3630332021598857,-0.5919942130682053,-0.12485080278296652,3.5722782675842075,3.364376785016743,0.18033104704044423,0.04298051534235818,-0.09677290892707612,-0.16972789447563535
1750231733.2232976,-1.7344860954901984,-2.1692158247735476,-0.9232522435470161,1.669077565575677,-0.140078264178233,-1.6253591064053134,-0.049034673912484825,0.18829421705886404,-0.6416657003071996,0.3642973995686277,-0.5954321418378041,-0.12538016639470922,3.5720811515041397,3.3652724934432428,0.1799950620412404,0.04271289550905453,-0.09688267674811404,-0.16888126066325831
1750231733.2252293,-1.7345846348796723,-2.168838067621415,-0.9245395276624775,1.6698074148431514,-0.14127256964726165,-1.6256103941180173,-0.04950528452902331,0.18946335209920978,-0.6456196670345824,0.36554991432221745,-0.5988739797397967,-0.12590714809415585,3.5718837335514864,3.3661712266583366,0.17965758580811728,0.04244326925132319,-0.09699279625154131,-0.16802920747734434
1750231733.2272773,-1.7346841189110416,-2.1684579696935975,-0.9258347272275103,1.670539757392693,-0.14247376271143164,-1.6258627333999112,-0.049979319236910784,0.19063499446641619,-0.6495811522773947,0.3667906686600243,-0.6023197389927777,-0.12643173312448827,3.571686026617624,3.367072948879456,0.17931862641235222,0.04217162867904668,-0.097103259948935,-0.16717172793106294
1750231733.229277,-1.734784554453074,-2.1680755259651328,-0.9271378572933555,1.671274569625552,-0.14368185122543675,-1.6261161194428926,-0.05045679862672158,0.19180915445544672,-0.6535501701543729,0.3680195846321582,-0.6057694315445983,-0.1269539067197366,3.5714880437450907,3.3679776238891828,0.17897819205910348,0.04189796590041695,-0.09721406021340157,-0.16630881519118862
1750231733.2311432,-1.7348859484157515,-2.1676907313905494,-0.9284489329389443,1.6720118277868898,-0.14489684306759543,-1.6263705474093175,-0.05093774332224298,0.19298584228135215,-0.6575267342376075,0.3692365841002074,-0.609223069067294,-0.12747365410528538,3.5712897981389187,3.368885215054916,0.17863629108371346,0.04162227302338818,-0.09732518927515312,-0.1654404625650931
1750231733.2332304,-1.7349883077503367,-2.1673035809040258,-0.9297679692698013,1.6727515079654034,-0.14611874613928677,-1.6266260124319851,-0.05142217398029713,0.1941650680777218,-0.6615108575457688,0.37044158873793387,-0.6126806629520172,-0.1279909604983986,3.571091303166519,3.36979568530925,0.1782929319580146,0.041344542154342676,-0.09743663922165875,-0.16456666350873866
1750231733.2352185,-1.7350916394494398,-2.1669140694195557,-0.9310949814169289,1.67349358609295,-0.14734756836438745,-1.6268825096141226,-0.05191011129053039,0.19534684189513504,-0.6655025525373894,0.3716345200321253,-0.616142224303889,-0.12850581110875364,3.570892572370535,3.370708997150979,0.17794812328867948,0.04106476540243986,-0.09754840199535449,-0.16368741162988412
1750231733.2373247,-1.735195950547082,-2.1665221918311186,-0.9324299845356805,1.6742380379441741,-0.14858331768869437,-1.6271400340293667,-0.05240157597519146,0.1965311736995599,-0.6695018311040035,0.37281529928336204,-0.6196077639367716,-0.1290181911389649,3.5706936194704437,3.371625112635014,0.1776018738209484,0.040782934877150886,-0.0976604693914198,-0.1628027006848638
1750231733.2392135,-1.73530124811876,-2.166127943012844,-0.9337729938046193,1.674984839136136,-0.1498260020793385,-1.6273985807217555,-0.05289658878890966,0.19771807337078054,-0.6735087045632999,0.37398384760693115,-0.6230772923680445,-0.1295280857851566,3.570494458364004,3.372543993377616,0.1772541924382368,0.04049904269225407,-0.09777283305787149,-0.16191252459518887
1750231733.2411983,-1.735407539281514,-2.165731317819194,-0.9351240244243666,1.6757339651279415,-0.15107562952418174,-1.6276581447057117,-0.05339517051844418,0.19890755070070348,-0.6775231836521296,0.37514008593367576,-0.6265508198132478,-0.13003548023748077,3.5702951031317784,3.3734656005325805,0.1769050881653974,0.04021308096402681,-0.09788548449183256,-0.16101687742962204
1750231733.2440748,-1.735407539281514,-2.165731317819194,-0.9351240244243666,1.6757339651279415,-0.15107562952418174,-1.6276581447057117,-0.05339517051844418,0.19890755070070348,-0.6775231836521296,0.37514008593367576,-0.6265508198132478,-0.13003548023748077,3.5702951031317784,3.3734656005325805,0.1769050881653974,0.04021308096402681,-0.09788548449183256,-0.16101687742962204
1750231733.2454674,-1.7355148311939885,-2.165332311085132,-0.9364830916164273,1.676485391220375,-0.15233220803121217,-1.6279187209660329,-0.053897341982391864,0.20009961539173912,-0.6815452785194926,0.3762839350109863,-0.6300283561807144,-0.13054035968070057,3.5700955680599655,3.3743898948099402,0.17655457017023324,0.039925041815087464,-0.09799841503921604,-0.1601157534270198
1750231733.247217,-1.7356231310564993,-2.164930917626309,-0.9378502106220123,1.677239092555533,-0.1535957456279231,-1.6281803044578815,-0.05440312403091492,0.20129427705506076,-0.6855749987194808,0.37741531540374823,-0.6335099110661434,-0.1310427092947452,3.5698958676232877,3.375316836447038,0.17620264776321537,0.03963491737311438,-0.09811161589305539,-0.15920914698679817
1750231733.2492068,-1.73573244611109,-2.1645271322392485,-0.9392253967008415,1.6779950441164597,-0.1548662503606799,-1.6284428901067765,-0.05491253754541177,0.20249154520889803,-0.6896123532041205,0.3785341474953738,-0.6369954937470772,-0.13154251425528116,3.5696960165115725,3.3762463852206923,0.1758493304011475,0.039342699773146715,-0.09822507809081112,-0.15829705267500846
1750231733.2512295,-1.7358427836415995,-2.1641209497015286,-0.9406086651299272,1.6787532207267861,-0.15614373029408313,-1.6287064728085818,-0.055425603438215,0.20369142927677614,-0.6936573503161362,0.3796403514888852,-0.6404851131773639,-0.13203975973429094,3.5694960296143763,3.377178500433347,0.17549462768858906,0.03904838115895184,-0.09833879251394599,-0.15737946522630972
1750231733.2532883,-1.735954150973722,-2.1637123647719783,-0.9420000312023555,1.6795135970503694,-0.15742819351031212,-1.6289710474295047,-0.05594234265222158,0.20489393858570476,-0.6977099977817034,0.3807338474079711,-0.6439787779815405,-0.1325344309006683,3.569295922047109,3.3781131409051945,0.17513854937799658,0.03875195368213882,-0.09845274988569461,-0.15645637955219024
1750231733.255235,-1.7360665554750696,-2.1633013721908707,-0.9433995102260386,1.6802761475909358,-0.15871964810845807,-1.629236608806087,-0.0564627761605248,0.2060990823643786,-0.7017703027031115,0.3818145550981758,-0.647476496449142,-0.13302651292079168,3.569095709149459,3.3790502649780145,0.17478110537242844,0.03845340950594118,-0.09856694076898075,-0.15552779073165174
1750231733.2574484,-1.7361800045552283,-2.1628879666801204,-0.9448071175224664,1.6810408466917257,-0.16001810220385604,-1.6295031517452,-0.056986924966012424,0.2073068697413091,-0.7058382715513365,0.3828823942280787,-0.6509782765289869,-0.13351599095913838,3.568895406496917,3.3799898305012976,0.17442230572758977,0.038152740804757286,-0.09868135556574507,-0.1545936940275149
1750231733.259273,-1.7362945056658194,-2.1624721429434866,-0.9462228684254308,1.6818076685351404,-0.16132356392739045,-1.629770671024045,-0.057514810100971314,0.2085173097429377,-0.7099139101585994,0.3839372842905139,-0.6544841258233766,-0.13400285017889044,3.56869502989525,3.380931794827588,0.1740621606518698,0.03784993976523322,-0.09879598451452393,-0.15365408488269197
1750231733.261154,-1.736410066300559,-2.162053895666781,-0.9476467782797453,1.6825765871423923,-0.1626360414247996,-1.6300391613901457,-0.05804645262664166,0.20973041129172146,-0.7139972237108041,0.38497914460384536,-0.6579940515822316,-0.13448707574252974,3.56849459540019,3.381876114810701,0.17370068050994467,0.03754499858781887,-0.09891081768867338,-0.1527089589172252
1750231733.2632098,-1.7365266939953123,-2.161633219518075,-0.94907886243994,1.6833475763731571,-0.16395554285596425,-1.6303086175613526,-0.05858187363274587,0.21094618320417982,-0.7180882167399615,0.3860078943133003,-0.6615080606972076,-0.13496865281248463,3.5682941193264957,3.382822746797167,0.17333787582278581,0.03723790948822279,-0.09902584499579357,-0.1517583119477009
1750231733.26516,-1.7366443963281553,-2.1612101091479143,-0.9505191362689516,1.684120609925229,-0.16528207639418468,-1.6305790342258417,-0.059121094237021755,0.2121646341889043,-0.7221868931165342,0.38702345239230984,-0.6650261596956965,-0.13544756655172982,3.568093618241697,3.383771646618996,0.1729737572695063,0.03692866469766561,-0.09914105617449163,-0.1508021399698349
1750231733.2672803,-1.7367631809194224,-2.160784559189537,-0.9519676151367866,1.6848956613341786,-0.1666156502254479,-1.6308504060421152,-0.0596641355846954,0.21338577284454682,-0.7262932560416852,0.38802573764394604,-0.6685483547348007,-0.13592380212442876,3.5678931089917403,3.3847227695926363,0.1726083356903475,0.036617256465461795,-0.09925644079363427,-0.14984043917510928
1750231733.2691123,-1.73688305543177,-2.1603565642590947,-0.9534243144191814,1.685672703973013,-0.16795627254767886,-1.6311227276390055,-0.06021101884797123,0.2146096076577439,-0.7304073080394999,0.38901466870234463,-0.6720746515952676,-0.1363973446965736,3.567692608688479,3.3856760705030737,0.17224162208649024,0.03630367705853258,-0.09937198825121278,-0.1488732059498007
1750231733.274722,-1.73688305543177,-2.1603565642590947,-0.9534243144191814,1.685672703973013,-0.16795627254767886,-1.6311227276390055,-0.06021101884797123,0.2146096076577439,-0.7304073080394999,0.38901466870234463,-0.6720746515952676,-0.1363973446965736,3.567692608688479,3.3856760705030737,0.17224162208649024,0.03630367705853258,-0.09937198825121278,-0.1488732059498007
1750231733.2753532,-1.7370040275702232,-2.159926118955883,-0.9548892494962349,1.6864517110518407,-0.16930395156998213,-1.6313959936156799,-0.06076176522544924,0.21583614700105966,-0.734529050949154,0.3899901640342224,-0.6756050556752994,-0.13686817943662652,3.5674921347413653,3.3866315036133283,0.1718736276223652,0.03598791876406299,-0.0994876877708456,-0.1479004368762308
1750231733.2773466,-1.7371261050822309,-2.159493217862564,-0.9563624357510321,1.6872326556175365,-0.1706586955118734,-1.631670198541645,-0.061316395941545226,0.21706539913083936,-0.7386584859169695,0.39095214194041716,-0.679139571984382,-0.1373362915161696,3.5672917048507364,3.387589022644378,0.17150436362786073,0.035669973890042034,-0.09960352840230802,-0.1469221287365393
1750231733.2792573,-1.7372492957577146,-2.1590578555454076,-0.9578438885682541,1.6880155105534131,-0.17202051260249007,-1.631945336956754,-0.06187493224589765,0.2182973721850548,-0.7427956133884609,0.3919005205574867,-0.6826782051370018,-0.13780166611057132,3.567091337012029,3.3885485807737554,0.17113384159851172,0.03534983476682852,-0.09971949901837236,-0.14593827851833865
1750231733.2812407,-1.737373607429122,-2.1586200265545266,-0.9593336233327623,1.688800248578893,-0.17338941107980066,-1.6322214033712168,-0.06243739541270954,0.21953207418110454,-0.7469404331002524,0.3928352178593454,-0.68622095934632,-0.13826428839964305,3.566891049540773,3.389510130630754,0.17076207319931003,0.03502749374821656,-0.099835588313617,-0.14494888341285186
1750231733.283199,-1.7374990479714718,-2.158179725424123,-0.9608316554281773,1.6895868422491858,-0.17476539918979128,-1.6324983922656058,-0.06300380674008553,0.22076951301358064,-0.7510929440719987,0.39375615165895234,-0.6897678384177792,-0.1387241435683016,3.566690861071247,3.3904736242886298,0.1703890702641181,0.034702943212806515,-0.09995178480252141,-0.14395394081691346
1750231733.2854285,-1.7376256253024032,-2.157736946672732,-0.9623380002354356,1.6903752639549667,-0.17614848518564852,-1.6327762980908709,-0.06357418754933497,0.22200969645201574,-0.7552531445982397,0.3946632396100433,-0.6933188457426753,-0.13918121680726606,3.5664907905699934,3.3914390132621683,0.17001484479757775,0.034376175565116227,-0.10006807681847174,-0.14295344834606927
1750231733.2874086,-1.7377533473822195,-2.1572916848034795,-0.9638526731313304,1.6911654859220613,-0.1775386773269192,-1.6330551152683466,-0.06414855918425265,0.22325263213854235,-0.7594210322401151,0.39555639920894003,-0.696873984291639,-0.1396354933137199,3.5662908573390775,3.3924062484909285,0.16963940897848528,0.034047183237810225,-0.10018445251123681,-0.14194740382283513
1750231733.289345,-1.7378822222139334,-2.1568439343043346,-0.9653756894870362,1.6919574802111315,-0.17893598387866838,-1.6333348381897732,-0.06472694301037016,0.224498327585591,-0.7635966038171134,0.3964355477963505,-0.700433256608093,-0.1400869582920223,3.566091081030312,3.393375280348624,0.16926277515923566,0.03371595869126501,-0.1003008998462645,-0.14093580529432442
1750231733.2912505,-1.7380122578433124,-2.1563936896483735,-0.9669070646666178,1.692751218717367,-0.18034041311061166,-1.6336154612173042,-0.06530936041415573,0.22574679017347282,-0.7677798553987041,0.39730060255930033,-0.7039966648016003,-0.14053559695437204,3.5658914816593,3.3943460586218563,0.16888495586843416,0.03338249441737605,-0.1004174066016354,-0.13991865101714285
1750231733.2932475,-1.738143462358913,-2.155940945294047,-0.9684468140255245,1.6935466731701792,-0.18175197329624737,-1.6338969786835271,-0.0658958328021927,0.2269980271479564,-0.7719707822959135,0.3981514805330276,-0.7075642105412153,-0.1409813945215381,3.565692079614849,3.3953185325093207,0.16850596381256291,0.033046782938278126,-0.1005339603681129,-0.13889593948188012
1750231733.2957797,-1.7382758438921275,-2.1554856956854485,-0.9699949529090581,1.6943438151328998,-0.18317067271196397,-1.63417938489148,-0.06648638160036761,0.2282520456178419,-0.7761693790528617,0.39898809860300727,-0.7111358950487288,-0.14142433622355122,3.565492895651721,3.396292650621771,0.16812581187693523,0.03270881681009764,-0.10065054854617524,-0.13786766939743045
1750231733.2972205,-1.7384094106172174,-2.155027935252596,-0.9715514966508385,1.6951426160024836,-0.1845965196361412,-1.6344626741146708,-0.0670810282529488,0.22950885255241896,-0.7803756394382073,0.3998103735069797,-0.7147117190918784,-0.1418644073004211,3.565293950931964,3.397268360962508,0.16774451312798805,0.03236858862295376,-0.10076715834504592,-0.1368338397047862
1750231733.2991018,-1.73854417075135,-2.1545676584117075,-0.9731164605712372,1.695943047009215,-0.18602952234823533,-1.6347468405970984,-0.06767979422169532,0.23076845477895155,-0.7845895564365771,0.40061822183703477,-0.7182916829774957,-0.14230159300285297,3.5650952670109968,3.3982456109319044,0.16736208081370205,0.0320260910024869,-0.10088377678088899,-0.13579444957451003
1750231733.3012064,-1.7386801325546326,-2.1541048595654937,-0.9746898599758058,1.696745079216418,-0.18746968912784823,-1.6350318785532743,-0.06828270098489966,0.23203085898008277,-0.7888111222398724,0.401411560041779,-0.7218757865446002,-0.1427358785929744,3.564896865861508,3.3992243473141963,0.16697852836685242,0.03168131661215425,-0.10100039067532693,-0.1347494984127768
1750231733.3049288,-1.7388173043301478,-2.153639533103444,-0.9762717101536778,1.6975486835201732,-0.18891702825378687,-1.6353177821682454,-0.06888977003641537,0.23329607169122785,-0.7930403282385828,0.40219030442853154,-0.7254640291574155,-0.1431672493450641,3.564698769877376,3.400204516275625,0.16659386940468576,0.03133425815400397,-0.1011169866532508,-0.13369898586189938
1750231733.305473,-1.7388173043301478,-2.153639533103444,-0.9762717101536778,1.6975486835201732,-0.18891702825378687,-1.6353177821682454,-0.06888977003641537,0.23329607169122785,-0.7930403282385828,0.40219030442853154,-0.7254640291574155,-0.1431672493450641,3.564698769877376,3.400204516275625,0.16659386940468576,0.03133425815400397,-0.1011169866532508,-0.13369898586189938
1750231733.3075345,-1.7389556944239768,-2.153171673402129,-0.977862026375961,1.6983538306490356,-0.19037154800310585,-1.6356045455976203,-0.06950102288461597,0.23456409929789057,-0.7972771650130075,0.4029543711655717,-0.7290564096983652,-0.14359569054629334,3.5645010018985572,3.4011860633518967,0.16620811773136412,0.03098490837006939,-0.10123355114223603,-0.13264291180730084
1750231733.3095145,-1.739095311225232,-2.152701274825497,-0.9794608238941063,1.6991604911637597,-0.1918332566501375,-1.6358921629675969,-0.07011648105137468,0.2358349480329838,-0.8015216223244154,0.4037036762844677,-0.7326529265609794,-0.14402118749746531,3.5643035852003675,3.402168933448534,0.1658212873395478,0.030633260044634243,-0.10135007037003989,-0.13158127637512834
1750231733.3115582,-1.7392361631660833,-2.1522283317251887,-0.981068117938257,1.699968635457029,-0.19330216246550602,-1.6361806283749871,-0.07073616607094858,0.23710862397403848,-0.8057736891061266,0.40443813568242615,-0.7362535776427547,-0.14444372551375054,3.5641065435277217,3.4031530708222046,0.16543339241230823,0.030279306004801828,-0.10146653036327896,-0.13051407993450448
1750231733.3134303,-1.7393782587217812,-2.1517528384408475,-0.9826839237155927,1.7007782337531885,-0.19477827371512735,-1.6364699358872485,-0.07136009948885647,0.23838513304047104,-0.810033353454629,0.4051576651247216,-0.7398583603379765,-0.14486328992546005,3.5639099010996236,3.404138419093529,0.1650444473225893,0.02992303912264675,-0.10158291694637166,-0.12944132310978645
1750231733.3153393,-1.7395216064106744,-2.1512747893004347,-0.9843082564086387,1.7015892561079842,-0.19626159865919934,-1.6367600795425155,-0.07198830286070872,0.23966448099072205,-0.8143006026205474,0.4058621802471929,-0.7434672715304427,-0.14527986607879695,3.5637136826214495,3.405124921222563,0.16465446663663152,0.02956445231712576,-0.10169921573876402,-0.12836300677508516
1750231733.3173716,-1.7396662147942363,-2.1507941786205613,-0.9859411311735693,1.7024016724083062,-0.19775214555116793,-1.6370510533496327,-0.07262079775101245,0.2409466734193469,-0.8185754229995466,0.40655159655875417,-0.7470803075861963,-0.14569343933661497,3.5635179132915953,3.4061125194998954,0.16426346511554113,0.02920353855443698,-0.10181541215517442,-0.1272791320575198
1750231733.319289,-1.7398120924770728,-2.1503110007068162,-0.9875825631384858,1.7032154523719378,-0.1992499226366906,-1.6373428512881851,-0.07325760573190769,0.2422317157541558,-0.8228578001232681,0.4072258294440066,-0.7506974643461132,-0.14610399507918168,3.5633226188319407,3.407101155562232,0.16387145771530875,0.028840290850871062,-0.10193149140152043,-0.12618970033913868
1750231733.321463,-1.7399592481069428,-2.149825249854098,-0.9892325674016833,1.7040305655473094,-0.2007549381525715,-1.637635467308538,-0.07389874838190401,0.2435196132532164,-0.8271477186501621,0.4078847941659046,-0.7543187371185598,-0.1465115187049826,3.5631278254798238,3.408090770360927,0.1634784595883767,0.028474702274195945,-0.10204743847687767,-0.12509471327331054
