mathias31415/primitives_from_planned_trajectory_python/data/saved_trajectories/trajectory_20250624_120931_planned.csv
time_from_start,shoulder_pan_joint_pos,shoulder_lift_joint_pos,elbow_joint_pos,wrist_1_joint_pos,wrist_2_joint_pos,wrist_3_joint_pos,shoulder_pan_joint_vel,shoulder_lift_joint_vel,elbow_joint_vel,wrist_1_joint_vel,wrist_2_joint_vel,wrist_3_joint_vel,shoulder_pan_joint_acc,shoulder_lift_joint_acc,elbow_joint_acc,wrist_1_joint_acc,wrist_2_joint_acc,wrist_3_joint_acc,fk_x,fk_y,fk_z,fk_qx,fk_qy,fk_qz,fk_qw
0.0,-0.4877760000000002,-1.7890100000000002,-2.1248749999999994,-0.7879159999999992,1.604518,1.0824940000000005,7.413236914238099e-06,3.4284955402981886e-05,0.0005000000000000001,-0.00019647403019641864,-0.00013110238037452107,2.0932531782649425e-05,0.0074132369142380986,0.03428495540298188,0.5000000000000001,-0.19647403019641863,-0.13110238037452107,0.020932531782649425,0.5060147709347678,-0.4611512744871516,0.26484634842360266,-0.00035237885907331594,0.9998437902081486,0.012409526490071631,0.01258072587871804
0.1,-0.48773893381542904,-1.7888385752229852,-2.122374999999999,-0.7888983701509813,1.6038624880981276,1.0825986626589137,0.0007413236914238157,0.003428495540298215,0.050000000000000405,-0.019647403019642018,-0.01311023803745221,0.002093253178264959,0.0074132369142424,0.03428495540300135,0.5000000000002844,-0.19647403019653117,-0.13110238037459554,0.020932531782661273,0.5070171541989653,-0.46174163845936167,0.26616632247756555,-0.0003308129356536079,0.9998444440928099,0.011724994605717878,0.01317204164270827
0.2,-0.48762773526171543,-1.7883243008919405,-2.1148749999999996,-0.7918454806039276,1.6018959523925096,1.0829126506356537,0.001482647382847627,0.00685699108059641,0.10000000000000052,-0.03929480603928392,-0.026220476074904343,0.004186506356529906,0.007413236914247712,0.03428495540302564,0.5000000000006384,-0.19647403019666648,-0.13110238037469096,0.020932531782676452,0.5100071964749657,-0.46350308505898896,0.27014540508349627,-0.0002627926665102757,0.9998414807807933,0.009671840997509888,0.01494656287591982
0.30000000000000004,-0.48744240433885944,-1.787467177006866,-2.1023749999999994,-0.796757331358838,1.5986183928831468,1.0834359639302198,0.0022239710742714726,0.010285486620894764,0.15000000000000294,-0.058942209058926734,-0.039330714112357085,0.006279759534794949,0.007413236914275034,0.03428495540315314,0.5000000000024702,-0.19647403019739507,-0.13110238037517669,0.020932531782753647,0.5149331239304884,-0.4664064616044142,0.2768405708199408,-0.00013835508689427384,0.9998201217442724,0.006251456017511365,0.01790598533450368
0.4,-0.48718294104686116,-1.7862672035677618,-2.0848749999999994,-0.8036339224157127,1.5940298095700385,1.0841686025426125,0.0029652947656952206,0.013713982161192666,0.1999999999999988,-0.07858961207856696,-0.052440952149808095,0.008373012713059716,0.007413236914199574,0.03428495540280446,0.499999999997391,-0.1964740301954036,-0.13110238037383748,0.02093253178253941,0.5217071585318058,-0.47040246748771325,0.2863450698432809,5.9088871407013524e-05,0.9997557248313137,0.0014663708803354777,0.022053048133102042
0.5,-0.48684934538572044,-1.7847243805746276,-2.0623749999999994,-0.8124752537745515,1.588130202453185,1.0851105664728318,0.0037066184571187435,0.017142477701489526,0.24999999999997943,-0.09823701509820121,-0.06555119018725512,0.010466265891323849,0.0074132369138990555,0.034284955401411306,0.49999999997710165,-0.19647403018741297,-0.13110238036851501,0.020932531781689967,0.530203342232641,-0.47542061902193794,0.298785803527136,0.0003527278895759457,0.9996137702550459,-0.004679421758527876,0.027391402146181906
0.6000000000000001,-0.48644161735543734,-1.7828387080274632,-2.0348749999999987,-0.8232813254353546,1.580919571532586,1.0862618557208774,0.004447942148542902,0.02057097324178933,0.300000000000003,-0.11788441811785233,-0.0786614282247134,0.012559519069589777,0.007413236914234268,0.034284955402967526,0.49999999999972244,-0.19647403019633342,-0.13110238037446198,0.020932531782638288,0.540254606965361,-0.48136786956794947,0.31431952730232654,0.0007723078225851423,0.9993498467814508,-0.012180019803768885,0.03392542403711112
0.7000000000000001,-0.4859788032306611,-1.7806982716956168,-2.0036596125700274,-0.8355473513803731,1.5727347483398217,1.0875686898998485,0.004657874125817975,0.021541872804531202,0.3141592653589632,-0.12344827397724323,-0.08237405501054176,0.01315229761388058,-2.3833481712552937e-13,-1.1058735514624562e-12,-1.6085433475817546e-11,6.323239366355863e-12,4.229359663900303e-12,-6.742708644496795e-13,0.5512089507808511,-0.48786541529578253,0.3323753139100529,0.001329309440530513,0.9989296824704655,-0.020677728346170664,0.04135400786269959
0.8,-0.4855130158180794,-1.7785440844151637,-1.9722436860341301,-0.8478921787780976,1.5644973428387674,1.0888839196612368,0.004657874125817975,0.021541872804531202,0.3141592653589632,-0.12344827397724323,-0.08237405501054176,0.01315229761388058,-2.3833481712552937e-13,-1.1058735514624562e-12,-1.6085433475817546e-11,6.323239366355863e-12,4.229359663900303e-12,-6.742708644496795e-13,0.5617325613550712,-0.49412691761694666,0.35098410309665357,0.0019763512623243752,0.9983773256023877,-0.029210561724758954,0.0488421216004791
0.9,-0.4850472284054975,-1.7763898971347105,-1.9408277594982333,-0.8602370061758222,1.556259937337713,1.0901991494226249,0.004657874125817975,0.021541872804531202,0.3141592653589632,-0.12344827397724323,-0.08237405501054176,0.01315229761388058,-2.3833481712552937e-13,-1.1058735514624562e-12,-1.6085433475817546e-11,6.323239366355863e-12,4.229359663900303e-12,-6.742708644496795e-13,0.5717406164271643,-0.5001038084840511,0.3700125053608343,0.0027098899166774024,0.9976950413862433,-0.037721761260501106,0.056341189349777145
1.0,-0.48458144099291567,-1.7742357098542572,-1.909411832962336,-0.8725818335735469,1.5480225318366587,1.0915143791840127,0.004657874125819007,0.021541872804535976,0.3141592653590328,-0.12344827397727058,-0.08237405501056003,0.013152297613883495,7.930049369813948e-13,3.664289479297636e-12,5.347019955410287e-11,-2.10081307895399e-11,-1.4019287279356329e-11,2.2377472647934e-12,0.5812207858503937,-0.505790453439634,0.3894412318993218,0.0035296606029650967,0.9968828350076123,-0.04620922350556151,0.06385031265566661
1.1,-0.4841156535803338,-1.7720815225738038,-1.8779959064264353,-0.8849266609712729,1.5397851263356035,1.0928296089454013,0.004657874125819007,0.021541872804535976,0.3141592653590328,-0.12344827397727058,-0.08237405501056003,0.013152297613883495,7.930049369813948e-13,3.664289479297636e-12,5.347019955410287e-11,-2.10081307895399e-11,-1.4019287279356329e-11,2.2377472647934e-12,0.5901612944402108,-0.5111815383449763,0.40925055706688723,0.004435376105167602,0.995940736399023,-0.054670850483354225,0.07136858641730504
1.2,-0.48364986616775196,-1.7699273352933504,-1.8465799798905347,-0.897271488368999,1.531547720834548,1.0941448387067894,0.004657874125819007,0.021541872804535976,0.3141592653590328,-0.12344827397727058,-0.08237405501056003,0.013152297613883495,7.930049369813948e-13,3.664289479297636e-12,5.347019955410287e-11,-2.10081307895399e-11,-1.4019287279356329e-11,2.2377472647934e-12,0.5985509352091477,-0.5162720746536753,0.42942033975730165,0.005426726872031326,0.9948688002587074,-0.06310455016533953,0.0788950990599963
1.3,-0.4831840787551701,-1.7677731480128969,-1.815164053354634,-0.909616315766725,1.5233103153334928,1.0954600684681775,0.004657874125819007,0.021541872804535976,0.3141592653590328,-0.12344827397727058,-0.08237405501056003,0.013152297613883495,7.930049369813948e-13,3.664289479297636e-12,5.347019955410287e-11,-2.10081307895399e-11,-1.4019287279356329e-11,2.2377472647934e-12,0.6063790819822672,-0.5210574043155629,0.44993004524227465,0.0065033811022541166,0.993667106064074,-0.07150823694634165,0.08642893270955546
1.4,-0.48271829134258826,-1.7656189607324435,-1.7837481268187334,-0.921961143164451,1.5150729098324374,1.0967752982295658,0.004657874125819007,0.021541872804535976,0.3141592653590328,-0.12344827397727058,-0.08237405501056003,0.013152297613883495,7.930049369813948e-13,3.664289479297636e-12,5.347019955410287e-11,-2.10081307895399e-11,-1.4019287279356329e-11,2.2377472647934e-12,0.6136357013788803,-0.5255332043061226,0.4707587674441662,0.007664984834662524,0.9923357580798869,-0.07987983211827461,0.09396916336893119
1.5,-0.4822525039300064,-1.76346477345199,-1.7523322002828328,-0.934305970562177,1.5068355043313821,1.098090527990954,0.004657874125819011,0.02154187280453599,0.314159265359033,-0.12344827397727066,-0.08237405501055987,0.013152297613883503,7.95604953168219e-13,3.678156232294032e-12,5.3636600590059626e-11,-2.1091331307518275e-11,-1.4074754291341913e-11,2.2464139854161477e-12,0.6203113641469551,-0.5296954907769997,0.49188525161780006,0.008911162043362876,0.9908748853611472,-0.08821726434217096,0.10151486109705196
1.6,-0.48178671651742455,-1.7613105861715368,-1.7209162737469321,-0.946650797959903,1.498598098830327,1.0994057577523424,0.004657874125819011,0.02154187280453599,0.314159265359033,-0.12344827397727066,-0.08237405501055987,0.013152297613883503,7.95604953168219e-13,3.678156232294032e-12,5.3636600590059626e-11,-2.1091331307518275e-11,-1.4074754291341913e-11,2.2464139854161477e-12,0.6263972558373477,-0.5335406228236278,0.5132879174162457,0.01024151473784019,0.9892846417506724,-0.09651847011840774,0.10906509018985114
1.7000000000000002,-0.48132092910484264,-1.7591563988910832,-1.6895003472110315,-0.9589956253576291,1.4903606933292715,1.1007209875137305,0.004657874125819011,0.02154187280453599,0.314159265359033,-0.12344827397727066,-0.08237405501055987,0.013152297613883503,7.95604953168219e-13,3.678156232294032e-12,5.3636600590059626e-11,-2.1091331307518275e-11,-1.4074754291341913e-11,2.2464139854161477e-12,0.6318851868057294,-0.5370653058664326,0.5349448823150195,0.01165562306797756,0.9875652058713661,-0.10478139425502303,0.11661890936343537
1.8,-0.48085514169226085,-1.7570022116106299,-1.658084420675131,-0.9713404527553551,1.4821232878282162,1.1020362172751188,0.004657874125819011,0.02154187280453599,0.314159265359033,-0.12344827397727066,-0.08237405501055987,0.013152297613883503,7.95604953168219e-13,3.678156232294032e-12,5.3636600590059626e-11,-2.1091331307518275e-11,-1.4074754291341913e-11,2.2464139854161477e-12,0.6367676015308147,-0.5402665946425208,0.5568339853687451,0.01315304543397132,0.9857167811131786,-0.11300399033401597,0.1241753719393488
1.9,-0.4803893542796789,-1.7548480243301765,-1.6266684941392304,-0.9836852801530811,1.473885882327161,1.1033514470365071,0.004657874125819011,0.02154187280453599,0.314159265359033,-0.12344827397727066,-0.08237405501055987,0.013152297613883503,7.95604953168219e-13,3.678156232294032e-12,5.3636600590059626e-11,-2.1091331307518275e-11,-1.4074754291341913e-11,2.2464139854161477e-12,0.6410375872382706,-0.5431418958051926,0.5789328112739656,0.014733318601110537,0.9837395956147553,-0.12118422117552875,0.13173352603189678
2.0,-0.4799235668670971,-1.7526938370497231,-1.5952525676033298,-0.9960301075508071,1.4656484768261058,1.1046666767978954,0.004657874125816944,0.02154187280452643,0.3141592653588936,-0.12344827397721589,-0.08237405501052332,0.013152297613877668,-1.2696745712322246e-12,-5.872569893972392e-12,-8.564106650572253e-11,3.364074276924917e-11,2.24502731011601e-11,-3.584555649567564e-12,0.6446888818204425,-0.5456889701290795,0.6012187147114461,0.016395957819395818,0.9816339022397719,-0.1293200592998018,0.13929241473748105
2.1,-0.4794577794545153,-1.7505396497692693,-1.5638366410674291,-1.0083749349485331,1.4574110713250503,1.1059819065592835,0.004657874125819011,0.02154187280453599,0.314159265359033,-0.12344827397727066,-0.08237405501055987,0.013152297613883503,7.95604953168219e-13,3.678156232294032e-12,5.3636600590059626e-11,-2.1091331307518275e-11,-1.4074754291341913e-11,2.2464139854161477e-12,0.647715881042824,-0.5479059343191389,0.6236688449410029,0.018140456947963218,0.9793999785479567,-0.13740948738680084,0.14685107632590746
2.2,-0.4789919920419334,-1.7483854624888162,-1.5324207145315287,-1.0207197623462592,1.449173665823995,1.1072971363206716,0.004657874125819011,0.02154187280453599,0.314159265359033,-0.12344827397727066,-0.08237405501055987,0.013152297613883503,7.95604953168219e-13,3.678156232294032e-12,5.3636600590059626e-11,-2.1091331307518275e-11,-1.4074754291341913e-11,2.2464139854161477e-12,0.6501136450289925,-0.5497912624222024,0.6462601706216219,0.019966288584284585,0.9770381267608048,-0.14545049873341073,0.15440854443361854
2.3,-0.47852620462935147,-1.7462312752083629,-1.5010047879956279,-1.0330645897439852,1.4409362603229399,1.10861236608206,0.004657874125819011,0.02154187280453599,0.314159265359033,-0.12344827397727066,-0.08237405501055987,0.013152297613883503,7.95604953168219e-13,3.678156232294032e-12,5.3636600590059626e-11,-2.1091331307518275e-11,-1.4074754291341913e-11,2.2464139854161477e-12,0.6518779040165205,-0.5513437868402083,0.6689695048293809,0.0218729041981114,0.974548673721981,-0.1534410977080959,0.16196384825880988
2.4,-0.4780604172167696,-1.7440770879279095,-1.4695888614597272,-1.0454094171417112,1.4326988548218844,1.1099275958434482,0.004657874125819011,0.02154187280453599,0.314159265359033,-0.12344827397727066,-0.08237405501055987,0.013152297613883503,7.95604953168219e-13,3.678156232294032e-12,5.3636600590059626e-11,-2.1091331307518275e-11,-1.4074754291341913e-11,2.2464139854161477e-12,0.6530050633772004,-0.5525626989447121,0.6917735302454595,0.023859734270127463,0.971931970852423,-0.16137930020292066,0.16951601275838002
2.5,-0.47759462980418776,-1.741922900647456,-1.4381729349238268,-1.057754244539437,1.4244614493208294,1.1112428256048366,0.004657874125819011,0.02154187280453599,0.314159265359033,-0.12344827397727066,-0.08237405501055987,0.013152297613883503,7.95604953168219e-13,3.678156232294032e-12,5.3636600590059626e-11,-2.1091331307518275e-11,-1.4074754291341913e-11,2.2464139854161477e-12,0.6534922078957305,-0.5534475492927079,0.714648824486364,0.025926188435277654,0.9691883941001447,-0.1692631340828313,0.17706405884667445
2.6,-0.4771288423916059,-1.7397687133670026,-1.4067570083879262,-1.070099071937163,1.416224043819774,1.1125580553662249,0.00465787412581906,0.021541872804535792,0.31415926535903277,-0.12344827397727076,-0.08237405501056007,0.013152297613883703,7.9213826491912e-13,3.664289479297636e-12,5.341473254211729e-11,-2.0994264036543504e-11,-1.4005420526359934e-11,2.236013920668851e-12,0.6533371053018326,-0.553998247444249,0.7375718855483064,0.028071655630737286,0.9663183438847469,-0.17709063963209973,0.18460700359597146
2.7,-0.47666305497902406,-1.7376145260865492,-1.3753410818520255,-1.082443899334889,1.4079866383187187,1.113873285127613,0.00465787412581906,0.021541872804535792,0.31415926535903277,-0.12344827397727076,-0.08237405501056007,0.013152297613883703,7.9213826491912e-13,3.664289479297636e-12,5.341473254211729e-11,-2.0994264036543504e-11,-1.4005420526359934e-11,2.236013920668851e-12,0.6525382090516086,-0.5542150613827962,0.7605191573375816,0.030295504248484182,0.9633222450366461,-0.184859869997823,0.19214386043866724
2.8,-0.47619726756644215,-1.7354603388060956,-1.3439251553161249,-1.0947887267326153,1.3997492328176633,1.1151885148890013,0.00465787412581906,0.021541872804535792,0.31415926535903277,-0.12344827397727076,-0.08237405501056007,0.013152297613883703,7.9213826491912e-13,3.664289479297636e-12,5.341473254211729e-11,-2.0994264036543504e-11,-1.4005420526359934e-11,2.236013920668851e-12,0.6510946603547788,-0.5540986165396746,0.7834670552586775,0.03259708229243785,0.9602005467310255,-0.1925688916303871,0.1996736393711095
2.9,-0.4757314801538603,-1.7333061515256425,-1.3125092287802242,-1.107133554130341,1.391511827316608,1.1165037446503894,0.00465787412581906,0.021541872804535792,0.31415926535903277,-0.12344827397727076,-0.08237405501056007,0.013152297613883703,7.9213826491912e-13,3.664289479297636e-12,5.341473254211729e-11,-2.0994264036543504e-11,-1.4005420526359934e-11,2.236013920668851e-12,0.649006289445281,-0.5536498944244567,0.8063919918317995,0.03497571754012571,0.956953722416523,-0.20021578472078802,0.2071953471590338
3.0,-0.4752656927412785,-1.731151964245189,-1.2810933022443236,-1.1194783815280671,1.3832744218155528,1.1178189744117777,0.00465787412581906,0.021541872804535792,0.31415926535903277,-0.12344827397727076,-0.08237405501056007,0.013152297613883703,7.9213826491912e-13,3.664289479297636e-12,5.341473254211729e-11,-2.0994264036543504e-11,-1.4005420526359934e-11,2.236013920668851e-12,0.6462736160935559,-0.5528702308635318,0.8292704023114652,0.03743071770883857,0.953582269738663,-0.2077986436347191,0.21470798754455336
3.1,-0.4747999053286966,-1.7289977769647356,-1.249677375708423,-1.1318232089257931,1.3750370163144976,1.119134204173166,0.00465787412581906,0.021541872804535792,0.31415926535903277,-0.12344827397727076,-0.08237405501056007,0.013152297613883703,7.9213826491912e-13,3.664289479297636e-12,5.341473254211729e-11,-2.0994264036543504e-11,-1.4005420526359934e-11,2.236013920668851e-12,0.6428978493596911,-0.5517613138495584,0.8520787702778164,0.0399613706262334,0.950086710458047,-0.2153155773433221,0.22221056145465173
3.2,-0.4743341179161147,-1.7268435896842822,-1.2182614491725223,-1.1441680363235192,1.3667996108134424,1.1204494339345543,0.00465787412581906,0.021541872804535792,0.31415926535903277,-0.12344827397727076,-0.08237405501056007,0.013152297613883703,7.9213826491912e-13,3.664289479297636e-12,5.341473254211729e-11,-2.0994264036543504e-11,-1.4005420526359934e-11,2.236013920668851e-12,0.6388808865874362,-0.5503251810049289,0.874793653172348,0.04256694440534389,0.9464675903633168,-0.22276470985050909,0.22970206721113243
3.3,-0.4738683305035329,-1.7246894024038288,-1.186845522636622,-1.1565128637212452,1.358562205312387,1.1217646636959424,0.00465787412581906,0.021541872804535792,0.31415926535903277,-0.12344827397727076,-0.08237405501056007,0.013152297613883703,7.9213826491912e-13,3.664289479297636e-12,5.341473254211729e-11,-2.0994264036543504e-11,-1.4005420526359934e-11,2.236013920668851e-12,0.6342253116399573,-0.5485642166628003,0.8973917077498005,0.04524668762395468,0.9427254791789006,-0.23014418061675723,0.23718150074197128
3.4,-0.473402543090951,-1.7225352151233755,-1.155429596100721,-1.1688576911189714,1.3503247998113317,1.1230798934573307,0.00465787412581906,0.021541872804535792,0.31415926535903277,-0.12344827397727076,-0.08237405501056007,0.013152297613883703,7.9213826491912e-13,3.664289479297636e-12,5.341473254211729e-11,-2.0994264036543504e-11,-1.4005420526359934e-11,2.236013920668851e-12,0.6289343923790386,-0.5464811485696776,0.9198497154180783,0.047999829508297474,0.9388609704675654,-0.23745214497928227,0.2446478557940238
3.5,-0.4729367556783691,-1.720381027842922,-1.1240136695648206,-1.1812025185166974,1.3420873943102762,1.124395123218719,0.00465787412581906,0.021541872804535792,0.31415926535903277,-0.12344827397727076,-0.08237405501056007,0.013152297613883703,7.9213826491912e-13,3.664289479297636e-12,5.341473254211729e-11,-2.0994264036543504e-11,-1.4005420526359934e-11,2.236013920668851e-12,0.6230120773902833,-0.5440790442139407,0.9421446074381675,0.05082558012102429,0.9348746815277841,-0.24468677456849852,0.25210012414703487
3.6,-0.4724709682657873,-1.7182268405624685,-1.09259774302892,-1.1935473459144235,1.333849988809221,1.1257103529801074,0.00465787412581906,0.021541872804535792,0.31415926535903277,-0.12344827397727076,-0.08237405501056007,0.013152297613883703,7.9213826491912e-13,3.664289479297636e-12,5.341473254211729e-11,-2.0994264036543504e-11,-1.4005420526359934e-11,2.236013920668851e-12,0.6164629919577161,-0.5413613067851342,0.9642534899562055,0.05372313055341241,0.930767253285942,-0.2518462577206688,0.2595372958289009
3.7,-0.47200518085320536,-1.7160726532820152,-1.0611818164930196,-1.2058921733121493,1.3256125833081656,1.1270255827414954,0.004657874125819007,0.02154187280453598,0.31415926535903305,-0.12344827397727048,-0.08237405501055983,0.013152297613883496,7.95604953168219e-13,3.681622920543131e-12,5.369206760204521e-11,-2.107746455452188e-11,-1.4074754291341913e-11,2.2464139854161477e-12,0.6092924332920148,-0.5383316707692288,0.9861536688400321,0.056691653121755885,0.9265393501833991,-0.25892879988665607,0.266958359332131
3.8,-0.4715393934406235,-1.7139184660015618,-1.0297658899571187,-1.2182370007098753,1.3173751778071103,1.1283408125028838,0.004657874125819007,0.02154187280453598,0.31415926535903305,-0.12344827397727048,-0.08237405501055983,0.013152297613883496,7.95604953168219e-13,3.681622920543131e-12,5.369206760204521e-11,-2.107746455452188e-11,-1.4074754291341913e-11,2.2464139854161477e-12,0.6015063650174415,-0.5349941971854786,1.0078226742927767,0.05973030156789717,0.9221916600584272,-0.26593262403668183,0.27436230183145627
3.9,-0.47107360602804166,-1.7117642787211085,-0.9983499634212181,-1.2305818281076013,1.3091377723060549,1.129656042264272,0.004657874125819007,0.02154187280453598,0.31415926535903305,-0.12344827397727048,-0.08237405501055983,0.013152297613883496,7.95604953168219e-13,3.681622920543131e-12,5.369206760204521e-11,-2.107746455452188e-11,-1.4074754291341913e-11,2.2464139854161477e-12,0.593111410923375,-0.5313532684708778,1.0292382852162965,0.0628382112638484,0.9177248940230481,-0.27285597106100473,0.281748109402532
4.0,-0.47060781861545986,-1.7096100914406547,-0.9669340368853176,-1.2429266555053273,1.3009003668049999,1.1309712720256602,0.004657874125814874,0.021541872804516866,0.31415926535875427,-0.12344827397716095,-0.08237405501048674,0.013152297613871825,-3.3340874235694773e-12,-1.5416362643736384e-11,-2.2486326658945733e-10,8.837281684599233e-11,5.896143374064952e-11,-9.415525284548688e-12,0.5841148479871546,-0.5274135830186145,1.0503785532975578,0.06601449942045723,0.9131397863347896,-0.27969710016642646,0.28911476724168367
4.1,-0.4701420312028781,-1.7074559041602022,-0.9355181103494307,-1.2552714829030478,1.292662961303948,1.1322865017870478,0.004657874125814874,0.021541872804516866,0.31415926535875427,-0.12344827397716095,-0.08237405501048674,0.013152297613871825,-3.3340874235694773e-12,-1.5416362643736384e-11,-2.2486326658945733e-10,8.837281684599233e-11,5.896143374064952e-11,-9.415525284548688e-12,0.5745245986757807,-0.5231801493772924,1.0712218267913507,0.06925826530006456,0.9084370942633901,-0.286454289268537,0.29646125988663596
4.2,-0.4696762437902965,-1.70530171687975,-0.9041021838135441,-1.2676163103007685,1.2844255558028965,1.1336017315484357,0.004657874125814874,0.021541872804516866,0.31415926535875427,-0.12344827397716095,-0.08237405501048674,0.013152297613871825,-3.3340874235694773e-12,-1.5416362643736384e-11,-2.2486326658945733e-10,8.837281684599233e-11,5.896143374064952e-11,-9.415525284548688e-12,0.5643492225347826,-0.5186582801180504,1.0917467739731388,0.07256859043311005,0.9036175979524635,-0.29312583537962306,0.3037865714381886
4.3,-0.46921045637771486,-1.7031475295992975,-0.8726862572776577,-1.2799611376984887,1.276188150301845,1.1349169613098231,0.004657874125814874,0.021541872804516866,0.31415926535875427,-0.12344827397716095,-0.08237405501048674,0.013152297613871825,-3.3340874235694773e-12,-1.5416362643736384e-11,-2.2486326658945733e-10,8.837281684599233e-11,5.896143374064952e-11,-9.415525284548688e-12,0.553597907073443,-0.5138535853771,1.1119324062360703,0.07594453883862201,0.8986821002761715,-0.2997100549921295,0.3110896857827546
4.4,-0.46874466896513317,-1.7009933423188452,-0.8412703307417707,-1.2923059650962094,1.2679507448007934,1.1362321910712108,0.004657874125814874,0.021541872804516866,0.31415926535875427,-0.12344827397716095,-0.08237405501048674,0.013152297613871825,-3.3340874235694773e-12,-1.5416362643736384e-11,-2.2486326658945733e-10,8.837281684599233e-11,5.896143374064952e-11,-9.415525284548688e-12,0.5422804579562522,-0.50877196608151,1.1317581008067585,0.0793851572485532,0.8936314266909127,-0.3062052844576099,0.31836958681573335
4.5,-0.46827888155255154,-1.6988391550383928,-0.8098544042058844,-1.30465079249393,1.2597133392997417,1.1375474208325986,0.004657874125814874,0.021541872804516866,0.31415926535875427,-0.12344827397716095,-0.08237405501048674,0.013152297613871825,-3.3340874235694773e-12,-1.5416362643736384e-11,-2.2486326658945733e-10,8.837281684599233e-11,5.896143374064952e-11,-9.415525284548688e-12,0.5304072885113212,-0.5034196068664398,1.151203623054744,0.08288947533590091,0.8884664250820622,-0.31260988036107573,0.32562525866565306
4.6,-0.4678130941399699,-1.6966849677579403,-0.7784384776699973,-1.3169956198916506,1.25147593379869,1.1388626505939863,0.004657874125814874,0.021541872804516866,0.31415926535875427,-0.12344827397716095,-0.08237405501048674,0.013152297613871825,-3.3340874235694773e-12,-1.5416362643736384e-11,-2.2486326658945733e-10,8.837281684599233e-11,5.896143374064952e-11,-9.415525284548688e-12,0.5179894085672091,-0.4978029686923404,1.170249148371048,0.08645650594656118,0.883187965605793,-0.3189222198906594,0.33285568591902803
4.7,-0.4673473067273882,-1.6945307804774878,-0.7470225511341108,-1.3293404472893708,1.2432385282976386,1.140177880355374,0.004657874125814874,0.021541872804516866,0.31415926535875427,-0.12344827397716095,-0.08237405501048674,0.013152297613871825,-3.3340874235694773e-12,-1.5416362643736384e-11,-2.2486326658945733e-10,8.837281684599233e-11,5.896143374064952e-11,-9.415525284548688e-12,0.5050384126303882,-0.4919287811709683,1.1888752835917091,0.09008524533486313,0.8777969405260098,-0.32514070120250765,0.34005985384587273
4.8,-0.4668815193148066,-1.6923765931970354,-0.7156066245982238,-1.3416852746870915,1.235001122796587,1.1414931101167616,0.00465787412581486,0.02154187280451675,0.31415926535875405,-0.12344827397716118,-0.08237405501048681,0.013152297613871869,-3.337554111818575e-12,-1.543369608498187e-11,-2.2508513463739957e-10,8.844215061097427e-11,5.901690075263507e-11,-9.422458661046883e-12,0.4915664674162982,-0.48580403460936233,1.2070630879427091,0.09377467340272552,0.8722942640464212,-0.3312637437808315,0.347236748625822
4.9,-0.4664157319022249,-1.6902224059165827,-0.6841906980623372,-1.354030102084812,1.226763717295535,1.142808339878149,0.00465787412581486,0.02154187280451675,0.31415926535875405,-0.12344827397716118,-0.08237405501048681,0.013152297613871869,-3.337554111818575e-12,-1.543369608498187e-11,-2.2508513463739957e-10,8.844215061097427e-11,5.901690075263507e-11,-9.422458661046883e-12,0.4775862987476746,-0.4794359717812405,1.224794093483221,0.09752375394238165,0.8666808721377929,-0.3372897887930244,0.354385357574798
5.0,-0.4659499444896432,-1.6880682186361304,-0.6527747715264507,-1.3663749294825327,1.2185263117944836,1.1441235696395369,0.00465787412581486,0.02154187280451675,0.31415926535875405,-0.12344827397716118,-0.08237405501048681,0.013152297613871869,-3.337554111818575e-12,-1.543369608498187e-11,-2.2508513463739957e-10,8.844215061097427e-11,5.901690075263507e-11,-9.422458661046883e-12,0.46311117783453654,-0.47283207943555344,1.2420503250246877,0.10133143488261631,0.8609577223604062,-0.34321729943977547,0.3615046693721663
5.1,-0.4654841570770616,-1.685914031355678,-0.6213588449905638,-1.3787197568802534,1.210288906293432,1.1454387994009245,0.00465787412581486,0.02154187280451675,0.31415926535875405,-0.12344827397716118,-0.08237405501048681,0.013152297613871869,-3.337554111818575e-12,-1.543369608498187e-11,-2.2508513463739957e-10,8.844215061097427e-11,5.901690075263507e-11,-9.422458661046883e-12,0.4481549069509171,-0.46600007955221384,1.2588143195038162,0.10519664853845498,0.8551257936817612,-0.34904476130010087,0.3685936742883282
5.2,-0.46501836966447996,-1.6837598440752255,-0.5899429184546774,-1.3910645842779736,1.2020515007923802,1.1467540291623122,0.00465787412581486,0.02154187280451675,0.31415926535875405,-0.12344827397716118,-0.08237405501048681,0.013152297613871869,-3.337554111818575e-12,-1.543369608498187e-11,-2.2508513463739957e-10,8.844215061097427e-11,5.901690075263507e-11,-9.422458661046883e-12,0.43273180452410326,-0.4589479203552841,1.2750691447881906,0.10911831186424967,0.849186086289562,-0.3547706826712129,0.3756513644126885
5.3,-0.4645547589063485,-1.6816157234500837,-0.5586738005582129,-1.4033517235055843,1.193852589215504,1.1480631127706784,0.00447184899757547,0.02068153833803397,0.3016124433435217,-0.11851802460218148,-0.07908421854582201,0.012627024112661674,-0.0074132369151061,-0.03428495540699454,-0.5000000000585643,0.19647403021943,0.13110238038987818,-0.020932531785099826,0.41693190280167575,-0.4517181930918452,1.2907261609115452,0.11307661485430509,0.8431681235910853,-0.36036756047779905,0.38264398059849214
5.4,-0.46414400211818224,-1.6797160434146727,-0.5309695201663848,-1.4142380667501326,1.1865883950036404,1.1492229542303132,0.00373052530615477,0.017253042797750175,0.25161244334373134,-0.09887062158262197,-0.06597398050842489,0.0105337709344055,-0.00741323691199105,-0.03428495539259209,-0.49999999984845456,0.196474030136879,0.13110238033478877,-0.020932531776306024,0.4025712555719827,-0.44514385434805215,1.3041506489293655,0.11662858407159564,0.8377487011463675,-0.365239959190549,0.38881185593486617
5.5,-0.4647381774960456,-1.6782172562250859,-0.50731675048378,-1.4235501241722788,1.1804148473909462,1.1492634673205726,-0.02760456267724869,0.011842935423622303,0.23167971084769026,-0.0916211122462202,-0.05981714702278173,-0.021499566105560995,-0.4957246734768199,-0.06880385622278244,-0.06346201159510668,0.01564369913676677,0.0314706338033938,-0.4999798442163676,0.38976282146169344,-0.43983920825159506,1.3152005418803239,0.11967381347459012,0.8330965439110767,-0.3696790910526512,0.3936568258399113
5.6,-0.46992855370633835,-1.677385055364075,-0.48468244585977655,-1.4325480250183535,1.1746456595552672,1.1446567313519636,-0.07699078905965236,0.004530888719374501,0.2184918031753413,-0.08736290351715491,-0.05488477849130906,-0.07149482327699952,-0.49197911848002995,-0.07747830480697065,-0.20095534048103528,0.06978007932635348,0.06734866736313447,-0.4999222307477536,0.37591809226589373,-0.4366835685488525,1.3251413487173413,0.12251627942327155,0.82878454624561,-0.37558114579903845,0.39628870801603544
5.7,-0.4797146454143338,-1.6773192632296425,-0.46456552247929794,-1.4406423465357134,1.1696731737799713,1.1353628196226946,-0.11508434137426998,-0.0031652107246797337,0.17746601740769863,-0.07194599060935333,-0.04300404247644153,-0.11089003076592928,-0.2908441451709015,-0.07118768720635994,-0.49973026285329814,0.1910442498828713,0.13952729981747877,-0.3058107445314351,0.36195053556259993,-0.43590940108320747,1.3333729211340075,0.12495174545013352,0.8251308973362432,-0.38272167705417115,0.39632080627049315
5.8,-0.49248640526355447,-1.6779661565172337,-0.44930707414983995,-1.4468822668002796,1.166061936231099,1.1229369205670634,-0.13874362031114587,-0.009577780564469559,0.12748551263721822,-0.052736723990993654,-0.02921196732303703,-0.13601832929301047,-0.18785442177889744,-0.057780748288020205,-0.49986328762369153,0.193031025541237,0.1364751181273031,-0.20229606097695213,0.3496998196845695,-0.4373654169337893,1.3391009411157186,0.12669481401926264,0.8225653416682692,-0.39009288514235746,0.39390636418836844
5.9,-0.5071500482546287,-1.6791925918414443,-0.4390472133563379,-1.451192145184847,1.1638158378146108,1.1084746547442625,-0.1532053868305197,-0.014792898812063514,0.07749527303383472,-0.03335087153653448,-0.01569302917153453,-0.15190217592437152,-0.10446087812614865,-0.046922345014948436,-0.4999343117926126,0.19462534381569246,0.13399408080916714,-0.11847645374661804,0.339594862301415,-0.4406908653889144,1.3424663045416305,0.12773965750493832,0.8210912189249754,-0.3972300434005263,0.38948694808020856
6.0,-0.5228638037476008,-1.6808889663153028,-0.43378667715539687,-1.4535558807928854,1.162909840324907,1.0928220929175636,-0.15986803234753397,-0.018992448682064476,0.02749944286623771,-0.01381632901520976,-0.002406397601319865,-0.15994702692869472,-0.030506548176257007,-0.0372917922288328,-0.4999793047904921,0.19603212820068083,0.13178915948466285,-0.044143800726755875,0.33186608102694365,-0.44564512219791885,1.3436040663221667,0.1280980023332201,0.8206845848584997,-0.4037723688520982,0.3834521979666246
6.1,-0.538882961315229,-1.6829583015254221,-0.43352591851881084,-1.4539593075297195,1.1633217404660676,1.0767277551807724,-0.15932985262066823,-0.022254209734808798,-0.022499628642181677,0.005854741943931505,0.010665245703344256,-0.16075418519816786,0.04052025306674503,-0.028039872617584557,-0.4999835254778299,0.1973678917516886,0.1296613149995182,0.02724739873048843,0.32668545680824906,-0.4520487114262805,1.3425945430734747,0.1277837359020706,0.8213168400723629,-0.4093961329469584,0.3761711995628251
6.2,-0.5544930305442769,-1.6853075275404084,-0.4382649689913774,-1.4523889926426528,1.1650301304405688,1.0609097978862518,-0.1516171651888958,-0.024581207630586542,-0.07249590062169059,0.02565947158544217,0.023521108321191548,-0.15434994045734096,0.11386324399760922,-0.018483064180026338,-0.49994011888489187,0.19872843222578815,0.12745157837334894,0.10096795879215817,0.32420069888454695,-0.4597336823670814,1.3394707418538807,0.12681403874285344,0.8229527295123217,-0.4138008346214338,0.36801613257104704
6.3,-0.5696719289145964,-1.687921759005781,-0.44782362048688634,-1.4489153839569822,1.1679871770170673,1.0453952757428924,-0.16740665648777642,-0.029455974513680136,-0.11478331102399734,0.04199142831242451,0.03506354824863359,-0.17136063826749476,-0.4884629812745878,-0.08594731792132315,-0.33491737712021324,0.12252355247870872,0.1023092251582208,-0.49999999998429034,0.32422805360242424,-0.4687361403010697,1.3342523499594243,0.12521858427652136,0.8255426093983562,-0.41696639918882955,0.3590803923455561
6.4,-0.5887940793427934,-1.6912863897049242,-0.46093482995786494,-1.44411888168084,1.1719923370162197,1.0258214787913826,-0.2094395102395014,-0.036851849294432706,-0.1436033724638047,0.05253473406927211,0.043867385721243185,-0.21438626698630125,-1.8161499108104548e-10,-3.1957972976442554e-11,-1.2453282551306005e-10,4.555622562874798e-11,3.804322569240798e-11,-1.858843711186704e-10,0.32445932871274286,-0.4805125860206125,1.3270855646491315,0.12307839069132097,0.8289964825668925,-0.42046693698943527,0.34759760720591387
6.5,-0.6097380303667344,-1.694971574634366,-0.47529516720423926,-1.438865408273915,1.1763790755883423,1.0043828520927618,-0.2094395102395014,-0.036851849294432706,-0.1436033724638047,0.05253473406927211,0.043867385721243185,-0.21438626698630125,-1.8161499108104548e-10,-3.1957972976442554e-11,-1.2453282551306005e-10,4.555622562874798e-11,3.804322569240798e-11,-1.858843711186704e-10,0.32422491549065113,-0.4935422448247689,1.319066415792597,0.12074951748342111,0.8327444211117546,-0.4239389606686029,0.33501050843517477
6.6,-0.6306819813906757,-1.6986567595638078,-0.4896555044506136,-1.43361193486699,1.1807658141604649,0.9829442253941406,-0.2094395102395014,-0.036851849294432706,-0.1436033724638047,0.05253473406927211,0.043867385721243185,-0.21438626698630125,-1.8161499108104548e-10,-3.1957972976442554e-11,-1.2453282551306005e-10,4.555622562874798e-11,3.804322569240798e-11,-1.858843711186704e-10,0.3234744481946818,-0.506689940443528,1.3108722220821722,0.11843677562583588,0.8364555624783568,-0.42703386224419676,0.32242348344246813
6.7,-0.6516259324146167,-1.7023419444932495,-0.5040158416969879,-1.428358461460065,1.1851525527325872,0.9615055986955199,-0.2094395102395014,-0.036851849294432706,-0.1436033724638047,0.05253473406927211,0.043867385721243185,-0.21438626698630125,-1.8161499108104548e-10,-3.1957972976442554e-11,-1.2453282551306005e-10,4.555622562874798e-11,3.804322569240798e-11,-1.858843711186704e-10,0.3222023305713519,-0.5199356806633477,1.3025053385428589,0.11614038904669131,0.8401296875873233,-0.4297533565666185,0.30984765706107026
6.8,-0.6725698834385577,-1.706027129422691,-0.518376178943362,-1.4231049880531401,1.1895392913047096,0.9400669719968991,-0.20943951023950144,-0.036851849294433185,-0.1436033724638046,0.0525347340692719,0.04386738572124366,-0.21438626698630123,-1.8172588406903575e-10,-3.197876541169073e-11,-1.2458827200705517e-10,4.558394887574554e-11,3.806401812765615e-11,-1.8602298735365825e-10,0.32040373415366735,-0.5332592588892322,1.293968171890116,0.11386058007968057,0.8437665797618044,-0.43209948196531867,0.2972940713608136
6.9,-0.6935138344624987,-1.709712314352133,-0.5327365161897363,-1.4178515146462152,1.1939260298768322,0.9186283452982784,-0.20943951023950144,-0.036851849294433185,-0.1436033724638046,0.0525347340692719,0.04386738572124366,-0.21438626698630123,-1.8172588406903575e-10,-3.197876541169073e-11,-1.2458827200705517e-10,4.558394887574554e-11,3.806401812765615e-11,-1.8602298735365825e-10,0.3180746059611462,-0.5466402835869858,1.2852631797810363,0.11159756944608869,0.8473660247416007,-0.43407459713092855,0.2847736763343205
7.0,-0.7144577854864398,-1.7133974992815746,-0.5470968534361104,-1.4125980412392902,1.1983127684489545,0.8971897185996576,-0.20943951023950144,-0.036851849294433185,-0.1436033724638046,0.0525347340692719,0.04386738572124366,-0.21438626698630123,-1.8172588406903575e-10,-3.197876541169073e-11,-1.2458827200705517e-10,4.558394887574554e-11,3.806401812765615e-11,-1.8602298735365825e-10,0.31521167506916353,-0.5600582079953973,1.2763928700493536,0.10935157623693803,0.8509278106971062,-0.4356813777307394,0.27229732069076945
7.1,-0.7354017365103808,-1.7170826842110163,-0.5614571906824846,-1.4073445678323653,1.202699507021077,0.8757510919010368,-0.20943951023950144,-0.036851849294433185,-0.1436033724638046,0.0525347340692719,0.04386738572124366,-0.21438626698630123,-1.8172588406903575e-10,-3.197876541169073e-11,-1.2458827200705517e-10,4.558394887574554e-11,3.806401812765615e-11,-1.8602298735365825e-10,0.3118124580382614,-0.5734923600648402,1.2673597999245243,0.10712281789525543,0.8544517282430725,-0.4369228127610753,0.2598757427648008
7.2,-0.7563456875343217,-1.7207678691404578,-0.5758175279288589,-1.4020910944254403,1.2070862455931994,0.8543124652024159,-0.20943951023950144,-0.036851849294433185,-0.1436033724638046,0.0525347340692719,0.04386738572124366,-0.21438626698630123,-1.8172588406903575e-10,-3.197876541169073e-11,-1.2458827200705517e-10,4.558394887574554e-11,3.806401812765615e-11,-1.8602298735365825e-10,0.30787526319572617,-0.5869219725784334,1.25816657523513,0.10491151019846472,0.8579375704521912,-0.43780220064033537,0.24751956154806903
7.3,-0.7772896385582628,-1.7244530540698997,-0.5901778651752331,-1.3968376210185156,1.2114729841653218,0.8328738385037951,-0.20943951023950144,-0.036851849294433185,-0.1436033724638046,0.0525347340692719,0.04386738572124366,-0.21438626698630123,-1.8172588406903575e-10,-3.197876541169073e-11,-1.2458827200705517e-10,4.558394887574554e-11,3.806401812765615e-11,-1.8602298735365825e-10,0.3033991937634464,-0.6003262134116645,1.2488158495968562,0.102717867240904,0.8613851328684944,-0.4383231450466854,0.23523926785081758
7.4,-0.7982335895822039,-1.7281382389993414,-0.6045382024216073,-1.3915841476115907,1.2158597227374444,0.8114352118051744,-0.20943951023950144,-0.036851849294433185,-0.1436033724638046,0.0525347340692719,0.04386738572124366,-0.21438626698630123,-1.8172588406903575e-10,-3.197876541169073e-11,-1.2458827200705517e-10,4.558394887574554e-11,3.806401812765615e-11,-1.8602298735365825e-10,0.29838414982774764,-0.6136842158861722,1.2393103235853031,0.10054210141646922,0.8647942135205701,-0.43848955050459565,0.22304521560073104
7.5,-0.8191775406061449,-1.731823423928783,-0.6188985396679815,-1.3863306742046657,1.220246461309567,0.7899965851065536,-0.20943951023950144,-0.036851849294433185,-0.1436033724638046,0.0525347340692719,0.04386738572124366,-0.21438626698630123,-1.8172588406903575e-10,-3.197876541169073e-11,-1.2458827200705517e-10,4.558394887574554e-11,3.806401812765615e-11,-1.8602298735365825e-10,0.29283082914861747,-0.626975109173272,1.229652743893892,0.09838442340138669,0.8681646129345966,-0.43830561772462145,0.2109476132861824
7.6,-0.840121491630086,-1.735508608858225,-0.6332588769143557,-1.381077200797741,1.2246331998816893,0.7685579584079328,-0.20943951023950144,-0.036851849294433185,-0.1436033724638046,0.0525347340692719,0.04386738572124366,-0.21438626698630123,-1.8172588406903575e-10,-3.197876541169073e-11,-1.2458827200705517e-10,4.558394887574554e-11,3.806401812765615e-11,-1.8602298735365825e-10,0.2867407268074303,-0.6401780487027325,1.2198459024771335,0.0962450421371149,0.8714961341471896,-0.43777583870103004,0.19895651555085697
7.7,-0.861065442654027,-1.7391937937876665,-0.64761921416073,-1.375823727390816,1.2290199384538119,0.747119331709312,-0.20943951023950144,-0.036851849294433185,-0.1436033724638046,0.0525347340692719,0.04386738572124366,-0.21438626698630123,-1.8172588406903575e-10,-3.197876541169073e-11,-1.2458827200705517e-10,4.558394887574554e-11,3.806401812765615e-11,-1.8602298735365825e-10,0.2801161336940024,-0.6532722465323205,1.2098926356795359,0.09412416481337668,0.874788582718064,-0.43690499157207324,0.18708181494659437
7.8,-0.882009393677968,-1.7428789787171082,-0.6619795514071042,-1.370570253983891,1.2334066770259342,0.7256807050106912,-0.20943951023950166,-0.03685184929443299,-0.14360337246380475,0.05253473406927171,0.04386738572124347,-0.21438626698630134,-1.8191994679801868e-10,-3.2006488658688293e-11,-1.2472688824204298e-10,4.563246455799128e-11,3.81056029981525e-11,-1.862170500826412e-10,0.2729601338355095,-0.6662370016337121,1.1997958233504207,0.09202199685132442,0.8780417667425096,-0.43569813524789525,0.17533323385112698
7.9,-0.9029533447019091,-1.7465641636465499,-0.6763398886534784,-1.3653167805769661,1.2377934155980566,0.7042420783120703,-0.20943951023950166,-0.03685184929443299,-0.14360337246380475,0.05253473406927171,0.04386738572124347,-0.21438626698630134,-1.8191994679801868e-10,-3.2006488658688293e-11,-1.2472688824204298e-10,4.563246455799128e-11,3.81056029981525e-11,-1.862170500826412e-10,0.2652766005714999,-0.6790517300504846,1.1895583879449363,0.0899387418868378,0.881255496863679,-0.43416060381125715,0.16372031655725455
8.0,-0.9238972957258502,-1.7502493485759918,-0.6907002258998527,-1.3600633071700414,1.2421801541701791,0.6828034516134496,-0.20943951023950166,-0.03685184929443299,-0.14360337246380475,0.05253473406927171,0.04386738572124347,-0.21438626698630134,-1.8191994679801868e-10,-3.2006488658688293e-11,-1.2472688824204298e-10,4.563246455799128e-11,3.81056029981525e-11,-1.862170500826412e-10,0.25707019158094185,-0.6916959948841227,1.1791832936115503,0.0878746017539575,0.8844295862846867,-0.4322980006964428,0.15225242153982166
8.1,-0.9448412467497911,-1.7539345335054333,-0.7050605631462268,-1.3548098337631163,1.2465668927423015,0.6613648249148287,-0.20943951023950166,-0.03685184929443299,-0.14360337246380475,0.05253473406927171,0.04386738572124347,-0.21438626698630134,-1.8191994679801868e-10,-3.2006488658688293e-11,-1.2472688824204298e-10,4.563246455799128e-11,3.81056029981525e-11,-1.862170500826412e-10,0.24834634276892217,-0.7041495360642265,1.1686735452663126,0.08582977646845392,0.8875638507805198,-0.4301161926518868,0.14093871390670337
8.2,-0.9657851977737324,-1.7576197184348752,-0.7194209003926013,-1.3495563603561915,1.250953631314424,0.6399261982162077,-0.20943951023950166,-0.03685184929443299,-0.14360337246380475,0.05253473406927171,0.04386738572124347,-0.21438626698630134,-1.8191994679801868e-10,-3.2006488658688293e-11,-1.2472688824204298e-10,4.563246455799128e-11,3.81056029981525e-11,-1.862170500826412e-10,0.23911126102229882,-0.7163922998594522,1.1580321876541821,0.08380446421153452,0.8906581087097588,-0.4276213034922378,0.1297881580398328
8.3,-0.9867291487976735,-1.7613049033643167,-0.7337812376389754,-1.3443028869492666,1.2553403698865464,0.6184875715175869,-0.20943951023950166,-0.03685184929443299,-0.14360337246380475,0.05253473406927171,0.04386738572124347,-0.21438626698630134,-1.8191994679801868e-10,-3.2006488658688293e-11,-1.2472688824204298e-10,4.563246455799128e-11,3.81056029981525e-11,-1.862170500826412e-10,0.22937191584526032,-0.7284044680860967,1.147262304397721,0.0817988613136891,0.8937121810261065,-0.42481970764575006,0.11880951043213327
8.4,-1.0076730998216143,-1.7649900882937586,-0.7481415748853495,-1.3390494135423419,1.259727108458669,0.5970489448189664,-0.20943951023950166,-0.03685184929443299,-0.14360337246380475,0.05253473406927171,0.04386738572124347,-0.21438626698630134,-1.8191994679801868e-10,-3.2006488658688293e-11,-1.2472688824204298e-10,4.563246455799128e-11,3.81056029981525e-11,-1.862170500826412e-10,0.21913602988740297,-0.7401664869717166,1.1363670170334497,0.07981316223867564,0.8967258912897277,-0.4217180235030361,0.108011312726024
8.5,-1.0286170508455554,-1.7686752732232,-0.7625019121317237,-1.333795940135417,1.264113847030791,0.5756103181203456,-0.20943951023950166,-0.03685184929443299,-0.14360337246380475,0.05253473406927171,0.04386738572124347,-0.21438626698630134,-1.8191994679801868e-10,-3.2006488658688293e-11,-1.2472688824204298e-10,4.563246455799128e-11,3.81056029981525e-11,-1.862170500826412e-10,0.2084120683785512,-0.7516590956316709,1.125349484036182,0.07784755956764712,0.899699065678394,-0.4183231065733997,0.09740188495900212
8.6,-1.0495610018694963,-1.7723604581526418,-0.7768622493780979,-1.328542466728492,1.2685005856029137,0.5541716914217247,-0.20943951023950166,-0.03685184929443299,-0.14360337246380475,0.05253473406927171,0.04386738572124347,-0.21438626698630134,-1.8191994679801868e-10,-3.2006488658688293e-11,-1.2472688824204298e-10,4.563246455799128e-11,3.81056029981525e-11,-1.862170500826412e-10,0.19720922748616268,-0.7628633541170826,1.1142128998316372,0.0759022439834208,0.9026315329984383,-0.4146420424550902,0.08698931902159888
8.7,-1.0705049528934376,-1.7760456430820837,-0.7912225866244723,-1.323288993321567,1.2728873241750362,0.5327330647231038,-0.20943951023950108,-0.036851849294433164,-0.14360337246380453,0.052534734069271866,0.0438673857212434,-0.2143862669863012,-1.8133775861106983e-10,-3.1909457294196814e-11,-1.2433876278407709e-10,4.548691751125406e-11,3.798084838666346e-11,-1.8563486189569236e-10,0.18553742161272707,-0.7737606709933504,1.1029604937976578,0.0739774042548928,0.9055231246955141,-0.41068213962599476,0.07678147233282025
8.8,-1.0914489039173787,-1.7797308280115254,-0.8055829238708465,-1.318035519914642,1.2772740627471584,0.5112944380244829,-0.20943951023950108,-0.036851849294433164,-0.14360337246380453,0.052534734069271866,0.0438673857212434,-0.2143862669863012,-1.8133775861106983e-10,-3.1909457294196814e-11,-1.2433876278407709e-10,4.548691751125406e-11,3.798084838666346e-11,-1.8563486189569236e-10,0.17340726965213646,-0.7843328304090402,1.091595529254336,0.07207322722159545,0.9083736748651597,-0.4064509220613989,0.06678596173798795
8.9,-1.1123928549413193,-1.7834160129409669,-0.8199432611172205,-1.3127820465077173,1.281660801319281,0.4898558113258624,-0.20943951023950108,-0.036851849294433164,-0.14360337246380453,0.052534734069271866,0.0438673857212434,-0.2143862669863012,-1.8133775861106983e-10,-3.1909457294196814e-11,-1.2433876278407709e-10,4.548691751125406e-11,3.798084838666346e-11,-1.8563486189569236e-10,0.16083008022551915,-0.794562018615773,1.0801213024433858,0.07018989777840252,0.9111830202631706,-0.4019561216855962,0.057010157633688864
9.0,-1.1333368059652604,-1.7871011978704088,-0.8343035983635947,-1.3075285731007926,1.2860475398914035,0.46841718462724163,-0.20943951023950108,-0.036851849294433164,-0.14360337246380453,0.052534734069271866,0.0438673857212434,-0.2143862669863012,-1.8133775861106983e-10,-3.1909457294196814e-11,-1.2433876278407709e-10,4.548691751125406e-11,3.798084838666346e-11,-1.8563486189569236e-10,0.14781783591852865,-0.8044308499005274,1.0685411414970702,0.06832759886038231,0.9139510003157724,-0.3972056706642529,0.04746117832433832
9.1,-1.1542807569892015,-1.7907863827998503,-0.848663935609969,-1.3022750996938677,1.2904342784635259,0.4469785579286208,-0.20943951023950108,-0.036851849294433164,-0.14360337246380453,0.052534734069271866,0.0438673857212434,-0.2143862669863012,-1.8133775861106983e-10,-3.1909457294196814e-11,-1.2433876278407709e-10,4.548691751125406e-11,3.798084838666346e-11,-1.8563486189569236e-10,0.13438317654354745,-0.8139223918926627,1.0568584053970298,0.06648651142779814,0.9166774571295999,-0.3922076935445513,0.03814588461466122
9.2,-1.1752247080131428,-1.7944715677292922,-0.8630242728563434,-1.2970216262869425,1.2948210170356482,0.42553993122999967,-0.20943951023950108,-0.036851849294433164,-0.14360337246380453,0.052534734069271866,0.0438673857212434,-0.2143862669863012,-1.8133775861106983e-10,-3.1909457294196814e-11,-1.2433876278407709e-10,4.548691751125406e-11,3.798084838666346e-11,-1.8563486189569236e-10,0.12053938145167903,-0.8230201902089158,1.0450764829233248,0.06466681445126006,0.9193622355014782,-0.38697049925025323,0.029070874642167913
9.3,-1.1961686590370837,-1.7981567526587336,-0.8773846101027175,-1.2917681528800178,1.2992077556077708,0.40410130453137894,-0.20943951023950108,-0.036851849294433164,-0.14360337246380453,0.052534734069271866,0.0438673857212434,-0.2143862669863012,-1.8133775861106983e-10,-3.1909457294196814e-11,-1.2433876278407709e-10,4.548691751125406e-11,3.798084838666346e-11,-1.8563486189569236e-10,0.10630035092080395,-0.8317082924005941,1.0331987915940428,0.0628686848970267,0.922005182928006,-0.38150257293893763,0.02024247895350347
9.4,-1.2171126100610246,-1.8018419375881756,-0.8917449473490917,-1.2865146794730928,1.3035944941798931,0.3826626778327581,-0.20943951023950108,-0.036851849294433164,-0.14360337246380453,0.052534734069271866,0.0438673857212434,-0.2143862669863012,-1.8133775861106983e-10,-3.1909457294196814e-11,-1.2433876278407709e-10,4.548691751125406e-11,3.798084838666346e-11,-1.8563486189569236e-10,0.09168058664731607,-0.8399712711682533,1.0212287765957984,0.06109229771246103,0.924606149614942,-0.37581256772876265,0.011666755828316933
9.5,-1.2380565610849654,-1.805527122517617,-0.9061052845954658,-1.281261206066168,1.3079812327520155,0.3612240511341376,-0.20943951023950108,-0.036851849294433164,-0.14360337246380453,0.052534734069271866,0.0438673857212434,-0.2143862669863012,-1.8133775861106983e-10,-3.1909457294196814e-11,-1.2433876278407709e-10,4.548691751125406e-11,3.798084838666346e-11,-1.8563486189569236e-10,0.07669517137047448,-0.8477942468102145,1.0091699097054718,0.05933782581163785,0.9271649884863906,-0.36990929630220587,0.003349486854090293
9.6,-1.259000512108907,-1.809212307447059,-0.9204656218418404,-1.276007732659243,1.3123679713241383,0.3397854244355162,-0.20943951023950108,-0.036851849294433164,-0.14360337246380453,0.052534734069271866,0.0438673857212434,-0.2143862669863012,-1.8133775861106983e-10,-3.1909457294196814e-11,-1.2433876278407709e-10,4.548691751125406e-11,3.798084838666346e-11,-1.8563486189569236e-10,0.06135974765956105,-0.8551629088724539,0.9970256882035272,0.05760544006110652,0.9296815551937897,-0.3638017223943192,-0.004703827244870504
9.7,-1.2799444631328478,-1.8128974923765004,-0.9348259590882144,-1.270754259252318,1.3167547098962604,0.31834679773689567,-0.20943951023950153,-0.03685184929443297,-0.14360337246380478,0.052534734069271914,0.04386738572124367,-0.2143862669863012,-1.8178133056303087e-10,-3.199262703518951e-11,-1.246437185010503e-10,4.559781049924432e-11,3.807094893940554e-11,-1.8610615709465093e-10,0.045690495895262064,-0.8620635369685499,0.9847996337792602,0.0558953092658111,0.9321557081246971,-0.35749895217312627,-0.012487970521292278
9.8,-1.300888414156789,-1.8165826773059424,-0.9491862963345887,-1.265500785845393,1.321141448468383,0.2969081710382749,-0.20943951023950153,-0.03685184929443297,-0.14360337246380478,0.052534734069271914,0.04386738572124367,-0.2143862669863012,-1.8178133056303087e-10,-3.199262703518951e-11,-1.246437185010503e-10,4.559781049924432e-11,3.807094893940554e-11,-1.8610615709465093e-10,0.02970411147785908,-0.8684830207396492,0.9724952914283155,0.05420760015516416,0.9345873084113788,-0.3510102255198531,-0.019998015458887918
9.9,-1.3218323651807298,-1.8202678622353843,-0.9635466335809629,-1.260247312438468,1.3255281870405053,0.2754695443396541,-0.20943951023950153,-0.03685184929443297,-0.14360337246380478,0.052534734069271914,0.04386738572124367,-0.2143862669863012,-1.8178133056303087e-10,-3.199262703518951e-11,-1.246437185010503e-10,4.559781049924432e-11,3.807094893940554e-11,-1.8610615709465093e-10,0.01341778129594819,-0.874408878925658,0.9601162283428417,0.052542477369282324,0.9369762199391934,-0.34434490721677347,-0.02722932636387467
10.0,-1.3427763162046706,-1.8239530471648258,-0.9779069708273369,-1.2549938390315434,1.329914925612628,0.2540309176410336,-0.20943951023950153,-0.03685184929443297,-0.14360337246380478,0.052534734069271914,0.04386738572124367,-0.2143862669863012,-1.8178133056303087e-10,-3.199262703518951e-11,-1.246437185010503e-10,4.559781049924432e-11,3.807094893940554e-11,-1.8610615709465093e-10,-0.003150840509530333,-0.8798292775202163,0.9476660327946183,0.05090010344537877,0.9393223093547762,-0.33751247805048834,-0.03417756249176367
10.1,-1.3637202672286122,-1.8276382320942677,-0.9922673080737116,-1.2497403656246182,1.3343016641847505,0.23259229094241224,-0.20943951023950153,-0.03685184929443297,-0.14360337246380478,0.052534734069271914,0.04386738572124367,-0.2143862669863012,-1.8178133056303087e-10,-3.199262703518951e-11,-1.246437185010503e-10,4.559781049924432e-11,3.807094893940554e-11,-1.8610615709465093e-10,-0.01998365745013816,-0.8847330469833641,0.9351483130115229,0.04928063880431593,0.9416254460740224,-0.33052252583853303,-0.04083868090735905
10.2,-1.3846642182525528,-1.8313234170237092,-1.0066276453200855,-1.2444868922176935,1.3386884027568726,0.21115366424379173,-0.20943951023950153,-0.03685184929443297,-0.14360337246380478,0.052534734069271914,0.04386738572124367,-0.2143862669863012,-1.8178133056303087e-10,-3.199262703518951e-11,-1.246437185010503e-10,4.559781049924432e-11,3.807094893940554e-11,-1.8610615709465093e-10,-0.03706215622688212,-0.8891096984872047,0.9225666960476996,0.04768424173732141,0.9438855022898651,-0.32338473638725096,-0.047208939076132
10.3,-1.405608169276494,-1.835008601953151,-1.0209879825664598,-1.2392334188107685,1.3430751413289954,0.18971503754517094,-0.20943951023950153,-0.03685184929443297,-0.14360337246380478,0.052534734069271914,0.04386738572124367,-0.2143862669863012,-1.8178133056303087e-10,-3.199262703518951e-11,-1.246437185010503e-10,4.559781049924432e-11,3.807094893940554e-11,-1.8610615709465093e-10,-0.05436743286156828,-0.8929494391713246,0.9099248266477737,0.04611106839286405,0.9461023529798528,-0.3161088843889043,-0.0532848971853837
10.4,-1.426552120300435,-1.8386937868825926,-1.035348319812834,-1.2339799454038438,1.3474618799011175,0.16827641084655015,-0.20943951023950153,-0.03685184929443297,-0.14360337246380478,0.052534734069271914,0.04386738572124367,-0.2143862669863012,-1.8178133056303087e-10,-3.199262703518951e-11,-1.246437185010503e-10,4.559781049924432e-11,3.807094893940554e-11,-1.8610615709465093e-10,-0.07188021938400521,-0.896243186386185,0.8972263661054936,0.04456127276369571,0.9482758759135216,-0.3087048242660447,-0.059063420193833045
10.5,-1.447496071324376,-1.8423789718120342,-1.0497086570592082,-1.2287264719969189,1.3518486184732403,0.14683778414792936,-0.20943951023950153,-0.03685184929443297,-0.14360337246380478,0.052534734069271914,0.04386738572124367,-0.2143862669863012,-1.8178133056303087e-10,-3.199262703518951e-11,-1.246437185010503e-10,4.559781049924432e-11,3.807094893940554e-11,-1.8610615709465093e-10,-0.08958091103571585,-0.8989825809042149,0.8844749911171474,0.04303500667405544,0.950405951659565,-0.30118248097117695,-0.06454167960850896
10.6,-1.4684400223483172,-1.846064156741476,-1.0640689943055823,-1.2234729985899937,1.3562353570453625,0.12539915744930855,-0.20943951023950175,-0.036851849294433005,-0.1436033724638047,0.052534734069271734,0.04386738572124348,-0.2143862669863014,-1.820031165390114e-10,-3.2027281093936465e-11,-1.2478233473603813e-10,4.565325699323945e-11,3.811946462165128e-11,-1.8627249657663633e-10,-0.10744959395006284,-0.9011599990798582,0.8716743926301342,0.041532419767041515,0.952492463592797,-0.29355184074978685,-0.0697171549880682
10.7,-1.4893839733722583,-1.8497493416709174,-1.0784293315519569,-1.218219525183069,1.360622095617485,0.10396053075068774,-0.20943951023950175,-0.036851849294433005,-0.1436033724638047,0.052534734069271734,0.04386738572124348,-0.2143862669863014,-1.820031165390114e-10,-3.2027281093936465e-11,-1.2478233473603813e-10,4.565325699323945e-11,3.811946462165128e-11,-1.8627249657663633e-10,-0.1254660732680126,-0.9027685639414028,0.8588282746870454,0.040053659492148314,0.954535297900914,-0.28582294187480184,-0.07458763517188463
10.8,-1.5103279243961991,-1.8534345266003593,-1.092789668798331,-1.212966051776144,1.3650088341896076,0.08252190405206696,-0.20943951023950175,-0.036851849294433005,-0.1436033724638047,0.052534734069271734,0.04386738572124348,-0.2143862669863014,-1.820031165390114e-10,-3.2027281093936465e-11,-1.2478233473603813e-10,4.565325699323945e-11,3.811946462165128e-11,-1.8627249657663633e-10,-0.14360990164814572,-0.9038021551989845,0.845940353265632,0.03859887109297195,0.9565343435910473,-0.27800586536057664,-0.07915121923450964
10.9,-1.5312718754201402,-1.857119711529801,-1.1071500060447053,-1.2077125783692193,1.36939557276173,0.06108327735344616,-0.20943951023950175,-0.036851849294433005,-0.1436033724638047,0.052534734069271734,0.04386738572124348,-0.2143862669863014,-1.820031165390114e-10,-3.2027281093936465e-11,-1.2478233473603813e-10,4.565325699323945e-11,3.811946462165128e-11,-1.8627249657663633e-10,-0.16186040812896088,-0.904255418154783,0.8330143551150262,0.03716819759508434,0.9584894924961135,-0.27011072566448113,-0.08340631716532679
11.0,-1.5522158264440813,-1.8608048964592427,-1.1215103432910793,-1.2024591049622944,1.3737823113338523,0.039644650654825364,-0.20943951023950175,-0.036851849294433005,-0.1436033724638047,0.052534734069271734,0.04386738572124348,-0.2143862669863014,-1.820031165390114e-10,-3.2027281093936465e-11,-1.2478233473603813e-10,4.565325699323945e-11,3.811946462165128e-11,-1.8627249657663633e-10,-0.18019672730101863,-0.9041237715030495,0.8200540165885862,0.03576177979407629,0.9604006392809569,-0.2621476613841727,-0.08735165027346893
11.1,-1.5731597774680226,-1.8644900813886844,-1.1358706805374537,-1.1972056315553692,1.3781690499059749,0.018206023956204284,-0.20943951023950175,-0.036851849294433005,-0.1436033724638047,0.052534734069271734,0.04386738572124348,-0.2143862669863014,-1.820031165390114e-10,-3.2027281093936465e-11,-1.2478233473603813e-10,4.565325699323945e-11,3.811946462165128e-11,-1.8627249657663633e-10,-0.1985978287460465,-0.9034034140092442,0.8070630824737403,0.03437975624377213,0.9622676814482869,-0.2541268259586141,-0.09098625131830224
11.2,-1.5941037284919637,-1.8681752663181261,-1.150231017783828,-1.1919521581484445,1.3825557884780975,-0.0032326027424165044,-0.20943951023950175,-0.036851849294433005,-0.1436033724638047,0.052534734069271734,0.04386738572124348,-0.2143862669863014,-1.820031165390114e-10,-3.2027281093936465e-11,-1.2478233473603813e-10,4.565325699323945e-11,3.811946462165128e-11,-1.8627249657663633e-10,-0.2170425466997483,-0.9020913300592334,0.7940453048192008,0.033022263244615706,0.9640905193444076,-0.2460583783808816,-0.09430946436601405
11.3,-1.6150476795159046,-1.8718604512475678,-1.164591355030202,-1.1866986847415197,1.3869425270502198,-0.024671229441037307,-0.20943951023950175,-0.036851849294433005,-0.1436033724638047,0.052534734069271734,0.04386738572124348,-0.2143862669863014,-1.820031165390114e-10,-3.2027281093936465e-11,-1.2478233473603813e-10,4.565325699323945e-11,3.811946462165128e-11,-1.8627249657663633e-10,-0.23550960989476263,-0.9001852940711593,0.7810044417599232,0.031689434832228476,0.9658690561647413,-0.23795247393077806,-0.09732094437307985
11.4,-1.6359916305398456,-1.8755456361770095,-1.1789516922765761,-1.1814452113345948,1.3913292656223422,-0.046109856139657825,-0.20943951023950175,-0.036851849294433005,-0.1436033724638047,0.052534734069271734,0.04386738572124348,-0.2143862669863014,-1.820031165390114e-10,-3.2027281093936465e-11,-1.2478233473603813e-10,4.565325699323945e-11,3.811946462165128e-11,-1.8627249657663633e-10,-0.25397767153996936,-0.8976838737642857,0.7679442563401847,0.03038140276614212,0.9676031979591444,-0.22981925493523014,-0.10002065649761643
11.5,-1.6569355815637865,-1.879230821106451,-1.1933120295229505,-1.1761917379276698,1.3957160041944645,-0.06754848283827863,-0.20943951023950175,-0.036851849294433005,-0.1436033724638047,0.052534734069271734,0.04386738572124348,-0.2143862669863014,-1.820031165390114e-10,-3.2027281093936465e-11,-1.2478233473603813e-10,4.565325699323945e-11,3.811946462165128e-11,-1.8627249657663633e-10,-0.2724253393921699,-0.8945864322808085,0.7548685153351583,0.029098296518703635,0.9692928536370156,-0.22166884156441252,-0.10240887513986306
11.6,-1.6778795325877278,-1.882916006035893,-1.2076723667693248,-1.170938264520745,1.400102742766587,-0.08898710953689962,-0.20943951023950125,-0.036851849294433185,-0.14360337246380472,0.0525347340692719,0.04386738572124343,-0.21438626698630112,-1.8150409809305523e-10,-3.193718054119438e-11,-1.2442193252506977e-10,4.552157157000102e-11,3.8015502445410416e-11,-1.8577347813068016e-10,-0.29083120587606187,-0.8908931291583226,0.7417809880713567,0.027840243264158817,0.9709379349721974,-0.21351132267148815,-0.10448618271326132
11.7,-1.6988234836116687,-1.8866011909653346,-1.222032704015699,-1.16568479111382,1.4044894813387097,-0.1104257362355204,-0.20943951023950125,-0.036851849294433185,-0.14360337246380472,0.0525347340692719,0.04386738572124343,-0.21438626698630112,-1.8150409809305523e-10,-3.193718054119438e-11,-1.2442193252506977e-10,4.552157157000102e-11,3.8015502445410416e-11,-1.8577347813068016e-10,-0.3091738782083725,-0.8866049201523248,0.7286854452463285,0.026607367867908824,0.9725383566076677,-0.20535674668380302,-0.1062534681478351
11.8,-1.7197674346356098,-1.8902863758947763,-1.2363930412620734,-1.1604313177068952,1.408876219910832,-0.13186436293414122,-0.20943951023950125,-0.036851849294433185,-0.14360337246380472,0.0525347340692719,0.04386738572124343,-0.21438626698630112,-1.8150409809305523e-10,-3.193718054119438e-11,-1.2442193252506977e-10,4.552157157000102e-11,3.8015502445410416e-11,-1.8577347813068016e-10,-0.3274320084820538,-0.8817235559098461,0.7155856577479711,0.025399792875946355,0.9740940360600244,-0.19721511255330862,-0.10771192512779919
11.9,-1.7407113856595506,-1.8939715608242178,-1.2507533785084473,-1.1551778442999703,1.4132629584829544,-0.1533029896327617,-0.20943951023950125,-0.036851849294433185,-0.14360337246380472,0.0525347340692719,0.04386738572124343,-0.21438626698630112,-1.8150409809305523e-10,-3.193718054119438e-11,-1.2442193252506977e-10,4.552157157000102e-11,3.8015502445410416e-11,-1.8577347813068016e-10,-0.3455843236665074,-0.8762515794969878,0.702485395473851,0.02421763850446819,0.975604893723761,-0.18909636077392228,-0.10886305006554907
12.0,-1.7616553366834915,-1.8976567457536597,-1.2651137157548216,-1.1499243708930456,1.4176496970550767,-0.17474161633138252,-0.20943951023950125,-0.036851849294433185,-0.14360337246380472,0.0525347340692719,0.04386738572124343,-0.21438626698630112,-1.8150409809305523e-10,-3.193718054119438e-11,-1.2442193252506977e-10,4.552157157000102e-11,3.8015502445410416e-11,-1.8577347813068016e-10,-0.36360965547998403,-0.8701923227848396,0.6893884261508971,0.023061022629667093,0.9770708528753345,-0.18101036447345362,-0.10970863981441088
12.1,-1.7825992877074328,-1.9013419306831016,-1.2794740530011959,-1.1446708974861204,1.4220364356271993,-0.1961802430300036,-0.20943951023950125,-0.036851849294433185,-0.14360337246380472,0.0525347340692719,0.04386738572124343,-0.21438626698630112,-1.8150409809305523e-10,-3.193718054119438e-11,-1.2442193252506977e-10,4.552157157000102e-11,3.8015502445410416e-11,-1.8577347813068016e-10,-0.38148697009049587,-0.8635499016999324,0.676298514155853,0.021930060777704704,0.978491839677021,-0.17296692058765709,-0.11025078912274638
12.2,-1.8035432387313737,-1.9050271156125431,-1.2938343902475702,-1.1394174240791957,1.4264231741993216,-0.21761886972862438,-0.20943951023950125,-0.036851849294433185,-0.14360337246380472,0.0525347340692719,0.04386738572124343,-0.21438626698630112,-1.8150409809305523e-10,-3.193718054119438e-11,-1.2442193252506977e-10,4.552157157000102e-11,3.8015502445410416e-11,-1.8577347813068016e-10,-0.39919539760187733,-0.8563292103470619,0.6632194193368552,0.02082486611486258,0.9798677831805678,-0.1649757411238637,-0.11049188783222906
12.3,-1.824487189755315,-1.9087123005419848,-1.3081947274939445,-1.1341639506722707,1.4308099127714442,-0.2390574964272452,-0.20943951023950125,-0.036851849294433185,-0.14360337246380472,0.0525347340692719,0.04386738572124343,-0.21438626698630112,-1.8150409809305523e-10,-3.193718054119438e-11,-1.2442193252506977e-10,4.552157157000102e-11,3.8015502445410416e-11,-1.8577347813068016e-10,-0.4167142612819776,-0.8485359140139718,0.6501548958365203,0.019745549437877236,0.9811986153306302,-0.15704644452157226,-0.110434617823321
12.4,-1.8454311407792559,-1.9123974854714267,-1.3225550647403186,-1.1289104772653458,1.4351966513435666,-0.26049612312586595,-0.20943951023950125,-0.036851849294433185,-0.14360337246380472,0.0525347340692719,0.04386738572124343,-0.21438626698630112,-1.8150409809305523e-10,-3.193718054119438e-11,-1.2442193252506977e-10,4.552157157000102e-11,3.8015502445410416e-11,-1.8577347813068016e-10,-0.43402310649035925,-0.8401764410690349,0.637108690916914,0.01869221916445469,0.9824842709680037,-0.14918854711726603,-0.11008194971119235
12.5,-1.8663750918031967,-1.9160826704008684,-1.3369154019866927,-1.1236570038584208,1.439583389915689,-0.28193474982448674,-0.20943951023950125,-0.036851849294433185,-0.14360337246380472,0.0525347340692719,0.04386738572124343,-0.21438626698630112,-1.8150409809305523e-10,-3.193718054119438e-11,-1.2442193252506977e-10,4.552157157000102e-11,3.8015502445410416e-11,-1.8577347813068016e-10,-0.4511017292633789,-0.8312579737647053,0.6240845437867765,0.017664981323970957,0.9837246878326433,-0.14141145472062122,-0.10943713929553346
12.6,-1.8873190428271378,-1.91976785533031,-1.351275739233067,-1.118403530451496,1.4439701284878115,-0.30337337652310753,-0.2094395102395014,-0.0368518492944329,-0.14360337246380453,0.052534734069271824,0.0438673857212436,-0.2143862669863013,-1.8161499108104548e-10,-3.1957972976442554e-11,-1.2453282551306005e-10,4.555622562874798e-11,3.804322569240798e-11,-1.85912094365668e-10,-0.46793020451503514,-0.8217884379611134,0.6110861844313803,0.01666393954835388,0.9849198065664748,-0.13372445430915977,-0.10850372376791559
12.7,-1.908262993851079,-1.9234530402597516,-1.3656360764794413,-1.113150057044571,1.4483568670599338,-0.3248120032217283,-0.2094395102395014,-0.0368518492944329,-0.14360337246380453,0.052534734069271824,0.0438673857212436,-0.2143862669863013,-1.8161499108104548e-10,-3.1957972976442554e-11,-1.2453282551306005e-10,4.555622562874798e-11,3.804322569240798e-11,-1.85912094365668e-10,-0.48448891381258335,-0.8117764917857738,0.5981173324453912,0.01568919506315089,0.9860695707159961,-0.12613670584828246,-0.10728551768055807
12.8,-1.9292069448750198,-1.9271382251891938,-1.3799964137258154,-1.1078965836376462,1.4527436056320564,-0.34625062992034916,-0.2094395102395014,-0.0368518492944329,-0.14360337246380453,0.052534734069271824,0.0438673857212436,-0.2143862669863013,-1.8161499108104548e-10,-3.1957972976442554e-11,-1.2453282551306005e-10,4.555622562874798e-11,3.804322569240798e-11,-1.85912094365668e-10,-0.5007585726865675,-0.8012315132469278,0.5851816958691078,0.014740846678781006,0.9871739267346685,-0.11865723424349237,-0.10578660868055473
12.9,-1.950150895898961,-1.930823410118635,-1.3943567509721895,-1.1026431102307213,1.4571303442041788,-0.3676892566189699,-0.2094395102395014,-0.0368518492944329,-0.14360337246380453,0.052534734069271824,0.0438673857212436,-0.2143862669863013,-1.8161499108104548e-10,-3.1957972976442554e-11,-1.2453282551306005e-10,4.555622562874798e-11,3.804322569240798e-11,-1.85912094365668e-10,-0.5167202574356408,-0.7901635868195861,0.5722829700284492,0.013818990781974861,0.9882328239850977,-0.11129492143149493,-0.10401135301381342
13.0,-1.971094846922902,-1.9345085950480767,-1.4087170882185638,-1.0973896368237963,1.461517082776301,-0.38912788331759074,-0.2094395102395014,-0.0368518492944329,-0.14360337246380453,0.052534734069271824,0.0438673857212436,-0.2143862669863013,-1.8161499108104548e-10,-3.1957972976442554e-11,-1.2453282551306005e-10,4.555622562874798e-11,3.804322569240798e-11,-1.85912094365668e-10,-0.5323554313873148,-0.778583489024842,0.5594248363790569,0.012923721327398417,0.989246214741005,-0.10405849861671437,-0.10196437080314125
13.1,-1.9920387979468432,-1.9381937799775186,-1.423077425464938,-1.0921361634168714,1.4659038213484237,-0.4105665100162115,-0.2094395102395014,-0.0368518492944329,-0.14360337246380453,0.052534734069271824,0.0438673857212436,-0.2143862669863013,-1.8161499108104548e-10,-3.1957972976442554e-11,-1.2453282551306005e-10,4.555622562874798e-11,3.804322569240798e-11,-1.85912094365668e-10,-0.5476459705766265,-0.7665026730244937,0.5466109613548921,0.012055129829467822,0.9902140541889892,-0.09695653865964582,-0.09965054110510756
13.2,-2.012982748970784,-1.94187896490696,-1.4374377627113124,-1.0868826900099466,1.470290559920546,-0.43200513671483237,-0.2094395102395014,-0.0368518492944329,-0.14360337246380453,0.052534734069271824,0.0438673857212436,-0.2143862669863013,-1.8161499108104548e-10,-3.1957972976442554e-11,-1.2453282551306005e-10,4.555622562874798e-11,3.804322569240798e-11,-1.85912094365668e-10,-0.5625741888055783,-0.7539332522544665,0.5338449952216809,0.011213305354348686,0.9911363004300776,-0.08999744862329431,-0.09707499675048546
13.3,-2.033926699994725,-1.945564149836402,-1.4517980999576865,-1.0816292166030217,1.4746772984926686,-0.45344376341345316,-0.2094395102395014,-0.0368518492944329,-0.14360337246380453,0.052534734069271824,0.0438673857212436,-0.2143862669863013,-1.8161499108104548e-10,-3.1957972976442554e-11,-1.2453282551306005e-10,4.555622562874798e-11,3.804322569240798e-11,-1.85912094365668e-10,-0.5771228620471816,-0.7408879831219216,0.5211305709355822,0.010398334512147835,0.9920129144810664,-0.08318946248381813,-0.09424311897325671
13.4,-2.0548706510186663,-1.9492493347658435,-1.4661584372040606,-1.0763757431960967,1.479064037064791,-0.47488239011207395,-0.2094395102395014,-0.0368518492944329,-0.14360337246380453,0.052534734069271824,0.0438673857212436,-0.2143862669863013,-1.8161499108104548e-10,-3.1957972976442554e-11,-1.2453282551306005e-10,4.555622562874798e-11,3.804322569240798e-11,-1.85912094365668e-10,-0.5912752521588973,-0.7273802467923098,0.5084713030074399,0.0096103014492922,0.992843860275653,-0.07654063401133183,-0.09116053183333635
13.5,-2.075814602042607,-1.9529345196952852,-1.480518774450435,-1.0711222697891718,1.4834507756369135,-0.4963210168106945,-0.20943951023950125,-0.036851849294433185,-0.14360337246380472,0.0525347340692719,0.04386738572124343,-0.21438626698630112,-1.8150409809305523e-10,-3.193718054119438e-11,-1.2442193252506977e-10,4.552157157000102e-11,3.8015502445410416e-11,-1.8577347813068016e-10,-0.605015129871349,-0.7134240300939609,0.49587078637298165,0.008849287841098117,0.9936291046653563,-0.07005882982666398,-0.08783309643833674
13.6,-2.0967585530665485,-1.9566197046247271,-1.4948791116968094,-1.0658687963822469,1.487837514209036,-0.5177596435093159,-0.20943951023950125,-0.036851849294433185,-0.14360337246380472,0.0525347340692719,0.04386738572124343,-0.21438626698630112,-1.8150409809305523e-10,-3.193718054119438e-11,-1.2442193252506977e-10,4.552157157000102e-11,3.8015502445410416e-11,-1.8577347813068016e-10,-0.6183267970192612,-0.69903390556907,0.4833325952693257,0.008115372884532618,0.9943686174202283,-0.06375172263970057,-0.08426690496985897
13.7,-2.1177025040904893,-1.9603048895541688,-1.5092394489431835,-1.060615322975322,1.4922242527811584,-0.5391982702079366,-0.20943951023950125,-0.036851849294433185,-0.14360337246380472,0.0525347340692719,0.04386738572124343,-0.21438626698630112,-1.8150409809305523e-10,-3.193718054119438e-11,-1.2442193252506977e-10,4.552157157000102e-11,3.8015502445410416e-11,-1.8577347813068016e-10,-0.6311951079827328,-0.6842250107012078,0.470860282118155,0.007408633291166024,0.9950623712293544,-0.05762678467477729,-0.08046827451995155
13.8,-2.1386464551144297,-1.9639900744836103,-1.5235997861895574,-1.0553618495683972,1.4966109913532808,-0.5606368969065568,-0.20943951023950125,-0.036851849294433185,-0.14360337246380472,0.0525347340692719,0.04386738572124343,-0.21438626698630112,-1.8150409809305523e-10,-3.193718054119438e-11,-1.2442193252506977e-10,4.552157157000102e-11,3.8015502445410416e-11,-1.8577347813068016e-10,-0.6436054903081565,-0.6690130263506536,0.45845737641590734,0.006729143280315389,0.9957103417011457,-0.05169128128840235,-0.07644374074352953
13.9,-2.159590406138371,-1.9676752594130522,-1.5379601234359317,-1.0501083761614725,1.5009977299254031,-0.5820755236051777,-0.20943951023950125,-0.036851849294433185,-0.14360337246380472,0.0525347340692719,0.04386738572124343,-0.21438626698630112,-1.8150409809305523e-10,-3.193718054119438e-11,-1.2442193252506977e-10,4.552157157000102e-11,3.8015502445410416e-11,-1.8577347813068016e-10,-0.6555439644793196,-0.6534141544300176,0.4461273836313464,0.0060769745723815525,0.9963125073634198,-0.04595226478442522,-0.07220005133269837
14.0,-2.180534357162312,-1.971360444342494,-1.552320460682306,-1.0448549027545473,1.5053844684975255,-0.6035141503037984,-0.20943951023950125,-0.036851849294433185,-0.14360337246380472,0.0525347340692719,0.04386738572124343,-0.21438626698630112,-1.8150409809305523e-10,-3.193718054119438e-11,-1.2442193252506977e-10,4.552157157000102e-11,3.8015502445410416e-11,-1.8577347813068016e-10,-0.6669971628105211,-0.6374450948537127,0.4338737841108618,0.005452196382379592,0.9968688496632729,-0.04041656843157668,-0.06774415931906237
14.1,-2.2014783081862537,-1.9750456292719356,-1.5666807979286803,-1.0396014293476223,1.5097712070696483,-0.6249527770024198,-0.20943951023950125,-0.036851849294433185,-0.14360337246380472,0.0525347340692719,0.04386738572124343,-0.21438626698630112,-1.8150409809305523e-10,-3.193718054119438e-11,-1.2442193252506977e-10,4.552157157000102e-11,3.8015502445410416e-11,-1.8577347813068016e-10,-0.6779523474348584,-0.621123021795876,0.4217000319918408,0.00485487541366319,0.9973793529667424,-0.035090800688114605,-0.06308321621023363
14.2,-2.2224222592101945,-1.9787308142013773,-1.5810411351750546,-1.0343479559406976,1.5141579456417706,-0.6463914037010406,-0.20943951023950125,-0.036851849294433185,-0.14360337246380472,0.0525347340692719,0.04386738572124343,-0.21438626698630112,-1.8150409809305523e-10,-3.193718054119438e-11,-1.2442193252506977e-10,4.552157157000102e-11,3.8015502445410416e-11,-1.8577347813068016e-10,-0.6883974273621942,-0.6044655592923608,0.40960955412446615,0.004285075851842679,0.997844004558259,-0.029981339638134877,-0.05822456496689434
14.3,-2.2433662102341354,-1.982415999130819,-1.595401472421429,-1.0290944825337727,1.518544684213893,-0.6678300303996614,-0.20943951023950125,-0.036851849294433185,-0.14360337246380472,0.0525347340692719,0.04386738572124343,-0.21438626698630112,-1.8150409809305523e-10,-3.193718054119438e-11,-1.2442193252506977e-10,4.552157157000102e-11,3.8015502445410416e-11,-1.8577347813068016e-10,-0.6983209745827318,-0.5874907562233326,0.39760574900228063,0.0037428593588987973,0.9982627946398906,-0.025094327643899423,-0.05317573282687903
14.4,-2.2643101612580763,-1.9861011840602607,-1.6097618096678028,-1.0238410091268477,1.5229314227860153,-0.6892686570982817,-0.20943951023950125,-0.036851849294433185,-0.14360337246380472,0.0525347340692719,0.04386738572124343,-0.21438626698630112,-1.8150409809305523e-10,-3.193718054119438e-11,-1.2442193252506977e-10,4.552157157000102e-11,3.8015502445410416e-11,-1.8577347813068016e-10,-0.7077122391935425,-0.5702170607139218,0.3856919857018608,0.0032282850674918186,0.9986357163303774,-0.020435666218341492,-0.04794442398287091
14.5,-2.285254112282017,-1.9897863689897022,-1.6241221469141771,-1.0185875357199228,1.5273181613581377,-0.7107072837969024,-0.2094395102395022,-0.036851849294433046,-0.14360337246380486,0.05253473406927191,0.04386738572124353,-0.21438626698630142,-1.8247441173796997e-10,-3.2103520023179766e-11,-1.251150137000089e-10,4.57710807929791e-11,3.821649598614276e-11,-1.867715150225925e-10,-0.7165611635268743,-0.5526632939911941,0.3738716028319336,0.002741409575465366,0.9989627656639567,-0.016011011121710713,-0.042538512120413506
14.6,-2.3061980633059584,-1.993471553919144,-1.6384824841605516,-1.0133340623129978,1.5317048999302605,-0.7321459104955237,-0.2094395102395022,-0.036851849294433046,-0.14360337246380486,0.05253473406927191,0.04386738572124353,-0.21438626698630142,-1.8247441173796997e-10,-3.2103520023179766e-11,-1.251150137000089e-10,4.57710807929791e-11,3.821649598614276e-11,-1.867715150225925e-10,-0.7248583952605631,-0.5348486237364867,0.3621479074922783,0.002282286940549683,0.9992439415889799,-0.011825767686113885,-0.036966032823047265
14.7,-2.3271420143298998,-1.9971567388485858,-1.6528428214069257,-1.0080805889060729,1.5360916385023828,-0.7535845371941445,-0.2094395102395022,-0.036851849294433046,-0.14360337246380486,0.05253473406927191,0.04386738572124353,-0.21438626698630142,-1.8247441173796997e-10,-3.2103520023179766e-11,-1.251150137000089e-10,4.57710807929791e-11,3.821649598614276e-11,-1.867715150225925e-10,-0.7325952994923985,-0.5167925369728722,0.35052417424274074,0.0018509686752590795,0.9994792459663202,-0.00788508637150324,-0.03123517585148217
14.8,-2.348085965353841,-2.0008419237780277,-1.6672031586533,-1.0028271154991482,1.5404783770745052,-0.7750231638927653,-0.2094395102395022,-0.036851849294433046,-0.14360337246380486,0.05253473406927191,0.04386738572124353,-0.21438626698630142,-1.8247441173796997e-10,-3.2103520023179766e-11,-1.251150137000089e-10,4.57710807929791e-11,3.821649598614276e-11,-1.867715150225925e-10,-0.7397639697618452,-0.498514812528159,0.33900364408268535,0.0014475037419873803,0.9996686835675744,-0.00419385855645221,-0.02535427730380369
14.9,-2.369029916377781,-2.004527108707469,-1.681563495899674,-0.9975736420922232,1.5448651156466275,-0.7964617905913854,-0.2094395102395022,-0.036851849294433046,-0.14360337246380486,0.05253473406927191,0.04386738572124353,-0.21438626698630142,-1.8247441173796997e-10,-3.2103520023179766e-11,-1.251150137000089e-10,4.57710807929791e-11,3.821649598614276e-11,-1.867715150225925e-10,-0.7463572380041085,-0.48003549311445237,0.3275895234412215,0.0010719385483019045,0.9998122620730527,-0.0007567125668565919,-0.019331811663813907
15.0,-2.3899738674017224,-2.0082122936369107,-1.6959238331460478,-0.9923201686852984,1.54925185421875,-0.8179004172900063,-0.2094395102395022,-0.036851849294433046,-0.14360337246380486,0.05253473406927191,0.04386738572124353,-0.21438626698630142,-1.8247441173796997e-10,-3.2103520023179766e-11,-1.251150137000089e-10,4.57710807929791e-11,3.821649598614276e-11,-1.867715150225925e-10,-0.752368683423123,-0.46137485706580267,0.3162849831785111,0.0007243169424374158,0.9999099920695642,0.00242199005453034,-0.01317638374466825
15.1,-2.410917818425664,-2.0118974785663526,-1.7102841703924225,-0.9870666952783734,1.5536385927908725,-0.8393390439886275,-0.2094395102395022,-0.036851849294433046,-0.14360337246380486,0.05253473406927191,0.04386738572124353,-0.21438626698630142,-1.8247441173796997e-10,-3.2103520023179766e-11,-1.251150137000089e-10,4.57710807929791e-11,3.821649598614276e-11,-1.867715150225925e-10,-0.7577926402716619,-0.4425533897759813,0.30509315759848926,0.0004046802089840315,0.9999618870479928,0.005338158035015428,-0.006896720535065647
15.2,-2.4318003907005323,-2.015571863621367,-1.724602422955948,-0.9818286178025045,1.5580124755018558,-0.8607148422320492,-0.20124674829161354,-0.035410294984725664,-0.13798595937797134,0.05047970362285329,0.04215140076654527,-0.2060000000001595,0.4884629811355499,0.08594731789685661,0.334917377024865,-0.1225235524438247,-0.10230922512909893,0.49999999984195975,-0.7626109147583399,-0.4236475087907149,0.29404943086884067,0.00011388069323698018,0.9999680125168541,0.00798060066891156,-0.0005205643513219646
15.3,-2.449527672534025,-2.0186910607479303,-1.736757232967654,-0.9773819972206065,1.5617254784070373,-0.87886082515452,-0.15240045016236944,-0.026815563192279276,-0.10449422166472637,0.038227348374534835,0.031920478250349174,-0.1559999999999041,0.48846298138364974,0.08594731794050918,0.3349173771949807,-0.12252355250605709,-0.10230922518106297,0.5000000000959233,-0.7662359138104701,-0.40750426190309436,0.284766989977693,-0.0001110898047307017,0.9999374799790394,0.010013352481189279,0.004975596879869689
15.4,-2.4623703245546205,-2.020950784695253,-1.745562869208054,-0.9741606121635337,1.5644153890606045,-0.8920068080769925,-0.10355415203348868,-0.018220831399896813,-0.07100248395173049,0.025974993126307504,0.021689555734229166,-0.10600000000002062,0.48846298127103216,0.08594731792069868,0.334917377117775,-0.1225235524778174,-0.10230922515748032,0.4999999999806405,-0.768593919551845,-0.3957629300117721,0.2780964935123133,-0.0002615025975405923,0.9998948722826383,0.011364079757358122,0.009001871502432644
15.5,-2.470328346762315,-2.022351035463336,-1.7510193316771459,-0.9721644626312869,1.5660822074625573,-0.9001527909994638,-0.05470785390441772,-0.009626099607480893,-0.03751074623860423,0.013722637878032478,0.01145863321806933,-0.05599999999994245,0.4884629813463813,0.08594731793395541,0.33491737716943687,-0.12252355249671468,-0.10230922517325979,0.5000000000577732,-0.769941669112081,-0.38847027692951597,0.27398629529897317,-0.0003494036745084426,0.9998598344559885,0.012149302749155013,0.011514503959139128
15.6,-2.4734017391571106,-2.022891813052178,-1.7531266203749305,-0.9713935486238655,1.5667259336128958,-0.9032987739219355,-0.005861555775476716,-0.0010313678150878347,-0.004019008525567062,0.001470282629790044,0.0012277107019367092,-0.005999999999997303,0.4884629812833075,0.08594731792285668,0.3349173771261876,-0.1225235524808936,-0.10230922516004806,0.4999999999932051,-0.7704389063059917,-0.3856506629739485,0.2724037326682501,-0.00038226450383587444,0.9998445344521728,0.012441910719645071,0.012488380904320407
15.612919658,-2.4734425056851332,-2.0228989861110973,-1.7531545721730462,-0.9713833229567689,1.5667344722167496,-0.9033405033155477,-1.1203804149594247e-16,-1.9713610940602634e-17,-7.681951024741515e-17,2.810304850742177e-17,2.3466517736481117e-17,-1.1468427064838102e-16,0.4884629812371759,0.08594731791473971,0.334917377094557,-0.12252355246932214,-0.10230922515038567,0.49999999994598354,-0.7704454146565797,-0.3856132512512088,0.2723827590583403,-0.0003826963115104326,0.9998443248866432,0.012445752035678742,0.012501311602076284
