mathias31415/primitives_from_planned_trajectory_python/data/saved_trajectories/trajectory_20250624_123431_executed.csv
timestamp,shoulder_lift_joint_pos,elbow_joint_pos,wrist_1_joint_pos,wrist_2_joint_pos,wrist_3_joint_pos,shoulder_pan_joint_pos,shoulder_lift_joint_vel,elbow_joint_vel,wrist_1_joint_vel,wrist_2_joint_vel,wrist_3_joint_vel,shoulder_pan_joint_vel,shoulder_lift_joint_eff,elbow_joint_eff,wrist_1_joint_eff,wrist_2_joint_eff,wrist_3_joint_eff,shoulder_pan_joint_eff
1750761300.9719687,-1.9171969999999998,-2.436352,-0.3922650000000001,1.5818170000000005,-0.4706109999999999,-2.0404219999999995,0.0,0.0,0.0,0.0,0.0,0.0,3.717619979740021,1.7192158844301706,0.2998473354982438,0.0009092873493938235,0.0,6.681960920622515e-17
1750761300.9782062,-1.9171969999999998,-2.436352,-0.3922650000000001,1.5818170000000005,-0.4706109999999999,-2.0404219999999995,0.0,0.0,0.0,0.0,0.0,0.0,3.717619979740021,1.7192158844301706,0.2998473354982438,0.0009092873493938235,0.0,6.681960920622515e-17
1750761300.9788246,-1.9171969999999998,-2.436352,-0.3922650000000001,1.5818170000000005,-0.4706109999999999,-2.0404219999999995,0.0,0.0,0.0,0.0,0.0,0.0,3.717619979740021,1.7192158844301706,0.2998473354982438,0.0009092873493938235,0.0,6.681960920622515e-17
1750761300.9792871,-1.9171969999999998,-2.436352,-0.3922650000000001,1.5818170000000005,-0.4706109999999999,-2.0404219999999995,0.0,0.0,0.0,0.0,0.0,0.0,3.717619979740021,1.7192158844301706,0.2998473354982438,0.0009092873493938235,0.0,6.681960920622515e-17
1750761300.9796858,-1.9171969999999998,-2.436352,-0.3922650000000001,1.5818170000000005,-0.4706109999999999,-2.0404219999999995,0.0,0.0,0.0,0.0,0.0,0.0,3.717619979740021,1.7192158844301706,0.2998473354982438,0.0009092873493938235,0.0,6.681960920622515e-17
1750761300.9833798,-1.9171969999999998,-2.436352,-0.3922650000000001,1.5818170000000005,-0.4706109999999999,-2.0404219999999995,0.0,0.0,0.0,0.0,0.0,0.0,3.717619979740021,1.7192158844301706,0.2998473354982438,0.0009092873493938235,0.0,6.681960920622515e-17
1750761300.9837701,-1.9171969999999998,-2.436352,-0.3922650000000001,1.5818170000000005,-0.4706109999999999,-2.0404219999999995,0.0,0.0,0.0,0.0,0.0,0.0,3.717619979740021,1.7192158844301706,0.2998473354982438,0.0009092873493938235,0.0,6.681960920622515e-17
1750761300.9867933,-1.9171969999999998,-2.436352,-0.3922650000000001,1.5818170000000005,-0.4706109999999999,-2.0404219999999995,0.0,0.0,0.0,0.0,0.0,0.0,3.717619979740021,1.7192158844301706,0.2998473354982438,0.0009092873493938235,0.0,6.681960920622515e-17
1750761300.9891388,-1.9171969999999998,-2.436352,-0.3922650000000001,1.5818170000000005,-0.4706109999999999,-2.0404219999999995,0.0,0.0,0.0,0.0,0.0,0.0,3.717619979740021,1.7192158844301706,0.2998473354982438,0.0009092873493938235,0.0,6.681960920622515e-17
1750761300.991715,-1.9171969999999998,-2.436352,-0.3922650000000001,1.5818170000000005,-0.4706109999999999,-2.0404219999999995,0.0,0.0,0.0,0.0,0.0,0.0,3.717619979740021,1.7192158844301706,0.2998473354982438,0.0009092873493938235,0.0,6.681960920622515e-17
1750761300.9932568,-1.9171969999999998,-2.436352,-0.3922650000000001,1.5818170000000005,-0.4706109999999999,-2.0404219999999995,0.0,0.0,0.0,0.0,0.0,0.0,3.717619979740021,1.7192158844301706,0.2998473354982438,0.0009092873493938235,0.0,6.681960920622515e-17
1750761300.995095,-1.9171969999999998,-2.436352,-0.3922650000000001,1.5818170000000005,-0.4706109999999999,-2.0404219999999995,0.0,0.0,0.0,0.0,0.0,0.0,3.717619979740021,1.7192158844301706,0.2998473354982438,0.0009092873493938235,0.0,6.681960920622515e-17
1750761300.9970925,-1.9171969999999998,-2.436352,-0.3922650000000001,1.5818170000000005,-0.4706109999999999,-2.0404219999999995,0.0,0.0,0.0,0.0,0.0,0.0,3.717619979740021,1.7192158844301706,0.2998473354982438,0.0009092873493938235,0.0,6.681960920622515e-17
1750761300.9993181,-1.9171969999999998,-2.436352,-0.3922650000000001,1.5818170000000005,-0.4706109999999999,-2.0404219999999995,0.0,0.0,0.0,0.0,0.0,0.0,3.717619979740021,1.7192158844301706,0.2998473354982438,0.0009092873493938235,0.0,6.681960920622515e-17
1750761301.0010014,-1.9171969999999998,-2.436352,-0.3922650000000001,1.5818170000000005,-0.4706109999999999,-2.0404219999999995,0.0,0.0,0.0,0.0,0.0,0.0,3.717619979740021,1.7192158844301706,0.2998473354982438,0.0009092873493938235,0.0,6.681960920622515e-17
1750761301.0034204,-1.9171969999999998,-2.436352,-0.3922650000000001,1.5818170000000005,-0.4706109999999999,-2.0404219999999995,0.0,0.0,0.0,0.0,0.0,0.0,3.717619979740021,1.7192158844301706,0.2998473354982438,0.0009092873493938235,0.0,6.681960920622515e-17
1750761301.0054014,-1.9171969999999998,-2.436352,-0.3922650000000001,1.5818170000000005,-0.4706109999999999,-2.0404219999999995,0.0,0.0,0.0,0.0,0.0,0.0,3.717619979740021,1.7192158844301706,0.2998473354982438,0.0009092873493938235,0.0,6.681960920622515e-17
1750761301.0071042,-1.9171969999999998,-2.436352,-0.3922650000000001,1.5818170000000005,-0.4706109999999999,-2.0404219999999995,0.0,0.0,0.0,0.0,0.0,0.0,3.717619979740021,1.7192158844301706,0.2998473354982438,0.0009092873493938235,0.0,6.681960920622515e-17
1750761301.0093017,-1.9171969999999998,-2.436352,-0.3922650000000001,1.5818170000000005,-0.4706109999999999,-2.0404219999999995,0.0,0.0,0.0,0.0,0.0,0.0,3.717619979740021,1.7192158844301706,0.2998473354982438,0.0009092873493938235,0.0,6.681960920622515e-17
1750761301.0114202,-1.9171969999999998,-2.436352,-0.3922650000000001,1.5818170000000005,-0.4706109999999999,-2.0404219999999995,0.0,0.0,0.0,0.0,0.0,0.0,3.717619979740021,1.7192158844301706,0.2998473354982438,0.0009092873493938235,0.0,6.681960920622515e-17
1750761301.012994,-1.9171969999999998,-2.436352,-0.3922650000000001,1.5818170000000005,-0.4706109999999999,-2.0404219999999995,0.0,0.0,0.0,0.0,0.0,0.0,3.717619979740021,1.7192158844301706,0.2998473354982438,0.0009092873493938235,0.0,6.681960920622515e-17
1750761301.0149474,-1.9171969999999998,-2.436352,-0.3922650000000001,1.5818170000000005,-0.4706109999999999,-2.0404219999999995,0.0,0.0,0.0,0.0,0.0,0.0,3.717619979740021,1.7192158844301706,0.2998473354982438,0.0009092873493938235,0.0,6.681960920622515e-17
1750761301.017643,-1.9171969999999998,-2.436352,-0.3922650000000001,1.5818170000000005,-0.4706109999999999,-2.0404219999999995,0.0,0.0,0.0,0.0,0.0,0.0,3.717619979740021,1.7192158844301706,0.2998473354982438,0.0009092873493938235,0.0,6.681960920622515e-17
1750761301.019086,-1.9171969999999998,-2.436352,-0.3922650000000001,1.5818170000000005,-0.4706109999999999,-2.0404219999999995,0.0,0.0,0.0,0.0,0.0,0.0,3.717619979740021,1.7192158844301706,0.2998473354982438,0.0009092873493938235,0.0,6.681960920622515e-17
1750761301.0215025,-1.9171969999999998,-2.436352,-0.3922650000000001,1.5818170000000005,-0.4706109999999999,-2.0404219999999995,0.0,0.0,0.0,0.0,0.0,0.0,3.717619979740021,1.7192158844301706,0.2998473354982438,0.0009092873493938235,0.0,6.681960920622515e-17
1750761301.0232556,-1.9171969999999998,-2.436352,-0.3922650000000001,1.5818170000000005,-0.4706109999999999,-2.0404219999999995,0.0,0.0,0.0,0.0,0.0,0.0,3.717619979740021,1.7192158844301706,0.2998473354982438,0.0009092873493938235,0.0,6.681960920622515e-17
1750761301.0251691,-1.9171969999999998,-2.436352,-0.3922650000000001,1.5818170000000005,-0.4706109999999999,-2.0404219999999995,0.0,0.0,0.0,0.0,0.0,0.0,3.717619979740021,1.7192158844301706,0.2998473354982438,0.0009092873493938235,0.0,6.681960920622515e-17
1750761301.0273428,-1.9171969999999998,-2.436352,-0.3922650000000001,1.5818170000000005,-0.4706109999999999,-2.0404219999999995,0.0,0.0,0.0,0.0,0.0,0.0,3.717619979740021,1.7192158844301706,0.2998473354982438,0.0009092873493938235,0.0,6.681960920622515e-17
1750761301.0292153,-1.9171969999999998,-2.436352,-0.3922650000000001,1.5818170000000005,-0.4706109999999999,-2.0404219999999995,0.0,0.0,0.0,0.0,0.0,0.0,3.717619979740021,1.7192158844301706,0.2998473354982438,0.0009092873493938235,0.0,6.681960920622515e-17
1750761301.0312498,-1.9171969999999998,-2.436352,-0.3922650000000001,1.5818170000000005,-0.4706109999999999,-2.0404219999999995,0.0,0.0,0.0,0.0,0.0,0.0,3.717619979740021,1.7192158844301706,0.2998473354982438,0.0009092873493938235,0.0,6.681960920622515e-17
1750761301.0330968,-1.9171969999999998,-2.436352,-0.3922650000000001,1.5818170000000005,-0.4706109999999999,-2.0404219999999995,0.0,0.0,0.0,0.0,0.0,0.0,3.717619979740021,1.7192158844301706,0.2998473354982438,0.0009092873493938235,0.0,6.681960920622515e-17
1750761301.0352275,-1.9171969999999998,-2.436352,-0.3922650000000001,1.5818170000000005,-0.4706109999999999,-2.0404219999999995,0.0,0.0,0.0,0.0,0.0,0.0,3.717619979740021,1.7192158844301706,0.2998473354982438,0.0009092873493938235,0.0,6.681960920622515e-17
1750761301.037321,-1.9171969999999998,-2.436352,-0.3922650000000001,1.5818170000000005,-0.4706109999999999,-2.0404219999999995,0.0,0.0,0.0,0.0,0.0,0.0,3.717619979740021,1.7192158844301706,0.2998473354982438,0.0009092873493938235,0.0,6.681960920622515e-17
1750761301.0388377,-1.9171969999999998,-2.436352,-0.3922650000000001,1.5818170000000005,-0.4706109999999999,-2.0404219999999995,0.0,0.0,0.0,0.0,0.0,0.0,3.717619979740021,1.7192158844301706,0.2998473354982438,0.0009092873493938235,0.0,6.681960920622515e-17
1750761301.0411325,-1.9171969999999998,-2.436352,-0.3922650000000001,1.5818170000000005,-0.4706109999999999,-2.0404219999999995,0.0,0.0,0.0,0.0,0.0,0.0,3.717619979740021,1.7192158844301706,0.2998473354982438,0.0009092873493938235,0.0,6.681960920622515e-17
1750761301.0429535,-1.9171970996778898,-2.4363503257009875,-0.3922665830881167,1.581816955864843,-0.4706122704942626,-2.0404232717363033,-9.96797674099543e-05,0.0016742995149564039,-0.0015830866914077796,-4.413509602457611e-05,-0.0012704923636900956,-0.0012717344049230583,3.7426509972875563,2.044643900654481,0.2629463221905652,-0.0031164830076284124,-0.0357901723680536,-0.39792241893511415
1750761301.044844,-1.91719739873409,-2.436345302797918,-0.3922713323353664,1.5818168234601093,-0.4706160819542653,-2.040427086922425,-0.00019938206603376747,0.0033486050625505803,-0.00316615628411369,-8.826945273264882e-05,-0.002540961943103656,-0.002543446018779847,3.7426601133451314,2.044662088689002,0.2629468553726515,-0.0031164880343620437,-0.03578953052761704,-0.3979169141818758
1750761301.046807,-1.9171978972361945,-2.436336931272694,-0.3922792476904551,1.5818166027880178,-0.4706224343116565,-2.0404334454899917,-0.0002991294258231267,0.005022922675373144,-0.004749191680655357,-0.00013240233081059877,-0.003811385954952287,-0.003815112051421719,3.7426722618057395,2.0446928482372173,0.2629478769973494,-0.003116472884354619,-0.03578824687457589,-0.3979049163538507
1750761301.0489743,-1.9171985952968527,-2.4363252110951517,-0.39229032906789474,1.5818162938522646,-0.47063132745251846,-2.040442347325051,-0.00039894437419611814,0.006697258385930443,-0.0063321757861197776,-0.00017653299102958844,-0.005081741617683429,-0.0050867097145261666,3.74268744388698,2.044736178849691,0.26294938698993076,-0.0031164375590841654,-0.03578632145782771,-0.3978864260156844
1750761301.051247,-1.9171985952968527,-2.4363252110951517,-0.39229032906789474,1.5818162938522646,-0.47063132745251846,-2.040442347325051,-0.00039894437419611814,0.006697258385930443,-0.0063321757861197776,-0.00017653299102958844,-0.005081741617683429,-0.0050867097145261666,3.74268744388698,2.044736178849691,0.26294938698993076,-0.0031164375590841654,-0.03578632145782771,-0.3978864260156844
1750761301.0527635,-1.917199493073766,-2.4363101422230633,-0.3923045763480113,1.581815896658025,-0.47064276121737514,-2.04045379226808,-0.0004988494347913657,0.008371618226581183,-0.007915091509307495,-0.00022066069417933204,-0.006352006152537906,-0.006358216222542445,3.742705661382819,2.044792079887274,0.2629513852426475,-0.0031163820581226664,-0.035783754356063395,-0.39786144403056567
1750761301.0649135,-1.9172018886323663,-2.4362699581660157,-0.3923425679667023,1.5818148375221772,-0.4706732497533972,-2.0404843106121104,-0.0006990199605997265,0.011720434426703534,-0.011080649470824327,-0.0003089042728855824,-0.008892170742973174,-0.008900864650310699,3.742751212740826,2.044941589779899,0.262956845905996,-0.003116210535183275,-0.03577669553881941,-0.3977920099766682
1750761301.0653448,-1.9172033869546201,-2.4362448428362793,-0.3923663118950893,1.58181417559831,-0.47069230397787276,-2.0405033834662607,-0.0007993304427409243,0.013394902849833617,-0.01266325755707293,-0.00035301867054293403,-0.010162025263071925,-0.010171961020960728,3.7427785531103384,2.0450351964366256,0.26296030792153025,-0.003116094517664514,-0.035772204107754065,-0.397747561067704
1750761301.065657,-1.9172050860742331,-2.4362163785224444,-0.39239322090580764,1.581813425451437,-0.4707138977329848,-2.0405249983346927,-0.0008998210684317714,0.015069419530281567,-0.014245728959422015,-0.0003971271553505464,-0.01143169758616918,-0.011442875140128303,3.7428089419139434,2.04514136912895,0.2629642574025126,-0.0031159583325636305,-0.03576707155927864,-0.3976966268204169
1750761301.0659766,-1.91720698637398,-2.4361845651219656,-0.3924232947084354,1.5818125870941229,-0.47073803063158515,-2.0405491548301473,-0.0010005143233998526,0.01674399049907818,-0.015828046624536532,-0.00044122898872958946,-0.012701164961105156,-0.012713584249779466,3.7428423838626674,2.045260106298935,0.2629686940600158,-0.003115801983654137,-0.03576129810327198,-0.3976392095425659
1750761301.0668602,-1.917209088281596,-2.4361494025202353,-0.3924565329784526,1.5818116605404087,-0.47076470224103506,-2.0405758525198525,-0.0011014326820199818,0.018418621786829143,-0.017410193510276218,-0.00048532343226175044,-0.013970404644830813,-0.013984065600104383,3.742878884242275,2.0453914061989855,0.2629736175749913,-0.0031156254740001355,-0.035754883968214475,-0.39757531181382766
1750761301.0693245,-1.917209088281596,-2.4361494025202353,-0.3924565329784526,1.5818116605404087,-0.47076470224103506,-2.0405758525198525,-0.0011014326820199818,0.018418621786829143,-0.017410193510276218,-0.00048532343226175044,-0.013970404644830813,-0.013984065600104383,3.742878884242275,2.0453914061989855,0.2629736175749913,-0.0031156254740001355,-0.035754883968214475,-0.39757531181382766
1750761301.0698318,-1.9172113922697527,-2.4361108905905855,-0.3924929353572706,1.5818106458058125,-0.47079391208321475,-2.0406050909255473,-0.001202598606028423,0.02009331942372007,-0.01899215258724834,-0.000529409747752856,-0.015239393903569853,-0.0152542964504773,3.7429184489302134,2.045535266905438,0.2629790275844746,-0.0031154288085045974,-0.035747829415323694,-0.3975049365172519
1750761301.0726392,-1.9172166086028897,-2.436023818180556,-0.39257523083674606,1.5818083518634263,-0.47085994432602796,-2.040671187744529,-0.0014057629265923591,0.023442937863094402,-0.02215543926721284,-0.0006175550429406666,-0.017776530262248704,-0.017793915740152794,3.743006797588606,2.0458606620923163,0.26299130548775945,-0.0031149750289257627,-0.0357318002161185,-0.3973447661590642
1750761301.0739582,-1.9172195221176445,-2.4359752573865445,-0.3926211230501142,1.581807072694051,-0.47089676554322324,-2.040708044974023,-0.0015078061722551255,0.025117870723294626,-0.023736732885410033,-0.0006616125474161912,-0.019044631948683444,-0.019063258752257405,3.7430555961973973,2.046042191796641,0.2629981724863858,-0.003114717925286924,-0.03572282621636081,-0.39725497829582446
1750761301.0752263,-1.9172195221176445,-2.4359752573865445,-0.3926211230501142,1.581807072694051,-0.47089676554322324,-2.040708044974023,-0.0015078061722551255,0.025117870723294626,-0.023736732885410033,-0.0006616125474161912,-0.019044631948683444,-0.019063258752257405,3.7430555961973973,2.046042191796641,0.2629981724863858,-0.003114717925286924,-0.03572282621636081,-0.39725497829582446
1750761301.0771961,-1.9172226400524197,-2.435923346637353,-0.3926701775977701,1.5818057054206223,-0.47093612262632245,-2.0407474405519697,-0.0016101866790096135,0.02679289404798802,-0.025317770727715534,-0.00070565897346607,-0.020312392384886663,-0.020332260411813914,3.7431074883828876,2.0462362727531334,0.2630055241950106,-0.0031144406877718018,-0.035713213086935,-0.39715872724020584
1750761301.0797799,-1.917225963104121,-2.4358680857460246,-0.39272239395120856,1.5818042500660339,-0.47097801487014657,-2.0407893737729808,-0.0017129268267076483,0.028468013864442428,-0.026898535846215463,-0.0007496935842161133,-0.021579788896614594,-0.021600898037731145,3.743162482900787,2.046442902106954,0.2630133600818633,-0.0031141433232864477,-0.035702961216726094,-0.3970560173156846
1750761301.0810509,-1.9172294920143944,-2.4358094745135497,-0.3927777715480527,1.5818027066546532,-0.4710224415241857,-2.04083384388632,-0.0018160489750649186,0.030143236199251213,-0.028479011313191808,-0.0007937156430963739,-0.022846798824320603,-0.022869148963544278,3.743220589091093,2.046662076833345,0.2630216795735389,-0.003113825838492511,-0.03569207101975805,-0.39694685311683786
1750761301.082963,-1.9172332275695814,-2.435747512728865,-0.3928363097920897,1.5818010752123202,-0.4710694017926249,-2.040880850095933,-0.00191957546240744,0.0318185670782523,-0.03005918022221619,-0.0008377244138930948,-0.02411339952390371,-0.024136990538342975,3.7432818168728828,2.0468937937166674,0.2630304820657846,-0.003113488241499304,-0.035680542931138155,-0.396831239531789
1750761301.0849211,-1.9172371706006803,-2.435682200168857,-0.3928980080533133,1.5817993557663468,-0.47111889483437697,-2.040930391560482,-0.002023528604478475,0.03349401252647337,-0.03163902568931417,-0.0008817191607600744,-0.025379568367822625,-0.025404400127681307,3.743346176720157,2.0471380493542135,0.26303976692109854,-0.0031131305406689714,-0.03566837741735968,-0.3967091817340587
1750761301.088815,-1.9172413219832976,-2.435613536598363,-0.392962865667978,1.5817975483455167,-0.47117091976311887,-2.040982467393375,-0.002127930693136977,0.0351695785681409,-0.0332185308544438,-0.0009256991482328723,-0.026645282745828457,-0.02667135511446208,3.7434136797039814,2.047394840172768,0.26304953346062365,-0.0031127527446420207,-0.03565557496555403,-0.39658068517488876
1750761301.089261,-1.9172413219832976,-2.435613536598363,-0.392962865667978,1.5817975483455167,-0.47117091976311887,-2.040982467393375,-0.002127930693136977,0.0351695785681409,-0.0332185308544438,-0.0009256991482328723,-0.026645282745828457,-0.02667135511446208,3.7434136797039814,2.047394840172768,0.26304953346062365,-0.0031127527446420207,-0.03565557496555403,-0.39658068517488876
1750761301.0910215,-1.9172456826375956,-2.435541521770173,-0.393030881938639,1.5817956529800836,-0.471225475647322,-2.041037076662805,-0.0022328039951613568,0.03684527122659087,-0.034797678882471636,-0.0009696636412376351,-0.027910520066012363,-0.027937832899883486,3.7434843374527595,2.0476641624053404,0.26305978097771343,-0.0031123548623239994,-0.03564213609236687,-0.39644575560434464
1750761301.092773,-1.9172502535282483,-2.4354661554250305,-0.39310205613421,1.5817936697017712,-0.4712825615102956,-2.0410942183917875,-0.0023381707510130045,0.0385210965242516,-0.036376452964580676,-0.001013611905160077,-0.029175257755665467,-0.02920381090430815,3.7435581621655385,2.047946012107613,0.26307050872581234,-0.0031119369044361293,-0.03562806133866795,-0.39630439904430204
1750761301.0949035,-1.917255035664379,-2.4353874372916353,-0.39317638749001205,1.5817915985437718,-0.47134217633022146,-2.0411538915581957,-0.002444053173571161,0.040197060482605934,-0.03795483631946233,-0.0010575432057949707,-0.030439473262098025,-0.030469266568181108,3.743635166625423,2.048240385154998,0.2630817159250473,-0.0031114988802118564,-0.03561335126840157,-0.3961566218060199
1750761301.0969777,-1.9172600300995102,-2.4353053670866456,-0.39325387520783384,1.581789439540746,-0.4714043190402002,-2.041216095094807,-0.002550473446969424,0.041873169122126276,-0.03953281219443335,-0.0011014568094309216,-0.0317031440536826,-0.03173417735294068,3.7437153641587866,2.048547277233908,0.2630934017634816,-0.0031110408012494178,-0.03559800647490073,-0.3960024304863944
1750761301.0993035,-1.9172652379315043,-2.4352199445146794,-0.39333451845598777,1.581787192728821,-0.47146898852828656,-2.0412808278893433,-0.002657453725310947,0.04354942846227561,-0.04111036386685474,-0.001145351982834382,-0.03296624762062231,-0.03299852074190008,3.7437987686826113,2.048866683859516,0.2631055653895104,-0.0031105626785715044,-0.03558202757313808,-0.39584183195905476
1750761301.1009443,-1.9172706603024974,-2.435131169268317,-0.3934183163693712,1.58178485814559,-0.47153618363754113,-2.041348088784514,-0.0027650161314675113,0.04522584452142912,-0.042687474645166576,-0.0011892279932936688,-0.03422876147598668,-0.03426227424116258,3.7438853946723385,2.049198600357394,0.26311820592218405,-0.003110064524416343,-0.03556541520726933,-0.39567483338580994
1750761301.1029723,-1.9172762983988427,-2.4350390410281024,-0.3935052680495321,1.5817824358301114,-0.47160590316607287,-2.041417876578067,-0.0028731827558884167,0.04690242331686685,-0.04426412787023914,-0.0012330841085690465,-0.03549066315645621,-0.03552541538052538,3.7439752571575338,2.0495430218770774,0.26313132244212556,-0.0031095463495350193,-0.035548170042421424,-0.3955014422110362
1750761301.1050794,-1.9172821534510387,-2.4349435594625475,-0.3935953725647323,1.581779925822907,-0.47167814586709067,-2.0414901900228326,-0.0029819756553428767,0.048579170864711134,-0.0458403069164876,-0.0012769195970436106,-0.0367519302233942,-0.03678792171434527,3.7440683717475967,2.0498999433853404,0.26314491399885565,-0.003109008168842605,-0.03553029277391875,-0.39532166615148234
1750761301.1067815,-1.9172882267336622,-2.434844724228132,-0.39368862895001744,1.581777328165962,-0.4717529104489486,-2.041565027826774,-0.0030914168517483767,0.05025609317991508,-0.047415995193192645,-0.0013207337276205688,-0.038012540263591195,-0.03804977082247297,3.7441647545990695,2.0502693596712507,0.26315897960421325,-0.0031084499943334486,-0.03551178411805353,-0.39513551321660956
1750761301.1087368,-1.917294519565301,-2.4347425349693075,-0.3937850362072881,1.5817746429027222,-0.471830195575202,-2.0416423886530417,-0.003201528330945363,0.05193319627620588,-0.04899117614561964,-0.0013645257698054274,-0.03927247089022776,-0.03931094031112829,3.7442644224358856,2.050651265341531,0.2631735182386124,-0.0031078718402332145,-0.035492644818241825,-0.3949429916906919
1750761301.1109283,-1.9173010333084743,-2.4346369913184986,-0.39388459330537184,1.5817718700780947,-0.47190999986465965,-2.041722271120027,-0.00331233204150491,0.05361048616604915,-0.05056583325618865,-0.0014082949937245278,-0.040531699743745715,-0.040571407813789685,3.7443673925368053,2.05104565482362,0.2631885288494065,-0.0031072737212173734,-0.035472875642441296,-0.3947441101365353
1750761301.112864,-1.9173077693695628,-2.434528092896107,-0.39398729918009856,1.5817690097384456,-0.4719923218914399,-2.0418046738014137,-0.0034238498935206074,0.05528796886063514,-0.05213995004586085,-0.0014520406700865695,-0.04179020449279417,-0.04183115099208803,3.7444736827408533,2.051452522369505,0.26320401034464846,-0.0031066556507971877,-0.035452477385261714,-0.39453887739690374
1750761301.1149483,-1.9173147291987238,-2.434415839310513,-0.3940931527343805,1.5817660619315985,-0.47207716018502577,-2.0418895952262393,-0.003536103757430597,0.056965650369813686,-0.05371351007509935,-0.001495762070295019,-0.04304796283506198,-0.043090147536697314,3.74458331143689,2.051871862047109,0.26321996160536243,-0.0031060176456243114,-0.03543145086476141,-0.39432730259402127
1750761301.1168187,-1.9173219142898201,-2.434300230158079,-0.3942021528382922,1.5817630267068339,-0.47216451323032693,-2.0419770338789514,-0.0036491154628409466,0.058643536702080064,-0.05528649694518183,-0.0015394584664111524,-0.044304952498096344,-0.044348375168219545,3.7446962975619082,2.0523036677492072,0.263236381475299,-0.0031053597212186107,-0.03540979692205855,-0.3941093951264178
1750761301.119194,-1.9173293261803295,-2.4341812650231516,-0.3943142983291503,1.581759904114887,-0.47225437946773763,-2.042066988199471,-0.0037629067972882258,0.060321633864553505,-0.056858894299469796,-0.0015831291311776492,-0.04556115124040614,-0.045605811638069975,3.744812660625309,2.0527479331946887,0.2632532687627124,-0.003104681893700637,-0.035387516429355705,-0.39388516467067675
1750761301.1249678,-1.9173293261803295,-2.4341812650231516,-0.3943142983291503,1.581759904114887,-0.47225437946773763,-2.042066988199471,-0.0037629067972882258,0.060321633864553505,-0.056858894299469796,-0.0015831291311776492,-0.04556115124040614,-0.045605811638069975,3.744812660625309,2.0527479331946887,0.2632532687627124,-0.003104681893700637,-0.035387516429355705,-0.39388516467067675
1750761301.125548,-1.9173448367270662,-2.43393326508314,-0.3945480206577141,1.5817533970396573,-0.47244164505827335,-2.042254437381345,-0.003992915286330406,0.06367848470137459,-0.06000185525083258,-0.0016703903612812943,-0.04807108715590335,-0.04811822225775169,3.7450555982539857,2.0536738172755613,0.2632884406721063,-0.0031032665981653986,-0.035341079383359016,-0.3934177748748055
1750761301.1270144,-1.9173612740078045,-2.4336718359250464,-0.39479430976680163,1.5817465411408431,-0.4726389435919307,-2.0424519294030805,-0.004226302639744917,0.06703625090808166,-0.06314226296029171,-0.001757539957127584,-0.05057759329912486,-0.05062720205681498,3.745312291233053,2.0546494604718504,0.2633254671498652,-0.0031017719002478204,-0.03529214717164644,-0.3929252161235748
1750761301.1290083,-1.9173698444780474,-2.4335360842225016,-0.3949221636118114,1.581742982524851,-0.47274135084229485,-2.042554437107424,-0.0043443173794999,0.06871549227721784,-0.06471146893729354,-0.0018010710819640636,-0.051829504954817994,-0.05188035012962103,3.74544585050779,2.0551559241466055,0.2633446725263039,-0.003100994820679727,-0.0352667478123296,-0.39266952550063333
1750761301.1310549,-1.9173786518835945,-2.433396973791376,-0.39505315518474404,1.581739336876568,-0.4728462609959667,-2.042659450187627,-0.004463241525360378,0.0703949804881996,-0.06627998820607278,-0.0018445721275858517,-0.05308049293704147,-0.05313257424558821,3.745582915144507,2.055674806141461,0.2633643374874568,-0.003100197948010669,-0.03524072763184593,-0.39240757571652013
1750761301.1331048,-1.9173876980647275,-2.4332545041319897,-0.3951872830961429,1.5817356042568746,-0.47295367218359274,-2.042766966773762,-0.004583096537972004,0.0720747215375371,-0.06784780473679983,-0.0018880423720812598,-0.054330535244562814,-0.05438385239642817,3.7457235084317038,2.056206098941116,0.26338446061141885,-0.003099381299498789,-0.035214087669523844,-0.39213937836726176
1750761301.1351473,-1.917396984904598,-2.4331086747326705,-0.395324545924546,1.5817317847280943,-0.4730635824918519,-2.0428769849519224,-0.004703903826666432,0.07375472142008559,-0.06941490255090106,-0.001931481094475951,-0.0555796099140855,-0.05563416261165254,3.745867654200286,2.05674979484991,0.26340504044702,-0.003098544897962438,-0.0351868289940335,-0.3918649453117857
1750761301.1369298,-1.917406514329124,-2.4329594850697585,-0.39546494221658346,1.5817278783539914,-0.47317598996353905,-2.0429895027642964,-0.004825684748327283,0.07543498612906148,-0.07098126572234048,-0.0019748875746454972,-0.0568276950209368,-0.05688348295944742,3.746015376813406,2.0573058860067355,0.26342607550691227,-0.003097688763673114,-0.035158952693418774,-0.39158428868082784
1750761301.1388056,-1.9174162883068835,-2.432806934607609,-0.39560847048709036,1.58172388519977,-0.4732908925976371,-2.043104518209253,-0.004948460606276219,0.07711552165599372,-0.072546878378672,-0.002018261093327123,-0.0580747686800009,-0.05813179154756873,3.7461667011586837,2.0578743643714787,0.26344756427386046,-0.003096812917239129,-0.03513045988201009,-0.3912974208852977
1750761301.1410246,-1.9174263088490067,-2.432651022798596,-0.39575512921920897,1.5817198053320713,-0.47340828834939686,-2.043222029241411,-0.005072252649125893,0.07879633399071106,-0.07411172470224035,-0.002061600932200688,-0.05932080904660937,-0.05937906652414078,3.746321652659318,2.0584552217362275,0.2634695051969025,-0.0030959173813754496,-0.03510135169922425,-0.39100435458318583
1750761301.1434102,-1.9174365780090667,-2.4324917490831153,-0.39590491686450235,1.5817156388189726,-0.4735281751304248,-2.043342033771733,-0.005197082069698186,0.08047742912130515,-0.07567578893121786,-0.0021049063738651946,-0.060565794317361525,-0.0606252860785788,3.7464802572512577,2.0590484497158195,0.2634918966955247,-0.0030950021781993636,-0.03507162930758661,-0.3907051027211611
1750761301.1452823,-1.9174365780090667,-2.4324917490831153,-0.39590491686450235,1.5817156388189726,-0.4735281751304248,-2.043342033771733,-0.005197082069698186,0.08047742912130515,-0.07567578893121786,-0.0021049063738651946,-0.060565794317361525,-0.0606252860785788,3.7464802572512577,2.0590484497158195,0.2634918966955247,-0.0030950021781993636,-0.03507162930758661,-0.3907051027211611
1750761301.1469445,-1.9174470978829623,-2.432329112889589,-0.3960578318430663,1.581711385729985,-0.4736505508087605,-2.043464529667598,-0.005322970003877233,0.08215881303411945,-0.07723905536081106,-0.0021481767018724945,-0.061809702730973914,-0.06187042844238223,3.746642541405918,2.0596540397586907,0.2635147371553934,-0.0030940673305851233,-0.03504129389355353,-0.39039967849123614
1750761301.1499836,-1.9174578706088106,-2.4321631136344677,-0.3962138725436466,1.5817070461360512,-0.47377541320896466,-2.0435895147528917,-0.005449937529549774,0.08384049171372338,-0.07880150834432151,-0.0021914112007448043,-0.06305251256914265,-0.06311447189003867,3.7468085320984676,2.06027198313895,0.2635380249318781,-0.003093112861951945,-0.03501034666787286,-0.3900880953672792
1750761301.1510024,-1.9174688983668222,-2.4319937507222344,-0.3963730373237535,1.5817026201095443,-0.4739027601122032,-2.043716986808092,-0.005578005665449462,0.08552247114290201,-0.0803631322943515,-0.0022346091560219478,-0.06429420215741827,-0.0643573947398381,3.7469782568435233,2.0609022709651788,0.2635617583466792,-0.0030921387969204362,-0.034978788865937936,-0.3897703670761159
1750761301.1529002,-1.917480183379186,-2.431821023545409,-0.3965353245097827,1.5816981077242651,-0.47403258925633995,-2.04384694357036,-0.005707195370135614,0.0872047573026121,-0.08192391168376079,-0.0022777698542127867,-0.06553474986602104,-0.06559917535474792,3.7471517436438115,2.061544894168827,0.26358593569399097,-0.0030911451587189885,-0.03494662174611003,-0.3894465076160826
1750761301.1550438,-1.9174917279099475,-2.4316449314845507,-0.3967007323971359,1.5816935090554405,-0.47416489833602427,-2.0439793827336263,-0.005837527540855433,0.08888735617198494,-0.08348383104689588,-0.002320892582890058,-0.06677413411066911,-0.06683979214322261,3.747329021034549,2.062199843519035,0.2636105552336468,-0.003090131973139348,-0.03491384659007873,-0.3891165312365416
1750761301.1569252,-1.9175035342648847,-2.431465473908263,-0.3968692592503489,1.581688824179721,-0.47429968500278097,-2.0441143019486843,-0.0059690230124914406,0.09057027372831765,-0.08504287498068266,-0.0023639766306775244,-0.06801233335349334,-0.06807922356007046,3.74751011805142,2.062867109616995,0.26363561519446393,-0.003089099265595145,-0.03488046470530527,-0.3887804524557644
1750761301.1588855,-1.9175156047913804,-2.431282650173196,-0.3970409033032123,1.5816840531751786,-0.47443694686510796,-2.0442516988232855,-0.006101702556502881,0.09225351594701689,-0.08660102814554277,-0.002407021287282823,-0.06924932610371934,-0.06931744810728897,3.747695064232219,2.0635466828883393,0.2636611137793191,-0.0030880470623643173,-0.034846477418462876,-0.3884382860514582
1750761301.1609757,-1.9175279418782978,-2.431096459624051,-0.3972156627589012,1.5816791961213055,-0.47457668148857124,-2.044391570922233,-0.0062355868798467115,0.09393708880161929,-0.0881582752666833,-0.0024500258434814594,-0.07048509091882256,-0.07055444433488443,3.747883889624182,2.064238553598969,0.26368704915465313,-0.0030869753891663333,-0.03481188608876851,-0.3880900470542604
1750761301.1629488,-1.9175405479558485,-2.4309069015935845,-0.3973935357901084,1.5816742530990104,-0.47471888639589643,-2.0445339157674773,-0.006370696623923173,0.09562099826377152,-0.08971460113510472,-0.0024929895911939073,-0.07171960640488799,-0.07179019084171394,3.748076624775579,2.0649427118473684,0.2637134194585082,-0.0030858842738768102,-0.03477669208556438,-0.3877357507560087
1750761301.165466,-1.9175534254954592,-2.430713975402611,-0.39757452053917675,1.5816692241906176,-0.47486355906707445,-2.044678730838217,-0.006507052363542466,0.09730525030320385,-0.09126999060858808,-0.0025359118234392474,-0.07295285121785987,-0.07302466627632898,3.7482733007273175,2.06565914756304,0.26374022280096937,-0.0030847737430131066,-0.03474089681340414,-0.3873754127098128
1750761301.1668355,-1.917566577009639,-2.430517680360008,-0.39775861511822885,1.5816641094798642,-0.47501069693945563,-2.044826013570999,-0.006644674605880086,0.09898985088773908,-0.09282442861288509,-0.0025787918344086815,-0.07418480406416547,-0.074257849337772,3.748473949016033,2.0663878505150444,0.2637674572584586,-0.0030836438250612746,-0.034704501694410805,-0.38700904871381475
1750761301.168983,-1.9175800050518443,-2.4303180157627193,-0.39794581760931,1.5816589090518973,-0.47516029740785726,-2.0449757613598187,-0.0067835837894453035,0.10067480598325078,-0.09437790014265726,-0.00262162891946977,-0.07541544370158,-0.07548971877640873,3.7486786016699747,2.067128810301753,0.2637951208808471,-0.0030824945485834806,-0.034667508175072144,-0.3866366748241735
1750761301.170823,-1.9175937122163385,-2.4301149808957585,-0.3981361260645251,1.5816536229932725,-0.4753123578246621,-2.045127971556223,-0.006923800283051944,0.10236012155368227,-0.09593039026258024,-0.002664422375198864,-0.07664474894004147,-0.07672025339475563,3.7488872912086038,2.067882016363802,0.26382321168694356,-0.00308132594302006,-0.03462991772483145,-0.38625830735231564
1750761301.172847,-1.917607701138051,-2.429908575032213,-0.3983295385061769,1.581648251391951,-0.47546687549992583,-2.04528264146942,-0.007065344384809109,0.10404580356103116,-0.09748188410841292,-0.0027071714993482585,-0.07787269864243981,-0.07794943204829971,3.7491000506337246,2.0686474579766747,0.26385172766517684,-0.0030801380368166813,-0.0345917318353605,-0.3858739628625647
1750761301.1787405,-1.9176219744924357,-2.4296987974332493,-0.398526052926913,1.5816427943372968,-0.4756238477014847,-2.0454397683663785,-0.007208236321120511,0.10573185796532318,-0.09903236688793492,-0.0027498755909589516,-0.07909927172549795,-0.0791772336462728,3.7493169134257625,2.0694251242509294,0.26388066677750566,-0.003078930861489299,-0.03455295202315358,-0.3854836581569048
1750761301.1791904,-1.9176365349953288,-2.429485647348115,-0.39872566728987024,1.5816372519200752,-0.47578327165506096,-2.045599349471942,-0.007352496245672876,0.10741829072463999,-0.1005818238821159,-0.002792533950265229,-0.08032444716054127,-0.08040363715252542,3.749537913550168,2.0702150041406373,0.263910026952862,-0.003077704445907025,-0.03451357982637876,-0.38508741030817367
1750761301.1794546,-1.9176513854027988,-2.429269124014143,-0.39892837952881965,1.5816316242324495,-0.47594514454437764,-2.045761381968939,-0.007498144238443725,0.10910510779507684,-0.10213024044596326,-0.002835145878837954,-0.08154820397424033,-0.08162862158626803,3.749763085447136,2.071017086433878,0.2639398060963392,-0.003076458822823562,-0.03447361680412734,-0.3846852366159164
1750761301.1808481,-1.917666528511,-2.4290492266567574,-0.3991341875483192,1.5816259113679785,-0.47610946351126504,-2.0459258629982884,-0.007645200304735911,0.11079231513077653,-0.10367760200970393,-0.00287771067949734,-0.08277052124954051,-0.08285216602290749,3.749992464022853,2.0718313597640923,0.26397000207941007,-0.003075194022514297,-0.034433064541680054,-0.38427715463684214
1750761301.1827068,-1.917681967156021,-2.428825954489475,-0.3993430892238612,1.581620113421614,-0.4762762256557762,-2.04609278965912,-0.007793684374181827,0.11247991868388622,-0.10522389407963235,-0.002920227656419453,-0.08399137812639931,-0.08407424959483624,3.7502260846607025,2.0726578125985538,0.2640006127497623,-0.003073910078210379,-0.03439192464508641,-0.38386318217122106
1750761301.1846988,-1.9176977042137358,-2.42859930671391,-0.3995550824020295,1.5816142304896983,-0.4764454280363024,-2.046262159008883,-0.007943616299798706,0.11416792440459927,-0.10676910223925588,-0.0029626961150575493,-0.08521075380247722,-0.08529485149223685,3.7504639832016355,2.0734964332533563,0.26403163592256634,-0.0030726070208551273,-0.034350198739857174,-0.3834433372651321
1750761301.1867042,-1.9177137425996431,-2.428369282519779,-0.39977016490065065,1.5816082626699615,-0.4766170676696886,-2.0464339680634698,-0.008095015857005736,0.11585633824111675,-0.10831321215015659,-0.003005115362280771,-0.08642862753416257,-0.08651395096386037,3.7507061959585024,2.0743472098804645,0.2640630693888143,-0.0030712848852599284,-0.03430788848037643,-0.3830176382044811
1750761301.1887865,-1.9177300852687171,-2.428135881084904,-0.3999883345089561,1.5816022100615181,-0.4767911415313515,-2.0466082137973256,-0.008247902742713106,0.11754516613966938,-0.10985620955303306,-0.003047484706299682,-0.08764497863711614,-0.08773152731780537,3.7509527596879284,2.0752101304777986,0.2640949109097905,-0.003069943704029377,-0.03426499553636712,-0.3825861035121773
1750761301.1906095,-1.9177467352152462,-2.427899101575216,-0.4002095889877362,1.5815960727648655,-0.47696764655540047,-2.046784893143574,-0.008402296574339782,0.11923441404452442,-0.11139808026870246,-0.0030898034567457345,-0.08885978648722476,-0.08894755992232443,3.7512037116191386,2.076085182888677,0.2641271582187646,-0.00306858351202385,-0.034221521604417264,-0.3821487519599071
1750761301.1927905,-1.9177636954726722,-2.4276589431447597,-0.400433926069506,1.5815898508818798,-0.4771465796347556,-2.046964002994134,-0.008558216888907065,0.12092408789798197,-0.1129388101990323,-0.003132070924618209,-0.09007303052130476,-0.09016202820659631,3.75145908942326,2.0769723547988543,0.2641598090224874,-0.0030672043425100408,-0.03417746840093025,-0.3817056025547568
1750761301.195214,-1.9177636954726722,-2.4276589431447597,-0.400433926069506,1.5815898508818798,-0.4771465796347556,-2.046964002994134,-0.008558216888907065,0.12092408789798197,-0.1129388101990323,-0.003132070924618209,-0.09007303052130476,-0.09016202820659631,3.75145908942326,2.0769723547988543,0.2641598090224874,-0.0030672043425100408,-0.03417746840093025,-0.3817056025547568
1750761301.196996,-1.91778096911343,-2.4274154049356977,-0.40066134345866367,1.5815835445158137,-0.4773279376212729,-2.047145540199846,-0.00871568314212245,0.12261419364037092,-0.11447838532785024,-0.0031742864224210826,-0.0912846902378662,-0.09137491166148978,3.7517189312171486,2.077871633737896,0.2641928610019845,-0.0030658062325740684,-0.034132837663837866,-0.3812566745370979
1750761301.1988196,-1.9177985592487836,-2.427168486078313,-0.4008918388316589,1.5815771537712942,-0.47751171732586783,-2.0473295015705943,-0.008874714707455163,0.12430473721006949,-0.11601679172197636,-0.0032164492640589476,-0.09249474519789674,-0.09258618984034274,3.751983275566906,2.078783007084215,0.26422631180913675,-0.0030643892162842104,-0.034087631153154684,-0.3808019873852412
1750761301.20076,-1.9178164690286632,-2.4269181856910147,-0.40112540983716016,1.581570678754318,-0.4776979155186414,-2.047515883875434,-0.00903533087524049,0.12599572454350966,-0.11755401553212118,-0.0032585587649412587,-0.09370317502574967,-0.09379584235973858,3.752252161476854,2.079706462062284,0.2642601590704355,-0.00306295333064249,-0.03404185065391184,-0.3803415608147305
1750761301.2027206,-1.9178347016414925,-2.42666450288034,-0.4013620540962197,1.5815641195722503,-0.47788652892900707,-2.0477046838427135,-0.009197550851765723,0.12768716157519544,-0.119090042993861,-0.0033006142419430206,-0.09490995940964773,-0.0950038489002511,3.7525256283960524,2.0806419857473535,0.2642944003849673,-0.003061498611425016,-0.03399549796533139,-0.37987541476751996
1750761301.2047007,-1.9178532603140255,-2.42640743674096,-0.4016017692024487,1.5815574763338205,-0.478077554245818,-2.0478958981602107,-0.00936139375841874,0.12937905423768817,-0.12062486042848762,-0.003342615013499613,-0.0961150781027046,-0.09621018920722722,3.7528037161940744,2.0815895650563916,0.2643290333274643,-0.003060025097105994,-0.033948574915412054,-0.3794035694247747
1750761301.2067475,-1.9178721483111714,-2.4261469863556817,-0.4018445527221859,1.5815507491491199,-0.4782709881175018,-2.0480895234752587,-0.009526878630791038,0.13107140846165094,-0.12215845424400189,-0.0033845603995403656,-0.09731851092351505,-0.09741484309152597,3.753086465178983,2.082549186763827,0.26436405544486413,-0.0030585328241650588,-0.033901083348777755,-0.37892604519137246
1750761301.208869,-1.9178913689358268,-2.4258831507954532,-0.4020904021946743,1.5815439381295984,-0.4784668271521859,-2.0482855563948785,-0.009694024417822703,0.13276423017583605,-0.12369081093595224,-0.0034264497215466014,-0.09852023775703042,-0.09861779043027227,3.7533739160803443,2.0835208374887246,0.26439946426025007,-0.003057021830684433,-0.03385302513471493,-0.3784428627017483
1750761301.2110343,-1.9179109255286955,-2.425615929119367,-0.4023393151322354,1.5815370433880611,-0.4786650679178379,-2.0484839934859105,-0.009862849980926075,0.13445752530711694,-0.12522191708841804,-0.0034682823026465654,-0.09972023855513604,-0.09981901116759527,3.753666110057676,2.0845045037055567,0.26443525726904954,-0.003055492157376862,-0.03380440215877458,-0.377954042814331
1750761301.2130291,-1.9179308214681186,-2.4253453203746633,-0.4025912890204486,1.5815300650386654,-0.47886570694239516,-2.0486848312751533,-0.010033374093168734,0.1361512997805066,-0.12675175937487176,-0.0035100574674653516,-0.10091849333759063,-0.10101848531541277,3.7539630886783013,2.0855001717394246,0.2644714319421171,-0.00305394384070287,-0.03375521633297336,-0.3774596066261552
1750761301.2147667,-1.9179510784466576,-2.425071074522066,-0.4028465542349826,1.5815229970241147,-0.4790689250312914,-2.0488882508146924,-0.010226903529865815,0.13813509678895808,-0.12855104066806539,-0.003558946981507417,-0.10232918798554273,-0.10243068642080673,3.7571221511032284,2.1428359032577826,0.25821133818160563,-0.0037295573521322722,-0.039739713235408945,-0.4442126341529114
1750761301.2168446,-1.9179717309554132,-2.4247927730180967,-0.40310549832673015,1.5815158291422664,-0.47927502712523484,-2.0490945574558843,-0.010425955869431031,0.1401665082195217,-0.13039279934469328,-0.003608921173637097,-0.10377254543474367,-0.10387559364499857,3.757780782702555,2.1530220616211952,0.25723135879296616,-0.0038372258690474574,-0.040659834488911306,-0.45453166413396445
1750761301.2190003,-1.9179927836818358,-2.4245104080821895,-0.4033681244189147,1.5815085613944997,-0.47948401376126437,-2.049303751735093,-0.010627125755200011,0.14219853014950287,-0.13223303785730334,-0.003658812746825939,-0.1052137252397294,-0.10531831960471452,3.7579716989435976,2.15407599634509,0.2572749365309739,-0.0038348701888604522,-0.04059848958557416,-0.45391443390462866
1750761301.2240472,-1.9179927836818358,-2.4245104080821895,-0.4033681244189147,1.5815085613944997,-0.47948401376126437,-2.049303751735093,-0.010627125755200011,0.14219853014950287,-0.13223303785730334,-0.003658812746825939,-0.1052137252397294,-0.10531831960471452,3.7579716989435976,2.15407599634509,0.2572749365309739,-0.0038348701888604522,-0.04059848958557416,-0.45391443390462866
1750761301.224677,-1.9180583860628602,-2.423638920301965,-0.4041780639072954,1.5814861606263837,-0.48012823679074224,-2.0499486161971054,-0.011243612785450439,0.14829834437986344,-0.1377444389781105,-0.003807982603180591,-0.10952390991030422,-0.10963312092487104,3.758569155271074,2.157325431286255,0.2574089895940739,-0.003827641582515179,-0.04040957512693997,-0.45201403136416735
1750761301.2268076,-1.9180810828267116,-2.4233402891720024,-0.404455387018106,1.5814784950947585,-0.4803487171759455,-2.050169316536529,-0.011453524270858233,0.15033289373817682,-0.13957840409312294,-0.003857534569251693,-0.11095609078405513,-0.11106683337928983,3.7587767479063747,2.1584377266547774,0.25745476746407214,-0.003825178506410369,-0.0403449869362152,-0.4513644356109193
1750761301.2287958,-1.9181042016616576,-2.4230375882915443,-0.4047363764464391,1.5814707305462175,-0.48057205960634786,-2.050392881980647,-0.011665688323917556,0.15236809629810158,-0.14141075337008555,-0.003906999369021682,-0.11238595036559212,-0.1124982208747486,3.7589886648303885,2.1595645667474104,0.2575010854338416,-0.003822688819269427,-0.04027959542227821,-0.45070683122607447
1750761301.2306619,-1.9181277470994473,-2.422730816345654,-0.4050210289418832,1.5814628671559923,-0.480798259410939,-2.0506193078511084,-0.011880131532323604,0.154403960592314,-0.14324146809752772,-0.003956376104112781,-0.11381346024727797,-0.11392725499432664,3.7592049694616128,2.160705932963548,0.25754793944487503,-0.0038201726178517946,-0.04021340365600944,-0.4500412520762972
1750761301.2326953,-1.9181517237248578,-2.422419972002332,-0.4053093412167481,1.5814549051011073,-0.481027311862003,-2.0508485894128334,-0.012096880341617816,0.15644049515099143,-0.14507052970857198,-0.004005663879913713,-0.11523859213173802,-0.11535390743137058,3.759425725875972,2.1618618064925506,0.2575953253970036,-0.0038176299996847823,-0.040146414743541775,-0.4493677324061563
1750761301.2346265,-1.9181761361754184,-2.4221050539125226,-0.40560130994635557,1.5814468445603729,-0.48125921217534096,-2.0510807218742455,-0.012315961053811875,0.1584777085018553,-0.1468979197823998,-0.0040548618056098365,-0.11666131783310667,-0.11677814999073924,3.759650998801752,2.1630321683150426,0.25764323914860593,-0.0038150610631031362,-0.04007863182612009,-0.4486863068356526
1750761301.2367537,-1.9182009891411163,-2.4217860607101134,-0.40589693176933395,1.5814386857143763,-0.4814939555104951,-2.0513157003874873,-0.01253739982603746,0.16051560917021815,-0.14872362004569045,-0.00410396899421127,-0.11808160927826264,-0.11819995459004011,3.759880853609664,2.1642169992044926,0.2576916765173427,-0.003812465907192932,-0.04001005807978975,-0.4479970103571026
1750761301.239701,-1.9182009891411163,-2.4217860607101134,-0.40589693176933395,1.5814386857143763,-0.4814939555104951,-2.0513157003874873,-0.01253739982603746,0.16051560917021815,-0.14872362004569045,-0.00410396899421127,-0.11808160927826264,-0.11819995459004011,3.759880853609664,2.1642169992044926,0.2576916765173427,-0.003812465907192932,-0.04001005807978975,-0.4479970103571026
1750761301.2407994,-1.9182262873641065,-2.421462991011948,-0.4061962032879114,1.5814304287454761,-0.48173153697097426,-2.0515535200486505,-0.012761222669207898,0.1625542056790323,-0.15054761237405154,-0.004152984562583281,-0.11949943850805712,-0.1196192932608564,3.760115356308205,2.165416279728719,0.2577406332804288,-0.0038098446318549045,-0.03994069671519135,-0.44729987833193724
1750761301.2426162,-1.9182520356384192,-2.4211358434178236,-0.4064991210682196,1.5814220738377924,-0.4819719516044847,-2.0517941758980065,-0.012987455446706412,0.16459350654894264,-0.1523698787934258,-0.004201907631473862,-0.12091477767853237,-0.12103613814996605,3.760354573533398,2.1666299902514394,0.2577901051752602,-0.0038071973377267836,-0.039870550977294424,-0.44659494648769477
1750761301.2447102,-1.9182782388096626,-2.4208046165105,-0.40680568164059316,1.5814136211772003,-0.4822151944031612,-2.0520376629202355,-0.013216123873088844,0.16663352029834275,-0.154190401481486,-0.00425073732554348,-0.12232759906213261,-0.12245046152055188,3.760598572543217,2.1678581109341057,0.2578400878997914,-0.003804524126245488,-0.039799624145180595,-0.4458822509149137
1750761301.246717,-1.9183049017747251,-2.4204693088557008,-0.4071158814998741,1.5814050709513212,-0.48246126030379965,-2.052283976044661,-0.013447253512807502,0.16867425544343195,-0.15600916276900928,-0.0042994727733935345,-0.12373787504890466,-0.12386223575340292,3.76084742120937,2.1691006217369515,0.2578905771130841,-0.0038018250996117334,-0.039727919531752184,-0.445161828064104
1750761301.2486193,-1.9183320294814692,-2.4201299190021204,-0.40742971710572107,1.581396423349516,-0.4827101441880952,-2.052533110145488,-0.01368086977895746,0.17071572049827838,-0.15782614514123458,-0.004348113107594228,-0.1251455781476915,-0.1252714333481072,3.7611011880086402,2.170357502421164,0.25794156843579524,-0.0037991003607743736,-0.039655440483536836,-0.44443371474248305
1750761301.2506106,-1.918359626928435,-2.419786445481427,-0.4077471848829184,1.5813876785628755,-0.4829618408828811,-2.052785060042038,-0.013916997932036436,0.17275792397488235,-0.15964133123920557,-0.004396657464714225,-0.12655068098731528,-0.12667802692423483,3.7613599420176187,2.1716287325500936,0.257993057450604,-0.003796350013481376,-0.03958219038038489,-0.44369794811084273
1750761301.252658,-1.91838769916453,-2.419438886808267,-0.4080682812216896,1.5813788367842145,-0.4832163451603684,-2.053039820498996,-0.014155663078732434,0.1748008743832454,-0.1614547038610919,-0.004445104985348494,-0.12795315631775148,-0.12808198922251196,3.761623752901951,2.172914291491197,0.25804503970279147,-0.003793574162228194,-0.03950817263522586,-0.442954565680022
1750761301.2546005,-1.9184162512887166,-2.419087241480268,-0.4083930024780127,1.581369898208062,-0.4834736517383913,-2.0532973862266486,-0.014396890170725988,0.17684458023144026,-0.1632662459634951,-0.00449345481414545,-0.1293529770112954,-0.12948329310598772,3.761892690910695,2.174214158417329,0.25809751070069653,-0.0037907729122440533,-0.03943339069384866,-0.44220360530860864
1750761301.2565835,-1.9184452884497087,-2.4187315079780443,-0.4087213449739373,1.5813608630306535,-0.48373375528064955,-2.053557751881131,-0.014640704003514598,0.17888905002568514,-0.16507594066273623,-0.004541706099836578,-0.13075011606371742,-0.13088191156118836,3.762166826867684,2.1755283123086713,0.2581504659162279,-0.003787946369555411,-0.03935784803458654,-0.4414451051983879
1750761301.2586124,-1.9184748158456522,-2.418371684765199,-0.40905330499790793,1.5813517314499228,-0.4839966503969624,-2.053820912064679,-0.01488712921525828,0.18093429227042163,-0.16688377123612658,-0.004589857995263398,-0.13214454659540964,-0.1322778176992651,3.7624462321633816,2.1768567319543686,0.25820390078533767,-0.0037850946409179486,-0.03928154816807241,-0.4406791038920492
1750761301.2606475,-1.9185048387238126,-2.4180077702883276,-0.40938887880508634,1.5813425036654944,-0.48426233164351196,-2.054086861325872,-0.015136190285644538,0.18298031546839447,-0.16868972112321845,-0.00463790965740624,-0.13353624185252483,-0.1336709847571317,3.762730978747334,2.1781993959540085,0.2582578107085837,-0.0037822178338671204,-0.03920449463702607,-0.4399056402696448
1750761301.262813,-1.9185353623802506,-2.4176397629770228,-0.409728062617674,1.5813331798786747,-0.4845307935231018,-2.054355594159893,-0.015387911534775736,0.18502712812073616,-0.1704937739270387,-0.00468586024740968,-0.13492517520810132,-0.13506138609859072,3.763021139119426,2.179556282719642,0.2583121910516179,-0.003779316056619878,-0.039126691015854725,-0.43912475354453595
1750761301.2647595,-1.918566392159514,-2.417267661243876,-0.4100708526252461,1.5813237602924428,-0.48480203048540726,-2.0546271050087794,-0.015642317122073413,0.1870747387270534,-0.17229591341530653,-0.004733708930613149,-0.13631132016318506,-0.13644899521545456,3.763316786323434,2.1809273704771437,0.25836703714564224,-0.003776389418232901,-0.039048140910574,-0.4383364832616616
1750761301.2707489,-1.918566392159514,-2.417267661243876,-0.4100708526252461,1.5813237602924428,-0.48480203048540726,-2.0546271050087794,-0.015642317122073413,0.1870747387270534,-0.17229591341530653,-0.004733708930613149,-0.13631132016318506,-0.13644899521545456,3.763316786323434,2.1809273704771437,0.25836703714564224,-0.003776389418232901,-0.039048140910574,-0.4383364832616616
1750761301.2710857,-1.9185979334543006,-2.4168914634844807,-0.4104172449850756,1.5813142451114435,-0.48507603692723755,-2.0549013882616824,-0.015899431045208818,0.18912315578551753,-0.1740961235216281,-0.004781454876575768,-0.13769465034793493,-0.1378337857286503,3.7636179939366348,2.1823126372681423,0.2584223442880371,-0.0037734380284240587,-0.038968847958337285,-0.437540869291721
1750761301.272744,-1.9186625724000876,-2.416126773384347,-0.4111208212311146,1.5812949287919973,-0.4856323355739125,-2.055458249273256,-0.016421879074634917,0.19322244324496277,-0.17769069215935804,-0.004876635256282256,-0.1404527615792284,-0.1405948060799219,3.7642373873262582,2.185125619206158,0.25853432274094396,-0.0037674614372675136,-0.0388080482163714,-0.4359277713938873
1750761301.2747533,-1.9186956810743467,-2.4157382777498304,-0.41147799727338885,1.5812851280710887,-0.4859146163103727,-2.055740815548136,-0.016687260358155306,0.1952733306359713,-0.17948501939794267,-0.004924068050493586,-0.1418274905415051,-0.14197098381528028,3.7645557228582645,2.1865532895305044,0.25859098448137646,-0.0037644364591292935,-0.03872654885470558,-0.4351103688136219
1750761301.2767358,-1.918729323309984,-2.4153456795015154,-0.41183875998072494,1.5812752325904729,-0.48619964359011725,-2.0560261312599764,-0.016955444329977455,0.19732505845938572,-0.18127735467119857,-0.004971394828450836,-0.14319930056706284,-0.1433442387436859,3.764879918293467,2.1879950492466347,0.2586480881310703,-0.0037613871759236764,-0.03864432150169908,-0.43428578523601724
1750761301.2788079,-1.918729323309984,-2.4153456795015154,-0.41183875998072494,1.5812752325904729,-0.48619964359011725,-2.0560261312599764,-0.016955444329977455,0.19732505845938572,-0.18127735467119857,-0.004971394828450836,-0.14319930056706284,-0.1433442387436859,3.764879918293467,2.1879950492466347,0.2586480881310703,-0.0037613871759236764,-0.03864432150169908,-0.43428578523601724
1750761301.2808275,-1.918763504735578,-2.414948976950044,-0.4122031053539441,1.5812652425629916,-0.48648741154954145,-2.0563141905374245,-0.017226454163671103,0.19937763520767493,-0.1830676827594931,-0.005018614781222745,-0.1445681659479208,-0.14471454514793902,3.765210049760015,2.189450875500922,0.25870562882571774,-0.003758313701097786,-0.038561369946554264,-0.43345406211662507
1750761301.2827258,-1.918798231025887,-2.414548168389074,-0.412571029363602,1.581255158203101,-0.4867779142737607,-2.0566049874578267,-0.017500312865066394,0.20143106937248528,-0.18485598861587899,-0.005065727104260412,-0.14593406111165888,-0.14608187744640336,3.7655461938707893,2.190920745265786,0.2587636016702868,-0.0037552161488065747,-0.03847769800806229,-0.43261524121795436
1750761301.284683,-1.9188335079015122,-2.4141432520952835,-0.4129425279503316,1.581244979726861,-0.4870711457968824,-2.0568985160475055,-0.01777704327132966,0.20348536944475515,-0.1866422573671632,-0.005112730997422737,-0.14729696062245468,-0.14744621019404305,3.765888427715741,2.192404635341857,0.2588220017395031,-0.003752094633894182,-0.03839330953422315,-0.4317693646046238
1750761301.2866151,-1.9188693411285591,-2.4137342263283648,-0.41331759702519566,1.5812347073519282,-0.48736710010227924,-2.0571947702820275,-0.0180566680500625,0.20554054391483245,-0.18842647431495566,-0.005159625665003389,-0.14865683918211392,-0.148807518083453,3.76623682885288,2.193902522359536,0.25888082407839424,-0.0037489492719467972,-0.03830820840206661,-0.43091647464101895
1750761301.290657,-1.9189057365182958,-2.4133210893310335,-0.41369623247003506,1.5812243412975453,-0.4876657711228667,-2.057493744086485,-0.018339209698423124,0.20759660127259574,-0.19020862493669735,-0.005206410315756823,-0.15001367163108925,-0.15016577594587785,3.766591475299569,2.195414382780832,0.25894006370287825,-0.0037457801792640617,-0.038222398517320684,-0.4300566139873593
1750761301.2929127,-1.9189802372547007,-2.412482474531093,-0.41446418585301537,1.581203329035284,-0.48827123879065404,-2.0580998258548595,-0.018913132735302957,0.21171139860909988,-0.19376666999701275,-0.005299646424258787,-0.15271809825806607,-0.1528730416140331,3.7673198184431462,2.1984799288520316,0.2590597747293994,-0.00373937127042435,-0.038048668254555405,-0.4283161527063506
1750761301.2948742,-1.919018354446651,-2.4120569931290183,-0.4148534954119176,1.5811926832737457,-0.4885780230539094,-2.0584069214190945,-0.01920455825829859,0.21377015556639123,-0.1955425362786419,-0.005346096322053124,-0.1540656428192244,-0.1542219997845196,3.7676936733983477,2.2000335666008466,0.25912023602217515,-0.0037361316904236485,-0.037960755828788204,-0.42743563884522884
1750761301.296727,-1.9190570574911625,-2.4116273932975987,-0.41524635458303116,1.5811819447254198,-0.48888749926503206,-2.058716711754464,-0.019498988918268664,0.21582982936873657,-0.1973162799222581,-0.005392433083161456,-0.1554100420379768,-0.15556780865949724,3.7680740901624628,2.2016010819547915,0.2591810943831109,-0.0037328688519287392,-0.03787215055432605,-0.42654832781891244
1750761301.2988667,-1.9190963524201745,-2.411193673194655,-0.41564275910742143,1.5811711136173496,-0.48919966110886115,-2.059029190537892,-0.01979644634771077,0.21789042850560844,-0.19908788729925747,-0.005438655939028498,-0.1567512714629186,-0.15691044377836955,3.768461148925779,2.2031824505617803,0.25924234469025065,-0.003729582874800606,-0.03778285647588534,-0.42565426371149023
1750761301.3007529,-1.9191362453087102,-2.410755830961028,-0.41604270469907867,1.5811601901781096,-0.4895145022214793,-2.0593443513975256,-0.020096952003860483,0.21995196146681276,-0.20085734496264984,-0.005484764125712275,-0.15808930678718364,-0.15824988082508182,3.7688549302847765,2.2047776479126613,0.2593039817957756,-0.0037262738795350303,-0.03769287766515983,-0.424753490881295
1750761301.302715,-1.9191767422745336,-2.4103138647205795,-0.41644618704527936,1.5811491746377988,-0.48983201619049854,-2.059662187913026,-0.020400527167961802,0.2220144367426328,-0.20262463964795707,-0.005530756883909473,-0.15942412384938687,-0.1595860956290636,3.7692555152369493,2.206386649342577,0.25936600052642983,-0.0037229419873232457,-0.03760221822039994,-0.423846053956149
1750761301.3046775,-1.9192178494777927,-2.409867772580189,-0.4168532018069566,1.581138067228029,-0.49015219655535436,-2.0599826936158596,-0.020707192944562986,0.2240778628239805,-0.20438975827409145,-0.005576633458980825,-0.1607556986345591,-0.1609190641661653,3.7696629851710313,2.208009430033447,0.2594283956840893,-0.0037195873200659194,-0.037510882266188365,-0.422931997831242
1750761301.3066742,-1.9192595731206747,-2.4094175526297534,-0.41726374461906435,1.581126868181918,-0.4904750368076023,-2.0603058619895913,-0.02101697026083506,0.22614224820254997,-0.20615268794421426,-0.005622393100976684,-0.16208400727506916,-0.16224876255957865,3.7700774218579842,2.20964596501562,0.2594911620463067,-0.0037162100003668964,-0.037418873953084304,-0.4220113676635286
1750761301.3087199,-1.919301919447033,-2.408963202942187,-0.4176778110909476,1.581115577734077,-0.4908005303912075,-2.0606316864701792,-0.021329879865913816,0.22820760137097365,-0.2079134159465723,-0.005668035064658227,-0.1634090260515358,-0.16357516708075,3.7704989074418185,2.211296229169516,0.25955429436692407,-0.0037128101514187876,-0.03732619745733577,-0.42108420886935244
1750761301.3107471,-1.9193448947420482,-2.408504721573416,-0.4180953968067138,1.5811041961206047,-0.4911286707028477,-2.0609601604462755,-0.021645942330260383,0.23027393082298517,-0.20967192975532295,-0.005713558609525544,-0.16473073139373004,-0.16489825415028211,3.770927524432387,2.2129601972281803,0.25961778737642954,-0.0037093878971988428,-0.03723285698061213,-0.4201505671204543
1750761301.3130527,-1.9193885053318596,-2.4080421065623776,-0.4185164973256059,1.5810927235790748,-0.4914594510922088,-2.0612912772595227,-0.02196517804504688,0.23234124505358175,-0.21142821703133016,-0.005758962999839585,-0.166049099881461,-0.16621800033882114,3.7713633556953776,2.21463784377843,0.25968163578274545,-0.0037059433622865,-0.03713885674953265,-0.41921048833897046
1750761301.3147287,-1.9194327575832073,-2.4075753559310193,-0.4189411081823744,1.5810811603485286,-0.4917928648622869,-2.061625030204854,-0.022287607221564393,0.23440955255919455,-0.21318226562294906,-0.005804247504645747,-0.16736410824546052,-0.16753438236794035,3.7718064844437773,2.216329143263412,0.25974583427156567,-0.0037024766719288183,-0.0370442010156415,-0.4182640186962145
1750761301.320967,-1.9194327575832073,-2.4075753559310193,-0.4189411081823744,1.5810811603485286,-0.4917928648622869,-2.061625030204854,-0.022287607221564393,0.23440955255919455,-0.21318226562294906,-0.005804247504645747,-0.16736410824546052,-0.16753438236794035,3.7718064844437773,2.216329143263412,0.25974583427156567,-0.0037024766719288183,-0.0370442010156415,-0.4182640186962145
1750761301.32134,-1.9194776579030783,-2.407104467684294,-0.4193692248876575,1.5810695066694636,-0.4921289052696922,-2.061961412530799,-0.022613249890650756,0.2364788618378597,-0.2149340635667881,-0.00584941139780063,-0.16867573336824537,-0.16884737711100348,3.7722569942298603,2.2180340699842227,0.25981037750699515,-0.0036989879521111824,-0.036948894054767374,-0.41731120460583493
1750761301.3215535,-1.919523212738337,-2.4066294398101546,-0.4198008429283524,1.5810577627838256,-0.49246756552495174,-2.062300417439787,-0.022942125902144783,0.2385491813893957,-0.21668359908845064,-0.005894453957991559,-0.1699839522849752,-0.17015696159402255,3.7727149689349666,2.2197525981021244,0.2598752601321161,-0.003695477329364966,-0.036852940166910875,-0.41635209272181095
1750761301.3227787,-1.919523212738337,-2.4066294398101546,-0.4198008429283524,1.5810577627838256,-0.49246756552495174,-2.062300417439787,-0.022942125902144783,0.2385491813893957,-0.21668359908845064,-0.005894453957991559,-0.1699839522849752,-0.17015696159402255,3.7727149689349666,2.2197525981021244,0.2598752601321161,-0.003695477329364966,-0.036852940166910875,-0.41635209272181095
1750761301.3249857,-1.9195694285753646,-2.406150270279555,-0.42023595776799816,1.5810459289349974,-0.4928088387928158,-2.062642038088451,-0.023274254924360468,0.24062051971558135,-0.21843086060325945,-0.00593937446876274,-0.1712887421842992,-0.17146311299650516,3.7731804927615435,2.2214847016398513,0.25994047676946264,-0.003691944930959205,-0.03675634367592162,-0.4153867299349797
1750761301.326791,-1.919616311939702,-2.4056669570464417,-0.4206745648471557,1.5810340053677905,-0.4931527181925679,-2.062986267587938,-0.02360965644358085,0.2426928853203409,-0.2201758367169632,-0.005984172218538504,-0.17259008040918758,-0.17276580865228514,3.7736536502254583,2.2232303544845213,0.2600060220215766,-0.0036883908848068907,-0.03665910892907214,-0.4144151633673559
1750761301.3286724,-1.9196638693956771,-2.4051794980477523,-0.4211166595837872,1.5810219923284343,-0.49349919679833043,-2.0633330990042174,-0.023948349763580276,0.24476628670993028,-0.2219185162264187,-0.006028846500644546,-0.17388794445775504,-0.1740650260503479,3.7741345261448056,2.2249895303886564,0.26007189047162876,-0.0036848153194222874,-0.0365612402968342,-0.41343744037028973
1750761301.3306563,-1.919712107546042,-2.4046878912034084,-0.4215622373736423,1.581009890064567,-0.49384826763937895,-2.0636825253583932,-0.024290354005166135,0.24684073239313029,-0.22365888812025864,-0.006073396613333236,-0.17518231198407103,-0.17536074283563996,3.7746232056322446,2.226762202973031,0.2601380766838703,-0.003681218364028367,-0.03646274217250197,-0.41245360851905927
1750761301.3326218,-1.9197610330316088,-2.404192134416312,-0.4220112935906357,1.5809976988252248,-0.49419992370045396,-2.0640345396270146,-0.024635688105740534,0.24891623088143897,-0.22539694157953832,-0.006117821859803384,-0.17647316079895994,-0.1766529368098698,3.7751197740870848,2.22854834572765,0.2602045752042104,-0.003677600148405903,-0.036363618971914466,-0.411463715610141
1750761301.3345659,-1.9198106525308773,-2.4036922255723385,-0.4224638235872433,1.5809854188608325,-0.49455415792207447,-2.0643891347423935,-0.024984370818891308,0.2509927906892741,-0.2271326659783621,-0.006162121548225474,-0.17776046887078775,-0.17794158593229395,3.7756243171837824,2.23034793201495,0.26027138056078775,-0.0036739608030433232,-0.03626387513306771,-0.41046780965588053
1750761301.336565,-1.9198609727596754,-2.4031881625403324,-0.4229198226948778,1.5809730504231945,-0.49491096320085504,-2.0647463035929166,-0.02533642071399313,0.25307042033417165,-0.22886605088449424,-0.006206294991762685,-0.17904421432623874,-0.1792266683204959,3.776136920867884,2.2321609350703038,0.26033848726443587,-0.0036703004590270642,-0.03616351511584029,-0.4094659388825508
1750761301.340271,-1.9199120004707826,-2.4026799431720987,-0.423379286224284,1.5809605937654827,-0.4952703323898211,-2.065106039023366,-0.02569185617584676,0.2551491283369983,-0.23059708605994625,-0.006250341508593184,-0.1803243754510815,-0.18050816225115088,3.776657671341134,2.233987328005846,0.2604058898093124,-0.003666619248073727,-0.03606254340168844,-0.4084581517250033
1750761301.3409798,-1.919963742453561,-2.402167565302398,-0.4238422094659251,1.5809480491422283,-0.49563225829873137,-2.065468333835236,-0.026050695404330415,0.2572289232221566,-0.2323257614615455,-0.006294260421931765,-0.18160093069091995,-0.18178604616077765,3.777186655056347,2.2358270838103125,0.2604735826734194,-0.00366291730250951,-0.035960964493226194,-0.407444496822795
1750761301.3429441,-1.9200162055335923,-2.401651026748939,-0.4243085876903727,1.580935416809311,-0.495996733694394,-2.065833180787055,-0.02641295641407235,0.2593098135178035,-0.23405206724149066,-0.006338051060052224,-0.18287385865193562,-0.18306029864648124,3.777723958709387,2.237680175353116,0.2605415603190475,-0.0036591947552974124,-0.03585878291397431,-0.406425023016911
1750761301.344912,-1.9200693965722948,-2.401130325312368,-0.4247784161486985,1.5809226970239485,-0.49636375130099264,-2.066200572594707,-0.026778657034155183,0.26139180775606663,-0.23577599374787744,-0.0063817127563079385,-0.18414313810161714,-0.18433089846668263,3.7782696692263364,2.239546575384726,0.26060981719351367,-0.003655451739985037,-0.03575600320800853,-0.40539977934536625
1750761301.3469722,-1.9201233224665692,-2.4006054587762646,-0.42525169007286756,1.5809098900446872,-0.4967333038004078,-2.0665705019317535,-0.02714781490783073,0.26347491447326926,-0.23749753152521866,-0.0064252448491545315,-0.18540874796947843,-0.18559782454183765,3.778823873759542,2.241426256540023,0.26067834772942156,-0.003651688390766842,-0.035652629939631905,-0.40436881503974154
1750761301.3489325,-1.9201779901484066,-2.4000764249071307,-0.42572840467613027,1.580896996131391,-0.49710538383253944,-2.0669429614297616,-0.027520447492269853,0.2655591422101552,-0.23921667131493027,-0.006468646682169072,-0.1866706673477641,-0.18686105595514255,3.779386659673547,2.2433191913391153,0.26074714634552243,-0.0036479048423830505,-0.035548667693022194,-0.40333217952050054
1750761301.350779,-1.9202334065845292,-2.3995432214543833,-0.4262085551534174,1.5808840155452317,-0.4974799839956372,-2.067317943678626,-0.027896572058321946,0.2676444995121189,-0.24093340405581073,-0.006511917604072975,-0.18792887549214277,-0.18812057195322784,3.779958114541331,2.2452253521900056,0.2608162074469919,-0.0036441012302266536,-0.03544412107188467,-0.4022899223933508
1750761301.3528085,-1.9202895787760212,-2.3990058461503416,-0.42669213668173445,1.5808709485486787,-0.4978570968466265,-2.0676954412269,-0.028276205690304475,0.2697309949294412,-0.2426477208844983,-0.006555056968752149,-0.18918335182239207,-0.18937635194684302,3.780538326132498,2.2471447113906176,0.2608855254260061,-0.0036402776902719302,-0.03533899469922545,-0.40124209344599904
1750761301.3548107,-1.9203465137579379,-2.3984642967102205,-0.4271791444205588,1.580857795405488,-0.4982367149014353,-2.0680754465821227,-0.028659365285815832,0.27181863701752845,-0.24435961313590196,-0.006598064135275478,-0.19043407592306527,-0.19062837551152476,3.781127382403868,2.249077241130849,0.260955094662487,-0.003636434359017864,-0.035233293216825966,-0.4001887426425986
1750761301.356805,-1.92040421859895,-2.39791857083212,-0.42766957351223667,1.5808445563806925,-0.4986188306353272,-2.0684579522111495,-0.0290460675555639,0.2739074343371536,-0.2460690723436257,-0.006640938467918796,-0.1916810275441531,-0.1918766223882592,3.7817253714933132,2.2510229134940873,0.26102490952430446,-0.0036325713736594777,-0.03512702128511326,-0.39912992012205867
1750761301.3587582,-1.9204627004009627,-2.3973686661970097,-0.42816341908238087,1.5808312317405917,-0.4990034364832301,-2.0688429505404837,-0.029436329023221543,0.2759973954547038,-0.2477760902403643,-0.006683679336181727,-0.19292418660172714,-0.19312107248412372,3.7823323817089736,2.2529817004599866,0.261094964368084,-0.0036286888718659095,-0.03502018358264001,-0.39806567619090744
1750761301.3609092,-1.9205219662987378,-2.3968145804687238,-0.42866067624026805,1.58081782175274,-0.4993905248400745,-2.0692304339566094,-0.029830166025304156,0.27808852894243,-0.2494806587582846,-0.0067262861148093284,-0.19416353317857638,-0.19436170587292634,3.782948501520554,2.254953573905656,0.2611652535395793,-0.003624786991940572,-0.03491278480588745,-0.3969960613227619
1750761301.362859,-1.9205820234595237,-2.396256311293944,-0.42916134007923734,1.5808043266859377,-0.49978008806111873,-2.0696203948063268,-0.0302275947110677,0.28018084337870397,-0.2511827700293868,-0.0067687581838097605,-0.19539904752482784,-0.1955985027958262,3.7835738195511732,2.256938505608802,0.26123577137429554,-0.003620865872693097,-0.03480482966882365,-0.39592112615185426
1750761301.3647642,-1.920642879082683,-2.39569385630219,-0.4296654056770963,1.58079074681022,-0.5001721184622934,-2.0700128253970833,-0.030628631042427,0.28227434734827433,-0.2528824163858505,-0.00681109492847676,-0.1966307100585587,-0.19683144366194452,3.7842084245691705,2.2589364672485663,0.26130651219787915,-0.003616925653583413,-0.03469632290265802,-0.3948409214701303
1750761301.3667862,-1.9207045403993135,-2.3951272131058046,-0.43017286809651356,1.5807770823968454,-0.50056660832053,-2.070407717997316,-0.03103329079390088,0.2843690494425319,-0.25457959036035677,-0.006853295739406784,-0.19785850136639177,-0.1980605090489633,3.7848524054775448,2.260947430408557,0.261377470326801,-0.0036129664745701284,-0.034587269255376016,-0.39375549822291583
1750761301.369279,-1.9207670146718687,-2.394556379299941,-0.4306837223854263,1.5807633337182865,-0.5009635498741059,-2.0708050648367857,-0.031441589552578406,0.2864649582597759,-0.25627428468639335,-0.0068953600125165205,-0.19908240220408335,-0.19928567970371117,3.785505851305416,2.262971366578323,0.26144864006882174,-0.0036089884761208147,-0.03447767349152265,-0.3926649075048166
1750761301.3732207,-1.9207670146718687,-2.394556379299941,-0.4306837223854263,1.5807633337182865,-0.5009635498741059,-2.0708050648367857,-0.031441589552578406,0.2864649582597759,-0.25627428468639335,-0.0068953600125165205,-0.19908240220408335,-0.19928567970371117,3.785505851305416,2.262971366578323,0.26144864006882174,-0.0036089884761208147,-0.03447767349152265,-0.3926649075048166
1750761301.374819,-1.9208944312891578,-2.3934021301543615,-0.43171558669222243,1.580735584661509,-0.5017647568291226,-2.071607089961132,-0.032269165502665044,0.2906604304925898,-0.2596562063327687,-0.0069790765556712485,-0.20151845634116353,-0.20172426065288188,3.7868414944262327,2.267058043447782,0.2615915915824133,-0.003600976585874692,-0.034256874752709464,-0.3904684287598083
1750761301.3767736,-1.9209593883122427,-2.392818709918875,-0.4322365867359288,1.5807215848342067,-0.5021690065168816,-2.072011752515208,-0.032688472931071175,0.29276001114175954,-0.26134342012662753,-0.007020727644329472,-0.20273057200283298,-0.2029376332918062,3.7875238703349674,2.269120726675634,0.26166336193049244,-0.0035969429777894506,-0.03414568138626804,-0.38936264363399314
1750761301.3787546,-1.9210251876472064,-2.3922310892823377,-0.43276095870158127,1.5807075018435308,-0.502575676473298,-2.072418837847599,-0.03311147984075577,0.29486083298167787,-0.2630281272195421,-0.007062239832430323,-0.20393872192000892,-0.2041470358885506,3.7882160683789605,2.271196267973245,0.2617353210456384,-0.003592891117770708,-0.03403396511956338,-0.3882518968313791
1750761301.3807027,-1.9210918367076975,-2.3916392657537333,-0.43328869756948674,1.580693335967861,-0.5029847587484655,-2.0728283379997956,-0.03353820088186982,0.29696290464933417,-0.26471032135299843,-0.007103612542778821,-0.20514288770247466,-0.20535245004404953,3.7889181780937067,2.273284638391456,0.2618074631996653,-0.00358882114904604,-0.03392173079450468,-0.3871362401343037
1750761301.3826005,-1.9211593429364697,-2.391043236824762,-0.43381979830763573,1.580679087486725,-0.5033962453558676,-2.0732402449766587,-0.03396865051738029,0.29906623479031635,-0.26638999647074246,-0.007144845203609314,-0.20634305113240722,-0.2065538575316487,3.789630289085988,2.27538580889955,0.2618797826588164,-0.0035847332152855,-0.033808983267478575,-0.38601572545083573
1750761301.3846524,-1.9212277138050187,-2.3904429999698236,-0.4343542558721092,1.5806647566807892,-0.5038101282727245,-2.0736545507467694,-0.034402843023176026,0.3011708320591043,-0.26806714671896414,-0.0071859372486046255,-0.20753919416487443,-0.20775124029760259,3.7903524910326394,2.2774997503871077,0.2619522736841152,-0.0035806274607152215,-0.033695727408874394,-0.38489040480961084
1750761301.3865767,-1.9212969568132063,-2.3898385526460015,-0.43489206520748347,1.5806503438318469,-0.5042263994403413,-2.0740712472427756,-0.034840792488211224,0.3032767051193714,-0.2697417664464553,-0.007226888116913769,-0.20873129892832687,-0.2089445804615659,3.791084873665756,2.2796264336662464,0.2620249305320131,-0.003576504030092524,-0.03358196810294117,-0.3837603303575622
1750761301.389336,-1.9213670794888849,-2.38922989229304,-0.4354332212472345,1.5806358492228083,-0.5046450507644531,-2.0744903263617376,-0.035282512814663006,0.30538386264428985,-0.2714138502047555,-0.007267697253166429,-0.20991934772507007,-0.2101338603170683,3.7918275267668493,2.281765829473896,0.26209774745477715,-0.003572363068604064,-0.033467710247228534,-0.3826255543545396
1750761301.3909378,-1.9214380893875216,-2.38861701633333,-0.4359777189141454,1.5806212731376876,-0.5050660741155752,-2.074911779965478,-0.03572801771811003,0.30749231331683724,-0.27308339274827614,-0.007308364107492334,-0.21110332303173013,-0.21131906233197847,3.792580540158351,2.2839179084732324,0.2621707187010869,-0.003568204722010666,-0.0333529587524038,-0.38148612916994773
1750761301.3927333,-1.9215099940918314,-2.387999922171883,-0.43652555312070795,1.5806066158615943,-0.5054894613293479,-2.075335599880928,-0.036177320727733435,0.3096020658301112,-0.2747503890344108,-0.007348888135534484,-0.21228320749970425,-0.21250016914895706,3.793344003694763,2.286082641256481,0.2622438385164415,-0.003564029136475404,-0.03323771854182501,-0.3803421072790788
1750761301.3947854,-1.9215828012114038,-2.3873786071963172,-0.4370767187695366,1.5805918776807208,-0.5059152042068931,-2.0757617779004818,-0.03663043518653807,0.31171312888764546,-0.27641483422362606,-0.007389268798468964,-0.21345898395559815,-0.21367716358589353,3.794118007254295,2.2882599983464673,0.26231710114369255,-0.003559836458744454,-0.033121994551172707,-0.3791935412579074
1750761301.396804,-1.9216565183823207,-2.386753068776831,-0.4376312107537652,1.5805770588823314,-0.5063432945151574,-2.076190305782342,-0.037087374251599414,0.31382551120373114,-0.2780767236795323,-0.0074295055630168895,-0.21463063540165525,-0.2148500286363361,3.794902640728644,2.2904499501985884,0.2623905008235874,-0.00355562683593583,-0.03300579172821847,-0.3780404837808228
1750761301.398764,-1.9217311532667978,-2.386123304266184,-0.4381890239574622,1.5805621597547515,-0.5067737239872718,-2.0766211752508763,-0.03754815089432072,0.31593922150374376,-0.2797360529689454,-0.007469597901463063,-0.21579814501616715,-0.21601874746990374,3.7956979940187594,2.2926524672037347,0.26246403179510713,-0.0035514004157191073,-0.03288911503229559,-0.37688298761495787
1750761301.4008212,-1.9218067135528116,-2.3854893109996733,-0.43875015325602895,1.5805471805873563,-0.5072064843228974,-2.0770543779969683,-0.03801277790071877,0.3180542685244703,-0.28139281786192477,-0.007509545291670623,-0.2169614961538778,-0.21718330343268866,3.7965041570232447,2.2948675196890003,0.2625376882960512,-0.0035471573462087925,-0.03277196943412475,-0.37572110561706845
1750761301.4027698,-1.9218832069537157,-2.384851086295111,-0.4393145935166123,1.5805321216705597,-0.5076415671885837,-2.0774899056783696,-0.038481267871735864,0.3201706610144464,-0.28304701433179014,-0.007549347217092894,-0.21812067234637114,-0.21834368004764812,3.797321219627962,2.297095077920938,0.2626114645636459,-0.0035428977758894978,-0.03265435991534477,-0.3745548907299406
1750761301.4048386,-1.921960641207889,-2.3842086274528,-0.4398823395985092,1.5805169832958037,-0.5080789642181189,-2.077927749920055,-0.03895363322355537,0.3222884077342927,-0.2846986385551364,-0.007589003166793933,-0.21927565730244936,-0.21949986101497948,3.7981492717042324,2.299335112106942,0.2626853548346643,-0.0035386218538548237,-0.03253629146825163,-0.37338439597736683
1750761301.406821,-1.9220390240783551,-2.38356193175551,-0.440453386353572,1.5805017657555451,-0.5085186670128872,-2.078367902314578,-0.03942988618795254,0.3244075174570567,-0.2863476869118156,-0.007628512635458407,-0.2204264349084952,-0.22065183021248624,3.798988403094771,2.301587592397266,0.2627593533462804,-0.0035343297295119596,-0.03241776909534718,-0.3722096744609887
1750761301.408832,-1.9220390240783551,-2.38356193175551,-0.440453386353572,1.5805017657555451,-0.5085186670128872,-2.078367902314578,-0.03942988618795254,0.3244075174570567,-0.2863476869118156,-0.007628512635458407,-0.2204264349084952,-0.22065183021248624,3.798988403094771,2.301587592397266,0.2627593533462804,-0.0035343297295119596,-0.03241776909534718,-0.3722096744609887
1750761301.4108145,-1.9221183633524195,-2.3829109964684503,-0.44102772862661777,1.5804864693432472,-0.5089606671422224,-2.0788103544224237,-0.03991003881266008,0.3265279989685627,-0.2879941559849126,-0.007667875123408087,-0.2215729892288261,-0.22179957169593037,3.799838703607701,2.303852488887866,0.2628334543363002,-0.0035300215527683788,-0.032298797809108576,-0.37103077935592954
1750761301.4127605,-1.9221986668412931,-2.382255818839248,-0.4416053612558306,1.5804710943533664,-0.5094049561437668,-2.0792550977723687,-0.04039410296175521,0.3286498610677609,-0.28963804256069936,-0.007707090136614525,-0.22271530450603305,-0.22294306969937383,3.8007002630077005,2.3061297716214098,0.2629076520437199,-0.003525697473927634,-0.03217938263156051,-0.36984776390748425
1750761301.4149666,-1.9222799423797419,-2.3815963960979176,-0.4421862790731721,1.5804556410813413,-0.5098515255238256,-2.0797021238618365,-0.04088209031606188,0.3307731125670823,-0.29127934362857677,-0.007746157186714986,-0.22385336516130638,-0.2240823086355033,3.8015731710098057,2.3084194105898628,0.26298194070912795,-0.0035213576437730654,-0.032059528593903146,-0.3686606814256805
1750761301.4186833,-1.9223621978256986,-2.3809327254568338,-0.44277047690478444,1.5804401098235819,-0.5103003667577237,-2.080151424157254,-0.0413740123735846,0.3328977622928006,-0.29291805638099283,-0.007785075791022234,-0.22498715579475248,-0.22521727309594858,3.802457517266749,2.310721375736578,0.26305631457530937,-0.0035170022134075364,-0.03193924073626021,-0.36746958528317414
1750761301.420275,-1.922445441059919,-2.3802648041107064,-0.44335794957139907,1.5804245008774573,-0.5107514712901686,-2.0806029900944116,-0.04186988044994697,0.3350238190853952,-0.29455417821335594,-0.0078238454725417,-0.2261166611856949,-0.22634794785158452,3.803353391366799,2.313035636958241,0.2631307678874627,-0.0035126313344556797,-0.03181852410723735,-0.3662745289102756
1750761301.4207423,-1.9225296799856046,-2.3795926292365492,-0.44394869188873987,1.580408814541286,-0.5112048305356041,-2.0810568130788187,-0.042369705678859934,0.33715129179991904,-0.29618770672392225,-0.007862465759982482,-0.22724186629296547,-0.2274743178528218,3.80426088282172,2.3153621641066833,0.2632052948938723,-0.0035082451588915545,-0.03169738376364059,-0.36507556579122796
1750761301.4227288,-1.922614922528041,-2.3789161979936506,-0.44454269866793084,1.5803930511143223,-0.5116604358785697,-2.0815128844860675,-0.04287349901261081,0.3392801893063744,-0.2978186397136715,-0.007900936187769514,-0.22836275625518007,-0.22859636822988444,3.805180081058382,2.3177009269916535,0.26327988984624373,-0.003503843839071301,-0.031575824770044746,-0.3638727494598803
1750761301.4247484,-1.9227011766342432,-2.378235507523544,-0.44513996471589934,1.5803772108967462,-0.5121182786740661,-2.08197119566219,-0.04338127122256246,0.3414105204900855,-0.2994469751861677,-0.007939256296057911,-0.22947931639100647,-0.2297140842930769,3.806111075414358,2.320051895381501,0.26335454700015126,-0.003499427527800566,-0.031453852198569825,-0.36266613349682614
1750761301.4267628,-1.9227884502725807,-2.3775505549499765,-0.44574048483578377,1.580361294189652,-0.5125783502479084,-2.0824317379240176,-0.04389303289968328,0.34354229425208516,-0.3010727113474008,-0.007977425630741341,-0.23059153219941453,-0.23082745153303652,3.807053955125605,2.322415039006962,0.2634292606155553,-0.003494996378159705,-0.031331471128384504,-0.36145577152423347
1750761301.428748,-1.9228767514324332,-2.376861337378877,-0.4463442538273359,1.5803453012950361,-0.5130406418970912,-2.0828945025595473,-0.044408794455083285,0.3456755195094964,-0.3026958466056199,-0.008015443743469524,-0.23169938935991816,-0.231936455620975,3.8080088093236375,2.324790327561598,0.2635040249570781,-0.0034905505437688887,-0.031208686645472366,-0.36024171720298587
1750761301.4308393,-1.9229660881238146,-2.376167851898325,-0.44695126648732586,1.580329232515786,-0.5135051448901491,-2.083359480828296,-0.044928566120586655,0.34781020519592626,-0.30431637957113916,-0.008053310191653687,-0.23280287373280256,-0.2330410824089076,3.8089757270209184,2.327177730704898,0.26357883429468965,-0.003486090178444903,-0.031085503842219805,-0.3590240242281863
1750761301.4327307,-1.9230564683770286,-2.3754700955785126,-0.4475615176099481,1.5803130881556686,-0.5139718504675175,-2.0838266639616654,-0.04545235794930594,0.3499463602618588,-0.3059343090561428,-0.008091024538481623,-0.23390197135934168,-0.23414131792986972,3.809954797109852,2.3295772180637404,0.2636536829038403,-0.003481615436476195,-0.030961927817137767,-0.35780274632576703
1750761301.4347851,-1.9230564683770286,-2.3754700955785126,-0.4475615176099481,1.5803130881556686,-0.5139718504675175,-2.0838266639616654,-0.04545235794930594,0.3499463602618588,-0.3059343090561428,-0.008091024538481623,-0.23390197135934168,-0.23414131792986972,3.809954797109852,2.3295772180637404,0.2636536829038403,-0.003481615436476195,-0.030961927817137767,-0.35780274632576703
1750761301.436765,-1.9231479002423075,-2.374768065471718,-0.44817500198722193,1.5802968685193186,-0.5144407498418966,-2.084296043163307,-0.04598017981624209,0.35208399367505466,-0.3075496340744664,-0.008128586352928594,-0.23499666846199957,-0.23523714839811938,3.810946108352269,2.3319887592347355,0.2637285650660758,-0.0034771264725008424,-0.030837963674410492,-0.3565779372477744
1750761301.439548,-1.923240391789454,-2.374061758612263,-0.4487917144093938,1.5802805739122268,-0.5149118341986112,-2.0847676096094805,-0.04651204141890663,0.3542231144209542,-0.30916235384136337,-0.00816599520976575,-0.2360869514446218,-0.23632856020933043,3.8119497493703713,2.3344123237858936,0.2638034750694469,-0.0034726234414436397,-0.030713616523614116,-0.35534965076951197
1750761301.4411771,-1.923333951107491,-2.373351172016482,-0.4494116496653451,1.580264204640729,-0.5153850946959775,-2.085241354449418,-0.047047952277959215,0.3563637315030862,-0.3107724677732609,-0.00820325068957285,-0.23717280689261577,-0.23741553994077264,3.8129658086403313,2.3368478812588798,0.26387840720881045,-0.0034681064986381784,-0.030588891479403878,-0.35411794068547875
1750761301.44283,-1.9234285863043041,-2.372636302682684,-0.4500348025429899,1.5802477610119938,-0.5158605224656627,-2.0857172688056904,-0.04758792173786221,0.35850585394348106,-0.31237997548749746,-0.008240352378746908,-0.23825422157311607,-0.23849807435147685,3.8139943744852505,2.339295401171358,0.2639533557863881,-0.003463575799705266,-0.03046379366109351,-0.3528828608046582
1750761301.4450417,-1.9235243055062945,-2.3719171475911143,-0.45066116782967747,1.580231243334011,-0.5163381086130503,-2.0861953437745644,-0.04813195896755433,0.3606494907830858,-0.3139848768020481,-0.008277299869512401,-0.23933118243513898,-0.23957615038239272,3.81503553506725,2.3417548530180854,0.26402831511206837,-0.00345903150060969,-0.030338328192349433,-0.3516444649484052
1750761301.4468424,-1.9236211168580226,-2.3711937037039177,-0.45129074031259186,1.5802146519155806,-0.5168178442176039,-2.086675570426375,-0.048680072961146806,0.36279465108218756,-0.31558717173523493,-0.008314092759930126,-0.24040367660972298,-0.24064975515652712,3.8160893783781895,2.3442262062739494,0.26410327950383133,-0.0034544737576062616,-0.030212500200795234,-0.35040280694401443
1750761301.448826,-1.923719028521866,-2.370465967965098,-0.45192351477915693,1.5801979870663003,-0.5172997203332326,-2.0871579398058833,-0.04923227253862832,0.3649413439208377,-0.3171868605054244,-0.008350730653908307,-0.24147169141006183,-0.24171887597907998,3.8171559922359926,2.3467094303951113,0.26417824328815115,-0.003449902727327358,-0.03008631481780516,-0.34915794062459343
1750761301.4508088,-1.923818048677667,-2.3697339373004804,-0.45255948601743157,1.5801812490965543,-0.5177837279886512,-2.0876424429326423,-0.049788566346597174,0.3670895783992835,-0.31878394353070894,-0.008387213161209809,-0.24253521433161923,-0.24278350033755844,3.818235464273374,2.3492044948216693,0.26425320080040415,-0.003445318566650786,-0.02995977717798111,-0.34790991982167235
1750761301.4527936,-1.9239181855223926,-2.3689976086176667,-0.4531986488165094,1.580164438317501,-0.5182698581877503,-2.0881290708013642,-0.050348962859003234,0.369239363638401,-0.320378421428577,-0.008423539897461182,-0.2435942330522342,-0.2438436159018832,3.8193278819336385,2.3517113689790223,0.26432814638522534,-0.003440721432763189,-0.029832892418896098,-0.3466587983632582
1750761301.4551578,-1.924019447269778,-2.368256978805998,-0.45384099796691846,1.580147555041062,-0.5187581019099587,-2.0886178143822827,-0.0509134703779185,0.3713907087801384,-0.32197029501556546,-0.008459710484160516,-0.244648735432217,-0.2448992105244861,3.8204333324591677,2.354230022280799,0.2644030743969613,-0.00343611148313495,-0.029705665680822228,-0.34540463007088473
1750761301.456747,-1.9241218421500008,-2.3675120447365083,-0.45448652826102176,1.5801305995799104,-0.5192484501106058,-2.0891086646215182,-0.051482097034308644,0.37354362298795507,-0.3235595653069074,-0.008495724548687827,-0.24569870951442627,-0.245950272240387,3.8215519028903353,2.356760424129502,0.26447797919986793,-0.0034314888755733286,-0.02957810210620913,-0.34414746875342406
1750761301.4587479,-1.9242253784093197,-2.3667628032618846,-0.4551352344934054,1.580113572247458,-0.5197408937212931,-2.089601612441445,-0.05205485078883955,0.3756981154472739,-0.32514623351615224,-0.00853158172430747,-0.24674414352434204,-0.24699678926726717,3.822683680051619,2.3593025439198363,0.2645528551688228,-0.0034268537680159296,-0.029450206839558124,-0.34288736820580534
1750761301.460864,-1.9243300643097534,-2.3660092512164193,-0.4557871114612855,1.5800964733578444,-0.5202354236502531,-2.0900966487410546,-0.05263173943268491,0.37785419536593073,-0.3267303010547902,-0.008567281650182086,-0.2477850258701181,-0.24803875000552345,3.8238287505504878,2.361856351039555,0.2646276966892617,-0.0034222063188445754,-0.02932198502684905,-0.34162438220337077
1750761301.4630144,-1.9244359081287286,-2.3652513854159674,-0.45644215396489685,1.580079303225925,-0.5207320307827166,-2.0905937643963233,-0.053212770588365446,0.3800118719746352,-0.32831176953184843,-0.008602823971374943,-0.24882134514263154,-0.24907614303831757,3.8249872007648067,2.3644218148723435,0.26470249815791863,-0.003417546686571203,-0.029193441815455853,-0.34035856450019164
1750761301.46987,-1.924542918158755,-2.364489202657898,-0.4571003568078895,1.5800620621672592,-0.5212307059812824,-2.091092950260575,-0.053797951710590215,0.38217115452743106,-0.3298906407534858,-0.008638208338859176,-0.24985309011551102,-0.25010895713160597,3.8261591168413878,2.3669989047993827,0.2647772539829525,-0.003412875030018588,-0.029064582353550007,-0.33908996882320735
1750761301.470262,-1.9247604700953573,-2.36295187336568,-0.4584262227460574,1.5800273685353752,-0.5222342239161186,-2.0920974959182654,-0.054980792839687855,0.3864945746009434,-0.3330405996382252,-0.008708501846175061,-0.2519028131707674,-0.25216080447759437,3.828543689948485,2.3721878404585763,0.26492660639460675,-0.003403496280444518,-0.02880593527378932,-0.33654465830669583
1750761301.47075,-1.9248710286593287,-2.3621767203334185,-0.4590938754691489,1.5800099165966888,-0.5227390482676952,-2.09260283730839,-0.055578466924812164,0.38865873075064067,-0.33461169189542683,-0.008743410317553725,-0.2529207697142976,-0.25317981617632296,3.8297565180377613,2.3747996249581775,0.26500119185828763,-0.0033987895061803938,-0.028676157953927982,-0.3352680507583522
1750761301.4727829,-1.924982786748478,-2.3613972373472154,-0.45976466778823966,1.5799923950002965,-0.5232459039167159,-2.0931102121015996,-0.05618031913479898,0.3908245301033467,-0.33618019608449856,-0.008778159498328962,-0.25393410888048307,-0.25419420582758834,3.830983154091818,2.377422913090106,0.2650757094331448,-0.003394071345181913,-0.028546084978971743,-0.3339888798133467
1750761301.4747784,-1.92509575272571,-2.3606134211112915,-0.4604385945299443,1.5799748040650998,-0.5237547816180825,-2.093619611043448,-0.05678635609862515,0.3929919820368659,-0.3377461149906631,-0.008812749069109966,-0.25494282035679494,-0.2552039631114129,3.832223682983465,2.3800576742517396,0.2651501535901321,-0.0033893419573807287,-0.028415721496741812,-0.3327071990143016
1750761301.476807,-1.9252099349670235,-2.359825268311085,-0.4611156505266454,1.5799571441106337,-0.5242656721062549,-2.094131024859035,-0.05739658428289925,0.3951610959552084,-0.3393094515935544,-0.008847178716446403,-0.25594689401339965,-0.2562090778905635,3.8334781893083862,2.3827038778505396,0.26522451881375986,-0.003384601502825076,-0.028285072653822393,-0.3314230618554488
1750761301.4787083,-1.9253253418611962,-2.3590327756132004,-0.4617958306168779,1.5799394154570527,-0.524778566095617,-2.0946444442533645,-0.058011009992814486,0.39733188128907926,-0.34087020906672916,-0.008881448132839646,-0.25694631990311567,-0.2572095402105058,3.8347467573841474,2.3853614933040896,0.2652987996022838,-0.003379850141955622,-0.028154143595581143,-0.3301365217815642
1750761301.4807081,-1.9254419818094455,-2.358235939665353,-0.46247912964571647,1.5799216184251217,-0.5252934542808383,-2.0951598599117167,-0.05862963937313352,0.3995043474963816,-0.3424283907771522,-0.008915557016739586,-0.2579410882613461,-0.258205340299339,3.8360294712371137,2.3880304900437355,0.2653729904684039,-0.0033750880351762344,-0.02802293946548571,-0.32884763218106733
1750761301.4827182,-1.9255598632251285,-2.3574347570963163,-0.4631655424651635,1.5799037533362024,-0.5258103273372443,-2.0956772625000077,-0.0592524784091759,0.4016785040627166,-0.3439840002846899,-0.008949505072554632,-0.2589311895060065,-0.2591964685677233,3.8373264146009025,2.39071083751507,0.265447085939055,-0.0033703153432410545,-0.02789146540497242,-0.32755644638446657
1750761301.4846735,-1.925678994533408,-2.3566292245158613,-0.4638550639345338,1.5798858205122412,-0.5263291759211786,-2.096196642665162,-0.05987953292782708,0.4038543605018947,-0.34553704134157565,-0.008983292010650495,-0.2599166142374377,-0.26018291560879536,3.838637670907546,2.3934025051811134,0.26552108055621726,-0.003365532226935204,-0.02775972655301778,-0.3262630176605206
1750761301.4879057,-1.925678994533408,-2.3566292245158613,-0.4638550639345338,1.5798858205122412,-0.5263291759211786,-2.096196642665162,-0.05987953292782708,0.4038543605018947,-0.34553704134157565,-0.008983292010650495,-0.2599166142374377,-0.26018291560879536,3.838637670907546,2.3934025051811134,0.26552108055621726,-0.003365532226935204,-0.02775972655301778,-0.3262630176605206
1750761301.488765,-1.9257993841709453,-2.3558193385147055,-0.4645476889208373,1.5798678202757586,-0.5268499906703656,-2.0967179910354687,-0.060510808598565564,0.4060319263564492,-0.3470875178918746,-0.009016917547357336,-0.2608973532383124,-0.261164672198074,3.8399633232797585,2.396105462523452,0.2655949688768757,-0.0033607388473190095,-0.027627728045971182,-0.32496739921346735
1750761301.4906998,-1.9259210405855836,-2.3550050956644513,-0.46524341229916555,1.5798497529498359,-0.527372762204279,-2.0972412982209514,-0.06114631093449013,0.4082112111981486,-0.3486354340709359,-0.009050381404970624,-0.26187339747352145,-0.2621417292933474,3.841303454530246,2.3988196790436467,0.26566874547345914,-0.0033559353655318747,-0.02749547501697629,-0.32366964417743105
1750761301.4928293,-1.9260439722360356,-2.3541864925175275,-0.4659422289530699,1.5798316188581036,-0.527897481124505,-2.097766554813732,-0.061786045293381074,0.4103922246285266,-0.35018079420483217,-0.009083683311753918,-0.2628447380900553,-0.2631140780345563,3.842658147148154,2.4015451242669226,0.26574240493413687,-0.0033511219428667026,-0.027362972595839686,-0.3223698056150348
1750761301.494785,-1.9261681875915784,-2.3533635256071306,-0.4666441337749445,1.579813418324731,-0.5284241380151045,-2.098293751388394,-0.062430016878760236,0.41257497627940365,-0.35172360280979353,-0.009116823001942186,-0.2638113664168719,-0.26408170974366146,3.844027483298687,2.404281767741969,0.265815941862999,-0.0033462987407761246,-0.0272302259086415,-0.32106793651314797
1750761301.4968638,-1.92629369513174,-2.3525361914471623,-0.4673491216664054,1.5797951516744113,-0.5289527234429778,-2.0988228785023475,-0.06307823074097697,0.4147594758134215,-0.35326386459162434,-0.009149800215743596,-0.26477327396475486,-0.26504461592450296,3.8454115448125896,2.407029579043984,0.2658893508805165,-0.003341465920836818,-0.027097240077471132,-0.3197640897800976
1750761301.4987743,-1.9264205033459962,-2.351704486532167,-0.46805718753866987,1.5797768192323527,-0.52948322795823,-2.09935392669619,-0.06373069177829936,0.41694573292458054,-0.3548015844451164,-0.0091826146993387,-0.2657304524261555,-0.2660027882626435,3.846810413183507,2.4097885277766897,0.2659626266237003,-0.0033366236446657504,-0.026964020219967487,-0.3184583182410649
1750761301.5007906,-1.9265486207334703,-2.3508684073372694,-0.46876832631293386,1.579758421324264,-0.5300156420945319,-2.0998868864940743,-0.06438740473802369,0.4191337573387789,-0.3563367674534522,-0.009215266204886639,-0.2666828936750296,-0.26695621862520486,3.848224169560157,2.4125585835730794,0.26603576374631044,-0.0033317720741316203,-0.02683057144916888,-0.317150674636162
1750761301.5026731,-1.9266780558026326,-2.3500279503181116,-0.4694825329207468,1.579739958276344,-0.5305499563694829,-2.1004217484040657,-0.06504837421759327,0.4213235588143597,-0.3578694188875974,-0.009247754490522932,-0.26763058976665816,-0.2679048990606904,3.849652894742302,2.4153397160983796,0.2661087569192433,-0.003326911371109589,-0.02669689887306422,-0.3158412116163032
1750761301.5047853,-1.9268088170709916,-2.3491831119107847,-0.47019980230438563,1.57972143041527,-0.5310861612849758,-2.1009585029185116,-0.06571360466574612,0.4235151471426657,-0.3593995442056787,-0.009280079320358117,-0.26857353293745867,-0.26884882179879627,3.851096669168648,2.4181318950518604,0.2661816008308232,-0.003322041697505463,-0.026563007594330293,-0.3145299817393181
1750761301.5066679,-1.9269409130648114,-2.348333888531764,-0.47092012941723294,1.5797028380681843,-0.5316242473275556,-2.101497140514396,-0.06638310038365065,0.4257085321485903,-0.36092714905236556,-0.00931224046448331,-0.26951171560478604,-0.26978797925021375,3.852555572921182,2.4209350901676125,0.26625429018684516,-0.0033171632154609266,-0.026428902710029963,-0.3132170374685083
1750761301.5087876,-1.9270743523188116,-2.34748027657784,-0.4716435092241458,1.579684181562683,-0.5321642049687823,-2.102037651653708,-0.06705686552607444,0.4279037236911417,-0.36245223925823095,-0.009344237698967217,-0.2704451303667206,-0.27072236400641686,3.8540296857115317,2.4237492712177064,0.2663268197110645,-0.003312276087100222,-0.026294589311257208,-0.3119024311671957
1750761301.5107203,-1.927209143375876,-2.3466222724260537,-0.4723699367018268,1.5796654612268046,-0.5327060246655959,-2.102580026783799,-0.06773490410256003,0.4301007316640071,-0.36397482083911065,-0.009376070805856085,-0.2713737700018461,-0.27165196883944254,3.8555190868775755,2.426574408012877,0.2663991841452491,-0.0033073804746248108,-0.026160072482854048,-0.31058621509723044
1750761301.5176487,-1.9273452947867593,-2.3457598724336193,-0.4730994068391965,1.5796466773890172,-0.5332496968606693,-2.103124256337745,-0.06841721997861734,0.43229956599612607,-0.36549489999544776,-0.00940773957317222,-0.27229762746901737,-0.2725767867016583,3.8570238553764895,2.4294104704054393,0.26647137824961215,-0.0033024765402692,-0.026025357303111885,-0.3092684414149755
1750761301.5180638,-1.9273452947867593,-2.3457598724336193,-0.4730994068391965,1.5796466773890172,-0.5332496968606693,-2.103124256337745,-0.06841721997861734,0.43229956599612607,-0.36549489999544776,-0.00940773957317222,-0.27229762746901737,-0.2725767867016583,3.8570238553764895,2.4294104704054393,0.26647137824961215,-0.0033024765402692,-0.026025357303111885,-0.3092684414149755
1750761301.5186255,-1.927621712910673,-2.344021870256135,-0.4745674551119725,1.5796089205236656,-0.5343425604471479,-2.1042182403802894,-0.06979469837850999,0.43670275363358896,-0.36852757675535824,-0.009470583271059405,-0.2741309686347905,-0.27441203422330473,3.860079808282133,2.4351152516061316,0.26661523460240066,-0.0032926443552891422,-0.02575535216797611,-0.3066284292921311
1750761301.520787,-1.9277619967620225,-2.3431462606857596,-0.4753060232896109,1.5795899481550801,-0.534891732655832,-2.1047679756669027,-0.07048986792405178,0.43890712697826845,-0.3700401876768946,-0.009501757807551931,-0.2750404391501991,-0.2753224506868709,3.8616311486589505,2.437983910339658,0.26668688646487754,-0.0032877164293807844,-0.025620072333458265,-0.30530629460778674
1750761301.522754,-1.9279036752432699,-2.3422662405039376,-0.47604761421213126,1.5795709136025184,-0.5354427189980502,-2.10531952697412,-0.07118932881504375,0.4411133667620496,-0.3715503228084555,-0.009532767216310765,-0.2759451011307255,-0.2762280537873589,3.8631981683002965,2.440863374524898,0.26675834722597763,-0.0032827808310428967,-0.02548461438882436,-0.30398280981879633
1750761301.5247617,-1.928046756940292,-2.3413818059676843,-0.4767922229350381,1.5795518171964191,-0.5359955098505598,-2.1058728846690364,-0.07189308421507842,0.44332148309885716,-0.37305798926348493,-0.009563611315223862,-0.27684494843269297,-0.27712883737491145,3.8647809441867937,2.4437536142456513,0.2668296117408614,-0.0032778377227128423,-0.025348983374829166,-0.3026580265056186
1750761301.5266862,-1.9281912504451562,-2.340492953313747,-0.4775398445282413,1.5795326592675794,-0.5365500955780087,-2.106428039106623,-0.07260113715110983,0.44553148614139837,-0.37456319433596014,-0.009594289928144355,-0.2777399750910694,-0.27802479547838155,3.866379552884613,2.4466545996382054,0.2669006748844165,-0.00327288726678849,-0.025213184323950387,-0.3013319961271385
