mathias31415/primitives_from_planned_trajectory_python/data/saved_trajectories/trajectory_20250624_151338_planned.csv
time_from_start,shoulder_pan_joint_pos,shoulder_lift_joint_pos,elbow_joint_pos,wrist_1_joint_pos,wrist_2_joint_pos,wrist_3_joint_pos,shoulder_pan_joint_vel,shoulder_lift_joint_vel,elbow_joint_vel,wrist_1_joint_vel,wrist_2_joint_vel,wrist_3_joint_vel,shoulder_pan_joint_acc,shoulder_lift_joint_acc,elbow_joint_acc,wrist_1_joint_acc,wrist_2_joint_acc,wrist_3_joint_acc,fk_x,fk_y,fk_z,fk_qx,fk_qy,fk_qz,fk_qw
0.0,-2.0224840000000004,-1.7245999999999997,-2.4908779999999995,-0.5302379999999998,1.582503,-0.45276400000000017,-9.154087941822031e-05,-0.0001591712548831649,0.0005000000000000001,-0.00034128389198912406,-3.167932340136625e-06,-9.152671565536866e-05,-0.09154087941822031,-0.1591712548831649,0.5000000000000001,-0.34128389198912407,-0.0031679323401366246,-0.09152671565536866,-0.36594300954837555,-0.358449331120704,0.16327022939650304,-0.00044054749660349537,0.9998439462840056,0.012430133440775752,0.012545149651325497
0.1,-2.022941704397091,-1.7253958562744154,-2.4883779999999995,-0.5319444194599454,1.5824871603382993,-0.453221633578277,-0.009154087941822025,-0.015917125488316478,0.04999999999999997,-0.03412838919891238,-0.00031679323401366224,-0.009152671565536858,-0.09154087941820244,-0.1591712548831349,0.49999999999990286,-0.3412838919890565,-0.0031679323401359654,-0.09152671565535063,-0.36669298803476785,-0.3594839744735934,0.1636600985126539,-0.00044063742089359663,0.999843973591238,0.012428877891657473,0.012544214056738652
0.2,-2.024314817588365,-1.727783425097663,-2.4808779999999993,-0.5370636778397823,1.5824396413531974,-0.45459453431310753,-0.018308175883644254,-0.03183425097663331,0.10000000000000107,-0.06825677839782554,-0.0006335864680273316,-0.018305343131073924,-0.09154087941838632,-0.1591712548834541,0.5000000000009159,-0.34128389198975734,-0.0031679323401423622,-0.09152671565553624,-0.3689468152722705,-0.36257961807524525,0.16483614661124962,-0.00044090730170605417,0.9998440551288613,0.01242513198726958,0.012541416161052683
0.30000000000000004,-2.0266033395738203,-1.731762706469742,-2.4683779999999995,-0.5455957751395104,1.5823604430446938,-0.4568827022044918,-0.027462263825466484,-0.047751376464950146,0.15000000000000213,-0.10238516759673867,-0.000950379702041001,-0.027458014696610984,-0.09154087941856673,-0.15917125488376635,0.5000000000018874,-0.3412838919904096,-0.0031679323401486506,-0.09152671565571319,-0.37271600553808887,-0.3677112403569184,0.16681761703856982,-0.00044135746287015363,0.9998441897446543,0.012418957859198174,0.012536782806493889
0.4,-2.0298072703534578,-1.7373337003906528,-2.4508779999999994,-0.5575407113591296,1.582249565412789,-0.46008613725242964,-0.03661635176728871,-0.06366850195326697,0.20000000000000323,-0.1365135567956518,-0.0012671729360546702,-0.03661068626214804,-0.09154087941874714,-0.15917125488407166,0.5000000000028866,-0.34128389199106185,-0.0031679323401548306,-0.09152671565589013,-0.3780192095046746,-0.3748366027416642,0.1696363156890206,-0.00044198844409965384,0.9998443755182486,0.012410458734027146,0.01253035932245984
0.5,-2.033926609927278,-1.7444964068603954,-2.4283779999999995,-0.5728984864986403,1.5821070084574829,-0.46420483945692126,-0.04577043970910995,-0.07958562744158208,0.2499999999999989,-0.17064194599456126,-0.0015839661700683052,-0.04576335782768412,-0.09154087941793529,-0.15917125488267,0.4999999999984457,-0.34128389198806425,-0.0031679323401266413,-0.09152671565508522,-0.3848813944749505,-0.3838954622790527,0.1733361998670031,-0.0004428010009935921,0.9998446097611293,0.012399778438413358,0.012522210410573737
0.6000000000000001,-2.03896135829528,-1.7532508258789694,-2.4008779999999996,-0.5916691005580421,1.5819327721787753,-0.46923880881796654,-0.05492452765093119,-0.09550275292989721,0.2999999999999946,-0.20477033519347074,-0.0019007594040819406,-0.0549160293932202,-0.09154087941713038,-0.15917125488128223,0.4999999999940603,-0.34128389198506665,-0.0031679323400988857,-0.0915267156542803,-0.39333267718865766,-0.3948085029869274,0.17797277968700795,-0.00044379610503688706,0.999844889016637,0.012387100694545357,0.012512421376739895
0.7000000000000001,-2.0446763263287204,-1.763188010656755,-2.3696626125700275,-0.6129757183821407,1.5817349957080769,-0.474952892596717,-0.0575168308566896,-0.10001024900073012,0.314159265358999,-0.21443499357232634,-0.001990470593368673,-0.05750793150202521,-3.598422402564356e-12,-6.267772354370285e-12,1.9690789254880098e-11,-1.3423016900509814e-11,-1.243674409364126e-13,-3.598422402564356e-12,-0.40300689339968776,-0.40698010400599954,0.18338614609780807,-0.0004449282904749785,0.9998451966151116,0.01237320858949759,0.012501542053119605
0.8,-2.050428009414389,-1.7731890355568276,-2.338246686034128,-0.6344192177393727,1.58153594864874,-0.48070368574691935,-0.0575168308566896,-0.10001024900073012,0.314159265358999,-0.21443499357232634,-0.001990470593368673,-0.05750793150202521,-3.598422402564356e-12,-6.267772354370285e-12,1.9690789254880098e-11,-1.3423016900509814e-11,-1.243674409364126e-13,-3.598422402564356e-12,-0.4128250287737096,-0.41899349104958844,0.18899293364347358,-0.00044607058135711107,0.9998454961135754,0.012359759147529618,0.012490847699397125
0.9,-2.056179692500058,-1.7831900604569006,-2.3068307594982294,-0.6558627170966046,1.581336901589403,-0.4864544788971217,-0.0575168308566896,-0.10001024900073012,0.314159265358999,-0.21443499357232634,-0.001990470593368673,-0.05750793150202521,-3.598422402564356e-12,-6.267772354370285e-12,1.9690789254880098e-11,-1.3423016900509814e-11,-1.243674409364126e-13,-3.598422402564356e-12,-0.4227195529739357,-0.430764948494725,0.19475587539188247,-0.0004472157131736805,0.9998457855036457,0.012346839907675806,0.012480414776668388
1.0,-2.0619313755857265,-1.7931910853569732,-2.2754148329623307,-0.6773062164538366,1.5811378545300663,-0.492205272047324,-0.05751683085667685,-0.10001024900070794,0.31415926535892935,-0.2144349935722788,-0.0019904705933682315,-0.05750793150201246,9.138190224622919e-12,1.589129893386626e-11,-4.9920310787014427e-11,3.408447886513374e-11,3.1676863876135026e-13,9.145123601121115e-12,-0.4326847421405406,-0.44228985340387833,0.20067187452965685,-0.0004483636859234013,0.9998460647853279,0.012334447402068328,0.01247024901856091
1.1,-2.067683058671395,-1.8031921102570447,-2.243998906426435,-0.6987497158110662,1.5809388074707293,-0.4979560651975257,-0.05751683085667685,-0.10001024900070794,0.31415926535892935,-0.2144349935722788,-0.0019904705933682315,-0.05750793150201246,9.138190224622919e-12,1.589129893386626e-11,-4.9920310787014427e-11,3.408447886513374e-11,3.1676863876135026e-13,9.145123601121115e-12,-0.4427148058126765,-0.45356373656701066,0.20673774257686617,-0.00044951449960398116,0.999846333958627,0.012322578114487443,0.012460356127364108
1.2,-2.073434741757063,-1.8131931351571164,-2.2125829798905396,-0.7201932151682958,1.5807397604113926,-0.5037068583477274,-0.05751683085667687,-0.10001024900070771,0.31415926535892946,-0.21443499357227888,-0.0019904705933682324,-0.05750793150201248,9.124323471626527e-12,1.5877432180869867e-11,-4.9809376763043285e-11,3.4001278347155386e-11,3.1590196669907567e-13,9.124323471626527e-12,-0.4528038908907161,-0.46458228483035646,0.21295020089660027,-0.0004506681542140625,0.9998465930235492,0.012311228480607794,0.012450741773664011
1.3,-2.079186424842731,-1.823194160057188,-2.181167053354644,-0.7416367145255254,1.5805407133520557,-0.5094576514979291,-0.05751683085667687,-0.10001024900070771,0.31415926535892946,-0.21443499357227888,-0.0019904705933682324,-0.05750793150201248,9.124323471626527e-12,1.5877432180869867e-11,-4.9809376763043285e-11,3.4001278347155386e-11,3.1590196669907567e-13,9.124323471626527e-12,-0.462946085646344,-0.47534134331736894,0.2193058822480317,-0.00045182464975153044,0.9998468419800998,0.012300394888246156,0.012441411595977288
1.4,-2.084938107928399,-1.8331951849572594,-2.1497511268187486,-0.7630802138827549,1.5803416662927188,-0.5152084446481309,-0.05751683085667687,-0.10001024900070771,0.31415926535892946,-0.21443499357227888,-0.0019904705933682324,-0.05750793150201248,9.124323471626527e-12,1.5877432180869867e-11,-4.9809376763043285e-11,3.4001278347155386e-11,3.1590196669907567e-13,9.124323471626527e-12,-0.4731354237776176,-0.4858369175404495,0.2258013323822447,-0.0004529839862145812,0.9998470808282848,0.012290073677614123,0.01243237120039001
1.5,-2.0906897910140674,-1.843196209857331,-2.1183352002828535,-0.7845237132399845,1.5801426192333818,-0.5209592377983325,-0.05751683085667687,-0.10001024900070771,0.31415926535892946,-0.21443499357227888,-0.0019904705933682324,-0.05750793150201248,9.124323471626527e-12,1.5877432180869867e-11,-4.9809376763043285e-11,3.4001278347155386e-11,3.1590196669907567e-13,9.124323471626527e-12,-0.4833658885060777,-0.4960651754021306,0.2324330116801011,-0.000454146163600431,0.9998473095681103,0.012280261141572185,0.012423626160196455
1.6,-2.0964414740997355,-1.8531972347574026,-2.086919273746958,-0.8059672125972142,1.5799435721740451,-0.5267100309485343,-0.05751683085667687,-0.10001024900070771,0.31415926535892946,-0.21443499357227888,-0.0019904705933682324,-0.05750793150201248,9.124323471626527e-12,1.5877432180869867e-11,-4.9809376763043285e-11,3.4001278347155386e-11,3.1590196669907567e-13,9.124323471626527e-12,-0.49363141671295857,-0.5060224490844797,0.23919729683138385,-0.0004553111819078291,0.9998475281995821,0.012270953525884998,0.012415182015539785
1.7000000000000002,-2.1021931571854036,-1.863198259657474,-2.0555033472110624,-0.8274107119544438,1.5797445251147084,-0.532460824098736,-0.05751683085667687,-0.10001024900070771,0.31415926535892946,-0.21443499357227888,-0.0019904705933682324,-0.05750793150201248,9.124323471626527e-12,1.5877432180869867e-11,-4.9809376763043285e-11,3.4001278347155386e-11,3.1590196669907567e-13,9.124323471626527e-12,-0.5039259031115213,-0.5157052368255509,0.24609048255443927,-0.00045647904113434986,0.9998477367227065,0.012262147029482575,0.012407044273055567
1.8,-2.1079448402710717,-1.8731992845575456,-2.024087420675167,-0.8488542113116734,1.5795454780553715,-0.5382116172489376,-0.05751683085667687,-0.10001024900070771,0.31415926535892946,-0.21443499357227888,-0.0019904705933682324,-0.05750793150201248,9.124323471626527e-12,1.5877432180869867e-11,-4.9809376763043285e-11,3.4001278347155386e-11,3.1590196669907567e-13,9.124323471626527e-12,-0.5142432044525039,-0.5251102045818175,0.25310878335552867,-0.0004576497412775878,0.9998479351374898,0.012253837804720915,0.012399218405516325
1.9,-2.1136965233567397,-1.8832003094576173,-1.9926714941392714,-0.8702977106689029,1.5793464309960348,-0.5439624103991393,-0.05751683085667687,-0.10001024900070771,0.31415926535892946,-0.21443499357227888,-0.0019904705933682324,-0.05750793150201248,9.124323471626527e-12,1.5877432180869867e-11,-4.9809376763043285e-11,3.4001278347155386e-11,3.1590196669907567e-13,9.124323471626527e-12,-0.5245771437596557,-0.534234187575582,0.2602483353270747,-0.00045882328233548986,0.9998481234439384,0.012246021957647062,0.012391709851479048
2.0,-2.119448206442408,-1.8932013343576888,-1.961255567603376,-0.8917412100261325,1.5791473839366978,-0.5497132035493411,-0.0575168308566769,-0.10001024900070776,0.31415926535892985,-0.21443499357227871,-0.0019904705933685013,-0.057507931502012374,9.034189577149973e-12,1.5711031144913152e-11,-4.942110767914429e-11,3.369620978123474e-11,3.1286861448111475e-13,9.034189577149973e-12,-0.5349215145923091,-0.5430741917264503,0.26750519798396966,-0.0004599996643056756,0.9998483016420587,0.012238695548265201,0.012384524014932638
2.1,-2.1251998895280773,-1.9032023592577625,-1.9298396410674736,-0.9131847093833667,1.578948336877361,-0.555463996699544,-0.05751683085670242,-0.10001024900075214,0.3141592653590693,-0.21443499357237386,-0.0019904705933693847,-0.057507931502037896,-1.646676918322022e-11,-2.8634844937557684e-11,8.99120264286315e-11,-6.137424876204858e-11,-5.698368809456471e-13,-1.646676918322022e-11,-0.5452700853319098,-0.5516273949660412,0.2748753561371017,-0.00046117888718579837,0.9998484697318574,0.012231854590806512,0.012377666264949745
2.2,-2.1309515726137467,-1.9132033841578364,-1.8984237145315714,-0.934628208740601,1.578749289818024,-0.5612147898497469,-0.05751683085670242,-0.10001024900075214,0.3141592653590693,-0.21443499357237386,-0.0019904705933693847,-0.057507931502037896,-1.646676918322022e-11,-2.8634844937557684e-11,8.99120264286315e-11,-6.137424876204858e-11,-5.698368809456471e-13,-1.646676918322022e-11,-0.5556166034894097,-0.559891148435173,0.28235472180322224,-0.0004623609509732112,0.9998486277133409,0.012225495054001306,0.012371141935338845
2.3,-2.1367032556994165,-1.9232044090579101,-1.867007787995669,-0.9560717080978354,1.5785502427586873,-0.5669655829999499,-0.05751683085670242,-0.10001024900075214,0.3141592653590693,-0.21443499357237386,-0.0019904705933693847,-0.057507931502037896,-1.646676918322022e-11,-2.8634844937557684e-11,8.99120264286315e-11,-6.137424876204858e-11,-5.698368809456471e-13,-1.646676918322022e-11,-0.5659548000304333,-0.5678629775628871,0.28993913615029276,-0.00046354585566548134,0.9998487755865166,0.012219612861352197,0.01236495632429859
2.4,-2.142454938785086,-1.9332054339579838,-1.8355918614597666,-0.9775152074550697,1.5783511956993501,-0.5727163761501529,-0.05751683085670242,-0.10001024900075214,0.3141592653590693,-0.21443499357237386,-0.0019904705933693847,-0.057507931502037896,-1.646676918322022e-11,-2.8634844937557684e-11,8.99120264286315e-11,-6.137424876204858e-11,-5.698368809456471e-13,-1.646676918322022e-11,-0.5762783937150747,-0.5755405830267065,0.29762437147738824,-0.00046473360126040415,0.999848913351391,0.012214203891412721,0.012359114694074719
2.5,-2.148206621870755,-1.9432064588580578,-1.8041759349238642,-0.998958706812304,1.5781521486400134,-0.5784671693003558,-0.05751683085670242,-0.10001024900075214,0.3141592653590693,-0.21443499357237386,-0.0019904705933693847,-0.057507931502037896,-1.646676918322022e-11,-2.8634844937557684e-11,8.99120264286315e-11,-6.137424876204858e-11,-5.698368809456471e-13,-1.646676918322022e-11,-0.5865810954492068,-0.5829218415936507,0.30540613322825694,-0.00046592418775514167,0.9998490410079715,0.012209263978064964,0.012353622270619096
2.6,-2.1539583049564244,-1.9532074837581317,-1.7727600083879618,-1.0204022061695381,1.5779531015806765,-0.5842179624505588,-0.05751683085670242,-0.10001024900075214,0.3141592653590693,-0.21443499357237386,-0.0019904705933693847,-0.057507931502037896,-1.646676918322022e-11,-2.8634844937557684e-11,8.99120264286315e-11,-6.137424876204858e-11,-5.698368809456471e-13,-1.646676918322022e-11,-0.596856612644156,-0.5900048068415921,0.3132800620376015,-0.00046711761514688945,0.9998491585562648,0.012204788910802249,0.012348484243249086
2.7,-2.159709988042094,-1.9632085086582054,-1.7413440818520591,-1.0418457055267725,1.5777540545213393,-0.5899687556007618,-0.05751683085670242,-0.10001024900075214,0.3141592653590693,-0.21443499357237386,-0.0019904705933693847,-0.057507931502037896,-1.646676918322022e-11,-2.8634844937557684e-11,8.99120264286315e-11,-6.137424876204858e-11,-5.698368809456471e-13,-1.646676918322022e-11,-0.6070986535815945,-0.596787709760641,0.3212417358091347,-0.00046831388343305727,0.9998492659962783,0.012200774435012789,0.012343705764311258
2.8,-2.165461671127763,-1.973209533558279,-1.7099281553161567,-1.063289204884007,1.5775550074620024,-0.5957195487509648,-0.05751683085670242,-0.10001024900075214,0.3141592653590693,-0.21443499357237386,-0.0019904705933693847,-0.057507931502037896,-1.646676918322022e-11,-2.8634844937557684e-11,8.99120264286315e-11,-6.137424876204858e-11,-5.698368809456471e-13,-1.646676918322022e-11,-0.6173009317805002,-0.603268959234314,0.3292866718244478,-0.00046951299261064374,0.9998493633280197,0.01219721625226652,0.012339291948846129
2.9,-2.1712133542134326,-1.983210558458353,-1.6785122287802543,-1.0847327042412414,1.5773559604026657,-0.6014703419011678,-0.05751683085670233,-0.10001024900075225,0.3141592653590686,-0.2144349935723741,-0.0019904705933691137,-0.05750793150203807,-1.632116827675806e-11,-2.838524338362256e-11,8.91909552728189e-11,-6.087504565417832e-11,-5.650701846031359e-13,-1.632116827675806e-11,-0.6274571703630267,-0.6094471424003434,0.33741032888172173,-0.0004707149426770979,0.9998494505514961,0.012194110020603713,0.012335247874254173
3.0,-2.176965037299102,-1.9932115833584265,-1.647096302244352,-1.1061762035984755,1.5771569133433287,-0.6072211350513708,-0.05751683085670233,-0.10001024900075225,0.3141592653590686,-0.2144349935723741,-0.0019904705933691137,-0.05750793150203807,-1.632116827675806e-11,-2.838524338362256e-11,8.91909552728189e-11,-6.087504565417832e-11,-5.650701846031359e-13,-1.632116827675806e-11,-0.6375611064161314,-0.6153210248910577,0.3456081094632856,-0.0004719197336294157,0.9998495276667154,0.012191451354826544,0.012331578579964975
3.1,-2.1827167203847715,-2.0032126082585004,-1.6156803757084497,-1.12761970295571,1.5769578662839918,-0.6129719282015738,-0.05751683085670233,-0.10001024900075225,0.3141592653590686,-0.2144349935723741,-0.0019904705933691137,-0.05750793150203807,-1.632116827675806e-11,-2.838524338362256e-11,8.91909552728189e-11,-6.087504565417832e-11,-5.650701846031359e-13,-1.632116827675806e-11,-0.6476064953458066,-0.6208895509533664,0.3538753619310222,-0.0004731273654645993,0.9998495946736853,0.012189235826793064,0.012328289067109035
3.2,-2.188468403470441,-2.0132136331585744,-1.5842644491725473,-1.1490632023129443,1.5767588192246549,-0.6187227213517767,-0.05751683085670233,-0.10001024900075225,0.3141592653590686,-0.2144349935723741,-0.0019904705933691137,-0.05750793150203807,-1.632116827675806e-11,-2.838524338362256e-11,8.91909552728189e-11,-6.087504565417832e-11,-5.650701846031359e-13,-1.632116827675806e-11,-0.65758711522077,-0.6261518434484428,0.3622073827486091,-0.0004743378381795731,0.9998496515724133,0.01218745896571226,0.012325384298189605
3.3,-2.1942200865561103,-2.023214658058648,-1.5528485226366449,-1.1705067016701787,1.5765597721653182,-0.6244735145019797,-0.05751683085670233,-0.10001024900075225,0.3141592653590686,-0.2144349935723741,-0.0019904705933691137,-0.05750793150203807,-1.632116827675806e-11,-2.838524338362256e-11,8.91909552728189e-11,-6.087504565417832e-11,-5.650701846031359e-13,-1.632116827675806e-11,-0.6674967711024716,-0.6311072037313151,0.37059941872956037,-0.00047555115177148926,0.9998496983629076,0.012186116258443137,0.012322869196758823
3.4,-2.1999717696417798,-2.033215682958722,-1.5214325961007424,-1.1919502010274132,1.5763607251059812,-0.6302243076521827,-0.05751683085670233,-0.10001024900075225,0.3141592653590686,-0.2144349935723741,-0.0019904705933691137,-0.05750793150203807,-1.632116827675806e-11,-2.838524338362256e-11,8.91909552728189e-11,-6.087504565417832e-11,-5.650701846031359e-13,-1.632116827675806e-11,-0.6773292993582883,-0.6357551114106333,0.3790466693100321,-0.00047676730623693654,0.9998497350451762,0.012185203149796197,0.012320748647095111
3.5,-2.205723452727449,-2.0432167078587957,-1.49001666956484,-1.2133937003846473,1.5761616780466443,-0.6359751008023857,-0.05751683085670233,-0.10001024900075225,0.3141592653590686,-0.2144349935723741,-0.0019904705933691137,-0.05750793150203807,-1.632116827675806e-11,-2.838524338362256e-11,8.91909552728189e-11,-6.087504565417832e-11,-5.650701846031359e-13,-1.632116827675806e-11,-0.687078571954787,-0.6400952239889875,0.38754428884534486,-0.0004779863015729257,0.9998497616192271,0.012184715042834283,0.012319027493882102
3.6,-2.2114751358131186,-2.0532177327588697,-1.4586007430289376,-1.2348371997418817,1.5759626309873076,-0.6417258939525887,-0.05751683085670233,-0.10001024900075225,0.3141592653590686,-0.2144349935723741,-0.0019904705933691137,-0.05750793150203807,-1.632116827675806e-11,-2.838524338362256e-11,8.91909552728189e-11,-6.087504565417832e-11,-5.650701846031359e-13,-1.632116827675806e-11,-0.6967385007279489,-0.644127376384222,0.39608738892915113,-0.00047920813777611225,0.9998497780850689,0.012184647299180033,0.012317710541891309
3.7,-2.2172268188987885,-2.063218757658943,-1.4271848164930352,-1.2562806990991162,1.5757635839279707,-0.6474766871027916,-0.05751683085670292,-0.10001024900075235,0.3141592653590688,-0.21443499357237375,-0.0019904705933691154,-0.05750793150203786,-1.6369701912245446e-11,-2.8468443901600933e-11,8.941282332076124e-11,-6.104144669013507e-11,-5.663701926965481e-13,-1.6369701912245446e-11,-0.7063030416272695,-0.6478515803322833,0.40467104073418186,-0.0004804328148429358,0.9998497844427097,0.012184995239322248,0.012316802555665253
3.8,-2.222978501984458,-2.073219782559017,-1.3957688899571328,-1.2777241984563505,1.5755645368686337,-0.6532274802529946,-0.05751683085670292,-0.10001024900075235,0.3141592653590688,-0.21443499357237375,-0.0019904705933691154,-0.05750793150203786,-1.6369701912245446e-11,-2.8468443901600933e-11,8.941282332076124e-11,-6.104144669013507e-11,-5.663701926965481e-13,-1.6369701912245446e-11,-0.7157661989306648,-0.6512680236722264,0.41329027737348445,-0.00048166033277063203,0.9998497806921579,0.012185754142926247,0.012316308259204456
3.9,-2.2287301850701273,-2.083220807459091,-1.3643529634212304,-1.2991676978135849,1.5753654898092968,-0.6589782734031976,-0.05751683085670292,-0.10001024900075235,0.3141592653590688,-0.21443499357237375,-0.0019904705933691154,-0.05750793150203786,-1.6369701912245446e-11,-2.8468443901600933e-11,8.941282332076124e-11,-6.104144669013507e-11,-5.663701926965481e-13,-1.6369701912245446e-11,-0.7251220294271289,-0.6543770695140724,0.4219400962810647,-0.00048289069155548506,0.9998497668334223,0.012186919249145537,0.012316232335655309
4.0,-2.2344818681557967,-2.0932218323591645,-1.3329370368853282,-1.320611197170819,1.5751664427499599,-0.6647290665534005,-0.05751683085665188,-0.10001024900066359,0.31415926535879,-0.21443499357218343,-0.001990470593367349,-0.05750793150198682,3.463221560848358e-11,6.022330826332099e-11,-1.8914251087075715e-10,1.29127203902382e-10,1.1986074621254451e-12,3.463221560848358e-11,-0.7343646465641226,-0.657179255290319,0.4306154616108229,-0.00048412389119395103,0.9998497428665115,0.012188485756936273,0.012316579427000885
4.1,-2.2402335512414635,-2.103222857259234,-1.3015211103494395,-1.342054696528044,1.5749673956906232,-0.670479859703601,-0.05751683085665188,-0.10001024900066359,0.31415926535879,-0.21443499357218343,-0.001990470593367349,-0.05750793150198682,3.463221560848358e-11,6.022330826332099e-11,-1.8914251087075715e-10,1.29127203902382e-10,1.1986074621254451e-12,3.463221560848358e-11,-0.7434882245566858,-0.6596752916919604,0.4393113066526765,-0.0004853599316825752,0.9998497087914344,0.012190448825374263,0.012317354133754354
4.2,-2.2459852343271303,-2.1132238821593035,-1.270105183813551,-1.3634981958852688,1.5747683486312865,-0.6762306528538014,-0.05751683085665188,-0.10001024900066359,0.31415926535879,-0.21443499357218343,-0.001990470593367349,-0.05750793150198682,3.463221560848358e-11,6.022330826332099e-11,-1.8914251087075715e-10,1.29127203902382e-10,1.1986074621254451e-12,3.463221560848358e-11,-0.7524870024553175,-0.6618660614899814,0.44802253626476574,-0.0004865988130177554,0.9998496646082,0.01219280357397291,0.012318561014653503
4.3,-2.2517369174127975,-2.123224907059373,-1.2386892572776627,-1.3849416952424933,1.5745693015719495,-0.6819814460040017,-0.05751683085665188,-0.10001024900066359,0.31415926535879,-0.21443499357218343,-0.001990470593367349,-0.05750793150198682,3.463221560848358e-11,6.022330826332099e-11,-1.8914251087075715e-10,1.29127203902382e-10,1.1986074621254451e-12,3.463221560848358e-11,-0.7613552881696465,-0.6637526182433445,0.456744029320581,-0.00048784053519556285,0.9998496103168171,0.0121955450830046,0.012320204586358581
4.4,-2.2574886004984642,-2.1332259319594424,-1.2072733307417742,-1.4063851945997183,1.5743702545126128,-0.6877322391542022,-0.05751683085665188,-0.10001024900066359,0.31415926535879,-0.21443499357218343,-0.001990470593367349,-0.05750793150198682,3.463221560848358e-11,6.022330826332099e-11,-1.8914251087075715e-10,1.29127203902382e-10,1.1986074621254451e-12,3.463221560848358e-11,-0.7700874624450078,-0.6653361848945973,0.4654706411699134,-0.0004890850982129066,0.9998495459172949,0.012198668393823787,0.012322289323152755
4.5,-2.263240283584131,-2.1432269568595115,-1.1758574042058858,-1.4278286939569431,1.5741712074532759,-0.6934830323044027,-0.05751683085665136,-0.10001024900066309,0.3141592653587904,-0.2144349935721838,-0.0019904705933676175,-0.05750793150198697,3.4555948467003435e-11,6.008464073335709e-11,-1.8875424178685823e-10,1.2884986884245422e-10,1.196007445938622e-12,3.4549015090505236e-11,-0.778677982789044,-0.6666181522542819,0.4741972061124718,-0.0004903325020655905,0.9998494714096428,0.01220216850919173,0.012324819656642859
4.6,-2.268991966669798,-2.153227981759581,-1.1444414776699972,-1.449272193314168,1.5739721603939392,-0.6992338254546031,-0.05751683085665136,-0.10001024900066309,0.3141592653587904,-0.2144349935721838,-0.0019904705933676175,-0.05750793150198697,3.4555948467003435e-11,6.008464073335709e-11,-1.8875424178685823e-10,1.2884986884245422e-10,1.196007445938622e-12,3.4549015090505236e-11,-0.7871213873454775,-0.6676000773754289,0.48291853988302336,-0.0004915827467496057,0.9998493867938699,0.012206040393604713,0.012327799975465762
4.7,-2.274743649755465,-2.1632290066596505,-1.1130255511341087,-1.470715692671393,1.5737731133346022,-0.7049846186048035,-0.05751683085665136,-0.10001024900066309,0.3141592653587904,-0.2144349935721838,-0.0019904705933676175,-0.05750793150198697,3.4555948467003435e-11,6.008464073335709e-11,-1.8875424178685823e-10,1.2884986884245422e-10,1.196007445938622e-12,3.4549015090505236e-11,-0.7954122987122554,-0.6682836818194764,0.4916294421469084,-0.0004928358322616143,0.999849292069986,0.01221027897362306,0.012331234624993758
4.8,-2.2804953328411317,-2.1732300315597195,-1.08160962459822,-1.4921591920286177,1.5735740662752655,-0.710735411755004,-0.05751683085665136,-0.10001024900066309,0.3141592653587904,-0.2144349935721838,-0.0019904705933676175,-0.05750793150198697,3.4555948467003435e-11,6.008464073335709e-11,-1.8875424178685823e-10,1.2884986884245422e-10,1.196007445938622e-12,3.4549015090505236e-11,-0.8035454277013072,-0.6686708498150437,0.5003246990047714,-0.0004940917585974099,0.9998491872380004,0.012214879138201936,0.012335127907044162
4.9,-2.286247015926799,-2.183231056459789,-1.0501936980623316,-1.5136026913858425,1.5733750192159288,-0.7164862049052043,-0.05751683085665136,-0.10001024900066309,0.3141592653587904,-0.2144349935721838,-0.0019904705933676175,-0.05750793150198697,3.4555948467003435e-11,6.008464073335709e-11,-1.8875424178685823e-10,1.2884986884245422e-10,1.196007445938622e-12,3.4549015090505236e-11,-0.811515577037186,-0.6687636263110618,0.5089990855053442,-0.0004953505257527227,0.999849072297923,0.01221983573902701,0.012339484079591899
5.0,-2.2919986990124657,-2.193232081359858,-1.0187777715264432,-1.5350461907430673,1.5731759721565917,-0.7222369980554048,-0.05751683085665136,-0.10001024900066309,0.3141592653587904,-0.2144349935721838,-0.0019904705933676175,-0.05750793150198697,3.4555948467003435e-11,6.008464073335709e-11,-1.8875424178685823e-10,1.2884986884245422e-10,1.196007445938622e-12,3.4549015090505236e-11,-0.8193176449919202,-0.6685642149258367,0.5176473681651284,-0.0004966121337240235,0.9998489472497635,0.012225143590848147,0.012344307356481786
5.1,-2.2977503820981324,-2.2032331062599275,-0.9873618449905546,-1.5564896901002923,1.572976925097255,-0.7279877912056052,-0.05751683085665136,-0.10001024900066309,0.3141592653587904,-0.2144349935721838,-0.0019904705933676175,-0.05750793150198697,3.4555948467003435e-11,6.008464073335709e-11,-1.8875424178685823e-10,1.2884986884245422e-10,1.196007445938622e-12,3.4549015090505236e-11,-0.8269466289534424,-0.6680749757936928,0.5262643074937919,-0.0004978765825069566,0.9998488120935319,0.012230797471818365,0.01234960190714721
5.2,-2.303502065183799,-2.213234131159997,-0.9559459184546661,-1.577933189457517,1.572777878037918,-0.7337385843558056,-0.05751683085665136,-0.10001024900066309,0.3141592653587904,-0.2144349935721838,-0.0019904705933676175,-0.05750793150198697,3.4555948467003435e-11,6.008464073335709e-11,-1.8875424178685823e-10,1.2884986884245422e-10,1.196007445938622e-12,3.4549015090505236e-11,-0.8343976289250132,-0.6672984233109182,0.5348446605241269,-0.0004991438720974075,0.9998486668292382,0.01223679212383327,0.01235537185632661
5.3,-2.3092537482694664,-2.2232351560600665,-0.9245299919187774,-1.5993766888147423,1.5725788309785815,-0.7394893775060062,-0.05751683085668986,-0.10001024900073056,0.3141592653590004,-0.21443499357232731,-0.001990470593368682,-0.05750793150202547,-3.8618907094979925e-12,-6.711508450258629e-12,2.1077464554531232e-11,-1.4393689610265407e-11,-1.3346749759037048e-13,-3.854957332999791e-12,-0.8416658509531058,-0.6662372237828075,0.543383183345383,-0.0005004140024909068,0.9998485114568924,0.012243122252873013,0.01236162128378692
5.4,-2.315005431355135,-2.2332361809601387,-0.8931140653828785,-1.620820188171974,1.5723797839192444,-0.7452401706562084,-0.05751683085668986,-0.10001024900073056,0.3141592653590004,-0.21443499357232731,-0.001990470593368682,-0.05750793150202547,-3.8618907094979925e-12,-6.711508450258629e-12,2.1077464554531232e-11,-1.4393689610265407e-11,-1.3346749759037048e-13,-3.854957332999791e-12,-0.84874661048127,-0.6648941929736567,0.5518746336388096,-0.0005016869736834064,0.999848345976505,0.012249782529346033,0.012368354224045131
5.5,-2.320757114440804,-2.2432372058602117,-0.8616981388469794,-1.642263687529206,1.5721807368599077,-0.7509909638064108,-0.05751683085668986,-0.10001024900073056,0.3141592653590004,-0.21443499357232731,-0.001990470593368682,-0.05750793150202547,-3.8618907094979925e-12,-6.711508450258629e-12,2.1077464554531232e-11,-1.4393689610265407e-11,-1.3346749759037048e-13,-3.854957332999791e-12,-0.8556353356275418,-0.663272293561644,0.5603137732142145,-0.0005029627856705043,0.999848170388086,0.012256767588435599,0.01237557466609779
5.6,-2.326508797526473,-2.2532382307602843,-0.8302822123110802,-1.6637071868864381,1.571981689800571,-0.7567417569566133,-0.05751683085668986,-0.10001024900073056,0.3141592653590004,-0.21443499357232731,-0.001990470593368682,-0.05750793150202547,-3.8618907094979925e-12,-6.711508450258629e-12,2.1077464554531232e-11,-1.4393689610265407e-11,-1.3346749759037048e-13,-3.854957332999791e-12,-0.8623275703830405,-0.6613746325005907,0.5686953705463993,-0.0005042414384477889,0.9998479846916463,0.012264072030446238,0.012383286553146026
5.7,-2.3322604806121414,-2.2632392556603573,-0.7988662857751815,-1.68515068624367,1.5717826427412338,-0.7624925501068156,-0.05751683085668986,-0.10001024900073056,0.3141592653590004,-0.21443499357232731,-0.001990470593368682,-0.05750793150202547,-3.8618907094979925e-12,-6.711508450258629e-12,2.1077464554531232e-11,-1.4393689610265407e-11,-1.3346749759037048e-13,-3.854957332999791e-12,-0.8688189777294243,-0.6592044582906621,0.5770142033102512,-0.000505522932011119,0.999847788887196,0.012271690421155421,0.012391493782329508
5.8,-2.33801216369781,-2.27324028056043,-0.7674503592392823,-1.7065941856009021,1.571583595681897,-0.7682433432570179,-0.05751683085668986,-0.10001024900073056,0.3141592653590004,-0.21443499357232731,-0.001990470593368682,-0.05750793150202547,-3.8618907094979925e-12,-6.711508450258629e-12,2.1077464554531232e-11,-1.4393689610265407e-11,-1.3346749759037048e-13,-3.854957332999791e-12,-0.8751053426729507,-0.6567651581601306,0.5852650609133456,-0.0005068072663555255,0.9998475829747463,0.012279617292162497,0.012400200204458705
5.9,-2.343763846783479,-2.2832413054605025,-0.7360344327033835,-1.728037684958134,1.5713845486225604,-0.7739941364072203,-0.05751683085668986,-0.10001024900073056,0.3141592653590004,-0.21443499357232731,-0.001990470593368682,-0.05750793150202547,-3.8618907094979925e-12,-6.711508450258629e-12,2.1077464554531232e-11,-1.4393689610265407e-11,-1.3346749759037048e-13,-3.854957332999791e-12,-0.8811825751929507,-0.6540602551603916,0.5934427470248669,-0.0005080944414765311,0.9998473669543076,0.012287847141245612,0.012409409623752197
6.0,-2.3495155298691475,-2.2932423303605756,-0.7046185061674843,-1.7494811843153661,1.5711855015632235,-0.7797449295574226,-0.05751683085668986,-0.10001024900073056,0.3141592653590004,-0.21443499357232731,-0.001990470593368682,-0.05750793150202547,-3.8618907094979925e-12,-6.711508450258629e-12,2.1077464554531232e-11,-1.4393689610265407e-11,-1.3346749759037048e-13,-3.854957332999791e-12,-0.8870467131025745,-0.6510934051764743,0.6015420820996866,-0.0005093844573696224,0.999847140825891,0.012296374432714944,0.012419125797574471
6.1,-2.3552672129548164,-2.303243355260648,-0.6732025796315854,-1.7709246836725983,1.5709864545038865,-0.785495722707625,-0.05751683085668986,-0.10001024900073056,0.3141592653590004,-0.21443499357232731,-0.001990470593368682,-0.05750793150202547,-3.8618907094979925e-12,-6.711508450258629e-12,2.1077464554531232e-11,-1.4393689610265407e-11,-1.3346749759037048e-13,-3.854957332999791e-12,-0.89269392481975,-0.6478683938553472,0.6095579058964199,-0.0005106773140302086,0.9998469045895074,0.012305193597770608,0.012429352436178084
6.2,-2.3610188960404854,-2.3132443801607208,-0.6417866530956866,-1.7923681830298301,1.5707874074445498,-0.7912465158578273,-0.05751683085668988,-0.1000102490007306,0.31415926535900035,-0.21443499357232743,-0.001990470593368683,-0.057507931502025496,-3.8410905800033894e-12,-6.683774944265825e-12,2.1021997542545623e-11,-1.43382225982798e-11,-1.330341615592329e-13,-3.8410905800033894e-12,-0.8981205120463358,-0.6443891334543905,0.6174850799882882,-0.0005119730114532323,0.999846658245168,0.012314299034862294,0.012440093202447286
6.3,-2.366770579126154,-2.3232454050607934,-0.6103707265597875,-1.813811682387062,1.5705883603852127,-0.7969973090080297,-0.05751683085668988,-0.1000102490007306,0.31415926535900035,-0.21443499357232743,-0.001990470593368683,-0.057507931502025496,-3.8410905800033894e-12,-6.683774944265825e-12,2.1021997542545623e-11,-1.43382225982798e-11,-1.330341615592329e-13,-3.8410905800033894e-12,-0.9033229123535415,-0.6406596596124421,0.6253184902656354,-0.0005132715496342247,0.9998464017928842,0.01232368511005032,0.01245135171164416
6.4,-2.372522262211823,-2.333246429960866,-0.5789548000238887,-1.8352551817442941,1.570389313325876,-0.802748102158232,-0.05751683085668988,-0.1000102490007306,0.31415926535900035,-0.21443499357232743,-0.001990470593368683,-0.057507931502025496,-3.8410905800033894e-12,-6.683774944265825e-12,2.1021997542545623e-11,-1.43382225982798e-11,-1.330341615592329e-13,-3.8410905800033894e-12,-0.908297701671738,-0.636684128045886,0.6330530494289192,-0.0005145729285680289,0.9998461352326671,0.012333346157368308,0.012463131531159105
6.5,-2.3782739452974915,-2.343247454860939,-0.5475388734879899,-1.856698681101526,1.5701902662665392,-0.8084988953084343,-0.05751683085668988,-0.1000102490007306,0.31415926535900035,-0.21443499357232743,-0.001990470593368683,-0.057507931502025496,-3.8410905800033894e-12,-6.683774944265825e-12,2.1021997542545623e-11,-1.43382225982798e-11,-1.330341615592329e-13,-3.8410905800033894e-12,-0.9130415966828606,-0.6324668111723134,0.6406836994710313,-0.0005158771482501319,0.9998458585645281,0.01234327647918812,0.012475436180260454
6.6,-2.3840256283831605,-2.3532484797610116,-0.5161229469520908,-1.8781421804587581,1.569991219207202,-0.8142496884586367,-0.05751683085668988,-0.1000102490007306,0.31415926535900035,-0.21443499357232743,-0.001990470593368683,-0.057507931502025496,-3.8410905800033894e-12,-6.683774944265825e-12,2.1021997542545623e-11,-1.43382225982798e-11,-1.330341615592329e-13,-3.8410905800033894e-12,-0.9175514571136723,-0.6280120946643107,0.6482054141477891,-0.0005171842086751935,0.9998455717884792,0.012353470346586237,0.012488269129849796
6.7,-2.389560393121642,-2.3628723271011958,-0.48589183723555207,-1.898776962025179,1.5697996789869038,-0.8197835968245805,-0.05117135159482784,-0.0889767314797634,0.279500000000233,-0.19077769562207952,-0.0017708741781378506,-0.05116343405139376,0.09154087937569355,0.15917125480923383,-0.49999999976774134,0.341283891830602,0.00316793233866516,0.09152671561285734,-0.9216674781973876,-0.6235054342835599,0.6553359511891986,-0.0005184446568216207,0.9998452862845958,0.012363523218119774,0.012501120079713775
6.8,-2.394224183012592,-2.370981723626244,-0.4604180274983595,-1.9161645638869784,1.5696382803755178,-0.8244466651055304,-0.04201726365295272,-0.0730596059913546,0.22949999999994306,-0.15664930642296918,-0.0014540809441223508,-0.042010762485803814,0.09154087942876221,0.15917125490150724,-0.5000000000575928,0.3412838920284437,0.003167932340501582,0.09152671566591213,-0.9249635149739546,-0.6195435430022462,0.6612592455310958,-0.0005195087974735427,0.9998450384424752,0.01237217564901586,0.01251233320706037
6.9,-2.3979725641093594,-2.377499407602459,-0.43994421776116877,-1.930139326828885,1.5695085610875332,-0.8281944662299264,-0.032863175711146324,-0.0571424805030653,0.1795000000000285,-0.12252091722411507,-0.0011372877101092295,-0.03285809092028258,0.09154087941302676,0.15917125487413072,-0.4999999999716338,0.3412838919697568,0.0031679323399568843,0.0915267156501767,-0.927497349830065,-0.6162520960209923,0.6659615690290692,-0.0005203654223951889,0.9998448344296426,0.012379247879912687,0.012521601579493573
7.0,-2.400805536411944,-2.3824253790298426,-0.4244704080239812,-1.940701250850898,1.5694105211229503,-0.8310270001977681,-0.023709087769329656,-0.04122535501475814,0.12950000000005782,-0.08839252802522266,-0.0008204944760957526,-0.023705419354751078,0.09154087940772349,0.15917125486491152,-0.499999999942657,0.3412838919499787,0.0031679323397733232,0.0915267156448734,-0.9293437540454665,-0.6137019568142613,0.6694801181274718,-0.0005210136476508382,0.9998446773913138,0.012384661729893234,0.012528758552816481
7.1,-2.402723099920346,-2.3857596379083934,-0.41399659828679497,-1.947850335953019,1.5693441604817684,-0.8329442670090559,-0.0145549998275064,-0.025308229526439515,0.07950000000005114,-0.05426413882630567,-0.0005037012420820477,-0.014552747789212986,0.09154087940909172,0.1591712548672898,-0.4999999999501371,0.3412838919550883,0.0031679323398206925,0.09152671564624162,-0.9305598321368956,-0.6119456202104617,0.6718441047295194,-0.0005214528051761318,0.9998445697045951,0.012388359418538624,0.012533677438090661
7.2,-2.403725254634567,-2.387502184238113,-0.40852278854960794,-1.9515865821352494,1.569309479163988,-0.83394626666379,-0.005400911885677569,-0.0093911040381112,0.029500000000014032,-0.02013574962736791,-0.00018690800806814986,-0.005400076223669322,0.09154087941546363,0.1591712548783704,-0.4999999999849426,0.3412838919788476,0.0031679323400412456,0.09152671565261272,-0.9311845151299228,-0.6110180919146468,0.6730738355457851,-0.0005216824427762933,0.999844512978485,0.012390302476929255,0.01253627212431965
7.259476194,-2.4038871638000168,-2.38778371184857,-0.4076384341143046,-1.9521902139824057,1.5693038760139566,-0.8341081507776672,-2.1644677585066777e-17,-3.7635759178328964e-17,1.1822410775725302e-16,-8.069596724467386e-17,-7.490519486959985e-19,-2.1641328588615532e-17,0.09154087941800552,0.15917125488279144,-0.49999999999882666,0.3412838919883233,0.003167932340129192,0.09152671565515391,-0.9312847386625137,-0.6108676214122404,0.6732721404030007,-0.0005217195513597118,0.9998445037849624,0.012390617077774765,0.012536692871093751
