mathias31415/primitives_from_planned_trajectory_python/data/saved_trajectories/trajectory_20250624_154325_executed.csv
timestamp,shoulder_lift_joint_pos,elbow_joint_pos,wrist_1_joint_pos,wrist_2_joint_pos,wrist_3_joint_pos,shoulder_pan_joint_pos,shoulder_lift_joint_vel,elbow_joint_vel,wrist_1_joint_vel,wrist_2_joint_vel,wrist_3_joint_vel,shoulder_pan_joint_vel,shoulder_lift_joint_eff,elbow_joint_eff,wrist_1_joint_eff,wrist_2_joint_eff,wrist_3_joint_eff,shoulder_pan_joint_eff
1750772612.445508,-2.079090580293051,-1.2227091337565783,-1.4458524465820588,1.5722650011230699,-0.7490975674386178,-2.3190830853501785,0.0,0.0,0.0,0.0,0.0,0.0,6.786583057997464,4.238499966947643,0.299676400450917,0.00012117130630852165,0.0,1.4268504821937196e-16
1750772612.4471653,-2.079090580293051,-1.2227091337565783,-1.4458524465820588,1.5722650011230699,-0.7490975674386178,-2.3190830853501785,0.0,0.0,0.0,0.0,0.0,0.0,6.786583057997464,4.238499966947643,0.299676400450917,0.00012117130630852165,0.0,1.4268504821937196e-16
1750772612.447577,-2.079090580293051,-1.2227091337565783,-1.4458524465820588,1.5722650011230699,-0.7490975674386178,-2.3190830853501785,0.0,0.0,0.0,0.0,0.0,0.0,6.786583057997464,4.238499966947643,0.299676400450917,0.00012117130630852165,0.0,1.4268504821937196e-16
1750772612.4478707,-2.079090580293051,-1.2227091337565783,-1.4458524465820588,1.5722650011230699,-0.7490975674386178,-2.3190830853501785,0.0,0.0,0.0,0.0,0.0,0.0,6.786583057997464,4.238499966947643,0.299676400450917,0.00012117130630852165,0.0,1.4268504821937196e-16
1750772612.4486701,-2.079090580293051,-1.2227091337565783,-1.4458524465820588,1.5722650011230699,-0.7490975674386178,-2.3190830853501785,0.0,0.0,0.0,0.0,0.0,0.0,6.786583057997464,4.238499966947643,0.299676400450917,0.00012117130630852165,0.0,1.4268504821937196e-16
1750772612.4507701,-2.079090580293051,-1.2227091337565783,-1.4458524465820588,1.5722650011230699,-0.7490975674386178,-2.3190830853501785,0.0,0.0,0.0,0.0,0.0,0.0,6.786583057997464,4.238499966947643,0.299676400450917,0.00012117130630852165,0.0,1.4268504821937196e-16
1750772612.4534652,-2.079090580293051,-1.2227091337565783,-1.4458524465820588,1.5722650011230699,-0.7490975674386178,-2.3190830853501785,0.0,0.0,0.0,0.0,0.0,0.0,6.786583057997464,4.238499966947643,0.299676400450917,0.00012117130630852165,0.0,1.4268504821937196e-16
1750772612.4569721,-2.079090580293051,-1.2227091337565783,-1.4458524465820588,1.5722650011230699,-0.7490975674386178,-2.3190830853501785,0.0,0.0,0.0,0.0,0.0,0.0,6.786583057997464,4.238499966947643,0.299676400450917,0.00012117130630852165,0.0,1.4268504821937196e-16
1750772612.459007,-2.079090580293051,-1.2227091337565783,-1.4458524465820588,1.5722650011230699,-0.7490975674386178,-2.3190830853501785,0.0,0.0,0.0,0.0,0.0,0.0,6.786583057997464,4.238499966947643,0.299676400450917,0.00012117130630852165,0.0,1.4268504821937196e-16
1750772612.459385,-2.079090580293051,-1.2227091337565783,-1.4458524465820588,1.5722650011230699,-0.7490975674386178,-2.3190830853501785,0.0,0.0,0.0,0.0,0.0,0.0,6.786583057997464,4.238499966947643,0.299676400450917,0.00012117130630852165,0.0,1.4268504821937196e-16
1750772612.4611175,-2.0790905908624513,-1.222710120987184,-1.4458514465820587,1.5722650129776383,-0.7490972253372172,-2.319082743045419,-1.0569400528615342e-05,-0.0009872306062111943,0.001,1.1854568533152843e-05,0.00034210140047168704,0.0003423047598590044,6.632257373975031,4.020403919766773,0.31909094545398625,0.0018570720373230665,0.00963710723790742,0.17924554798089307
1750772612.4632616,-2.0790906225706536,-1.222713082679003,-1.4458484465820591,1.572265048541344,-0.7490961990330156,-2.319081716131139,-2.1138801057230683e-05,-0.0019744612124223885,0.002,2.3709137066305686e-05,0.0006842028009433741,0.0006846095197180088,6.632256982820121,4.0204020249172014,0.3190909312560766,0.001857073567540909,0.00963710723790085,0.17924520211174083
1750772612.4650216,-2.079090675417655,-1.2227180188320341,-1.4458434465820584,1.5722651078141867,-0.7490944885260138,-2.31908000460734,-3.170820158584603e-05,-0.0029616918186335826,0.003,3.5563705599458525e-05,0.001026304201415061,0.0010269142795770133,6.632256330833975,4.020398866756018,0.319090907593799,0.0018570761177591796,0.0096371072378899,0.17924462565358315
1750772612.4670033,-2.079090749403459,-1.2227249294462776,-1.4458364465820583,1.5722651907961664,-0.74909209381621,-2.3190776084740206,-4.227760211446137e-05,-0.003948922424844777,0.004,4.741827413261137e-05,0.0013684056018867482,0.0013692190394360177,6.632255417924692,4.020394445165374,0.3190908744685101,0.0018570796877607342,0.009637107237874575,0.17924381859206412
1750772612.4689887,-2.0790908445280643,-1.2227338145217335,-1.4458274465820589,1.5722652974872833,-0.749089014903606,-2.319074527731182,-5.2847002643076713e-05,-0.004936153031055971,0.005,5.927284266576421e-05,0.001710507002358435,0.0017115237992950223,6.63225424396356,4.020388759980282,0.3190908318821096,0.0018570842772415459,0.00963710723785486,0.17924278090708523
1750772612.4711478,-2.0790908445280643,-1.2227338145217335,-1.4458274465820589,1.5722652974872833,-0.749089014903606,-2.319074527731182,-5.2847002643076713e-05,-0.004936153031055971,0.005,5.927284266576421e-05,0.001710507002358435,0.0017115237992950223,6.63225424396356,4.020388759980282,0.3190908318821096,0.0018570842772415459,0.00963710723785486,0.17924278090708523
1750772612.4731295,-2.0790909607914703,-1.2227446740584016,-1.445816446582059,1.572265427887537,-0.749085251788201,-2.3190707623788236,-6.341640317169205e-05,-0.005923383637267165,0.006,7.112741119891705e-05,0.002052608402830122,0.0020538285591540266,6.632252808785119,4.020381810988612,0.3190907798370406,0.001857089885810706,0.00963710723783078,0.17924151257280552
1750772612.474987,-2.079091098193677,-1.222757508056283,-1.445803446582059,1.572265581996928,-0.7490808044699948,-2.3190663124169455,-7.39858037003074e-05,-0.00691061424347836,0.007,8.29819797320699e-05,0.0023947098033018093,0.002396133319013031,6.632251112187133,4.0203735979311,0.31909071833628816,0.0018570965129904983,0.009637107237802315,0.1792400135576432
1750772612.4774518,-2.079091256734685,-1.2227723165153757,-1.4457884465820587,1.572265759815456,-0.7490756729489876,-2.3190611778455477,-8.455520422892273e-05,-0.007897844849689554,0.008,9.483654826522274e-05,0.0027368112037734964,0.0027384380788720354,6.632249153930597,4.020364120501348,0.3190906473833811,0.001857104158216272,0.00963710723776947,0.17923828382427437
1750772612.478914,-2.079091436414494,-1.2227890994356816,-1.445771446582059,1.5722659613431211,-0.7490698572251793,-2.31905535866463,-9.51246047575381e-05,-0.008885075455900749,0.009000000000000001,0.00010669111679837559,0.0030789126042451835,0.0030807428387310404,6.632246933739734,4.020353378345807,0.31909056698239024,0.0018571128208365961,0.009637107237732248,0.1792363233296349
1750772612.4808867,-2.0790916372331036,-1.2228078568171998,-1.445752446582059,1.5722661865799232,-0.7490633572985708,-2.3190488548741928,-0.00010569400528615344,-0.009872306062111943,0.010000000000000002,0.00011854568533152845,0.003421014004716871,0.003423047598590045,6.632244451301995,4.020341371063802,0.3190904771379296,0.0018571225001130962,0.009637107237690661,0.17923413202491703
1750772612.4830863,-2.0790918591905143,-1.2228285886599295,-1.4457314465820588,1.5722664355258624,-0.7490561731691603,-2.3190416664742357,-0.00011626340581476879,-0.01085953666832314,0.011000000000000003,0.0001304002538646813,0.003763115405188558,0.00376535235844905,6.632241706268071,4.020328098207523,0.31909037785515665,0.0018571331952206133,0.00963710723764467,0.17923170985557813
1750772612.4851408,-2.079092102286727,-1.2228512949638723,-1.445708446582059,1.5722667081809387,-0.7490483048369496,-2.319033793464759,-0.00012683280634338413,-0.011846767274534334,0.012000000000000004,0.00014225482239783416,0.004105216805660245,0.004107657118308054,6.632238698251873,4.020313559282018,0.3190902691397704,0.0018571449052471017,0.009637107237594316,0.17922905676133064
1750772612.487185,-2.0790923665217402,-1.2228759757290284,-1.4456834465820592,1.572267004545152,-0.7490397523019379,-2.3190252358457624,-0.0001374022068719995,-0.012833997880745528,0.013000000000000005,0.000154109390930987,0.004447318206131933,0.00444996187816706,6.63223542683054,4.0202977537452,0.3190901509980138,0.0018571576291936693,0.00963710723753961,0.179226172676151
1750772612.4890952,-2.0790926518955546,-1.2229026309553959,-1.445656446582059,1.5722673246185024,-0.749030515564125,-2.319015993617246,-0.00014797160740061485,-0.013821228486956725,0.014000000000000005,0.00016596395946413985,0.00478941960660362,0.004792266638026064,6.632231891544445,4.020280681007855,0.3190900234366728,0.0018571713659746008,0.00963710723748048,0.17922305752827522
1750772612.491525,-2.07909295840817,-1.2229312606429756,-1.4456274465820584,1.5722676684009897,-0.749020594623512,-2.31900606677921,-0.0001585410079292302,-0.014808459093167919,0.015000000000000006,0.00017781852799729272,0.005131521007075307,0.005134571397885069,6.632228091897181,4.020262340433631,0.31908988646307546,0.0018571861144172951,0.009637107237416998,0.1792197112402045
1750772612.4930303,-2.079093286059586,-1.2229618647917686,-1.4455964465820585,1.5722680358926144,-0.749009989480097,-2.3189954553316547,-0.00016911040845784555,-0.015795689699379115,0.016000000000000007,0.00018967309653044557,0.0054736224075469945,0.005476876157744073,6.632224027355581,4.02024273133905,0.3190897400850932,0.0018572018732623625,0.009637107237349143,0.17921613372870054
1750772612.495069,-2.0790936348498033,-1.2229944434017739,-1.4455634465820584,1.572268427093376,-0.7489987001338818,-2.3189841592745792,-0.0001796798089864609,-0.01678292030559031,0.017000000000000008,0.00020152766506359841,0.005815723808018682,0.005819180917603078,6.632219697349698,4.020221852993497,0.3190895843111408,0.0018572186411635145,0.009637107237276938,0.1792123249047891
1750772612.4969904,-2.0790940047788222,-1.2230289964729906,-1.4455284465820588,1.5722688420032747,-0.7489867265848646,-2.318972178607984,-0.00019024920951507624,-0.017770150911801504,0.01800000000000001,0.00021338223359675126,0.0061578252084903695,0.006161485677462083,6.63221510127282,4.020199704619233,0.3190894191501755,0.0018572364166876832,0.00963710723720031,0.1792082846737628
1750772612.5014532,-2.079094395846642,-1.2230655240054205,-1.445491446582059,1.5722692806223104,-0.7489740688330473,-2.3189595133318694,-0.0002008186100436916,-0.0187573815180127,0.01900000000000001,0.00022523680212990413,0.006499926608962057,0.006503790437321088,6.632210238481453,4.020176285391385,0.3190892446116974,0.001857255198314942,0.009637107237119335,0.17920401293517677
1750772612.5031931,-2.079095241398684,-1.2231445024539171,-1.4454114465820584,1.572270228987793,-0.7489467007210102,-2.3189321289510807,-0.0002219574111009223,-0.020731842730435088,0.02100000000000001,0.0002489459391962098,0.007184129409905432,0.007188399957039097,6.632199709997424,4.020125630839846,0.3190888674429205,0.0018572957733649495,0.009637107236944274,0.17919477450489185
1750772612.5054665,-2.0790956958829065,-1.2231869533699848,-1.4453684465820587,1.5722707387342398,-0.7489319903607896,-2.318917409846407,-0.00023252681162953766,-0.021719073336646286,0.022000000000000013,0.0002608005077293627,0.007526230810377119,0.007530704716898102,6.632194042833927,4.020098393630791,0.3190886648343373,0.0018573175633137603,0.00963710723685019,0.17918980758364442
1750772612.5071516,-2.079096171505931,-1.223231378747264,-1.4453234465820586,1.572271272189824,-0.7489165957977679,-2.318902006132213,-0.00024309621215815302,-0.02270630394285748,0.023000000000000013,0.0002726550762625155,0.007868332210848806,0.007873009476757106,6.632188106014259,4.020069881797437,0.3190884528916737,0.0018573403524178246,0.009637107236751735,0.17918460869574526
1750772612.5089238,-2.0790966682677556,-1.2232777785857563,-1.4452764465820591,1.572271829354545,-0.748900517031946,-2.3188859178084997,-0.0002536656126867684,-0.023693534549068675,0.024000000000000014,0.00028450964479566837,0.008210433611320494,0.008215314236616112,6.632181898711052,4.020040094279296,0.31908823162714506,0.0018573641387231196,0.009637107236648937,0.17917917771209452
1750772612.5112128,-2.079097186168381,-1.22332615288546,-1.4452274465820585,1.5722724102284031,-0.7488837540633231,-2.3188691448752667,-0.00026423501321538374,-0.02468076515527987,0.025000000000000015,0.00029636421332882127,0.00855253501179218,0.008557618996475115,6.632175420060184,4.0200090299687705,0.3190880010535107,0.001857388920188867,0.009637107236541704,0.17917351449786648
1750772612.5129619,-2.0790977252078076,-1.223376501646377,-1.4451764465820585,1.5722730148113984,-0.748866306891899,-2.318851687332514,-0.00027480441374399904,-0.025667995761491064,0.026000000000000016,0.0003082187818619741,0.008894636412263868,0.008899923756334121,6.63216866916075,4.019976687711145,0.31908776118407256,0.0018574146946875073,0.009637107236430197,0.17916761891251196
1750772612.5148456,-2.0790982853860367,-1.2234288248685061,-1.445123446582059,1.5722736431035305,-0.7488481755176739,-2.318833545180241,-0.0002853738142726144,-0.026655226367702258,0.027000000000000017,0.00032007335039512696,0.009236737812735556,0.009242228516193126,6.632161645075077,4.019943066304584,0.3190875120326755,0.001857441460004643,0.009637107236314281,0.17916149080975266
1750772612.5167954,-2.079098866703065,-1.2234831225518477,-1.4450684465820594,1.5722742951047999,-0.7488293599406477,-2.318814718418449,-0.00029594321480122976,-0.027642456973913456,0.028000000000000018,0.0003319279189282798,0.009578839213207242,0.00958453327605213,6.632154346828692,4.019908164500149,0.3190872536137089,0.0018574692138391643,0.009637107236193956,0.1791551300375883
1750772612.5187702,-2.079099469158896,-1.2235393946964024,-1.4450114465820585,1.5722749708152062,-0.7488098601608213,-2.318795207047137,-0.0003065126153298451,-0.02862968758012465,0.02900000000000002,0.00034378248746143265,0.00992094061367893,0.009926838035911136,6.632146773410374,4.019871981001786,0.31908698594210383,0.0018574979538031418,0.009637107236069361,0.1791485364383012
1750772612.5209763,-2.079099469158896,-1.2235393946964024,-1.4450114465820585,1.5722749708152062,-0.7488098601608213,-2.318795207047137,-0.0003065126153298451,-0.02862968758012465,0.02900000000000002,0.00034378248746143265,0.00992094061367893,0.009926838035911136,6.632146773410374,4.019871981001786,0.31908698594210383,0.0018574979538031418,0.009637107236069361,0.1791485364383012
1750772612.5229988,-2.079100092753526,-1.2235976413021685,-1.4449524465820591,1.5722756702347498,-0.7487896761781929,-2.3187750110663052,-0.0003170820158584605,-0.029616918186335845,0.03000000000000002,0.0003556370559945855,0.010263042014150618,0.01026914279577014,6.6321389237721045,4.01983451446634,0.3190867090333358,0.0018575276774219032,0.009637107235940362,0.17914170984844552
1750772612.525108,-2.079100737486959,-1.223657862369147,-1.4448914465820586,1.5722763933634303,-0.7487688079927644,-2.318754130475954,-0.00032765141638707584,-0.03060414879254704,0.03100000000000002,0.00036749162452773834,0.010605143414622304,0.010611447555629145,6.6321307968291086,4.019795763503544,0.3190864229034233,0.0018575583821340007,0.009637107235806954,0.17913465009886614
1750772612.5280423,-2.079101403359192,-1.2237200578973386,-1.4448284465820587,1.5722771402012479,-0.7487472556045347,-2.318732565276083,-0.00033822081691569115,-0.03159137939875824,0.03200000000000002,0.0003793461930608912,0.010947244815093992,0.01095375231548815,6.632122391459815,4.019755726676037,0.31908612756892857,0.0018575900652912432,0.009637107235669285,0.1791273570146846
1750772612.529094,-2.0791020903702266,-1.2237842278867426,-1.4447634465820585,1.5722779107482026,-0.748725019013504,-2.318710315466692,-0.0003487902174443065,-0.03257861000496943,0.03300000000000002,0.0003912007615940441,0.011289346215565679,0.011296057075347154,6.632113706505886,4.019714402499349,0.3190858230469563,0.0018576227241587002,0.009637107235527166,0.17911983041530805
1750772612.531374,-2.0791027985200614,-1.223850372337358,-1.4446964465820589,1.5722787050042941,-0.7487020982196722,-2.3186873810477815,-0.00035935961797292187,-0.033565840611180627,0.03400000000000002,0.00040305533012719694,0.011631447616037367,0.01163836183520616,6.632104740772193,4.019671789441919,0.31908550935515567,0.0018576563559147034,0.009637107235380785,0.17911207011443533
1750772612.53301,-2.079103527808698,-1.2239184912491865,-1.444627446582059,1.572279522969523,-0.7486784932230401,-2.318663762019351,-0.00036992901850153723,-0.03455307121739182,0.035000000000000024,0.0004149098986603498,0.011973549016509055,0.011980666595065163,6.632095493026847,4.019627885925089,0.31908518651171885,0.0018576909576508746,0.009637107235230006,0.1791040759200476
1750772612.5350175,-2.0791042782361355,-1.2239885846222283,-1.4445564465820588,1.5722803646438888,-0.7486542040236062,-2.3186394583814014,-0.0003804984190301526,-0.035540301823603015,0.036000000000000025,0.00042676446719350263,0.01231565041698074,0.012322971354924168,6.6320859620011605,4.019582690323109,0.3190848545353817,0.001857726526372092,0.009637107235074828,0.17909584763442346
1750772612.5370321,-2.079105049802374,-1.2240606524564814,-1.4444834465820584,1.5722812300273918,-0.748629230621372,-2.3186144701339315,-0.00039106781955876795,-0.03652753242981421,0.037000000000000026,0.0004386190357266555,0.012657751817452429,0.012665276114783174,6.632076146389678,4.019536200963148,0.31908451344542405,0.0018577630589965558,0.009637107234915395,0.17908738505412666
1750772612.5388837,-2.0791058425074143,-1.2241346947519478,-1.4444084465820586,1.5722821191200318,-0.7486035730163367,-2.318588797276942,-0.00040163722008738326,-0.037514763036025404,0.03800000000000003,0.0004504736042598083,0.012999853217924117,0.013007580874642178,6.6320660448501645,4.01948841612528,0.31908416326166855,0.001857800552355709,0.009637107234751568,0.17907868797002044
1750772612.5407825,-2.0791066563512555,-1.2242107115086256,-1.4443314465820585,1.5722830319218088,-0.7485772312085004,-2.318562439810433,-0.0004122066206159986,-0.0385019936422366,0.03900000000000003,0.00046232817279296117,0.013341954618395803,0.013349885634501183,6.632055656003588,4.019439334042495,0.3190838040044824,0.0018578390031943855,0.009637107234583346,0.1790697561672658
1750772612.542856,-2.0791074913338967,-1.2242887027265166,-1.444252446582059,1.572283968432723,-0.748550205197863,-2.318535397734404,-0.000422776021144614,-0.03948922424844779,0.04000000000000003,0.000474182741326114,0.013684056018867491,0.013692190394360187,6.632044978434143,4.019388952900715,0.3190834356947761,0.001857878408170668,0.009637107234410875,0.1790605894253177
1750772612.544795,-2.079108347455339,-1.224368668405619,-1.4441714465820592,1.572284928652774,-0.7485224949844245,-2.3185076710488555,-0.00043334542167322934,-0.04047645485465899,0.04100000000000003,0.00048603730985926686,0.014026157419339179,0.014034495154219192,6.632034010689245,4.01933727083877,0.31908305835400363,0.0018579187638560095,0.009637107234234015,0.17905118751793905
1750772612.5468242,-2.079109224715584,-1.2244506085459346,-1.4440884465820591,1.5722859125819624,-0.7484941005681858,-2.3184792597537873,-0.0004439148222018447,-0.04146368546087018,0.04200000000000003,0.0004978918783924198,0.014368258819810865,0.014376799914078196,6.632022751279544,4.019284285948437,0.3190826720041638,0.0018579600667352012,0.009637107234052766,0.17904155021318902
1750772612.548774,-2.079110123114628,-1.2245345231474625,-1.4440034465820588,1.5722869202202876,-0.748465021949146,-2.318450163849199,-0.00045448422273046006,-0.04245091606708138,0.04300000000000003,0.0005097464469255726,0.014710360220282553,0.014719104673937201,6.63201119867885,4.0192299962744,0.31908227666779826,0.0018580023132063613,0.009637107233867273,0.17903167727343883
1750772612.5507681,-2.0791110426524746,-1.2246204122102036,-1.443916446582059,1.5722879515677501,-0.7484352591273042,-2.3184203833350914,-0.00046505362325907537,-0.04343814667329258,0.04400000000000003,0.0005216010154587255,0.01505246162075424,0.015061409433796207,6.6319993513242546,4.019174399814294,0.3190818723679928,0.0018580454995810092,0.009637107233677349,0.17902156845536496
1750772612.5529044,-2.0791119833291214,-1.224708275734156,-1.443827446582059,1.5722890066243496,-0.7484048121026623,-2.318389918211464,-0.0004756230237876907,-0.04442537727950377,0.04500000000000003,0.0005334555839918782,0.015394563021225927,0.01540371419365521,6.631987207616021,4.019117494518691,0.31908145912837815,0.0018580896220839647,0.009637107233483187,0.1790112235099526
1750772612.5548685,-2.079112945144569,-1.224798113719321,-1.4437364465820588,1.572290085390086,-0.7483736808752202,-2.318358768478317,-0.0004861924243163061,-0.04541260788571497,0.046000000000000034,0.0005453101525250311,0.015736664421697615,0.015746018953514216,6.631974765917637,4.019059278291092,0.3190810369731278,0.0018581346768535274,0.009637107233284642,0.179000642182507
1750772612.5569565,-2.0791139280988187,-1.224889926165699,-1.4436434465820591,1.5722911878649597,-0.748341865444976,-2.31832693413565,-0.0004967618248449214,-0.04639983849192616,0.047000000000000035,0.000557164721058184,0.016078765822169303,0.01608832371337322,6.6319620245558175,4.018999748987955,0.3190806059269601,0.0018581806599413074,0.009637107233081768,0.17898982421264065
1750772612.558847,-2.079114932191869,-1.2249837130732892,-1.4435484465820583,1.5722923140489702,-0.7483093658119309,-2.3182944151834635,-0.0005073312253735368,-0.047387069098137356,0.048000000000000036,0.0005690192895913368,0.016420867222640988,0.016430628473232227,6.631948981820471,4.018938904418679,0.3190801660151374,0.0018582275673123733,0.009637107232874469,0.17897876933429357
1750772612.5617182,-2.0791159574237206,-1.2250794744420919,-1.443451446582059,1.572293463942118,-0.7482761819760855,-2.318261211621757,-0.0005179006259021521,-0.048374299704348554,0.04900000000000004,0.0005808738581244897,0.016762968623112676,0.01677293323309123,6.631935635964721,4.01887674234562,0.31907971726346607,0.0018582753948451938,0.009637107232663039,0.17896747727571682
1750772612.5633228,-2.0791159574237206,-1.2250794744420919,-1.443451446582059,1.572293463942118,-0.7482761819760855,-2.318261211621757,-0.0005179006259021521,-0.048374299704348554,0.04900000000000004,0.0005808738581244897,0.016762968623112676,0.01677293323309123,6.631935635964721,4.01887674234562,0.31907971726346607,0.0018582753948451938,0.009637107232663039,0.17896747727571682
1750772612.5679126,-2.079117003794373,-1.225177210272106,-1.4433524465820593,1.5722946375444027,-0.748242313937439,-2.318227323450531,-0.0005284700264307675,-0.049361530310559745,0.05000000000000004,0.0005927284266576425,0.017105070023584364,0.017115237992950234,6.631921985204921,4.018813260484097,0.3190792596982972,0.0018583241383316677,0.009637107232447187,0.17895594775949517
1750772612.568335,-2.079118071303826,-1.2252769205633331,-1.4432514465820585,1.5722958348558247,-0.7482077616959906,-2.3181927506697853,-0.0005390394269593828,-0.05034876091677094,0.05100000000000004,0.0006045829951907954,0.01744717142405605,0.017457542752809238,6.631908027720605,4.018748456502371,0.3190787933465257,0.0018583737934771772,0.009637107232227013,0.1789441805025362
1750772612.568747,-2.0791191599520804,-1.2253786053157736,-1.4431484465820592,1.5722970558763836,-0.7481725252517428,-2.3181574932795197,-0.0005496088274879982,-0.051335991522982134,0.05200000000000004,0.0006164375637239482,0.01778927282452774,0.017799847512668245,6.631893761654539,4.018682328021688,0.31907831823559146,0.001858424355900496,0.00963710723200252,0.1789321752160775
1750772612.570771,-2.0791202697391356,-1.2254822645294254,-1.4430434465820587,1.5722983006060796,-0.7481366046046931,-2.3181215512797344,-0.0005601782280166136,-0.05232322212919333,0.05300000000000004,0.0006282921322571011,0.018131374224999428,0.01814215227252725,6.63187918511269,4.018614872616253,0.3190778343934785,0.0018584758211338886,0.00963710723177371,0.17891993160568498
1750772612.5728126,-2.0791214006649916,-1.2255878982042905,-1.4429364465820589,1.5722995690449126,-0.7480999997548423,-2.31808492467043,-0.0005707476285452289,-0.05331045273540452,0.05400000000000004,0.000640146700790254,0.018473475625471112,0.018484457032386253,6.631864296164237,4.018546087813247,0.319077341848715,0.0018585281846231515,0.009637107231540489,0.1789074493712689
1750772612.5748138,-2.0791225527296504,-1.225695506340367,-1.4428274465820587,1.5723008611928826,-0.7480627107021913,-2.318047613451605,-0.0005813170290738443,-0.05429768334161572,0.05500000000000004,0.0006520012693234068,0.0188155770259428,0.01882676179224526,6.631849092841575,4.0184759710928315,0.3190768406303744,0.0018585814417275282,0.009637107231303151,0.17889472820707536
1750772612.57688,-2.0791237259331083,-1.2258050889376566,-1.4427164465820592,1.5723021770499899,-0.7480247374467384,-2.3180096176232605,-0.0005918864296024596,-0.05528491394782692,0.05600000000000004,0.0006638558378565597,0.019157678426414488,0.019169066552104264,6.631833573140273,4.018404519888148,0.31907633076807457,0.0018586355877197916,0.009637107231061407,0.1788817678016845
1750772612.5787144,-2.079124920275368,-1.2259166459961586,-1.4426034465820585,1.572303516616234,-0.7479860799884852,-2.3179709371853967,-0.000602455830131075,-0.05627214455403811,0.057000000000000044,0.0006757104063897125,0.019499779826886176,0.019511371311963267,6.63181773501914,4.018331731585326,0.31907581229197807,0.00185869061778624,0.009637107230815355,0.17886856783803468
1750772612.58079,-2.079126135756429,-1.2260301775158728,-1.4424884465820593,1.5723048798916155,-0.747946738327431,-2.3179315721380127,-0.0006130252306596904,-0.05725937516024931,0.058000000000000045,0.0006875649749228654,0.019841881227357864,0.01985367607182227,6.6318015764001705,4.0182576035234865,0.3190752852327921,0.0018587465270267457,0.009637107230565,0.17885512799340492
1750772612.5827615,-2.0791273723762913,-1.2261456834967994,-1.442371446582059,1.5723062668761338,-0.7479067124635757,-2.3178915224811094,-0.0006235946311883057,-0.0582466057664605,0.059000000000000045,0.0006994195434560182,0.02018398262782955,0.020195980831681278,6.6317850951685795,4.018182132994752,0.3190747496217689,0.00185880331045468,0.009637107230310245,0.17884144793942938
1750772612.5847237,-2.079128630134954,-1.2262631639389383,-1.4422524465820583,1.5723076775697893,-0.7478660023969201,-2.317850788214686,-0.000634164031716921,-0.0592338363726717,0.060000000000000046,0.0007112741119891711,0.020526084028301236,0.020538285591540282,6.631768289172765,4.018105317244243,0.31907420549070575,0.0018588609629969942,0.009637107230051388,0.17882752734208962
1750772612.5882459,-2.0791299090324173,-1.2263826188422904,-1.4421314465820583,1.5723091119725818,-0.7478246081274627,-2.317809369338743,-0.0006447334322455363,-0.060221066978882895,0.06100000000000005,0.0007231286805223239,0.020868185428772924,0.020880590351399286,6.6317511562243405,4.018027153470089,0.3190736528719446,0.0018589194794942825,0.009637107229788137,0.1788133658617389
1750772612.5886686,-2.0791312090686827,-1.2265040482068539,-1.4420084465820588,1.5723105700845112,-0.747782529655205,-2.3177672658532806,-0.0006553028327741517,-0.061208297585094086,0.06200000000000005,0.0007349832490554768,0.021210286829244612,0.021222895111258293,6.631733694098123,4.017947638823431,0.3190730917983728,0.001858978854700699,0.009637107229520592,0.17879896315308497
1750772612.5907946,-2.079132530243749,-1.2266274520326306,-1.4418834465820591,1.572312051905578,-0.7477397669801453,-2.317724477758298,-0.000665872233302767,-0.06219552819130528,0.06300000000000004,0.0007468378175886296,0.021552388229716297,0.021565199871117293,6.631715900532126,4.017866770408428,0.31907252230342253,0.001859039083283994,0.00963710722924866,0.17878431886519625
1750772612.5926306,-2.079133872557616,-1.2267528303196196,-1.4417564465820583,1.5723135574357816,-0.7476963201022855,-2.317681005053796,-0.0006764416338313823,-0.06318275879751648,0.06400000000000004,0.0007586923861217824,0.021894489630187985,0.0219075046309763,6.6316977732275575,4.017784545282264,0.3190719444210721,0.0018591001598256586,0.009637107228972637,0.17876943264152906
1750772612.5946655,-2.079135236010284,-1.2268801830678209,-1.4416274465820589,1.5723150866751225,-0.7476521890216246,-2.317636847739774,-0.0006870110343599977,-0.06416998940372766,0.06500000000000004,0.0007705469546549353,0.022236591030659673,0.022249809390835304,6.631679309848832,4.017700960455148,0.31907135818584376,0.001859162078820701,0.00963710722869223,0.1787543041198894
1750772612.5967717,-2.079136620601753,-1.2270095102772345,-1.4414964465820592,1.5723166396236004,-0.7476073737381634,-2.3175920058162327,-0.000697580434888613,-0.06515722000993886,0.06600000000000004,0.0007824015231880882,0.022578692431131357,0.022592114150694308,6.63166050802356,4.017616012890323,0.3190707636328058,0.0018592248346778765,0.009637107228407445,0.17873893293247778
1750772612.598715,-2.079138026332023,-1.2271408119478604,-1.4413634465820593,1.5723182162812153,-0.7475618742519003,-2.3175464792831715,-0.0007081498354172284,-0.06614445061615006,0.06700000000000005,0.000794256091721241,0.022920793831603045,0.02293441891055331,6.6316413653425474,4.017529699504072,0.31907016079757217,0.0018592884217196184,0.009637107228118579,0.17872331870586924
1750772612.60072,-2.079139453201095,-1.2272740880796986,-1.441228446582059,1.5723198166479673,-0.7475156905628371,-2.3175002681405905,-0.0007187192359458437,-0.06713168122236125,0.06800000000000005,0.0008061106602543939,0.023262895232074733,0.02327672367041232,6.631621879359805,4.017442017165729,0.31906954971630236,0.001859352834182085,0.009637107227825337,0.17870746106102597
1750772612.6026876,-2.0791409012089677,-1.22740933867275,-1.4410914465820586,1.5723214407238562,-0.7474688226709718,-2.31745337238849,-0.0007292886364744591,-0.06811891182857245,0.06900000000000005,0.0008179652287875467,0.02360499663254642,0.023619028430271322,6.631602047592527,4.017352962697671,0.31906893042570095,0.001859418066215062,0.009637107227527824,0.17869135961329177
1750772612.604704,-2.0791423703556404,-1.2275465637270129,-1.4409524465820587,1.5723230885088824,-0.7474212705763064,-2.3174057920268694,-0.0007398580370030745,-0.06910614243478364,0.07000000000000005,0.0008298197973206996,0.02394709803301811,0.023961333190130326,6.631581867521102,4.017262532875336,0.3190683029630187,0.0018594841118822361,0.009637107227226042,0.1786750139724139
1750772612.6071544,-2.0791423703556404,-1.2275465637270129,-1.4409524465820587,1.5723230885088824,-0.7474212705763064,-2.3174057920268694,-0.0007398580370030745,-0.06910614243478364,0.07000000000000005,0.0008298197973206996,0.02394709803301811,0.023961333190130326,6.631581867521102,4.017262532875336,0.3190683029630187,0.0018594841118822361,0.009637107227226042,0.1786750139724139
1750772612.6086767,-2.079143860641116,-1.227685763242489,-1.4408114465820585,1.5723247600030454,-0.7473730342788398,-2.317357527055729,-0.0007504274375316898,-0.07009337304099483,0.07100000000000005,0.0008416743658538524,0.024289199433489797,0.024303637949989333,6.63156133658913,4.0171707244272215,0.3190676673660518,0.0018595509651609225,0.009637107226919996,0.17865842374253255
1750772612.6108608,-2.0791453720653905,-1.2278269372191772,-1.440668446582059,1.5723264552063458,-0.7473241137785722,-2.3173085774750692,-0.0007609968380603052,-0.07108060364720603,0.07200000000000005,0.0008535289343870053,0.02463130083396148,0.024645942709848337,6.631540452203379,4.017077534034902,0.3190670236731429,0.0018596186199422605,0.009637107226609588,0.1786415885221829
1750772612.6127446,-2.079146904628468,-1.2279700856570779,-1.440523446582059,1.5723281741187831,-0.7472745090755044,-2.31725894328489,-0.0007715662385889205,-0.07206783425341723,0.07300000000000005,0.000865383502920158,0.02497340223443317,0.02498824746970734,6.631519211733835,4.016982958333019,0.3190663719231797,0.001859687070031184,0.009637107226295117,0.1786245079043161
1750772612.614847,-2.079148458330346,-1.2281152085561908,-1.440376446582059,1.5723299167403575,-0.7472242201696346,-2.3172086244851906,-0.0007821356391175359,-0.07305506485962843,0.07400000000000005,0.000877238071453311,0.025315503634904857,0.025330552229566348,6.63149761251365,4.0168869939092975,0.3190657121555967,0.0018597563091464753,0.009637107225976292,0.17860718147628854
1750772612.6167414,-2.0791500331710244,-1.228262305916516,-1.4402274465820586,1.572331683071069,-0.7471732470609647,-2.3171576210759715,-0.0007927050396461513,-0.07404229546583961,0.07500000000000005,0.0008890926399864639,0.025657605035376545,0.02567285698942535,6.63147565183918,4.016789637304559,0.3190650444103744,0.001859826330920676,0.009637107225653217,0.17858960881986533
1750772612.6186712,-2.0791516291505037,-1.2284113777380536,-1.4400764465820588,1.5723334731109173,-0.7471215897494936,-2.317105933057233,-0.0008032744401747665,-0.07502952607205081,0.07600000000000005,0.0009009472085196166,0.025999706435848233,0.026015161749284355,6.631453326969961,4.0166908850127,0.3190643687280391,0.0018598971289002589,0.00963710722532589,0.17857178951123953
1750772612.6211734,-2.0791532462687847,-1.2285624240208044,-1.4399234465820587,1.572335286859903,-0.7470692482352215,-2.3170535604289744,-0.0008138438407033819,-0.076016756678262,0.07700000000000005,0.0009128017770527695,0.026341807836319918,0.02635746650914336,6.631430635128737,4.016590733480742,0.3190636851496634,0.0018599686965455823,0.009637107224994222,0.17855372312102338
1750772612.6252897,-2.0791548845258667,-1.2287154447647675,-1.4397684465820593,1.5723371243180255,-0.7470162225181483,-2.3170005031911964,-0.0008244132412319972,-0.0770039872844732,0.07800000000000006,0.0009246563455859223,0.026683909236791606,0.026699771269002366,6.631407573501417,4.016489179108796,0.3190629937168668,0.0018600410272308395,0.009637107224658508,0.17853540921425734
1750772612.6256857,-2.0791565439217496,-1.228870439969942,-1.4396114465820586,1.5723389854852854,-0.746962512598274,-2.3169467613438983,-0.0008349826417606126,-0.0779912178906844,0.07900000000000006,0.0009365109141190752,0.027026010637263294,0.02704207602886137,6.631384139237106,4.016386218250101,0.31906229447181517,0.0018601141142441826,0.009637107224318459,0.178516847350409
1750772612.629794,-2.079159926129919,-1.2291863537639305,-1.4392914465820592,1.572342778947216,-0.746853040150123,-2.3168372238207438,-0.0008561214428178433,-0.07996567910310678,0.08100000000000006,0.0009602200511853809,0.02771021343820667,0.02772668554857938,6.631336141209858,4.016176062251002,0.3190608727163413,0.0018602625299774527,0.009637107223625659,0.17847897796156245
1750772612.6302195,-2.079159926129919,-1.2291863537639305,-1.4392914465820592,1.572342778947216,-0.746853040150123,-2.3168372238207438,-0.0008561214428178433,-0.07996567910310678,0.08100000000000006,0.0009602200511853809,0.02771021343820667,0.02772668554857938,6.631336141209858,4.016176062251002,0.3190608727163413,0.0018602625299774527,0.009637107223625659,0.17847897796156245
1750772612.6306689,-2.079161648942206,-1.2293472723527419,-1.4391284465820586,1.572344711241887,-0.7467972776218463,-2.3167814281448864,-0.0008666908433464587,-0.08095290970931798,0.08200000000000006,0.0009720746197185337,0.028052314838678358,0.028068990308438384,6.631311571561053,4.016068859582704,0.31906015029298407,0.0018603378448434449,0.009637107223272916,0.1784596695277102
1750772612.632851,-2.0791633928932924,-1.2295101654027674,-1.4389634465820587,1.5723466672456947,-0.7467408308907686,-2.3167249478595098,-0.000877260243875074,-0.08194014031552918,0.08300000000000006,0.0009839291882516867,0.028394416239150042,0.028411295068297388,6.631286617503509,4.01596023537187,0.31905942023150036,0.0018604138883297518,0.009637107222915853,0.17844011131909066
1750772612.6348634,-2.079165157983181,-1.2296750329140043,-1.4387964465820584,1.5723486469586399,-0.7466836999568898,-2.3166677829646134,-0.0008878296444036894,-0.08292737092174036,0.08400000000000006,0.0009957837567848395,0.02873651763962173,0.028753599828156392,6.631261276002263,4.015850185737422,0.31905868257679015,0.0018604906532944494,0.009637107222554767,0.17842030286741123
1750772612.636796,-2.079165157983181,-1.2296750329140043,-1.4387964465820584,1.5723486469586399,-0.7466836999568898,-2.3166677829646134,-0.0008878296444036894,-0.08292737092174036,0.08400000000000006,0.0009957837567848395,0.02873651763962173,0.028753599828156392,6.631261276002263,4.015850185737422,0.31905868257679015,0.0018604906532944494,0.009637107222554767,0.17842030286741123
1750772612.6386771,-2.0791669442118703,-1.2298418748864544,-1.4386274465820588,1.5723506503807219,-0.7466258848202099,-2.3166099334601973,-0.0008983990449323048,-0.08391460152795156,0.08500000000000006,0.0010076383253179923,0.029078619040093418,0.0290959045880154,6.631235543985505,4.015738706751419,0.3190579373742993,0.0018605681325096631,0.009637107222189367,0.17840024369884258
1750772612.6410108,-2.0791687515793607,-1.2300106913201159,-1.4384564465820588,1.5723526775119412,-0.7465673854807289,-2.3165513993462614,-0.0009089684454609201,-0.08490183213416276,0.08600000000000006,0.001019492893851145,0.029420720440565106,0.029438209347874403,6.631209418344625,4.015625794439107,0.31905718467002175,0.0018606463186615844,0.009637107221819754,0.17837993333401583
1750772612.6427035,-2.079170580085652,-1.2301814822149906,-1.4382834465820586,1.5723547283522974,-0.7465082019384477,-2.316492180622806,-0.0009195378459895355,-0.08588906274037396,0.08700000000000006,0.0010313474623842981,0.029762821841036794,0.029780514107733407,6.631182895934176,4.015511444778893,0.3190564245104983,0.0018607252043505327,0.009637107221445935,0.1783593712880457
1750772612.6447752,-2.079172429730745,-1.2303542475710776,-1.438108446582059,1.5723568029017907,-0.7464483341933654,-2.3164322772898305,-0.0009301072465181507,-0.08687629334658516,0.08800000000000006,0.001043202030917451,0.03010492324150848,0.030122818867592414,6.631155973571904,4.015395653702363,0.3190556569428165,0.0018608047820909376,0.009637107221067814,0.17833855707051904
1750772612.6487541,-2.079174300514638,-1.230528987388377,-1.4379314465820592,1.572358901160421,-0.7463877822454812,-2.3163716893473354,-0.0009406766470467661,-0.08786352395279634,0.08900000000000007,0.0010550565994506037,0.030447024641980167,0.030465123627451417,6.631128648038719,4.015278417094307,0.3190548820146125,0.0018608850443113554,0.00963710722068569,0.17831749018549956
1750772612.6492918,-2.079174300514638,-1.230528987388377,-1.4379314465820592,1.572358901160421,-0.7463877822454812,-2.3163716893473354,-0.0009406766470467661,-0.08786352395279634,0.08900000000000007,0.0010550565994506037,0.030447024641980167,0.030465123627451417,6.631128648038719,4.015278417094307,0.3190548820146125,0.0018608850443113554,0.00963710722068569,0.17831749018549956
1750772612.6514587,-2.079176192437332,-1.2307057016668885,-1.437752446582059,1.5723610231281884,-0.7463265460947968,-2.3163104167953206,-0.0009512460475753815,-0.08885075455900754,0.09000000000000007,0.0010669111679837565,0.030789126042451855,0.03080742838731042,6.631100916078708,4.015159730792686,0.31905409977406846,0.0018609659833545569,0.009637107220299274,0.1782961701315514
1750772612.6529012,-2.079178105498828,-1.2308843904066133,-1.4375714465820586,1.572363168805093,-0.7462646257413112,-2.316248459633786,-0.0009618154481039968,-0.08983798516521874,0.09100000000000007,0.0010787657365169095,0.031131227442923542,0.03114973314716943,6.63107277439915,4.015039590588688,0.31905331026991535,0.0018610475914775364,0.009637107219908667,0.17827459640172674
1750772612.6550143,-2.079180039699125,-1.2310650536075496,-1.4373884465820588,1.5723653381911344,-0.7462020211850255,-2.3161858178627317,-0.0009723848486326122,-0.09082521577142993,0.09200000000000007,0.0010906203050500623,0.03147332884339523,0.03149203790702843,6.63104421967048,4.014917992226712,0.3190525135514314,0.001861129860851376,0.00963710721951387,0.17825276848357238
1750772612.6567893,-2.0791819950382227,-1.231247691269699,-1.4372034465820587,1.572367531286313,-0.7461387324259379,-2.316122491482158,-0.0009829542491612275,-0.09181244637764113,0.09300000000000007,0.001102474873583215,0.03181543024386692,0.031834342666887436,6.631015248526313,4.014794931404369,0.3190517096684428,0.0018612127835615786,0.009637107219114894,0.17823068585915042
1750772612.6586645,-2.0791839715161213,-1.2314323033930608,-1.4370164465820583,1.572369748090629,-0.74607475946405,-2.3160584804920643,-0.0009935236496898428,-0.09279967698385232,0.09400000000000007,0.001114329442116368,0.032157531644338606,0.03217664742674644,6.630985857563431,4.014670403772502,0.3190508986713232,0.0018612963516078532,0.009637107218711735,0.17820834800502733
1750772612.660683,-2.079185969132821,-1.231618889977634,-1.4368274465820585,1.5723719886040817,-0.746010102299361,-2.315993784892451,-0.0010040930502184583,-0.09378690759006351,0.09500000000000007,0.0011261840106495209,0.032499633044810294,0.03251895218660544,6.6309560433417944,4.014544404935195,0.31905008061099466,0.00186138055690415,0.009637107218304406,0.17818575439228856
1750772612.662647,-2.0791879878883224,-1.2318074510234212,-1.4366364465820585,1.5723742528266713,-0.745944760931871,-2.315928404683318,-0.0010146624507470735,-0.09477413819627471,0.09600000000000007,0.0011380385791826737,0.032841734445281975,0.032861256946464454,6.630925802384534,4.014416930449779,0.3190492555389271,0.0018614653912788501,0.00963710721789271,0.17816290448654545
1750772612.66467,-2.0791900277826247,-1.2319979865304198,-1.436443446582059,1.5723765407583983,-0.7458787353615799,-2.315862339864665,-0.001025231851275689,-0.09576136880248591,0.09700000000000007,0.0011498931477158265,0.03318383584575366,0.03320356170632346,6.630895131177949,4.0142879758268455,0.3190484235071392,0.0018615508464745918,0.009637107217477242,0.17813979774792355
1750772612.6666644,-2.079192088815727,-1.2321904964986308,-1.4362484465820593,1.5723788523992623,-0.7458120255884877,-2.3157955904364926,-0.0010358012518043042,-0.09674859940869711,0.09800000000000007,0.0011617477162489795,0.03352593724622535,0.03354586646618246,6.6308640261715,4.014157536530244,0.3190475845681977,0.0018616369141485224,0.009637107217057414,0.17811643363110571
1750772612.6686556,-2.0791941709876323,-1.232384980928054,-1.4360514465820593,1.5723811877492633,-0.7457446316125944,-2.3157281563988006,-0.0010463706523329197,-0.09773583001490829,0.09900000000000007,0.0011736022847821323,0.03386803864669704,0.033888171226041465,6.630832483777836,4.0140256079771,0.3190467387752172,0.0018617235858720677,0.009637107216633432,0.17809281158530038
1750772612.6706574,-2.0791962742983365,-1.2325814398186905,-1.435852446582059,1.5723835468084013,-0.7456765534339009,-2.3156600377515884,-0.001056940052861535,-0.09872306062111949,0.10000000000000007,0.001185456853315285,0.03421014004716873,0.03423047598590047,6.630800500372734,4.013892185537812,0.3190458861818613,0.0018618108531311905,0.0096371072162053,0.17806893105426638
1750772612.6726577,-2.0791983987478435,-1.2327798731705384,-1.4356514465820585,1.5723859295766767,-0.7456077910524064,-2.315591234494857,-0.0010675094533901504,-0.09971029122733069,0.10100000000000008,0.001197311421848438,0.034552241447640415,0.03457278074575947,6.630768072295188,4.013757264536091,0.3190450268423424,0.0018618987073263068,0.00963710721577302,0.17804479147631702
1750772612.6746705,-2.0792005443361505,-1.2329802809835995,-1.4354484465820585,1.572388336054089,-0.7455383444681107,-2.3155217466286055,-0.0010780788539187657,-0.10069752183354189,0.10200000000000008,0.0012091659903815909,0.0348943428481121,0.034915085505618476,6.6307351958473175,4.013620840248938,0.3190441608114215,0.0018619871397722576,0.009637107215336596,0.1780203922843241
1750772612.6831965,-2.0792027110632585,-1.2331826632578728,-1.4352434465820583,1.572390766240638,-0.745468213681014,-2.315451574152834,-0.0010886482544473811,-0.10168475243975308,0.10300000000000008,0.0012210205589147437,0.03523644424858379,0.03525739026547749,6.63070186729442,4.013482907906662,0.3190432881444083,0.0018620761416985121,0.009637107214896037,0.17799573290573095
1750772612.6835728,-2.079207107933879,-1.2335933511900565,-1.4348274465820587,1.572395697741148,-0.7453258994984173,-2.315309175372733,-0.0011097870555046119,-0.10365921365217547,0.10500000000000008,0.0012447296959810495,0.03592064704952717,0.035941999785195494,6.630633838750583,4.013202499744609,0.31904152312608897,0.001862255818482345,0.009637107214002523,0.17794563127134289
1750772612.683779,-2.079207107933879,-1.2335933511900565,-1.4348274465820587,1.572395697741148,-0.7453258994984173,-2.315309175372733,-0.0011097870555046119,-0.10365921365217547,0.10500000000000008,0.0012447296959810495,0.03592064704952717,0.035941999785195494,6.630633838750583,4.013202499744609,0.31904152312608897,0.001862255818482345,0.009637107214002523,0.17794563127134289
1750772612.684657,-2.0792093380773906,-1.2338016568479677,-1.4346164465820586,1.5723981990551084,-0.7452537161029182,-2.3152369490684026,-0.0011203564560332271,-0.10464644425838666,0.10600000000000008,0.0012565842645142023,0.036262748449998855,0.0362843045450545,6.630599131106046,4.0130600141521,0.3190406308881477,0.0018623464753716804,0.00963710721354958,0.17792018784332303
1750772612.686792,-2.079211589359703,-1.2340119369670903,-1.434403446582059,1.5724007240782059,-0.7451808485046172,-2.3151640381545526,-0.0011309258565618424,-0.10563367486459786,0.10700000000000008,0.001268438833047355,0.036604849850470536,0.0366266093049135,6.6305639560493095,4.012916000959025,0.31903973224084414,0.0018624376658048724,0.009637107213092322,0.177894481884246
1750772612.6887903,-2.0792138617808167,-1.2342241915474261,-1.4341884465820591,1.5724032728104407,-0.7451072967035159,-2.315090442631183,-0.0011414952570904578,-0.10662090547080905,0.10800000000000008,0.001280293401580508,0.036946951250942224,0.036968914064772505,6.630528309661483,4.012770455162398,0.31903882724223404,0.00186252938058445,0.009637107212631342,0.17786851279448004
1750772612.6907382,-2.079216155340731,-1.2344384205889734,-1.433971446582059,1.5724058452518124,-0.7450330606996136,-2.3150161624982935,-0.001152064657619073,-0.10760813607702024,0.10900000000000008,0.0012921479701136608,0.03728905265141391,0.03731121882463151,6.6304921879868255,4.012623371712595,0.31903791595092224,0.00186262161042758,0.00963710721216606,0.17784227996899893
1750772612.6930363,-2.0792184700394465,-1.2346546240917338,-1.4337524465820586,1.572408441402321,-0.7449581404929102,-2.3149411977558847,-0.0011626340581476886,-0.10859536668323144,0.11000000000000008,0.0013040025386468136,0.0376311540518856,0.03765352358449052,6.630455587032775,4.012474745513391,0.3190369984260637,0.0018627143459662775,0.009637107211696673,0.17781578279739604
1750772612.6948712,-2.0792208058769646,-1.2348728020557065,-1.4335314465820588,1.5724110612619668,-0.7448825360834057,-2.3148655484039558,-0.0011732034586763038,-0.10958259728944264,0.11100000000000008,0.0013158571071799664,0.03797325545235729,0.03799582834434952,6.630418502769928,4.0123245714219395,0.31903607472736295,0.001862807577747229,0.009637107211223189,0.17778902066386829
1750772612.6966622,-2.079223162853282,-1.2350929544808915,-1.4333084465820587,1.5724137048307498,-0.744806247471101,-2.314789214442507,-0.0011837728592049193,-0.11056982789565384,0.11200000000000009,0.0013277116757131194,0.038315356852828976,0.03833813310420853,6.630380931132002,4.012172844248797,0.3190351449150747,0.0018629012962320553,0.00963710721074561,0.17776199294726358
1750772612.698633,-2.079225540968401,-1.2353150813672888,-1.4330834465820583,1.5724163721086697,-0.7447292746559953,-2.3147121958715386,-0.0011943422597335345,-0.11155705850186502,0.11300000000000009,0.0013395662442462722,0.038657458253300664,0.03868043786406753,6.630342868015913,4.012019558757935,0.3190342090500031,0.0018629954917970845,0.009637107210263948,0.1777346990210484
1750772612.7014825,-2.079227940222321,-1.2355391827148985,-1.4328564465820586,1.5724190630957267,-0.7446516176380875,-2.314634492691051,-0.00120491166026215,-0.11254428910807622,0.11400000000000009,0.001351420812779425,0.03899955965377235,0.039022742623926535,6.630304309281707,4.011864709666738,0.31903326719350195,0.0018630901547336176,0.009637107209778199,0.17770713825333537
1750772612.7030122,-2.0792303606150417,-1.2357652585237213,-1.4326274465820585,1.572421777791921,-0.7445732764173796,-2.314556104901043,-0.0012154810607907652,-0.11353151971428742,0.11500000000000009,0.001363275381312578,0.03934166105424404,0.03936504738378554,6.63026525075261,4.011708291646046,0.3190323194074767,0.001863185275247848,0.009637107209288375,0.17767931000688844
1750772612.7047462,-2.0792328021465636,-1.2359933087937565,-1.4323964465820591,1.572424516197252,-0.7444942509938706,-2.314477032501516,-0.0012260504613193807,-0.11451875032049862,0.11600000000000009,0.0013751299498457308,0.03968376245471573,0.03970735214364454,6.630225688214977,4.011550299320122,0.319031365754382,0.0018632808434608384,0.009637107208794479,0.17765121363912678
1750772612.7068062,-2.0792352648168873,-1.236223333525004,-1.4321634465820585,1.5724272783117201,-0.7444145413675605,-2.3143972754924684,-0.001236619861847996,-0.11550598092670981,0.11700000000000009,0.0013869845183788836,0.040025863855187416,0.04004965690350355,6.630185617418333,4.0113907272667,0.31903040629722296,0.0018633768494087336,0.009637107208296516,0.1776228485021373
1750772612.7088158,-2.079237748626012,-1.2364553327174628,-1.4319284465820585,1.5724300641353255,-0.7443341475384502,-2.3143168338739017,-0.0012471892623766114,-0.116493211532921,0.11800000000000009,0.0013988390869120364,0.0403679652556591,0.040391961663362556,6.630145034075358,4.011229570016978,0.31902944109955583,0.0018634732830425862,0.009637107207794296,0.17759421394266608
1750772612.7108333,-2.0792402535739365,-1.2366893063711348,-1.4316914465820592,1.572432873668068,-0.7442530695065379,-2.3142357076458153,-0.0012577586629052267,-0.1174804421391322,0.11900000000000009,0.0014106936554451894,0.040710066656130785,0.04073426642322156,6.63010393386186,4.011066822055623,0.31902847022548647,0.0018635701342286236,0.009637107207288413,0.17756530930215964
1750772612.7126873,-2.079242779660663,-1.2369252544860192,-1.4314524465820586,1.5724357069099473,-0.7441713072718255,-2.3141538968082087,-0.001268328063433842,-0.1184676727453434,0.12000000000000009,0.0014225482239783422,0.04105216805660247,0.041076571183080564,6.630062312416837,4.010902477820808,0.31902749373967254,0.0018636673927480286,0.009637107206778284,0.17753613391673928
1750772612.7148547,-2.0792453268861903,-1.2371631770621168,-1.4312114465820587,1.5724385638609637,-0.7440888608343119,-2.314071401361083,-0.0012788974639624574,-0.11945490335155459,0.1210000000000001,0.001434402792511495,0.04139426945707416,0.04141887594293957,6.630020165342411,4.010736531704203,0.3190265117073221,0.0018637650482971942,0.009637107206264109,0.17750668711722326
1750772612.7167974,-2.0792478952505187,-1.2374030740994257,-1.4309684465820585,1.5724414445211172,-0.7440057301939973,-2.313988221304437,-0.0012894668644910727,-0.12044213395776579,0.1220000000000001,0.0014462573610446478,0.04173637085754585,0.04176118070279857,6.629977488203866,4.010568978050987,0.31902552419419433,0.0018638630904876396,0.009637107205745897,0.1774769682291356
1750772612.7186418,-2.079250484753649,-1.237644945597948,-1.4307234465820589,1.5724443488904079,-0.7439219153508816,-2.3139043566382718,-0.0013000362650196881,-0.12142936456397697,0.1230000000000001,0.0014581119295778008,0.04207847225801754,0.042103485462657575,6.629934276529643,4.010399811159877,0.3190245312665993,0.0018639615088460822,0.009637107205223651,0.17744697657271036
1750772612.720736,-2.079253095395579,-1.2378887915576815,-1.430476446582059,1.5724472769688356,-0.7438374163049648,-2.3138198073625866,-0.0013106056655483034,-0.12241659517018817,0.1240000000000001,0.0014699664981109536,0.042420573658489225,0.042445790222516586,6.629890525811305,4.0102290252831105,0.31902353299139835,0.0018640602928144808,0.009637107204697378,0.17741671146290702
1750772612.7226882,-2.07925572717631,-1.2381346119786283,-1.4302274465820588,1.5724502287564004,-0.7437522330562478,-2.3137345734773813,-0.0013211750660769186,-0.12340382577639936,0.12500000000000008,0.0014818210666441064,0.042762675058960906,0.04278809498237558,6.629846231503602,4.010056614626497,0.3190225294360041,0.0018641594317499591,0.009637107204166887,0.17738617220939248
1750772612.724692,-2.079258380095843,-1.2383824068607874,-1.4299764465820584,1.5724532042531023,-0.7436663656047298,-2.3136486549826567,-0.001331744466605534,-0.12439105638261055,0.12600000000000008,0.0014936756351772592,0.043104776459432594,0.043130399742234586,6.629801389024409,4.009882573349389,0.31902152066838163,0.001864258914925208,0.009637107203632771,0.1773553581166085
1750772612.7269053,-2.079261054154177,-1.2386321762041588,-1.4297234465820585,1.572456203458941,-0.7435798139504097,-2.313562051878413,-0.0013423138671341494,-0.12537828698882175,0.12700000000000009,0.001505530203710412,0.04344687785990428,0.04347270450209359,6.6297559937547605,4.0097068955647295,0.31902050675704563,0.0018643587315279677,0.00963710720309445,0.1773242684837044
1750772612.7313561,-2.079261054154177,-1.2386321762041588,-1.4297234465820585,1.572456203458941,-0.7435798139504097,-2.313562051878413,-0.0013423138671341494,-0.12537828698882175,0.12700000000000009,0.001505530203710412,0.04344687785990428,0.04347270450209359,6.6297559937547605,4.0097068955647295,0.31902050675704563,0.0018643587315279677,0.00963710720309445,0.1773242684837044
1750772612.7317452,-2.0792637493513118,-1.2388839200087425,-1.4294684465820584,1.572459226373917,-0.7434925780932895,-2.3134747641646487,-0.0013528832676627646,-0.12636551759503295,0.12800000000000009,0.0015173847722435648,0.04378897926037597,0.0438150092619526,6.629710041038831,4.009529575339048,0.3190194877710645,0.0018644588706615778,0.009637107202552125,0.1772929026046052
1750772612.7346776,-2.0792664656872475,-1.2391376382745385,-1.429211446582059,1.57246227299803,-0.7434046580333682,-2.313386791841365,-0.00136345266819138,-0.12735274820124415,0.1290000000000001,0.0015292393407767178,0.04413108066084766,0.044157314021811604,6.629663526183948,4.009350606692464,0.3190184637800568,0.0018645593213446453,0.0096371072020058,0.1772612597679784
1750772612.7350092,-2.079269203161985,-1.2393933310015477,-1.428952446582059,1.57246534333128,-0.7433160537706467,-2.3132981349085613,-0.0013740220687199953,-0.12833997880745532,0.1300000000000001,0.0015410939093098706,0.044473182061319345,0.04449961878167061,6.629616444460594,4.009169983598729,0.3190174348541944,0.0018646600725113942,0.009637107201455485,0.1772293392572856
1750772612.7366877,-2.0792719617755218,-1.2396509981897683,-1.428691446582059,1.5724684373736673,-0.7432267653051232,-2.313208793366238,-0.0013845914692486108,-0.12932720941366652,0.1310000000000001,0.0015529484778430234,0.04481528346179103,0.04484192354152961,6.629568791102367,4.008987699985194,0.3190164010642001,0.001864761113011476,0.009637107200901182,0.17719714035075226
1750772612.738703,-2.079274741527861,-1.2399106398392021,-1.4284284465820587,1.5724715551251915,-0.7431367926367987,-2.3131187672143954,-0.001395160869777226,-0.13031444001987771,0.1320000000000001,0.0015648030463761764,0.045157384862262714,0.045184228301388615,6.629520561306069,4.008803749732886,0.3190153624813495,0.0018648624316101037,0.009637107200342703,0.17716466232139652
1750772612.7407017,-2.0792775424190015,-1.2401722559498483,-1.428163446582059,1.572474696585853,-0.7430461357656739,-2.3130280564530326,-0.0014057302703058415,-0.1313016706260889,0.1330000000000001,0.0015766576149093292,0.0454994862627344,0.04552653306124762,6.629471750231595,4.00861812667646,0.3190143191774706,0.00186496401698806,0.009637107199780642,0.17713190443703372
1750772612.74283,-2.079280364448943,-1.2404358465217067,-1.427896446582059,1.5724778617556512,-0.7429547946917481,-2.31293666108215,-0.0014162996708344568,-0.1322889012323001,0.1340000000000001,0.001588512183442482,0.04584158766320609,0.04586883782110662,6.6294223530020115,4.008430824604245,0.3190132712249432,0.0018650658577417803,0.009637107199214416,0.17709886596028468
1750772612.7446892,-2.079283207617685,-1.2407014115547774,-1.4276274465820586,1.5724810506345865,-0.7428627694150212,-2.312844581101748,-0.0014268690713630722,-0.1332761318385113,0.1350000000000001,0.0016003667519756347,0.04618368906367778,0.04621114258096563,6.629372364703527,4.008241837258254,0.31901221869670016,0.0018651679423834129,0.00963710719864423,0.17706554614858985
1750772612.746616,-2.079286071925228,-1.2409689510490605,-1.427356446582059,1.572484263222659,-0.7427700599354932,-2.312751816511826,-0.0014374384718916875,-0.1342633624447225,0.1360000000000001,0.0016122213205087877,0.046525790464149466,0.04655344734082464,6.629321780385495,4.008051158334194,0.31901116166622673,0.0018652702593407041,0.009637107198070089,0.17703194425419985
1750772612.7486658,-2.0792889573715723,-1.2412384650045567,-1.427083446582059,1.5724874995198685,-0.742676666253165,-2.312658367312385,-0.001448007872420303,-0.1352505930509337,0.1370000000000001,0.0016240758890419405,0.046867891864621154,0.04689575210068364,6.629270595060418,4.00785878148148,0.31901010020756115,0.0018653727969573073,0.009637107197491999,0.17699805952422204
1750772612.7510908,-2.0792918639567173,-1.2415099534212644,-1.4268084465820587,1.5724907595262152,-0.7425825883680348,-2.3125642335034238,-0.0014585772729489182,-0.1362378236571449,0.1380000000000001,0.0016359304575750933,0.04720999326509284,0.047238056860542645,6.6292188037039415,4.007664700303246,0.3190090343952944,0.0018654755434926052,0.009637107196909965,0.17696389120059108
1750772612.753177,-2.079294791680664,-1.2417834162991852,-1.426531446582059,1.572494043241699,-0.7424878262801045,-2.3124694150849425,-0.0014691466734775335,-0.13722505426335607,0.1390000000000001,0.0016477850261082461,0.04755209466556453,0.04758036162040165,6.629166401254864,4.007468908356375,0.3190079643045703,0.0018655784871218315,0.009637107196323996,0.1769294385200998
1750772612.7550929,-2.079297740543412,-1.2420588536383175,-1.4262524465820583,1.5724973506663196,-0.742392379989373,-2.312373912056942,-0.001479716074006149,-0.13821228486956727,0.1400000000000001,0.0016596395946413991,0.04789419606603622,0.04792266638026065,6.629113382615108,4.007271399151475,0.3190068900110856,0.0018656816159361065,0.009637107195734095,0.17689470071440294
1750772612.7568593,-2.0793007105449597,-1.242336265438663,-1.425971446582059,1.5725006818000775,-0.7422962494958405,-2.3122777244194217,-0.0014902854745347642,-0.13919951547577847,0.1410000000000001,0.001671494163174552,0.048236297466507906,0.048264971140119656,6.629059742649763,4.0070721661529545,0.31900581159109115,0.0018657849179425211,0.009637107195140273,0.17685967701002725
1750772612.7588212,-2.07930370168531,-1.2426156517002207,-1.4256884465820585,1.5725040366429723,-0.7421994347995069,-2.3121808521723817,-0.0015008548750633796,-0.14018674608198967,0.1420000000000001,0.0016833487317077047,0.048578398866979594,0.048607275899978666,6.629005476187067,4.006871202778977,0.31900472912139016,0.001865888381064141,0.00963710719454253,0.1768243666283863
1750772612.7607825,-2.07930671396446,-1.2428970124229908,-1.4254034465820586,1.5725074151950043,-0.7421019359003722,-2.312083295315822,-0.001511424275591995,-0.14117397668820086,0.1430000000000001,0.0016952033002408577,0.048920500267451275,0.04894958065983767,6.628950578018383,4.0066685024015225,0.31900364267934056,0.001865991993139986,0.009637107193940685,0.17678876878577038
1750772612.7627826,-2.0793097473824123,-1.2431803476069732,-1.4251164465820585,1.5725108174561733,-0.7420037527984373,-2.311985053849742,-0.0015219936761206104,-0.14216120729441206,0.1440000000000001,0.0017070578687740105,0.04926260166792296,0.049291885419696674,6.628895042898239,4.006464058346354,0.31900255234285213,0.0018660957419252872,0.009637107193335326,0.17675288269339368
1750772612.7647512,-2.0793128019391656,-1.2434656572521687,-1.424827446582059,1.5725142434264794,-0.7419048854937005,-2.3118861277741427,-0.0015325630766492256,-0.14314843790062326,0.1450000000000001,0.0017189124373071633,0.04960470306839465,0.04963419017955568,6.628838865544305,4.00625786389309,0.3190014581903902,0.001866199615091322,0.009637107192725874,0.17671670755736926
1750772612.7668,-2.079315877634719,-1.2437529413585757,-1.4245364465820582,1.5725176931059226,-0.7418053339861634,-2.3117865170890237,-0.001543132477177841,-0.14413566850683446,0.1460000000000001,0.001730767005840316,0.04994680446886634,0.04997649493941468,6.628782040637371,4.006049912275165,0.3190003603009724,0.001866303600225543,0.009637107192112533,0.17668024257873413
1750772612.7687573,-2.079318974469073,-1.244042199926196,-1.424243446582059,1.5725211664945027,-0.7417050982758253,-2.3116862217943854,-0.0015537018777064563,-0.14512289911304566,0.1470000000000001,0.0017426215743734691,0.05028890586933803,0.050318799699273685,6.628724562821419,4.005840196679891,0.31899925875417157,0.001866407684831617,0.00963710719149531,0.1766434869534604
1750772612.7707968,-2.0793220924422293,-1.2443334329550284,-1.4239484465820587,1.57252466359222,-0.7416041783626861,-2.311585241890227,-0.0015642712782350718,-0.14611012971925685,0.1480000000000001,0.001754476142906622,0.050631007269809715,0.050661104459132696,6.628666426703549,4.005628710248437,0.31899815363011375,0.0018665118563295376,0.009637107190874208,0.17660643987246502
1750772612.772773,-2.0793252315541864,-1.2446266404450732,-1.4236514465820589,1.5725281843990744,-0.7415025742467458,-2.3114835773765487,-0.001574840678763687,-0.14709736032546802,0.1490000000000001,0.0017663307114397747,0.0509731086702814,0.0510034092189917,6.6286076268540155,4.0054154460758715,0.3189970450094796,0.001866616102055466,0.009637107190249235,0.17656910052160454
1750772612.7747948,-2.0793283918049443,-1.2449218223963303,-1.4233524465820588,1.5725317289150658,-0.7414002859280044,-2.311381228253351,-0.0015854100792923025,-0.14808459093167922,0.1500000000000001,0.0017781852799729277,0.05131521007075309,0.0513457139788507,6.628548157806202,4.005200397211142,0.3189959329735035,0.001866720409262137,0.009637107189620402,0.176531468081722
1750772612.7770011,-2.0793315731945032,-1.2452189788087997,-1.4230514465820585,1.5725352971401942,-0.7412973134064629,-2.311278194520633,-0.0015959794798209178,-0.14907182153789042,0.1510000000000001,0.0017900398485060805,0.05165731147122478,0.05168801873870971,6.628488014056671,4.004983556657153,0.3189948176039753,0.0018668247651185508,0.009637107188987712,0.17649354172862095
1750772612.7852256,-2.079334775722864,-1.2455181096824814,-1.4227484465820588,1.5725388890744598,-0.7411936566821202,-2.311174476178396,-0.001606548880349533,-0.15005905214410162,0.1520000000000001,0.0018018944170392333,0.05199941287169647,0.05203032349856871,6.628427190065116,4.004764917370722,0.3189936989832384,0.0018669291567102414,0.009637107188351172,0.1764553206330933
1750772612.7856643,-2.0793412441959873,-1.2461222948134827,-1.4221364465820585,1.572546144070402,-0.7409842906250308,-2.3109649856653625,-0.0016276876814067638,-0.152033513356524,0.1540000000000001,0.001825603554105539,0.052683615672639836,0.05271493301828672,6.628303479010434,4.004322214197599,0.31899145232028814,0.001867137995024125,0.00963710718706638,0.17637799087292372
1750772612.7866943,-2.079344510140751,-1.2464273490708022,-1.4218274465820588,1.572549807132079,-0.7408785812922858,-2.310859213494566,-0.0016382570819353792,-0.1530207439627352,0.1550000000000001,0.0018374581226386919,0.053025717073111524,0.05305723777814573,6.628240580682446,4.004098135994381,0.3189903244455358,0.0018672424155001801,0.009637107186418532,0.17633888052489738
1750772612.7886877,-2.0793477972243153,-1.246734377789334,-1.421516446582059,1.5725534939028927,-0.7407721877567388,-2.31075275671425,-0.0016488264824639945,-0.1540079745689464,0.1560000000000001,0.0018493126911718447,0.05336781847358321,0.05339954253800473,6.628176979582694,4.003872230425702,0.3189891936544982,0.0018673468192192014,0.00963710718576667,0.17629947206768531
1750772612.7906923,-2.0793511054466807,-1.2470433809690782,-1.4212034465820587,1.5725572043828435,-0.7406651100183907,-2.3106456153244137,-0.00165939588299261,-0.1549952051751576,0.1570000000000001,0.0018611672597049977,0.0537099198740549,0.053741847297863736,6.628112669986622,4.003644490218314,0.31898806003229324,0.0018674511928499155,0.009637107185110993,0.17625976464718415
1750772612.7927759,-2.079354434807847,-1.2473543586100346,-1.420888446582059,1.5725609385719315,-0.7405573480772425,-2.3105377893250583,-0.0016699652835212252,-0.1559824357813688,0.1580000000000001,0.0018730218282381505,0.05405202127452659,0.05408415205772274,6.628047646132822,4.003414908053009,0.31898692366459486,0.001867555522977686,0.009637107184451509,0.17621975740433102
1750772612.7946644,-2.079357785307815,-1.2476673107122034,-1.4205714465820591,1.5725646964701565,-0.7404489019332932,-2.310429278716183,-0.0016805346840498407,-0.15696966638757998,0.1590000000000001,0.0018848763967713033,0.054394122674998276,0.05442645681758174,6.6279819022230475,4.003183476564635,0.318985784637632,0.0018676597961047765,0.009637107183788228,0.17617944947512892
1750772612.796619,-2.0793611569465833,-1.2479822372755844,-1.420252446582059,1.5725684780775186,-0.7403397715865427,-2.310320083497788,-0.001691104084578456,-0.15795689699379117,0.16000000000000011,0.001896730965304456,0.054736224075469964,0.05476876157744075,6.627915432422172,4.002950188342089,0.318984643038188,0.001867763998650314,0.009637107183121156,0.1761388399906589
1750772612.798593,-2.0793645497241524,-1.2482991383001787,-1.4199314465820585,1.5725722833940177,-0.7402299570369912,-2.310210203669873,-0.0017016734851070714,-0.15894412760000237,0.16100000000000012,0.001908585533837609,0.05507832547594165,0.05511106633729975,6.627848230858268,4.0027150359284045,0.31898349895360417,0.0018678681169503667,0.009637107182450299,0.17609792807708813
1750772612.8006468,-2.0793679636405233,-1.2486180137859852,-1.4196084465820586,1.572576112419654,-0.7401194582846387,-2.3100996392324387,-0.0017122428856356866,-0.15993135820621357,0.16200000000000012,0.0019204401023707619,0.05542042687641334,0.05545337109715876,6.6277802916225355,4.002478011820682,0.3189823524717755,0.0018679721372580624,0.009637107181775668,0.1760567128556874
1750772612.8031068,-2.0793679636405233,-1.2486180137859852,-1.4196084465820586,1.572576112419654,-0.7401194582846387,-2.3100996392324387,-0.0017122428856356866,-0.15993135820621357,0.16200000000000012,0.0019204401023707619,0.05542042687641334,0.05545337109715876,6.6277802916225355,4.002478011820682,0.3189823524717755,0.0018679721372580624,0.009637107181775668,0.1760567128556874
1750772612.804805,-2.079374854889668,-1.2492616881412344,-1.418956446582059,1.5725838415983375,-0.7398964081715311,-2.3098764565290106,-0.0017333816866929174,-0.16190581941863597,0.16400000000000012,0.0019441492394370674,0.056104629677356715,0.05613798061687677,6.627642176316186,4.001998318282237,0.3189800526707461,0.001868179828493836,0.009637107180415104,0.17597336895001403
1750772612.8066437,-2.0793783322224417,-1.2495864870106779,-1.4186274465820592,1.572587741751385,-0.7397838568107762,-2.309763838263017,-0.0017439510872215326,-0.16289305002484716,0.16500000000000012,0.0019560038079702202,0.056446731077828396,0.05648028537673577,6.6275719882437585,4.001755633616451,0.31897889953011627,0.0018682834715136607,0.009637107179728991,0.17593123848388886
1750772612.808693,-2.0793818306940173,-1.2499132603413337,-1.4182964465820582,1.5725916656135694,-0.7396706212472202,-2.3096505353875036,-0.001754520487750148,-0.16388028063105836,0.16600000000000012,0.0019678583765033735,0.056788832478300084,0.056822590136594776,6.627501038495888,4.001511046786529,0.31897774434938403,0.0018683869607245733,0.009637107179039527,0.1758888011462361
1750772612.8108451,-2.0793853503043938,-1.2502420081332026,-1.4179634465820588,1.572595613184891,-0.739556701480863,-2.3095365479024705,-0.0017650898882787633,-0.16486751123726956,0.16700000000000012,0.0019797129450365263,0.05713093387877177,0.05716489489645378,6.62742932097957,4.001264550060408,0.3189765872192248,0.0018684902819654798,0.009637107178346127,0.1758460560340026
1750772612.812732,-2.0793888910535703,-1.250572730386283,-1.417628446582059,1.5725995844653495,-0.7394420975117049,-2.309421875807918,-0.0017756592888073788,-0.16585474184348073,0.16800000000000012,0.001991567513569679,0.05747303527924346,0.057507199656312784,6.627356829564954,4.0010161356602385,0.31897542823087177,0.0018685934209926904,0.009637107177648995,0.17580300223930823
1750772612.814785,-2.0793924529415486,-1.2509054271005766,-1.417291446582059,1.5726035794549453,-0.7393268093397456,-2.3093065191038455,-0.001786228689335994,-0.16684197244969193,0.16900000000000012,0.002003422082102832,0.05781513667971515,0.057849504416171794,6.627283558085349,4.000765795762386,0.31897426747611224,0.001868696363479951,0.009637107176948143,0.1757596388494619
1750772612.8166401,-2.079396035968328,-1.2512400982760816,-1.4169524465820587,1.572607598153678,-0.7392108369649861,-2.309190477790253,-0.0017967980898646095,-0.16782920305590313,0.17000000000000012,0.0020152766506359846,0.058157238080186836,0.0581918091760308,6.627209500337244,4.000513522497517,0.318973105047293,0.0018687990950183038,0.009637107176243576,0.17571596494695665
1750772612.818642,-2.079399640133908,-1.2515767439127998,-1.416611446582059,1.5726116405615478,-0.7390941803874256,-2.309073751867141,-0.0018073674903932248,-0.16881643366211432,0.17100000000000012,0.0020271312191691374,0.058499339480658524,0.0585341139358898,6.62713465008028,4.000259307950546,0.31897194103731547,0.0018689016011165433,0.0096371071755353,0.17567197960951866
1750772612.8206153,-2.0794032654382892,-1.2519153640107303,-1.416268446582059,1.5726157066785547,-0.7389768396070631,-2.3089563413345098,-0.0018179368909218402,-0.16980366426832552,0.17200000000000013,0.00203898578770229,0.05884144088113021,0.058876418695748806,6.627059001037264,4.000003144160692,0.3189707755396388,0.0018690038672009195,0.009637107174823327,0.17562768191008454
1750772612.8227484,-2.079406911881472,-1.2522559585698732,-1.4159234465820587,1.5726197965046986,-0.7388588146239004,-2.3088382461923582,-0.0018285062914504555,-0.17079089487453672,0.17300000000000013,0.0020508403562354434,0.0591835422816019,0.05921872345560781,6.626982546894181,3.9997450231214904,0.31896960864827884,0.0018691058786153777,0.009637107174107663,0.17558307091683015
1750772612.824654,-2.079410579463455,-1.2525985275902283,-1.415576446582059,1.5726239100399797,-0.7387401054379374,-2.3087194664406874,-0.001839075691979071,-0.17177812548074792,0.17400000000000013,0.0020626949247685962,0.05952564368207359,0.05956102821546681,6.626905281300171,3.9994849367808163,0.3189684404578088,0.001869207620621523,0.009637107173388315,0.1755381456931838
1750772612.8267233,-2.079414268184239,-1.2529430710717957,-1.4152274465820582,1.5726280472843976,-0.7386207120491726,-2.3086000020794963,-0.0018496450925076862,-0.17276535608695912,0.17500000000000013,0.002074549493301749,0.05986774508254527,0.05990333297532582,6.626827197867548,3.999222877040892,0.31896727106335815,0.001869309078398797,0.009637107172665096,0.1754929052978365
1750772612.8286958,-2.079417978043825,-1.2532895890145763,-1.414876446582059,1.572632208237953,-0.7385006344576066,-2.308479853108786,-0.0018602144930363015,-0.1737525866931703,0.17600000000000013,0.002086404061834902,0.06020984648301696,0.06024563773518483,6.626748290171813,3.998958835758329,0.318966100560614,0.0018694102370445114,0.009637107171938603,0.1754473487847606
1750772612.833225,-2.0794217090422116,-1.2536380814185684,-1.4145234465820593,1.572636392900645,-0.7383798726632405,-2.308359019528556,-0.001870783893564917,-0.1747398172993815,0.17700000000000013,0.0020982586303680546,0.060551947883488645,0.06058794249504383,6.626668551751623,3.9986928047441324,0.3189649290458217,0.0018695110815737138,0.009637107171208255,0.17540147520320462
1750772612.8361783,-2.0794217090422116,-1.2536380814185684,-1.4145234465820593,1.572636392900645,-0.7383798726632405,-2.308359019528556,-0.001870783893564917,-0.1747398172993815,0.17700000000000013,0.0020982586303680546,0.060551947883488645,0.06058794249504383,6.626668551751623,3.9986928047441324,0.3189649290458217,0.0018695110815737138,0.009637107171208255,0.17540147520320462
1750772612.8367755,-2.0794292344553877,-1.2543409896101911,-1.4138114465820593,1.5726448333534406,-0.738136296466104,-2.308115298539536,-0.0018919226946221477,-0.17671427851180388,0.17900000000000013,0.00212196776743436,0.06123615068443202,0.06127255201476184,6.626506556708423,3.9981547405369717,0.3189625833678577,0.0018697117679334313,0.009637107169736616,0.17530877300825667
1750772612.8386846,-2.079433028870178,-1.254695405397821,-1.4134524465820588,1.572649089143544,-0.7380134820633355,-2.307992411130747,-0.001902492095150763,-0.17770150911801508,0.18000000000000013,0.002133822335967513,0.06157825208490371,0.06161485677462084,6.626424286978635,3.997882690738198,0.318961409399963,0.0018698115793843602,0.009637107168995343,0.1752619424699587
1750772612.8406913,-2.0794368444237694,-1.2550517956466631,-1.413091446582059,1.5726533686427846,-0.737889983457765,-2.307868839112438,-0.0019130614956793784,-0.17868873972422628,0.18100000000000013,0.002145676904500666,0.0619203534853754,0.061957161534479846,6.626341160310835,3.9976086179962165,0.31896023481057406,0.001869911015959878,0.009637107168250444,0.17521479101341017
1750772612.8427172,-2.0794406811161608,-1.2554101603567176,-1.4127284465820589,1.572657671851162,-0.7377658006493935,-2.307744582484609,-0.0019236308962079936,-0.17967597033043747,0.18200000000000013,0.002157531473033819,0.062262454885847085,0.06229946629433886,6.626257170059575,3.9973325138943334,0.3189590596987239,0.0018700100622656304,0.009637107167501928,0.17516731766453655
1750772612.844756,-2.079444538947353,-1.2557704995279853,-1.4123634465820585,1.5726619987686767,-0.7376409336382217,-2.3076196412472605,-0.001934200296736609,-0.18066320093664867,0.18300000000000013,0.002169386041566972,0.06260455628631877,0.06264177105419785,6.626172309542612,3.9970543699703898,0.3189578841640031,0.0018701087028255544,0.009637107166749608,0.17511952144462004
1750772612.846605,-2.079448417917348,-1.2561328131604643,-1.4119964465820587,1.5726663493953283,-0.737515382424248,-2.3074940154003922,-0.0019447696972652243,-0.18165043154285987,0.18400000000000014,0.0021812406101001246,0.06294665768679046,0.06298407581405686,6.626086572040906,3.9967741777167762,0.31895670830656125,0.0018702069220821486,0.009637107165994273,0.17507140137037097
1750772612.8486705,-2.079452318026142,-1.2564971012541566,-1.4116274465820586,1.572670723731117,-0.737389147007474,-2.3073677049440042,-0.00195533909779384,-0.18263766214907107,0.18500000000000014,0.0021930951786332774,0.06328875908726214,0.06332638057391586,6.625999950798554,3.9964919285804417,0.3189555322271048,0.00187030470439599,0.009637107165234566,0.17502295645384877
1750772612.8506687,-2.079456239273739,-1.2568633638090603,-1.4112564465820583,1.5726751217760429,-0.737262227387899,-2.3072407098780965,-0.001965908498322455,-0.18362489275528227,0.18600000000000014,0.00220494974716643,0.06363086048773384,0.06366868533377487,6.625912439022904,3.996207613962945,0.31895435602689987,0.001870402034046607,0.009637107164472056,0.17497418570259232
1750772612.8531601,-2.079456239273739,-1.2568633638090603,-1.4112564465820583,1.5726751217760429,-0.737262227387899,-2.3072407098780965,-0.001965908498322455,-0.18362489275528227,0.18600000000000014,0.00220494974716643,0.06363086048773384,0.06366868533377487,6.625912439022904,3.996207613962945,0.31895435602689987,0.001870402034046607,0.009637107164472056,0.17497418570259232
1750772612.854908,-2.079460181660136,-1.2572316008251772,-1.4108834465820586,1.5726795435301058,-0.737134623565523,-2.307113030202669,-0.0019764778988510703,-0.18461212336149344,0.18700000000000014,0.002216804315699583,0.06397296188820552,0.06401099009363388,6.625824029884461,3.995921225220455,0.3189531798077699,0.001870498895231708,0.009637107163705192,0.17492508811951785
1750772612.856678,-2.0794641451853337,-1.2576018123025072,-1.4105084465820585,1.5726839889933057,-0.7370063355403467,-2.3069846659177218,-0.0019870472993796856,-0.18559935396770463,0.18800000000000014,0.002228658884232736,0.06431506328867721,0.06435329485349288,6.625734716516938,3.9956327536637537,0.31895200367209664,0.0018705952720678347,0.009637107162935546,0.17487566270301463
1750772612.8589349,-2.0794681298493334,-1.2579739982410487,-1.4101314465820582,1.5726884581656426,-0.7368773633123684,-2.306855617023255,-0.0019976166999083013,-0.18658658457391583,0.18900000000000014,0.002240513452765889,0.0646571646891489,0.06469559961335189,6.62564449201727,3.9953421905583304,0.3189508277228217,0.001870691148590361,0.00963710716216156,0.17482590844695786
1750772612.8607142,-2.079472135652134,-1.2583481586408025,-1.4097524465820586,1.5726929510471166,-0.73674770688159,-2.3067258835192685,-0.0020081861004369165,-0.18757381518012703,0.19000000000000014,0.0022523680212990418,0.06499926608962059,0.06503790437321089,6.625553349445563,3.9950495271243223,0.3189496520634439,0.001870786508753162,0.009637107161384805,0.1747758243406455
1750772612.8628685,-2.0794761625937355,-1.2587242935017686,-1.4093714465820586,1.5726974676377279,-0.7366173662480104,-2.306595465405762,-0.0020187555009655318,-0.18856104578633823,0.19100000000000014,0.0022642225898321946,0.06534136749009227,0.0653802091330699,6.625461281825145,3.9947547545365887,0.3189484767980217,0.0018708813364293907,0.00963710716060373,0.17472540936893094
1750772612.8647275,-2.079480210674138,-1.259102402823948,-1.4089884465820592,1.572702007937476,-0.7364863414116298,-2.306464362682736,-0.002029324901494147,-0.18954827639254943,0.19200000000000014,0.0022760771583653474,0.06568346889056395,0.06572251389292891,6.625368282142557,3.9944578639247195,0.3189473020311717,0.0018709756154107015,0.009637107159819516,0.17467466251212474
1750772612.8668692,-2.0794842798933413,-1.2594824866073395,-1.4086034465820587,1.5727065719463613,-0.7363546323724481,-2.3063325753501904,-0.0020398943020227627,-0.19053550699876062,0.19300000000000014,0.0022879317268985,0.06602557029103565,0.0660648186527879,6.625274343347544,3.9941588463730575,0.31894612786807036,0.0018710693294079939,0.009637107159032174,0.1746235827460833
1750772612.8687112,-2.0794883702513456,-1.2598645448519425,-1.4082164465820588,1.5727111596643837,-0.7362222391304654,-2.3062001034081248,-0.002050463702551378,-0.19152273760497182,0.19400000000000014,0.002299786295431653,0.06636767169150733,0.06640712341264692,6.625179458353062,3.993857692920725,0.3189449544144522,0.0018711624620514054,0.009637107158240534,0.1745721690422246
1750772612.870824,-2.079492481748151,-1.2602485775577588,-1.4078274465820586,1.572715771091543,-0.7360891616856815,-2.30606694685654,-0.002061033103079993,-0.19250996821118302,0.19500000000000015,0.002311640863964806,0.06670977309197902,0.06674942817250591,6.625083620035298,3.993554394561648,0.31894378177661076,0.0018712549968898434,0.009637107157446175,0.1745204203674712
1750772612.8726394,-2.0794966143837588,-1.2606345847247873,-1.407436446582059,1.5727204062278395,-0.7359554000380975,-2.305933105695435,-0.0020716025036086085,-0.19349719881739422,0.19600000000000015,0.002323495432497959,0.0670518744924507,0.06709173293236492,6.62498682123366,3.9932489422445836,0.3189426100613996,0.0018713469173919142,0.009637107156647538,0.17446833568437797
1750772612.8747954,-2.079500768158166,-1.261022566353029,-1.4070434465820583,1.572725065073273,-0.7358209541877123,-2.30579857992481,-0.002082171904137224,-0.1944844294236054,0.19700000000000015,0.0023353500010311118,0.0673939758929224,0.06743403769222392,6.624889054750756,3.9929413268731446,0.3189414393762312,0.001871438206945092,0.0096371071558462,0.17441591395102593
1750772612.8767827,-2.079504943071375,-1.2614125224424821,-1.406648446582059,1.5727297476278437,-0.7356858241345261,-2.305663369544666,-0.0020927413046658394,-0.19547166002981659,0.19800000000000015,0.0023472045695642645,0.06773607729339408,0.06777634245208293,6.624790313352442,3.9926315393057954,0.31894026982907636,0.0018715288488567305,0.0096371071550406,0.1743631541211609
1750772612.8812585,-2.0795091391233846,-1.2618044529931476,-1.4062514465820586,1.5727344538915513,-0.7355500098785388,-2.305527474555002,-0.0021033107051944546,-0.19645889063602778,0.19900000000000015,0.0023590591380974173,0.06807817869386577,0.06811864721194194,6.624690589767811,3.992319570355946,0.31893910152846733,0.0018716188263531992,0.009637107154232319,0.17431005514409711
1750772612.883361,-2.0795133563141954,-1.2621983580050262,-1.4058524465820588,1.572739183864396,-0.7354135114197504,-2.3053908949558184,-0.00211388010572307,-0.19744612124223898,0.20000000000000015,0.00237091370663057,0.06842028009433745,0.06846095197180094,6.624589876689179,3.9920054107919056,0.31893793458349406,0.0018717081225806478,0.009637107153419797,0.17425661596480796
1750772612.883774,-2.079517594643807,-1.2625942374781172,-1.4054514465820587,1.5727439375463779,-0.735276328758161,-2.305253630747115,-0.002124449506251685,-0.19843335184845018,0.20100000000000015,0.002382768275163723,0.06876238149480915,0.06880325673165995,6.624488166772099,3.9916890513369436,0.3189367691038068,0.001871796720605014,0.009637107152604607,0.17420283552394128
1750772612.8847504,-2.0795218541122207,-1.2629920914124195,-1.4050484465820592,1.5727487149374966,-0.7351384618937713,-2.305115681928892,-0.002135018906780301,-0.19942058245466138,0.20200000000000015,0.002394622843696876,0.06910448289528083,0.06914556149151894,6.624385452635374,3.9913704826693097,0.31893560519961534,0.001871884603411551,0.009637107151785196,0.17414871275776483
1750772612.8867571,-2.079526134719435,-1.263391919807935,-1.4046434465820585,1.5727535160377526,-0.7349999108265797,-2.304977048501149,-0.002145588307308916,-0.20040781306087257,0.20300000000000015,0.002406477412230029,0.06944658429575251,0.06948786625137796,6.624281726861048,3.9910496954222605,0.31893444298168955,0.0018719717539057638,0.009637107150962748,0.1740942465982907
1750772612.8887348,-2.0795304364654497,-1.2637937226646638,-1.4042364465820585,1.5727583408471455,-0.7348606755565879,-2.3048377304638863,-0.0021561577078375313,-0.20139504366708377,0.20400000000000015,0.0024183319807631817,0.0697886856962242,0.06983017101123695,6.6241769819944025,3.990726680184079,0.31893328256135833,0.001872058154912583,0.00963710715013727,0.17403943597317706
1750772612.8905926,-2.079534759350266,-1.264197499982604,-1.403827446582059,1.5727631893656757,-0.734720756083795,-2.304697727817104,-0.0021667271083661466,-0.20238227427329497,0.20500000000000015,0.0024301865492963345,0.07013078709669589,0.07017247577109596,6.624071210543995,3.9904014274981114,0.3189321240505108,0.001872143789177382,0.009637107149307598,0.17398427980586242
1750772612.892619,-2.0795391033738833,-1.2646032517617565,-1.4034164465820584,1.5727680615933428,-0.734580152408201,-2.304557040560802,-0.0021772965088947623,-0.20336950487950617,0.20600000000000016,0.0024420411178294873,0.07047288849716758,0.07051478053095497,6.623964404981635,3.990073927862792,0.3189309675615969,0.0018722286393651195,0.009637107148475309,0.17392877701547096
1750772612.8946736,-2.0795434685363015,-1.2650109780021221,-1.4030034465820584,1.572772957530147,-0.7344388645298068,-2.30441566869498,-0.0021878659094233775,-0.20435673548571734,0.20700000000000016,0.00245389568636264,0.07081498989763926,0.07085708529081397,6.62385655774238,3.9897441717316644,0.3189298132076253,0.0018723126880611056,0.009637107147638846,0.17387292651690578
1750772612.8966534,-2.0795478548375215,-1.2654206787036992,-1.402588446582059,1.5727778771760883,-0.7342968924486106,-2.3042736122196383,-0.0021984353099519928,-0.20534396609192854,0.20800000000000016,0.002465750254895793,0.07115709129811096,0.07119939005067298,6.6237476612245585,3.989412149513389,0.3189286611021645,0.0018723959177710159,0.009637107146799783,0.17381672722086397
1750772612.898688,-2.0795522622775415,-1.2658323538664895,-1.4021714465820585,1.5727828205311665,-0.7341542361646143,-2.3041308711347774,-0.002209004710480608,-0.20633119669813973,0.20900000000000016,0.002477604823428946,0.07149919269858264,0.07154169481053198,6.623637707789777,3.9890778515718353,0.3189275113593452,0.0018724783109204243,0.009637107145956563,0.17376017803378305
1750772612.90192,-2.0795522622775415,-1.2658323538664895,-1.4021714465820585,1.5727828205311665,-0.7341542361646143,-2.3041308711347774,-0.002209004710480608,-0.20633119669813973,0.20900000000000016,0.002477604823428946,0.07149919269858264,0.07154169481053198,6.623637707789777,3.9890778515718353,0.3189275113593452,0.0018724783109204243,0.009637107145956563,0.17376017803378305
1750772612.9027424,-2.0795566908563625,-1.266246003490492,-1.4017524465820586,1.572787787595382,-0.734010895677816,-2.3039874454403964,-0.0022195741110092237,-0.20731842730435093,0.21000000000000016,0.002489459391962099,0.07184129409905433,0.07188399957039099,6.623526689762912,3.988741268226038,0.31892636409385644,0.001872559849855743,0.009637107145110764,0.1737032778579696
1750772612.9047995,-2.0795611405739853,-1.266661627575707,-1.4013314465820592,1.5727927783687343,-0.7338668709882175,-2.3038433351364955,-0.002230143511537839,-0.20830565791056213,0.21100000000000016,0.0025013139604952517,0.07218339549952602,0.07222630433024999,6.62341459943212,3.9884023897502576,0.31892521942094776,0.0018726405168434084,0.009637107144260831,0.17364602559149564
1750772612.9066935,-2.079565611430409,-1.2670792261221342,-1.4009084465820587,1.572797792851224,-0.7337221620958179,-2.3036985402230754,-0.0022407129120664542,-0.20929288851677333,0.21200000000000016,0.0025131685290284045,0.07252549689999771,0.072568609090109,6.6233014290488414,3.9880612063740086,0.3189240774564301,0.0018727202940708911,0.009637107143408338,0.17358842012833817
1750772612.9087865,-2.0795701034256338,-1.2674987991297737,-1.4004834465820588,1.5728028310428506,-0.7335767690006181,-2.303553060700135,-0.0022512823125950695,-0.21028011912298453,0.21300000000000016,0.0025250230975615573,0.07286759830046939,0.072910913849968,6.623187170827801,3.987717708282082,0.31892293831667373,0.0018727991636458506,0.009637107142551726,0.17353046035828643
1750772612.91083,-2.0795746165596594,-1.2679203465986264,-1.4000564465820586,1.5728078929436142,-0.7334306917026163,-2.3034068965676755,-0.0022618517131236847,-0.21126734972919572,0.21400000000000016,0.00253687766609471,0.07320969970094107,0.073253218609827,6.623071816947021,3.9873718856145737,0.3189218021186095,0.001872877107596909,0.009637107141692185,0.1734721451670323
1750772612.912731,-2.079579150832486,-1.2683438685286905,-1.399627446582059,1.572812978553515,-0.7332839302018144,-2.303260047825696,-0.0022724211136523004,-0.21225458033540692,0.21500000000000016,0.002548732234627863,0.07355180110141277,0.07359552336968601,6.622955359547818,3.987023728466919,0.3189206689797291,0.001872954107873665,0.00963710714082972,0.1734134734361905
1750772612.9149125,-2.0795837062441134,-1.2687693649199678,-1.3991964465820583,1.5728180878725526,-0.7331364844982105,-2.3031125144741966,-0.0022829905141809157,-0.2132418109416181,0.21600000000000016,0.002560586803161016,0.07389390250188445,0.07393782812954501,6.622837790734826,3.986673226889919,0.3189195390180852,0.001873030146346236,0.00963710713996317,0.17335444404324163
1750772612.9168591,-2.0795882827945427,-1.2691968357724575,-1.398763446582059,1.5728232209007276,-0.7329883545918063,-2.302964296513178,-0.002293559914709531,-0.2142290415478293,0.21700000000000016,0.002572441371694169,0.07423600390235614,0.07428013288940402,6.622719102575963,3.986320370889749,0.3189184123522894,0.0018731052048061997,0.009637107139094107,0.1732950558616658
1750772612.918788,-2.079592880483773,-1.2696262810861594,-1.3983284465820587,1.5728283776380394,-0.7328395404826011,-2.3028153939426392,-0.002304129315238146,-0.2152162721540405,0.21800000000000017,0.0025842959402273217,0.07457810530282782,0.07462243764926302,6.622599287102483,3.9859651504280427,0.318917289101516,0.001873179264965788,0.00963710713822098,0.1732353077608381
1750772612.9210017,-2.079597499311804,-1.2700577008610736,-1.3978914465820589,1.5728335580844883,-0.7326900421705949,-2.302665806762581,-0.002314698715766762,-0.2162035027602517,0.21900000000000017,0.0025961505087604745,0.07492020670329952,0.07496474240912203,6.62247833630895,3.9856075554218635,0.3189161693854991,0.0018732523084588803,0.009637107137345361,0.1731751986061703
1750772612.9227226,-2.079602139278636,-1.2704910950972002,-1.3974524465820588,1.5728387622400746,-0.7325398596557884,-2.3025155349730024,-0.002325268116295377,-0.21719073336646288,0.22000000000000017,0.0026080050772936273,0.0752623081037712,0.07530704716898104,6.622356242153245,3.985247575743757,0.31891505332453335,0.0018733243168402639,0.009637107136465699,0.17311472725901614
1750772612.924614,-2.079606800384269,-1.270926463794539,-1.3970114465820584,1.5728439901047977,-0.7323889929381799,-2.3023645785739046,-0.0023358375168239924,-0.21817796397267408,0.22100000000000017,0.00261985964582678,0.0756044095042429,0.07564935192884004,6.622232996556598,3.984885201221795,0.31891394103947446,0.001873395271586218,0.009637107135583566,0.17305389257676598
1750772612.9267437,-2.079611482628703,-1.271363806953091,-1.3965684465820587,1.5728492416786577,-0.7322374420177713,-2.302212937565287,-0.0023464069173526076,-0.21916519457888528,0.22200000000000017,0.002631714214359933,0.07594651090471458,0.07599165668869905,6.62210859140356,3.9845204216395826,0.318912832651739,0.001873465154094707,0.009637107134697407,0.17299269341286777
1750772612.9339893,-2.079616186011938,-1.2718031245728554,-1.3961234465820587,1.572854516961655,-0.7320852068945616,-2.30206061194715,-0.0023569763178812233,-0.22015242518509648,0.22300000000000017,0.002643568782893086,0.07628861230518627,0.07633396144855804,6.621983018542023,3.9841532267363027,0.3189117282833043,0.0018735339456849214,0.009637107133808798,0.17293112861677115
1750772612.934292,-2.0796209105339747,-1.2722444166538311,-1.3956764465820584,1.5728598159537894,-0.7319322875685508,-2.3019076017194933,-0.0023675457184098385,-0.22113965579130768,0.22400000000000017,0.002655423351426239,0.07663071370565795,0.07667626620841705,6.621856269783252,3.9837836062067504,0.3189106280567091,0.0018736016275980706,0.009637107132916186,0.17286919703405784
1750772612.9344904,-2.0796209105339747,-1.2722444166538311,-1.3956764465820584,1.5728598159537894,-0.7319322875685508,-2.3019076017194933,-0.0023675457184098385,-0.22113965579130768,0.22400000000000017,0.002655423351426239,0.07663071370565795,0.07667626620841705,6.621856269783252,3.9837836062067504,0.3189106280567091,0.0018736016275980706,0.009637107132916186,0.17286919703405784
1750772612.934723,-2.0796256561948123,-1.27268768319602,-1.3952274465820587,1.5728651386550607,-0.7317786840397389,-2.3017539068823165,-0.002378115118938454,-0.22212688639751887,0.22500000000000017,0.0026672779199593917,0.07697281510612963,0.07701857096827605,6.621728336901826,3.983411549701342,0.3189095320950521,0.00187366818099675,0.009637107132020753,0.17280689750634406
1750772612.9369566,-2.07963042299445,-1.2731329241994214,-1.3947764465820587,1.5728704850654691,-0.7316243963081259,-2.30159952743562,-0.002388684519467069,-0.22311411700373004,0.22600000000000017,0.0026791324884925445,0.07731491650660133,0.07736087572813506,6.621599211635705,3.983037046826188,0.31890844052199424,0.0018737335869658629,0.00963710713112251,0.17274422887142088
1750772612.938703,-2.0796352109328904,-1.273580139664035,-1.3943234465820584,1.5728758551850148,-0.7314694243737119,-2.301444463379404,-0.0023992539199956843,-0.22410134760994124,0.22700000000000017,0.0026909870570256973,0.07765701790707301,0.07770318048799407,6.621468885686227,3.9826600871430613,0.318907353461756,0.0018737978265118938,0.009637107130220295,0.1726811899631599
1750772612.940694,-2.07964002001013,-1.2740293295898608,-1.3938684465820588,1.5728812490136972,-0.7313137682364976,-2.301288714713668,-0.0024098233205243,-0.22508857821615244,0.22800000000000017,0.00270284162555885,0.0779991193075447,0.07804548524785307,6.621337350718074,3.982280660169509,0.3189062710391204,0.0018738608805634893,0.009637107129315682,0.1726177796116104
1750772612.9427283,-2.079644850226172,-1.2744804939768999,-1.3934114465820588,1.5728866665515169,-0.7311574278964823,-2.3011322814384125,-0.0024203927210529152,-0.22607580882236364,0.22900000000000018,0.002714696194092003,0.07834122070801638,0.07838779000771208,6.621204598359337,3.981898755378812,0.3189051933794308,0.001873922729971738,0.009637107128407117,0.17255399664301932
1750772612.9445982,-2.0796497015810145,-1.2749336328251504,-1.3929524465820586,1.5728921077984737,-0.731000403353665,-2.300975163553637,-0.0024309621215815305,-0.22706303942857484,0.23000000000000018,0.002726550762625156,0.07868332210848808,0.07873009476757108,6.621070620201471,3.9815143622000675,0.3189041206085916,0.0018739833555095455,0.009637107127496176,0.17248983987977873
1750772612.9467044,-2.0796545740746577,-1.275388746134614,-1.392491446582059,1.5728975727545675,-0.7308426946080484,-2.3008173610593423,-0.0024415315221101457,-0.22805027003478603,0.23100000000000018,0.002738405331158309,0.07902542350895976,0.07907239952743009,6.620935407799332,3.981127470018192,0.3189030528530687,0.001874042737872604,0.009637107126581305,0.1724253081405556
1750772612.949287,-2.0796594677071027,-1.27584583390529,-1.3920284465820583,1.5729030614197983,-0.7306843016596298,-2.3006588739555274,-0.0024521009226387614,-0.22903750064099723,0.23200000000000018,0.0027502598996914616,0.07936752490943146,0.07941470428728908,6.620798952671183,3.9807380681739697,0.31890199023988897,0.0018741008576786866,0.00963710712566408,0.17236040024019803
1750772612.9508386,-2.0796643824783487,-1.2763048961371783,-1.391563446582059,1.5729085737941662,-0.7305252245084102,-2.300499702242193,-0.0024626703231673767,-0.23002473124720843,0.23300000000000018,0.0027621144682246144,0.07970962630990314,0.0797570090471481,6.620661246298677,3.9803461459640777,0.31890093289664,0.0018741576954685799,0.009637107124742946,0.1722951149898708
1750772612.9528797,-2.0796693183883956,-1.276765932830278,-1.3910964465820586,1.572914109877671,-0.7303654631543903,-2.3003398459193387,-0.002473239723695992,-0.23101196185341963,0.23400000000000018,0.0027739690367577672,0.08005172771037483,0.0800993138070071,6.620522280126892,3.9799516926411296,0.31889988095147154,0.0018742132317053578,0.009637107123819476,0.17222945119696997
1750772612.9547043,-2.0796742754372435,-1.2772289439845919,-1.3906274465820587,1.5729196696703132,-0.7302050175975685,-2.300179304986965,-0.002483809124224607,-0.2319991924596308,0.23500000000000018,0.00278582360529092,0.08039382911084651,0.0804416185668661,6.6203820455643285,3.9795546974137026,0.3188988345330937,0.0018742674467750447,0.009637107122892122,0.1721634076652147
1750772612.9568253,-2.0796792536248923,-1.277693929600117,-1.3901564465820586,1.5729252531720923,-0.7300438878379465,-2.3000180794450715,-0.002494378524753223,-0.232986423065842,0.23600000000000018,0.002797678173824073,0.0807359305113182,0.08078392332672511,6.620240533982901,3.9791551494463526,0.3188977937707778,0.0018743203209867366,0.009637107121962064,0.17209698319467223
1750772612.9587765,-2.079684252951342,-1.2781608896768546,-1.3896834465820582,1.5729308603830086,-0.7298820738755234,-2.299856169293658,-0.002504947925281838,-0.2339736536720532,0.23700000000000018,0.0028095327423572256,0.08107803191178989,0.08112622808658411,6.620097736717985,3.9787530378597027,0.31889675879435736,0.0018743718345721366,0.009637107121029316,0.17203017658170353
1750772612.96075,-2.0796892734165944,-1.2786298242148053,-1.3892084465820584,1.572936491303062,-0.7297195757102992,-2.299693574532725,-0.0025155173258104534,-0.2349608842782644,0.23800000000000018,0.002821387310890379,0.08142013331226157,0.08146853284644312,6.619953645068378,3.978348351730413,0.3188957297342255,0.0018744219676865223,0.009637107120092712,0.17196298661909742
1750772612.9627318,-2.079694315020646,-1.2791007332139683,-1.3887314465820584,1.5729421459322521,-0.7295563933422748,-2.2995302951622723,-0.0025260867263390686,-0.2359481148844756,0.23900000000000018,0.0028332418794235316,0.08176223471273326,0.08181083760630212,6.6198082502963285,3.9779410800912705,0.3188947067213383,0.0018744707004078728,0.00963710711915383,0.17189541209597542
1750772612.9646614,-2.0796993777634984,-1.2795736166743428,-1.388252446582059,1.5729478242705794,-0.7293925267714485,-2.2993663311823,-0.002536656126867684,-0.2369353454906868,0.24000000000000019,0.0028450964479566844,0.08210433611320495,0.08215314236616113,6.619661543627563,3.9775312119311867,0.31889368988721223,0.0018745180127380631,0.009637107118211115,0.1718274517979284
1750772612.966661,-2.0797044616451537,-1.2800484745959313,-1.3877714465820592,1.5729535263180439,-0.729227975997822,-2.2992016825928077,-0.0025472255273962996,-0.237922576096898,0.2410000000000002,0.002856951016489837,0.08244643751367664,0.08249544712602014,6.6195135162512635,3.977118736195235,0.3188926793639241,0.0018745638846019454,0.009637107117266145,0.1717591045069349
1750772612.96864,-2.079709566665608,-1.2805253069787312,-1.3872884465820583,1.5729592520746454,-0.7290627410213943,-2.2990363493937958,-0.002557794927924915,-0.23890980670310918,0.2420000000000002,0.00286880558502299,0.08278853891414832,0.08283775188587914,6.619364159320077,3.9767036417847237,0.31889167528411394,0.0018746082958481095,0.009637107116317366,0.17169036900145138
1750772612.9707634,-2.079714692824865,-1.2810041138227435,-1.386803446582059,1.572965001540384,-0.7288968218421648,-2.298870331585264,-0.00256836432845353,-0.23989703730932038,0.2430000000000002,0.002880660153556143,0.08313064031462002,0.08318005664573815,6.619213463950165,3.9762859175571927,0.3188906777809813,0.0018746512262489844,0.009637107115366353,0.17162124405643894
1750772612.972749,-2.079714692824865,-1.2810041138227435,-1.386803446582059,1.572965001540384,-0.7288968218421648,-2.298870331585264,-0.00256836432845353,-0.23989703730932038,0.2430000000000002,0.002880660153556143,0.08313064031462002,0.08318005664573815,6.619213463950165,3.9762859175571927,0.3188906777809813,0.0018746512262489844,0.009637107115366353,0.17162124405643894
1750772612.9782908,-2.079719840122923,-1.281484895127968,-1.3863164465820592,1.5729707747152597,-0.7287302184601359,-2.2987036291672127,-0.0025789337289821453,-0.24088426791553158,0.2440000000000002,0.0028925147220892956,0.0834727417150917,0.08352236140559714,6.6190614212211525,3.9758655523264608,0.3188896869882875,0.0018746926555003817,0.009637107114411554,0.1715517284433124
1750772612.9802365,-2.079719840122923,-1.281484895127968,-1.3863164465820592,1.5729707747152597,-0.7287302184601359,-2.2987036291672127,-0.0025789337289821453,-0.24088426791553158,0.2440000000000002,0.0028925147220892956,0.0834727417150917,0.08352236140559714,6.6190614212211525,3.9758655523264608,0.3188896869882875,0.0018746926555003817,0.009637107114411554,0.1715517284433124
1750772612.9809506,-2.079719840122923,-1.281484895127968,-1.3863164465820592,1.5729707747152597,-0.7287302184601359,-2.2987036291672127,-0.0025789337289821453,-0.24088426791553158,0.2440000000000002,0.0028925147220892956,0.0834727417150917,0.08352236140559714,6.6190614212211525,3.9758655523264608,0.3188896869882875,0.0018746926555003817,0.009637107114411554,0.1715517284433124
